; GCode generated by CraftWare

; filename = composition.3w 
; machine = daVinciF10 
; material = abs 
; extruder = 1 
M140 S90 ; Bed (no wait) 
M106 S255 ; Start fan 
G90 ; set absolute coordinates 
G28 ; home all axis 
M190 S90 ; Bed (wait) 
M104 S210 ; Extruder (no wait) 
M109 S210 ; Extruder (wait) 
M117 Start 
M117 Cleaning 
M100 ; Cleaning 
M117 Printing 
M109 S220 ;set head temp (wait)
M190 S75 ;set bed temp (wait)
; ------------------------------------
; Layer #0
; ------------------------------------
G21 ; mm
G90 ; abs
G92 E0 ; reset extr
M106 S0
;segType:SoftSupport
G1 F4800 E-1.0000
G1 F300 Z0.300
G1 X116.353 Y109.000 F10800
G1 F4800 E0.0000
G1 X124.303 Y109.000 E0.1785 F900
;segType:Support
G1 F4800 E-0.8215
G1 X108.400 Y110.800 F10800
G1 F4800 E0.1785
G1 X110.160 Y110.800 E0.2531 F900
;segType:SoftSupport
G1 F4800 E-0.7469
G1 X125.161 Y110.800 F10800
G1 F4800 E0.2531
G1 X110.160 Y110.800 E0.5899 F900
G1 F4800 E-0.4101
G1 X99.579 Y112.600 F10800
G1 F4800 E0.5899
G1 X90.400 Y112.600 E0.7960 F900
;segType:Support
G1 F4800 E-0.2040
G1 X99.400 Y109.000 F10800
G1 F4800 E0.7960
G1 X94.964 Y109.000 E0.9841 F900
G1 X94.964 Y109.000
;segType:SoftSupport
G1 X89.120 Y109.000 E1.1153 F900
G1 F4800 E0.1153
G1 X114.087 Y104.134 F10800
G1 X133.739 Y92.752
G1 F4800 E1.1153
;segType:Support
G1 X115.350 Y92.682 E1.8951 F900
;segType:SoftSupport
G1 F4800 E0.8951
G1 X125.180 Y119.800 F10800
G1 F4800 E1.8951
G1 X112.428 Y119.800 E2.1814 F900
;segType:Support
G1 F4800 E1.1814
G1 X131.800 Y110.800 F10800
G1 F4800 E2.1814
G1 X125.161 Y110.800 E2.4629 F900
G1 X125.165 Y112.600 E2.5393
G1 X135.400 Y112.600 E2.9733
G1 X143.535 Y112.682 E3.3183
G1 F4800 E2.3183
G1 X125.173 Y116.200 F10800
G1 F4800 E3.3183
G1 X135.400 Y116.200 E3.7520 F900
G1 X143.518 Y116.285 E4.0963
;segType:SoftSupport
G1 F4800 E3.0963
G1 X133.622 Y94.662 F10800
G1 F4800 E4.0963
G1 X152.544 Y94.631 E4.5211 F900
;segType:Support
G1 F4800 E3.5211
G1 X153.544 Y100.000 F10800
G1 F4800 E4.5211
G1 X158.986 Y100.000 E4.7519 F900
G1 F4800 E3.7519
G1 X149.800 Y103.600 F10800
G1 F4800 E4.7519
G1 X120.954 Y103.554 E5.9751 F900
G1 X114.773 Y103.499 E6.2372
G1 F4800 E5.2372
G1 X116.353 Y109.000 F10800
G1 F4800 E6.2372
G1 X108.400 Y109.000 E6.5745 F900
;segType:SoftSupport
G1 F4800 E5.5745
G1 X97.600 Y116.200 F10800
G1 F4800 E6.5745
G1 X99.735 Y116.200 E6.6224 F900
G1 F4800 E5.6224
G1 X125.173 Y116.200 F10800
G1 F4800 E6.6224
G1 X104.855 Y116.200 E7.0786 F900
;segType:Support
G1 F4800 E6.0786
G1 X97.600 Y118.000 F10800
G1 F4800 E7.0786
G1 X104.658 Y118.000 E7.3779 F900
G1 F4800 E6.3779
G1 X114.087 Y104.134 F10800
G1 X115.037 Y98.301
G1 F4800 E7.3779
G1 X126.400 Y98.200 E7.8598 F900
G1 X133.406 Y98.200 E8.1569
G1 F4800 E7.1569
G1 X125.184 Y121.600 F10800
G1 F4800 E8.1569
G1 X135.400 Y121.600 E8.5901 F900
G1 X143.494 Y121.515 E8.9334
G1 F4800 E7.9334
G1 X112.000 Y119.800 F10800
G1 F4800 E8.9334
G1 X112.428 Y119.800 E8.9516 F900
G1 F4800 E7.9516
G1 X131.800 Y109.000 F10800
G1 F4800 E8.9516
G1 X124.303 Y109.000 E9.2695 F900
;segType:SoftSupport
G1 F4800 E8.2695
G1 X149.800 Y101.800 F10800
G1 F4800 E9.2695
G1 X133.210 Y101.827 E9.6419 F900
;segType:Support
G1 F4800 E8.6419
G1 X115.237 Y94.706 F10800
G1 F4800 E9.6419
G1 X117.312 Y94.688 E9.7299 F900
G1 X133.622 Y94.662 E10.4216
G1 F4800 E9.4216
G1 X133.843 Y91.047 F10800
G1 F4800 E10.4216
G1 X112.130 Y91.130 E11.3423 F900
G1 F4800 E10.3423
G1 X105.612 Y93.324 F10800
G1 X92.200 Y107.200
G1 F4800 E11.3423
;segType:SoftSupport
G1 X89.070 Y107.184 E11.4126 F900
G1 X89.070 Y107.184
;segType:Support
G1 X83.245 Y107.155 E11.6596 F900
G1 F4800 E10.6596
G1 X79.691 Y103.509 F10800
G1 F4800 E11.6596
G1 X80.179 Y103.514 E11.6803 F900
G1 F4800 E10.6803
G1 X80.946 Y103.322 F10800
G1 X81.714 Y101.871
G1 F4800 E11.6803
G1 X88.600 Y101.800 E11.9723 F900
G1 F4800 E10.9723
G1 X80.946 Y103.322 F10800
G1 X80.401 Y102.864
G1 X77.240 Y99.817
G1 F4800 E11.9723
G1 X76.194 Y99.806 E12.0167 F900
G1 X77.020 Y98.385 E12.0864
G1 X76.194 Y98.394 E12.1214
G1 X77.027 Y96.215 E12.2204
G1 X76.193 Y96.207 E12.2557
G1 F4800 E11.2557
G1 X77.020 Y92.616 F10800
G1 F4800 E12.2557
G1 X76.193 Y92.607 E12.2908 F900
G1 F4800 E11.2908
G1 X77.688 Y87.218 F10800
G1 X79.073 Y87.599
G1 X80.453 Y88.555
G1 X84.955 Y92.755
G1 F4800 E12.2908
G1 X81.707 Y92.670 E12.4286 F900
G1 X81.743 Y94.724 E12.5157
G1 X84.998 Y94.602 E12.6538
G1 F4800 E11.6538
G1 X84.955 Y91.045 F10800
G1 F4800 E12.6538
G1 X81.701 Y91.130 E12.7919 F900
G1 F4800 E11.7919
G1 X81.068 Y89.236 F10800
G1 X79.761 Y88.035
G1 X78.504 Y87.367
G1 X77.007 Y89.016
G1 F4800 E12.7919
G1 X76.192 Y89.008 E12.8264 F900
G1 X76.192 Y87.592 E12.8864
G1 X77.012 Y87.584 E12.9212
;segType:Loop
G1 F4800 E11.9212
G1 X78.685 Y88.052 F10800
G1 F4800 E12.9212
G1 X78.797 Y88.097 E12.9272 F600
G1 X79.150 Y88.295 E12.9474
G1 X79.419 Y88.494 E12.9641
G1 X79.578 Y88.584 E12.9732
G1 X80.027 Y88.950 E13.0021
G1 X80.483 Y89.443 E13.0356
G1 X80.504 Y90.915 E13.1091
G1 X80.491 Y91.776 E13.1520
G1 X80.570 Y96.283 E13.3769
G1 X80.615 Y97.421 E13.4337
G1 X80.508 Y101.568 E13.6407
G1 X80.518 Y102.074 E13.6659
G1 X78.974 Y100.151 E13.7889
G1 X78.216 Y99.166 E13.8509
G1 X78.230 Y96.361 E13.9909
G1 X78.220 Y95.853 E14.0162
G1 X78.223 Y94.431 E14.0872
G1 X78.213 Y93.831 E14.1171
G1 X78.223 Y92.257 E14.1957
G1 X78.203 Y90.159 E14.3003
G1 X78.211 Y87.864 E14.4148
G1 X78.502 Y87.979 E14.4304
G1 F4800 E13.4304
G1 X78.108 Y88.007 F10800
G1 F4800 E14.4304
;segType:Perimeter
G1 X77.871 Y87.375 E14.4641 F359
G1 X78.007 Y87.403 E14.4710
G1 X78.431 Y87.540 E14.4933
G1 X78.981 Y87.764 E14.5229
G1 X79.379 Y87.988 E14.5457
G1 X79.647 Y88.187 E14.5624
G1 X79.815 Y88.282 E14.5720
G1 X80.311 Y88.687 E14.6039
G1 X80.881 Y89.302 E14.6458
G1 X80.904 Y90.915 E14.7263
G1 X80.891 Y91.775 E14.7692
G1 X80.970 Y96.273 E14.9936
G1 X81.015 Y97.418 E15.0508
G1 X80.908 Y101.569 E15.2579
G1 X80.919 Y102.104 E15.2846
G1 X80.884 Y103.145 E15.3366
G1 X80.560 Y102.752 E15.3620
G1 X79.949 Y101.985 E15.4109
G1 X78.652 Y100.372 E15.5142
G1 X77.816 Y99.285 E15.5826
G1 X77.830 Y96.364 E15.7283
G1 X77.820 Y95.856 E15.7537
G1 X77.823 Y94.433 E15.8247
G1 X77.813 Y93.833 E15.8546
G1 X77.823 Y92.257 E15.9332
G1 X77.803 Y90.160 E16.0379
G1 X77.813 Y87.419 E16.1746
G1 X78.422 Y87.773
G1 F4800 E15.1746
G1 X80.073 Y101.208 F10800
G1 F4800 E16.1746
;segType:HShell
G1 X80.323 Y100.975 E16.1917 F600
G1 X80.337 Y100.436
G1 X79.832 Y100.907 E16.2262
G1 X79.590 Y100.607
G1 X80.351 Y99.897 E16.2781
G1 X80.365 Y99.358
G1 X79.349 Y100.306 E16.3475
G1 X79.108 Y100.005
G1 X80.379 Y98.819 E16.4342
G1 X80.393 Y98.280
G1 X78.872 Y99.698 E16.5380
G1 X78.636 Y99.392
G1 X80.407 Y97.740 E16.6588
G1 X80.407 Y97.214
G1 X78.417 Y99.071 E16.7946
G1 X78.419 Y98.542
G1 X80.387 Y96.707 E16.9288
G1 X80.369 Y96.198
G1 X78.422 Y98.014 E17.0616
G1 X78.425 Y97.485
G1 X80.360 Y95.680 E17.1936
G1 X80.351 Y95.162
G1 X78.427 Y96.956 E17.3249
G1 X78.430 Y96.428
G1 X80.341 Y94.645 E17.4553
G1 X80.332 Y94.127
G1 X78.421 Y95.910 E17.5857
G1 X78.421 Y95.384
G1 X80.323 Y93.609 E17.7155
G1 X80.314 Y93.092
G1 X78.422 Y94.857 E17.8446
G1 X78.421 Y94.332
G1 X80.305 Y92.574 E17.9731
G1 X80.296 Y92.057
G1 X78.413 Y93.813 E18.1016
G1 X78.416 Y93.284
G1 X80.295 Y91.532 E18.2298
G1 X80.303 Y90.998
G1 X78.419 Y92.755 E18.3583
G1 X78.422 Y92.226
G1 X80.298 Y90.476 E18.4862
G1 X80.291 Y89.957
G1 X78.417 Y91.704 E18.6140
G1 X78.413 Y91.183
G1 X80.246 Y89.472 E18.7391
G1 X79.985 Y89.190
G1 X78.408 Y90.661 E18.8467
G1 X78.403 Y90.139
G1 X79.699 Y88.931 E18.9351
G1 X79.388 Y88.695
G1 X78.405 Y89.611 E19.0022
G1 X78.407 Y89.084
G1 X79.065 Y88.470 E19.0470
G1 X78.716 Y88.269
G1 X78.409 Y88.556 E19.0680
;segType:Support
G1 F4800 E18.0680
G1 X80.077 Y87.553 F10800
G1 F4800 E19.0680
G1 X81.259 Y87.541 E19.1181 F900
G1 F4800 E18.1181
G1 X77.688 Y87.218 F10800
G1 X77.013 Y91.184
G1 F4800 E19.1181
G1 X76.193 Y91.193 E19.1529 F900
G1 F4800 E18.1529
G1 X77.022 Y94.785 F10800
G1 F4800 E19.1529
G1 X76.193 Y94.793 E19.1881 F900
G1 F4800 E18.1881
G1 X77.626 Y99.342 F10800
G1 X80.401 Y102.864
G1 X80.946 Y103.322
G1 X88.600 Y98.200
G1 F4800 E19.1881
G1 X81.792 Y98.332 E19.4768 F900
G1 F4800 E18.4768
G1 X84.998 Y96.398 F10800
G1 F4800 E19.4768
G1 X81.771 Y96.277 E19.6138 F900
G1 F4800 E18.6138
G1 X81.752 Y99.867 F10800
G1 F4800 E19.6138
G1 X88.600 Y100.000 E19.9042 F900
G1 F4800 E18.9042
G1 X81.672 Y103.529 F10800
G1 F4800 E19.9042
G1 X88.600 Y103.600 E20.1980 F900
G1 F4800 E19.1980
G1 X83.245 Y105.445 F10800
G1 F4800 E20.1980
G1 X89.152 Y105.415 E20.4485 F900
G1 F4800 E19.4485
G1 X92.200 Y105.400 F10800
G1 F4800 E20.4485
G1 X91.566 Y105.403 E20.4754 F900
G1 F4800 E19.4754
G1 X89.120 Y109.000 F10800
G1 F4800 E20.4754
G1 X86.800 Y109.000 E20.5738 F900
;segType:SoftSupport
G1 F4800 E19.5738
G1 X89.152 Y105.415 F10800
G1 F4800 E20.5738
G1 X91.566 Y105.403 E20.6280 F900
;segType:Support
G1 F4800 E19.6280
G1 X104.855 Y116.200 F10800
G1 F4800 E20.6280
G1 X99.735 Y116.200 E20.8451 F900
G1 F4800 E19.8451
G1 X92.552 Y114.400 F10800
G1 F4800 E20.8451
G1 X90.400 Y114.400 E20.9363 F900
G1 F4800 E19.9363
G1 X89.058 Y110.800 F10800
G1 F4800 E20.9363
G1 X86.800 Y110.800 E21.0321 F900
G1 F4800 E20.0321
G1 X99.579 Y112.600 F10800
G1 F4800 E21.0321
G1 X105.243 Y112.600 E21.2723 F900
G1 X105.243 Y112.600
;segType:SoftSupport
G1 X125.165 Y112.600 E21.7195 F900
G1 F4800 E20.7195
G1 X133.302 Y100.000 F10800
G1 F4800 E21.7195
G1 X153.544 Y100.000 E22.1740 F900
;segType:Support
G1 F4800 E21.1740
G1 X149.656 Y112.744 F10800
G1 F4800 E22.1740
G1 X143.730 Y112.684 E22.4253 F900
G1 F4800 E21.4253
G1 X166.000 Y91.000 F10800
G1 F4800 E22.4253
G1 X166.925 Y91.002 E22.4645 F900
G1 F4800 E21.4645
G1 X170.151 Y89.200 F10800
G1 F4800 E22.4645
G1 X175.000 Y89.200 E22.6701 F900
G1 X177.599 Y89.142 E22.7804
G1 F4800 E21.7804
G1 X177.880 Y83.853 F10800
G1 F4800 E22.7804
G1 X169.600 Y83.800 E23.1315 F900
G1 F4800 E22.1315
G1 X173.209 Y80.209 F10800
G1 F4800 E23.1315
G1 X178.064 Y80.285 E23.3374 F900
G1 X178.224 Y78.293 E23.4222
G1 X176.894 Y78.306 E23.4786
G1 X178.337 Y76.708 E23.5698
G1 X176.894 Y76.694 E23.6310
G1 F4800 E22.6310
G1 X180.536 Y73.136 F10800
G1 F4800 E23.6310
G1 X181.490 Y73.136 E23.6714 F900
;segType:Loop
G1 F4800 E22.6714
G1 X181.964 Y74.728 F10800
G1 F4800 E23.6714
G1 X181.964 Y74.732 E23.6716 F600
G1 X181.863 Y75.923 E23.7313
G1 X181.488 Y82.420 E24.0559
G1 X181.303 Y85.491 E24.2094
G1 X180.342 Y86.565 E24.2813
G1 X178.851 Y88.145 E24.3897
G1 X178.911 Y86.976 E24.4481
G1 X178.967 Y86.333 E24.4803
G1 X179.003 Y84.905 E24.5515
G1 X179.108 Y83.522 E24.6207
G1 X179.184 Y81.323 E24.7305
G1 X179.493 Y77.466 E24.9235
G1 X179.614 Y75.483 E25.0227
G1 X180.158 Y75.015 E25.0585
G1 X180.552 Y74.752 E25.0821
G1 X180.766 Y74.659 E25.0937
G1 X181.259 Y74.392 E25.1217
G1 X181.991 Y74.155 E25.1601
G1 X181.973 Y74.543 E25.1794
G1 F4800 E24.1794
G1 X181.772 Y74.089 F10800
G1 F4800 E25.1794
;segType:Perimeter
G1 X182.408 Y73.778 E25.2147 F359
G1 X182.363 Y74.755 E25.2635
G1 X182.262 Y75.948 E25.3233
G1 X181.888 Y82.441 E25.6477
G1 X181.761 Y84.521 E25.7517
G1 X181.722 Y85.085 E25.7799
G1 X181.697 Y85.633 E25.8073
G1 X180.646 Y86.808 E25.8859
G1 X179.596 Y87.925 E25.9624
G1 X178.883 Y88.673 E26.0140
G1 X178.399 Y89.162 E26.0483
G1 X178.512 Y86.951 E26.1587
G1 X178.567 Y86.314 E26.1907
G1 X178.603 Y84.887 E26.2619
G1 X178.709 Y83.503 E26.3311
G1 X178.785 Y81.303 E26.4410
G1 X179.094 Y77.442 E26.6342
G1 X179.223 Y75.319 E26.7403
G1 X179.543 Y75.023 E26.7620
G1 X179.909 Y74.722 E26.7857
G1 X180.349 Y74.429 E26.8120
G1 X180.580 Y74.328 E26.8246
G1 X181.094 Y74.049 E26.8538
G1 X181.645 Y73.881 E26.8825
G1 X181.900 Y73.787 E26.8961
G1 X182.351 Y73.730 E26.9188
G1 X182.078 Y74.349
;segType:HShell
G1 X179.098 Y87.233 F10800
G1 X181.111 Y85.355 E27.0561 F600
G1 X181.145 Y84.798
G1 X179.139 Y86.669 E27.1930
G1 X179.173 Y86.111
G1 X181.178 Y84.240 E27.3298
G1 X181.212 Y83.683
G1 X179.186 Y85.572 E27.4680
G1 X179.200 Y85.033
G1 X181.246 Y83.125 E27.6076
G1 X181.279 Y82.568
G1 X179.236 Y84.473 E27.7469
G1 X179.280 Y83.907
G1 X181.312 Y82.011 E27.8856
G1 X181.344 Y81.455
G1 X179.315 Y83.348 E28.0240
G1 X179.333 Y82.804
G1 X181.376 Y80.899 E28.1634
G1 X181.408 Y80.343
G1 X179.352 Y82.261 E28.3036
G1 X179.371 Y81.717
G1 X181.440 Y79.787 E28.4448
G1 X181.472 Y79.231
G1 X179.397 Y81.166 E28.5863
G1 X179.443 Y80.598
G1 X181.504 Y78.675 E28.7270
G1 X181.536 Y78.119
G1 X179.488 Y80.029 E28.8666
G1 X179.534 Y79.460
G1 X181.568 Y77.563 E29.0054
G1 X181.600 Y77.007
G1 X179.580 Y78.892 E29.1433
G1 X179.625 Y78.323
G1 X181.632 Y76.451 E29.2802
G1 X181.665 Y75.895
G1 X179.671 Y77.754 E29.4162
G1 X179.710 Y77.191
G1 X181.713 Y75.323 E29.5529
G1 X181.762 Y74.752
G1 X179.744 Y76.634 E29.6905
G1 X179.778 Y76.076
G1 X181.433 Y74.533 E29.8033
;segType:Support
G1 F4800 E28.8033
G1 X177.787 Y85.548 F10800
G1 F4800 E29.8033
G1 X169.600 Y85.600 E30.1505 F900
G1 F4800 E29.1505
G1 X174.978 Y91.022 F10800
G1 F4800 E30.1505
G1 X170.081 Y91.010 E30.3582 F900
;segType:SoftSupport
G1 F4800 E29.3582
G1 X169.758 Y96.397 F10800
G1 F4800 E30.3582
G1 X159.289 Y96.380 E30.5932 F900
G1 X159.289 Y96.380
;segType:Support
G1 X153.518 Y96.371 E30.8379 F900
G1 X153.518 Y96.371
;segType:SoftSupport
G1 X133.520 Y96.338 E31.2869 F900
G1 X133.520 Y96.338
;segType:Support
G1 X117.312 Y96.312 E31.9743 F900
G1 X115.149 Y96.293 E32.0660
;segType:HShell
G1 F4800 E31.0660
G1 X113.758 Y96.094 F10800
G1 F4800 E32.0660
G1 X105.949 Y103.378 E32.5987 F600
;segType:Perimeter
G1 X105.804 Y103.623 F10800
G1 X105.130 Y103.854 E32.6343 F359
G1 X105.477 Y97.980 E32.9278
G1 X105.757 Y93.452 E33.1542
G1 X108.279 Y93.188 E33.2807
G1 X111.520 Y92.871 E33.4432
G1 X114.556 Y92.558 E33.5954
G1 X114.113 Y100.505 E33.9926
G1 X113.949 Y104.000 E34.1671
G1 X110.083 Y104.000 E34.3600
G1 X107.913 Y104.005 E34.4682
G1 X105.186 Y103.912 E34.6044
G1 X105.494 Y103.307
;segType:Loop
G1 X105.586 Y102.909 F10800
G1 X105.876 Y98.001 E34.8496 F600
G1 X106.137 Y93.787 E35.0603
G1 X108.322 Y93.558 E35.1699
G1 X111.562 Y93.242 E35.3323
G1 X114.132 Y92.977 E35.4612
G1 X113.713 Y100.487 E35.8365
G1 X113.566 Y103.627 E35.9933
G1 X110.083 Y103.627 E36.1671
G1 X107.920 Y103.632 E36.2750
G1 X105.548 Y103.551 E36.3934
G1 X105.575 Y103.094 E36.4162
;segType:HShell
G1 X105.780 Y103.009 F10800
G1 X113.789 Y95.539 E36.9626 F600
G1 X113.820 Y94.984
G1 X105.813 Y102.453 E37.5088
G1 X105.846 Y101.896
G1 X113.851 Y94.429 E38.0550
G1 X113.882 Y93.874
G1 X105.879 Y101.339 E38.6009
G1 X105.912 Y100.782
G1 X113.913 Y93.319 E39.1468
G1 X113.437 Y93.237
G1 X105.945 Y100.225 E39.6579
G1 X105.978 Y99.668
G1 X112.803 Y93.302 E40.1236
G1 X112.169 Y93.367
G1 X106.011 Y99.111 E40.5437
G1 X106.044 Y98.555
G1 X111.535 Y93.433 E40.9183
G1 X110.905 Y93.494
G1 X106.077 Y97.998 E41.2477
G1 X106.111 Y97.439
G1 X110.275 Y93.556 E41.5318
G1 X109.645 Y93.617
G1 X106.146 Y96.881 E41.7705
G1 X106.180 Y96.323
G1 X109.015 Y93.679 E41.9639
G1 X108.385 Y93.740
G1 X106.215 Y95.765 E42.1120
G1 X106.249 Y95.206
G1 X107.750 Y93.806 E42.2144
G1 X107.115 Y93.873
G1 X106.284 Y94.648 E42.2711
G1 X106.318 Y94.090
G1 X106.480 Y93.939 E42.2821
G1 X113.727 Y96.649 F10800
G1 X106.494 Y103.396 E42.7757 F600
G1 X107.038 Y103.415
G1 X113.696 Y97.204 E43.2299
G1 X113.665 Y97.759
G1 X107.582 Y103.433 E43.6450
G1 X108.134 Y103.445
G1 X113.634 Y98.314 E44.0202
G1 X113.603 Y98.869
G1 X108.699 Y103.443 E44.3548
G1 X109.265 Y103.442
G1 X113.572 Y99.424 E44.6487
G1 X113.541 Y99.979
G1 X109.830 Y103.441 E44.9019
G1 X110.394 Y103.441
G1 X113.511 Y100.533 E45.1146
G1 X113.485 Y101.084
G1 X110.959 Y103.441 E45.2870
G1 X111.523 Y103.440
G1 X113.459 Y101.634 E45.4191
G1 X113.434 Y102.184
G1 X112.087 Y103.440 E45.5110
G1 X112.651 Y103.440
G1 X113.408 Y102.734 E45.5627
G1 X113.382 Y103.284
G1 X113.215 Y103.440 E45.5741
;segType:Support
G1 F4800 E44.5741
G1 X114.948 Y99.899 F10800
G1 F4800 E45.5741
G1 X126.400 Y100.000 E46.0597 F900
G1 X133.302 Y100.000 E46.3524
G1 F4800 E45.3524
G1 X130.000 Y123.400 F10800
G1 F4800 E46.3524
G1 X142.535 Y123.465 E46.8840 F900
G1 X143.486 Y123.475 E46.9243
G1 X143.481 Y125.125 E46.9943
G1 X142.535 Y125.135 E47.0344
G1 X130.000 Y125.200 E47.5659
G1 F4800 E46.5659
G1 X121.022 Y121.600 F10800
G1 F4800 E47.5659
G1 X112.000 Y121.600 E47.9486 F900
G1 F4800 E46.9486
G1 X143.511 Y117.915 F10800
G1 F4800 E47.9486
G1 X135.400 Y118.000 E48.2925 F900
G1 X125.176 Y118.000 E48.7261
;segType:SoftSupport
G1 F4800 E47.7261
G1 X121.022 Y121.600 F10800
G1 F4800 E48.7261
G1 X125.184 Y121.600 E48.8195 F900
;segType:Support
G1 F4800 E47.8195
G1 X143.527 Y114.318 F10800
G1 F4800 E48.8195
G1 X135.400 Y114.400 E49.1642 F900
G1 X125.169 Y114.400 E49.5980
;segType:SoftSupport
G1 F4800 E48.5980
G1 X167.511 Y98.200 F10800
G1 F4800 E49.5980
G1 X159.139 Y98.200 E49.7860 F900
G1 X159.139 Y98.200
;segType:Support
G1 X153.531 Y98.200 E50.0238 F900
G1 X153.531 Y98.200
;segType:SoftSupport
G1 X133.406 Y98.200 E50.4756 F900
G1 F4800 E49.4756
G1 X133.739 Y92.752 F10800
G1 F4800 E50.4756
G1 X146.200 Y92.800 E50.7554 F900
G1 F4800 E49.7554
G1 X166.000 Y92.800 F10800
G1 F4800 E50.7554
G1 X169.995 Y92.790 E50.8451 F900
G1 F4800 E49.8451
G1 X158.986 Y100.000 F10800
G1 F4800 E50.8451
G1 X163.555 Y100.000 E50.9477 F900
G1 X163.555 Y100.000
;segType:Support
G1 X167.800 Y100.000 E51.1277 F900
G1 X167.511 Y98.200 E51.2050
G1 X167.800 Y98.200 E51.2172
G1 F4800 E50.2172
G1 X169.758 Y96.397 F10800
G1 F4800 E51.2172
G1 X171.400 Y96.400 E51.2869 F900
G1 X169.867 Y94.603 E51.3871
G1 X171.400 Y94.600 E51.4521
G1 X169.995 Y92.790 E51.5492
G1 X174.978 Y92.778 E51.7605
G1 F4800 E50.7605
G1 X179.548 Y89.099 F10800
G1 F4800 E51.7605
G1 X182.043 Y89.043 E51.8663 F900
G1 X182.043 Y87.557 E51.9293
G1 X181.027 Y87.534 E51.9724
G1 F4800 E50.9724
G1 X178.322 Y89.334 F10800
G1 X177.685 Y87.460
G1 F4800 E51.9724
G1 X175.000 Y87.400 E52.0863 F900
G1 X170.323 Y87.400 E52.2847
G1 X169.933 Y87.400 E52.3012
G1 X169.600 Y87.400 E52.3153
G1 X170.323 Y87.400 E52.3460
;segType:SoftSupport
G1 X169.933 Y87.400 E52.3547 F900
;segType:Support
G1 F4800 E51.3547
G1 X173.209 Y81.991 F10800
G1 F4800 E52.3547
G1 X177.963 Y81.917 E52.5563 F900
;segType:SoftSupport
G1 F4800 E51.5563
G1 X170.151 Y89.200 F10800
G1 F4800 E52.5563
G1 X169.600 Y89.200 E52.5687 F900
G1 F4800 E51.5687
G1 X166.925 Y91.002 F10800
G1 F4800 E52.5687
G1 X170.081 Y91.010 E52.6396 F900
G1 F4800 E51.6396
G1 X169.867 Y94.603 F10800
G1 F4800 E52.6396
G1 X160.479 Y94.618 E52.8503 F900
G1 X160.479 Y94.618
;segType:Support
G1 X152.544 Y94.631 E53.1868 F900
G1 F4800 E52.1868
G1 X146.200 Y91.000 F10800
G1 F4800 E53.1868
G1 X142.628 Y91.014 E53.3383 F900
G1 F4800 E52.3383
G1 X147.736 Y115.363 F10800
G1 X149.779 Y125.103
G1 F4800 E53.3383
;segType:HShell
G1 X152.457 Y122.606 E53.5210 F600
G1 X152.457 Y123.131
G1 X150.283 Y125.159 E53.6693
G1 X150.804 Y125.199
G1 X152.457 Y123.657 E53.7821
G1 X152.458 Y124.183
G1 X151.327 Y125.237 E53.8592
G1 X151.851 Y125.275
G1 X152.458 Y124.708 E53.9006
G1 X152.459 Y125.234
G1 X152.374 Y125.313 E53.9064
;segType:Perimeter
G1 X152.738 Y125.296 F10800
G1 X153.000 Y125.920 E53.9401 F359
G1 X150.300 Y125.724 E54.0752
G1 X148.503 Y125.527 E54.1654
G1 X144.281 Y125.049 E54.3774
G1 X144.286 Y123.355 E54.4619
G1 X144.331 Y113.579 E54.9496
G1 X148.376 Y114.445 E55.1561
G1 X153.025 Y115.422 E55.3931
G1 X153.053 Y118.974 E55.5703
G1 X153.059 Y125.868 E55.9142
G1 X152.413 Y125.577
;segType:Loop
G1 X151.997 Y125.473 F10800
G1 X150.339 Y125.353 E55.9972 F600
G1 X148.551 Y125.156 E56.0869
G1 X144.682 Y124.718 E56.2811
G1 X144.686 Y123.356 E56.3491
G1 X144.728 Y114.047 E56.8136
G1 X148.288 Y114.809 E56.9952
G1 X152.628 Y115.721 E57.2164
G1 X152.653 Y118.976 E57.3788
G1 X152.659 Y125.521 E57.7053
G1 X152.196 Y125.487 E57.7285
;segType:HShell
G1 X149.274 Y125.048 F10800
G1 X152.456 Y122.080 E57.9456 F600
G1 X152.456 Y121.554
G1 X148.770 Y124.992 E58.1970
G1 X148.266 Y124.936
G1 X152.455 Y121.029 E58.4828
G1 X152.455 Y120.503
G1 X147.763 Y124.879 E58.8029
G1 X147.260 Y124.822
G1 X152.454 Y119.977 E59.1573
G1 X152.454 Y119.451
G1 X146.757 Y124.765 E59.5460
G1 X146.254 Y124.708
G1 X152.453 Y118.926 E59.9689
G1 X152.449 Y118.404
G1 X145.751 Y124.651 E60.4259
G1 X145.248 Y124.595
G1 X152.445 Y117.882 E60.9169
G1 X152.441 Y117.359
G1 X144.883 Y124.409 E61.4325
G1 X144.884 Y123.881
G1 X152.436 Y116.837 E61.9477
G1 X152.432 Y116.315
G1 X144.886 Y123.354 E62.4626
G1 X144.889 Y122.825
G1 X152.360 Y115.856 E62.9723
G1 X151.900 Y115.759
G1 X144.891 Y122.297 E63.4505
G1 X144.893 Y121.769
G1 X151.439 Y115.663 E63.8971
G1 X150.979 Y115.566
G1 X144.896 Y121.240 E64.3121
G1 X144.898 Y120.712
G1 X150.519 Y115.469 E64.6956
G1 X150.058 Y115.372
G1 X144.901 Y120.183 E65.0475
G1 X144.903 Y119.655
G1 X149.598 Y115.276 E65.3678
G1 X149.138 Y115.179
G1 X144.905 Y119.127 E65.6565
G1 X144.908 Y118.598
G1 X148.677 Y115.082 E65.9137
G1 X148.217 Y114.985
G1 X144.910 Y118.070 E66.1393
G1 X144.913 Y117.542
G1 X147.758 Y114.887 E66.3335
G1 X147.300 Y114.789
G1 X144.915 Y117.013 E66.4961
G1 X144.917 Y116.485
G1 X146.841 Y114.691 E66.6274
G1 X146.382 Y114.592
G1 X144.920 Y115.957 E66.7272
G1 X144.922 Y115.428
G1 X145.924 Y114.494 E66.7955
G1 X145.465 Y114.396
G1 X144.925 Y114.900 E66.8323
G1 X144.927 Y114.371
G1 X145.006 Y114.298 E66.8377
;segType:SoftSupport
G1 F4800 E65.8377
G1 X89.058 Y110.800 F10800
G1 F4800 E66.8377
G1 X99.190 Y110.800 E67.0652 F900
G1 F4800 E66.0652
G1 X114.087 Y104.134 F10800
G1 X133.843 Y91.047
G1 F4800 E67.0652
G1 X142.628 Y91.014 E67.2625 F900
;segType:Support
G1 F4800 E66.2625
G1 X114.848 Y101.900 F10800
G1 F4800 E67.2625
G1 X120.954 Y101.846 E67.5214 F900
G1 X133.210 Y101.827 E68.0411
G1 F4800 E67.0411
G1 X99.190 Y110.800 F10800
G1 F4800 E68.0411
G1 X99.400 Y110.800 E68.0500 F900
;segType:SoftSupport
G1 F4800 E67.0500
G1 X99.657 Y114.400 F10800
G1 F4800 E68.0500
G1 X92.552 Y114.400 E68.2095 F900
;segType:Support
G1 F4800 E67.2095
G1 X99.657 Y114.400 F10800
G1 F4800 E68.2095
G1 X105.051 Y114.400 E68.4383 F900
;segType:SoftSupport
G1 F4800 E67.4383
G1 X104.658 Y118.000 F10800
G1 F4800 E68.4383
G1 X125.176 Y118.000 E68.8989 F900
;segType:Support
G1 F4800 E67.8989
G1 X143.502 Y119.885 F10800
G1 F4800 E68.8989
G1 X135.400 Y119.800 E69.2425 F900
G1 X125.180 Y119.800 E69.6759
;segType:SoftSupport
G1 F4800 E68.6759
G1 X125.169 Y114.400 F10800
G1 F4800 E69.6759
G1 X105.051 Y114.400 E70.1276 F900
; ------------------------------------
; Layer #1
; ------------------------------------
G21 ; mm
G90 ; abs
G92 E0 ; reset extr
M106 S255
;segType:HShell
G1 F4800 E-1.0000
G1 F300 Z0.600
G1 X106.378 Y117.825 F10800
G1 F4800 E0.0000
G1 X105.564 Y117.065 E0.0555 F3600
G1 X105.658 Y117.678
G1 X105.512 Y117.543 E0.0655
;segType:Loop
G1 X105.359 Y117.107 F10800
G1 X105.693 Y114.042 E0.2193 F3600
G1 X105.899 Y112.104 E0.3165
G1 X107.980 Y111.825 E0.4213
G1 X108.167 Y111.794 E0.4308
G1 X110.861 Y111.226 E0.5681
G1 X111.597 Y111.055 E0.6058
G1 X113.324 Y110.593 E0.6950
G1 X114.568 Y110.197 E0.7601
G1 X115.964 Y109.747 E0.8333
G1 X118.950 Y108.637 E0.9922
G1 X119.163 Y108.579 E1.0033
G1 X119.446 Y108.610 E1.0174
G1 X120.354 Y108.794 E1.0637
G1 X122.218 Y109.155 E1.1584
G1 X124.559 Y109.623 E1.2775
G1 X124.584 Y121.656 E1.8778
G1 X124.581 Y121.770 E1.8835
G1 X121.721 Y121.175 E2.0292
G1 X116.753 Y120.114 E2.2827
G1 X112.672 Y119.277 E2.4905
G1 X111.318 Y119.002 E2.5595
G1 X106.590 Y118.058 E2.8000
G1 X105.284 Y117.793 E2.8665
G1 X105.338 Y117.292 E2.8917
;segType:Perimeter
G1 X105.558 Y117.894 F10800
G1 X104.856 Y118.032 E2.9274 F2159
G1 X105.295 Y114.005 E3.1295
G1 X105.531 Y111.776 E3.2413
G1 X107.917 Y111.457 E3.3614
G1 X108.089 Y111.428 E3.3700
G1 X110.769 Y110.863 E3.5067
G1 X111.494 Y110.694 E3.5439
G1 X113.204 Y110.237 E3.6322
G1 X114.438 Y109.845 E3.6968
G1 X115.824 Y109.397 E3.7694
G1 X118.819 Y108.284 E3.9288
G1 X119.129 Y108.199 E3.9449
G1 X119.512 Y108.242 E3.9641
G1 X120.437 Y108.430 E4.0112
G1 X122.300 Y108.790 E4.1059
G1 X124.958 Y109.322 E4.2411
G1 X124.984 Y121.660 E4.8567
G1 X124.971 Y122.233 E4.8853
G1 X121.633 Y121.539 E5.0553
G1 X116.665 Y120.478 E5.3088
G1 X112.587 Y119.641 E5.5165
G1 X111.233 Y119.367 E5.5854
G1 X106.506 Y118.423 E5.8259
G1 X104.908 Y118.099 E5.9072
G1 X105.266 Y117.519
;segType:HShell
G1 X107.097 Y117.969 F10800
G1 X105.616 Y116.588 E6.0083 F3600
G1 X112.124 Y118.975 F10800
G1 X105.979 Y113.243 E6.4275 F3600
G1 X106.030 Y112.764
G1 X112.845 Y119.121 E6.8925
G1 X111.403 Y118.828 F10800
G1 X105.928 Y113.722 E7.2660 F3600
G1 X105.877 Y114.200
G1 X110.685 Y118.685 E7.5940
G1 X114.291 Y119.418 F10800
G1 X106.557 Y112.204 E8.1217 F3600
G1 X106.080 Y112.285
G1 X113.568 Y119.270 E8.6326
G1 X115.014 Y119.566 F10800
G1 X107.050 Y112.138 E9.1759 F3600
G1 X107.544 Y112.072
G1 X115.737 Y119.715 E9.7349
G1 X116.460 Y119.863
G1 X108.036 Y112.005 E10.3097
G1 X108.503 Y111.915
G1 X117.188 Y120.015 E10.9022
G1 X117.919 Y120.172
G1 X108.963 Y111.818 E11.5132
G1 X109.423 Y111.720
G1 X118.651 Y120.328 E12.1428
G1 X119.383 Y120.484
G1 X109.883 Y111.623 E12.7909
G1 X110.343 Y111.526
G1 X120.114 Y120.640 E13.4575
G1 X120.846 Y120.797
G1 X110.803 Y111.429 E14.1427
G1 X111.257 Y111.326
G1 X121.577 Y120.953 E14.8468
G1 X122.305 Y121.105
G1 X111.707 Y111.220 E15.5699
G1 X112.145 Y111.103
G1 X123.031 Y121.256 E16.3125
G1 X123.756 Y121.407
G1 X112.583 Y110.985 E17.0748
G1 X113.022 Y110.868
G1 X124.384 Y121.466 E17.8500
G1 X124.382 Y120.939
G1 X113.457 Y110.748 E18.5954
G1 X113.877 Y110.613
G1 X124.381 Y120.412 E19.3121
G1 X124.380 Y119.885
G1 X114.297 Y110.479 E20.0000
G1 X114.716 Y110.344
G1 X124.379 Y119.358 E20.6593
G1 X124.378 Y118.830
G1 X115.136 Y110.210 E21.2898
G1 X115.556 Y110.075
G1 X124.377 Y118.303 E21.8916
G1 X124.376 Y117.776
G1 X115.976 Y109.941 E22.4647
G1 X116.381 Y109.793
G1 X124.375 Y117.249 E23.0101
G1 X124.374 Y116.722
G1 X116.785 Y109.643 E23.5278
G1 X117.188 Y109.493
G1 X124.373 Y116.195 E24.0180
G1 X124.371 Y115.668
G1 X117.591 Y109.343 E24.4806
G1 X117.995 Y109.193
G1 X124.370 Y115.140 E24.9156
G1 X124.369 Y114.613
G1 X118.398 Y109.043 E25.3230
G1 X118.801 Y108.893
G1 X124.368 Y114.086 E25.7028
G1 X124.367 Y113.559
G1 X119.238 Y108.775 E26.0527
G1 X119.937 Y108.901
G1 X124.366 Y113.032 E26.3548
G1 X124.365 Y112.505
G1 X120.654 Y109.043 E26.6080
G1 X121.365 Y109.181
G1 X124.364 Y111.978 E26.8126
G1 X124.363 Y111.450
G1 X122.077 Y109.318 E26.9685
G1 X122.794 Y109.461
G1 X124.362 Y110.923 E27.0755
G1 X124.360 Y110.396
G1 X123.512 Y109.605 E27.1334
G1 X124.230 Y109.748
G1 X124.359 Y109.869 E27.1422
G1 X109.968 Y118.542 F10800
G1 X105.825 Y114.678 E27.4248 F3600
G1 X105.773 Y115.155
G1 X109.250 Y118.398 E27.6620
G1 X107.815 Y118.112 F10800
G1 X105.669 Y116.110 E27.8085 F3600
G1 X105.721 Y115.633
G1 X108.532 Y118.255 E28.0003
G1 F4800 E27.0003
G1 X100.700 Y113.054 F10800
G1 X98.742 Y111.753
G1 F4800 E28.0003
G1 X98.238 Y111.284 E28.0346 F3600
;segType:Loop
G1 X98.956 Y112.084 F10800
G1 X99.142 Y116.354 E28.2479 F3600
G1 X98.163 Y116.083 E28.2985
G1 X96.911 Y115.677 E28.3642
G1 X94.951 Y114.991 E28.4678
G1 X94.480 Y114.798 E28.4932
G1 X93.829 Y114.508 E28.5287
G1 X93.214 Y114.157 E28.5640
G1 X92.696 Y113.825 E28.5948
G1 X92.199 Y113.412 E28.6270
G1 X91.776 Y113.092 E28.6535
G1 X91.140 Y112.523 E28.6960
G1 X89.876 Y111.305 E28.7836
G1 X89.643 Y111.071 E28.8001
G1 X89.661 Y110.497 E28.8287
G1 X89.726 Y108.856 E28.9107
G1 X89.654 Y107.545 E28.9762
G1 X89.713 Y106.247 E29.0410
G1 X89.755 Y105.459 E29.0804
G1 X89.683 Y103.775 E29.1644
G1 X90.781 Y105.335 E29.2596
G1 X91.526 Y106.324 E29.3214
G1 X92.597 Y107.658 E29.4067
G1 X93.127 Y108.242 E29.4461
G1 X93.674 Y108.749 E29.4833
G1 X94.445 Y109.357 E29.5323
G1 X95.165 Y109.779 E29.5739
G1 X96.193 Y110.289 E29.6312
G1 X97.587 Y110.878 E29.7067
G1 X98.938 Y111.311 E29.7774
G1 X98.932 Y111.535 E29.7886
G1 X98.948 Y111.898 E29.8067
;segType:Perimeter
G1 X98.632 Y111.195 F10800
G1 X99.343 Y111.102 E29.8425 F2159
G1 X99.333 Y111.532 E29.8640
G1 X99.564 Y116.860 E30.1300
G1 X98.040 Y116.438 E30.2089
G1 X96.775 Y116.027 E30.2753
G1 X94.800 Y115.337 E30.3796
G1 X94.313 Y115.137 E30.4059
G1 X93.638 Y114.837 E30.4428
G1 X92.991 Y114.467 E30.4799
G1 X92.684 Y114.257 E30.4985
G1 X92.456 Y114.125 E30.5117
G1 X91.940 Y113.696 E30.5451
G1 X91.511 Y113.372 E30.5720
G1 X90.858 Y112.787 E30.6157
G1 X89.586 Y111.562 E30.7038
G1 X89.235 Y111.209 E30.7286
G1 X89.267 Y110.654 E30.7564
G1 X89.261 Y110.497 E30.7642
G1 X89.325 Y108.859 E30.8460
G1 X89.254 Y107.546 E30.9116
G1 X89.313 Y106.230 E30.9773
G1 X89.354 Y105.457 E31.0160
G1 X89.275 Y103.604 E31.1085
G1 X89.294 Y103.190 E31.1292
G1 X89.249 Y102.405 E31.1684
G1 X90.048 Y103.616 E31.2408
G1 X91.112 Y105.125 E31.3329
G1 X91.850 Y106.105 E31.3941
G1 X92.910 Y107.425 E31.4786
G1 X93.422 Y107.989 E31.5165
G1 X93.944 Y108.474 E31.5521
G1 X94.682 Y109.055 E31.5990
G1 X95.366 Y109.456 E31.6385
G1 X96.369 Y109.954 E31.6944
G1 X97.735 Y110.530 E31.7684
G1 X99.287 Y111.028 E31.8497
G1 X98.948 Y111.619
;segType:HShell
G1 X97.351 Y110.983 F10800
G1 X98.765 Y112.302 E31.9462 F3600
G1 X98.789 Y112.850
G1 X96.321 Y110.548 E32.1146
G1 X96.301 Y115.264 F10800
G1 X89.909 Y109.302 E32.5507 F3600
G1 X89.922 Y108.788
G1 X97.194 Y115.571 E33.0467
G1 X93.103 Y113.860 F10800
G1 X89.852 Y110.827 E33.2686 F3600
G1 X91.417 Y106.499 F10800
G1 X89.941 Y105.123 E33.3693 F3600
G1 X89.917 Y104.575
G1 X90.177 Y104.817 E33.3870
G1 X95.154 Y109.985 F10800
G1 X98.813 Y113.398 E33.6366 F3600
G1 X98.837 Y113.947
G1 X89.945 Y105.652 E34.2433
G1 X89.918 Y106.153
G1 X98.861 Y114.495 E34.8534
G1 X98.884 Y115.043
G1 X89.894 Y106.658 E35.4668
G1 X89.872 Y107.162
G1 X98.908 Y115.592 E36.0833
G1 X98.873 Y116.085
G1 X89.862 Y107.679 E36.6981
G1 X89.892 Y108.234
G1 X98.058 Y115.851 E37.2552
G1 X94.425 Y114.566 F10800
G1 X89.871 Y110.319 E37.5659 F3600
G1 X89.890 Y109.810
G1 X95.399 Y114.949 E37.9417
G1 F4800 E36.9417
G1 X144.133 Y92.537 F10800
G1 F4800 E37.9417
G1 X152.748 Y100.573 E38.5295 F3600
;segType:Perimeter
G1 X153.001 Y100.813 F10800
G1 X153.295 Y101.424 E38.5633 F2159
G1 X151.519 Y101.582 E38.6523
G1 X146.683 Y102.015 E38.8945
G1 X141.312 Y102.521 E39.1637
G1 X138.401 Y102.809 E39.3096
G1 X134.668 Y103.196 E39.4968
G1 X133.336 Y103.307 E39.5635
G1 X133.530 Y99.453 E39.7561
G1 X134.080 Y90.439 E40.2066
G1 X139.723 Y89.942 E40.4892
G1 X139.875 Y89.943 E40.4968
G1 X140.267 Y90.057 E40.5172
G1 X140.609 Y90.238 E40.5365
G1 X141.876 Y90.863 E40.6070
G1 X143.404 Y91.595 E40.6915
G1 X145.526 Y92.534 E40.8073
G1 X146.077 Y92.768 E40.8372
G1 X146.547 Y92.941 E40.8621
G1 X149.150 Y93.883 E41.0002
G1 X150.803 Y94.395 E41.0866
G1 X150.971 Y94.441 E41.0952
G1 X153.326 Y95.014 E41.2162
G1 X153.310 Y95.327 E41.2318
G1 X153.354 Y101.363 E41.5330
G1 X152.672 Y101.152
;segType:Loop
G1 X152.224 Y101.145 F10800
G1 X146.644 Y101.644 E41.8125 F3600
G1 X141.270 Y102.150 E42.0817
G1 X138.358 Y102.438 E42.2277
G1 X134.628 Y102.825 E42.4149
G1 X133.757 Y102.898 E42.4585
G1 X133.930 Y99.472 E42.6295
G1 X134.460 Y90.780 E43.0640
G1 X139.741 Y90.315 E43.3285
G1 X140.106 Y90.402 E43.3472
G1 X140.417 Y90.565 E43.3647
G1 X141.691 Y91.194 E43.4356
G1 X143.227 Y91.929 E43.5206
G1 X145.357 Y92.873 E43.6368
G1 X145.921 Y93.112 E43.6674
G1 X146.401 Y93.289 E43.6929
G1 X149.014 Y94.234 E43.8315
G1 X150.684 Y94.751 E43.9187
G1 X150.864 Y94.801 E43.9280
G1 X152.910 Y95.320 E44.0334
G1 X152.952 Y101.080 E44.3208
G1 X152.423 Y101.127 E44.3473
G1 X149.785 Y99.680 F10800
G1 X143.053 Y92.056
;segType:HShell
G1 X152.564 Y100.927 E44.9961 F3600
G1 X152.209 Y95.335 F10800
G1 X152.714 Y95.806 E45.0306 F3600
G1 X150.655 Y94.938 F10800
G1 X152.722 Y96.865 E45.1716 F3600
G1 X152.718 Y96.336
G1 X151.435 Y95.139 E45.2591
G1 X148.968 Y94.416 F10800
G1 X152.729 Y97.925 E45.5157 F3600
G1 X152.725 Y97.395
G1 X149.812 Y94.678 E45.7145
G1 X147.127 Y93.752 F10800
G1 X152.737 Y98.984 E46.0972 F3600
G1 X152.733 Y98.454
G1 X148.048 Y94.085 E46.4168
G1 X145.207 Y93.013 F10800
G1 X152.744 Y100.043 E46.9310 F3600
G1 X152.741 Y99.514
G1 X146.205 Y93.417 E47.3769
G1 X140.706 Y90.918 F10800
G1 X151.534 Y101.019 E48.1157 F3600
G1 X152.049 Y100.973
G1 X141.894 Y91.501 E48.8085
G1 X133.976 Y102.529 F10800
G1 X134.136 Y102.679 E48.8194 F3600
G1 X134.653 Y102.635
G1 X134.001 Y102.027 E48.8639
G1 X134.026 Y101.524
G1 X135.160 Y102.582 E48.9413
G1 X135.668 Y102.529
G1 X134.052 Y101.022 E49.0516
G1 X134.077 Y100.519
G1 X136.176 Y102.476 E49.1947
G1 X136.683 Y102.424
G1 X134.102 Y100.017 E49.3708
G1 X134.128 Y99.514
G1 X137.191 Y102.371 E49.5797
G1 X137.698 Y102.318
G1 X134.158 Y99.016 E49.8213
G1 X134.188 Y98.518
G1 X138.206 Y102.266 E50.0954
G1 X138.715 Y102.215
G1 X134.219 Y98.020 E50.4022
G1 X134.249 Y97.523
G1 X139.225 Y102.164 E50.7416
G1 X139.735 Y102.114
G1 X134.279 Y97.025 E51.1139
G1 X134.310 Y96.527
G1 X140.245 Y102.063 E51.5188
G1 X140.755 Y102.013
G1 X134.340 Y96.029 E51.9564
G1 X134.370 Y95.532
G1 X141.265 Y101.963 E52.4268
G1 X141.777 Y101.914
G1 X134.401 Y95.034 E52.9301
G1 X134.431 Y94.536
G1 X142.290 Y101.866 E53.4662
G1 X142.802 Y101.818
G1 X134.461 Y94.038 E54.0353
G1 X134.492 Y93.540
G1 X143.314 Y101.770 E54.6372
G1 X143.827 Y101.721
G1 X134.522 Y93.043 E55.2720
G1 X134.553 Y92.545
G1 X144.339 Y101.673 E55.9397
G1 X144.851 Y101.625
G1 X134.583 Y92.047 E56.6402
G1 X134.613 Y91.549
G1 X145.364 Y101.577 E57.3737
G1 X145.876 Y101.529
G1 X134.644 Y91.051 E58.1400
G1 X135.061 Y90.915
G1 X146.388 Y101.480 E58.9128
G1 X146.902 Y101.433
G1 X135.576 Y90.869 E59.6855
G1 X136.092 Y90.824
G1 X147.417 Y101.387 E60.4581
G1 X147.931 Y101.341
G1 X136.607 Y90.778 E61.2307
G1 X137.123 Y90.733
G1 X148.446 Y101.295 E62.0033
G1 X148.961 Y101.249
G1 X137.638 Y90.688 E62.7758
G1 X138.153 Y90.642
G1 X149.476 Y101.203 E63.5482
G1 X149.990 Y101.157
G1 X138.669 Y90.597 E64.3207
G1 X139.184 Y90.551
G1 X150.505 Y101.111 E65.0930
G1 X151.020 Y101.065
G1 X139.699 Y90.506 E65.8653
G1 F4800 E64.8653
G1 X157.784 Y98.956 F10800
G1 X160.044 Y100.013
G1 F4800 E65.8653
G1 X159.801 Y99.786 E65.8819 F3600
;segType:Loop
G1 X159.603 Y99.746 F10800
G1 X159.624 Y99.408 E65.8988 F3600
G1 X159.857 Y97.011 E66.0189
G1 X159.950 Y95.289 E66.1050
G1 X160.812 Y95.126 E66.1488
G1 X162.725 Y94.561 E66.2483
G1 X163.919 Y94.110 E66.3120
G1 X164.645 Y93.746 E66.3525
G1 X165.617 Y93.090 E66.4110
G1 X166.136 Y92.660 E66.4446
G1 X167.026 Y91.750 E66.5081
G1 X167.510 Y91.227 E66.5437
G1 X168.267 Y90.383 E66.6002
G1 X169.592 Y88.779 E66.7040
G1 X169.496 Y89.705 E66.7505
G1 X169.494 Y90.262 E66.7782
G1 X169.462 Y92.118 E66.8709
G1 X169.281 Y93.882 E66.9593
G1 X169.235 Y96.080 E67.0690
G1 X168.025 Y97.069 E67.1470
G1 X167.219 Y97.704 E67.1982
G1 X166.718 Y98.059 E67.2288
G1 X166.445 Y98.213 E67.2444
G1 X166.015 Y98.498 E67.2702
G1 X165.546 Y98.747 E67.2967
G1 X165.086 Y98.928 E67.3213
G1 X164.768 Y99.069 E67.3387
G1 X164.290 Y99.234 E67.3639
G1 X162.454 Y99.699 E67.4584
G1 X161.933 Y99.826 E67.4852
G1 X160.953 Y100.035 E67.5352
G1 X159.569 Y100.291 E67.6054
G1 X159.592 Y99.931 E67.6233
G1 F4800 E66.6233
G1 X159.773 Y100.367 F10800
G1 F4800 E67.6233
;segType:Perimeter
G1 X159.143 Y100.689 E67.6586 F2159
G1 X159.226 Y99.380 E67.7241
G1 X159.458 Y96.986 E67.8441
G1 X159.544 Y95.318 E67.9274
G1 X159.582 Y94.978 E67.9445
G1 X160.712 Y94.764 E68.0018
G1 X162.589 Y94.210 E68.0995
G1 X163.748 Y93.771 E68.1613
G1 X164.432 Y93.429 E68.1995
G1 X165.366 Y92.799 E68.2557
G1 X165.855 Y92.394 E68.2874
G1 X166.727 Y91.503 E68.3496
G1 X167.205 Y90.985 E68.3847
G1 X167.956 Y90.149 E68.4408
G1 X169.285 Y88.539 E68.5449
G1 X170.111 Y87.488 E68.6116
G1 X170.076 Y87.992 E68.6368
G1 X169.896 Y89.724 E68.7237
G1 X169.894 Y90.265 E68.7507
G1 X169.861 Y92.139 E68.8442
G1 X169.681 Y93.903 E68.9327
G1 X169.649 Y95.550 E69.0149
G1 X169.634 Y95.706 E69.0227
G1 X169.636 Y96.249 E69.0498
G1 X168.286 Y97.351 E69.1367
G1 X167.470 Y97.995 E69.1886
G1 X166.943 Y98.368 E69.2208
G1 X166.665 Y98.525 E69.2367
G1 X166.231 Y98.813 E69.2627
G1 X165.723 Y99.082 E69.2914
G1 X165.250 Y99.268 E69.3167
G1 X164.924 Y99.413 E69.3345
G1 X164.412 Y99.590 E69.3615
G1 X162.557 Y100.059 E69.4570
G1 X162.029 Y100.189 E69.4841
G1 X161.036 Y100.399 E69.5348
G1 X159.327 Y100.716 E69.6215
G1 X159.199 Y100.736 E69.6279
G1 X159.475 Y100.118
;segType:HShell
G1 X169.296 Y89.702 F10800
G1 X169.175 Y89.590 E69.6362 F3600
G1 X168.930 Y89.887
G1 X169.294 Y90.226 E69.6610
G1 X169.285 Y90.745
G1 X168.684 Y90.184 E69.7020
G1 X168.439 Y90.481
G1 X169.276 Y91.262 E69.7592
G1 X169.268 Y91.780
G1 X168.182 Y90.768 E69.8332
G1 X167.925 Y91.054
G1 X169.244 Y92.284 E69.9232
G1 X169.195 Y92.764
G1 X167.668 Y91.341 E70.0273
G1 X167.407 Y91.623
G1 X169.145 Y93.245 E70.1459
G1 X169.096 Y93.725
G1 X167.146 Y91.905 E70.2790
G1 X166.876 Y92.180
G1 X169.074 Y94.230 E70.4289
G1 X169.063 Y94.746
G1 X166.607 Y92.455 E70.5964
G1 X166.338 Y92.730
G1 X169.052 Y95.262 E70.7816
G1 X169.041 Y95.778
G1 X166.046 Y92.984 E70.9860
G1 X165.747 Y93.232
G1 X168.862 Y96.137 E71.1985
G1 X168.561 Y96.383
G1 X165.420 Y93.453 E71.4128
G1 X165.093 Y93.674
G1 X168.261 Y96.628 E71.6289
G1 X167.960 Y96.874
G1 X164.765 Y93.894 E71.8469
G1 X164.400 Y94.080
G1 X167.655 Y97.116 E72.0689
G1 X167.350 Y97.357
G1 X164.034 Y94.264 E72.2952
G1 X163.635 Y94.418
G1 X167.042 Y97.596 E72.5276
G1 X166.721 Y97.823
G1 X163.234 Y94.570 E72.7655
G1 X162.832 Y94.722
G1 X166.381 Y98.032 E73.0076
G1 X166.048 Y98.247
G1 X162.407 Y94.851 E73.2560
G1 X161.978 Y94.977
G1 X165.701 Y98.450 E73.5100
G1 X165.332 Y98.631
G1 X161.550 Y95.104 E73.7680
G1 X161.122 Y95.230
G1 X164.941 Y98.793 E74.0286
G1 X164.543 Y98.948
G1 X160.677 Y95.342 E74.2924
G1 X160.208 Y95.430
G1 X164.124 Y99.083 E74.5595
G1 X163.680 Y99.195
G1 X160.118 Y95.873 E74.8025
G1 X160.092 Y96.374
G1 X163.236 Y99.307 E75.0170
G1 X162.793 Y99.420
G1 X160.065 Y96.875 E75.2031
G1 X160.024 Y97.363
G1 X162.348 Y99.532 E75.3617
G1 X161.902 Y99.641
G1 X159.977 Y97.846 E75.4930
G1 X159.930 Y98.328
G1 X161.443 Y99.739 E75.5962
G1 X160.983 Y99.837
G1 X159.883 Y98.811 E75.6713
G1 X159.836 Y99.293
G1 X160.515 Y99.926 E75.7176
;segType:SoftSupport
G1 F4800 E74.7176
G1 X181.753 Y81.553 F10800
G1 F4800 E75.7176
G1 X180.847 Y81.553 E75.7379 F5400
G1 X181.753 Y80.647 E75.7667
G1 X180.847 Y80.647 E75.7870
G1 F4800 E74.7870
G1 X181.756 Y77.044 F10800
G1 F4800 E75.7870
G1 X180.844 Y77.044 E75.8075 F5400
G1 X181.756 Y77.956 E75.8365
G1 X180.844 Y77.956 E75.8569
;segType:Support
G1 F4800 E74.8569
G1 X181.457 Y73.743 F10800
G1 F4800 E75.8569
G1 X181.764 Y73.436 E75.8753 F5400
G1 X180.836 Y73.436 E75.9146
G1 X181.764 Y74.364 E75.9703
;segType:SoftSupport
G1 X180.836 Y74.364 E75.9911 F5400
G1 X181.457 Y73.743 E76.0108
;segType:Support
G1 F4800 E75.0108
G1 X181.743 Y87.857 F10800
G1 F4800 E76.0108
G1 X180.857 Y87.857 E76.0484 F5400
G1 X181.743 Y88.743 E76.1015
G1 X179.056 Y88.772 E76.2154
;segType:SoftSupport
G1 F4800 E75.2154
G1 X181.747 Y85.147 F10800
G1 F4800 E76.2154
G1 X180.853 Y85.147 E76.2355 F5400
G1 X181.747 Y84.253 E76.2639
G1 X178.458 Y84.169 E76.3377
G1 F4800 E75.3377
G1 X179.056 Y88.772 F10800
G1 F4800 E76.3377
G1 X178.218 Y88.781 E76.3566 F5400
;segType:Support
G1 F4800 E75.3566
G1 X178.206 Y76.994 F10800
G1 F4800 E76.3566
G1 X177.194 Y76.994 E76.3994 F5400
G1 X178.206 Y78.006 E76.4601
G1 X177.194 Y78.006 E76.5030
G1 F4800 E75.5030
G1 X178.202 Y81.602 F10800
G1 F4800 E76.5030
G1 X177.198 Y81.602 E76.5456 F5400
G1 X178.202 Y80.598 E76.6058
G1 X173.509 Y80.509 E76.8048
G1 X174.691 Y81.691 E76.8756
G1 X173.509 Y81.691 E76.9257
G1 F4800 E75.9257
G1 X178.218 Y88.781 F10800
G1 F4800 E76.9257
G1 X177.208 Y88.792 E76.9686 F5400
G1 X178.192 Y87.808 E77.0276
G1 X174.724 Y87.676 E77.1748
G1 X170.901 Y87.619 E77.3369
G1 F4800 E76.3369
G1 X174.724 Y88.924 F10800
G1 F4800 E77.3369
G1 X170.777 Y88.983 E77.5043 F5400
G1 F4800 E76.5043
G1 X174.678 Y91.322 F10800
G1 F4800 E77.5043
G1 X170.677 Y91.239 E77.6740 F5400
G1 F4800 E76.6740
G1 X174.678 Y92.478 F10800
G1 F4800 E77.6740
G1 X170.621 Y92.562 E77.8460 F5400
G1 X171.190 Y94.810 E77.9444
G1 X170.463 Y94.800 E77.9752
G1 X171.190 Y96.190 E78.0417
G1 X170.435 Y96.200 E78.0738
G1 F4800 E77.0738
G1 X178.458 Y84.169 F10800
G1 F4800 E78.0738
G1 X169.748 Y83.948 E78.4433 F5400
G1 F4800 E77.4433
G1 X178.243 Y85.243 F10800
G1 F4800 E78.4433
G1 X169.748 Y85.452 E78.8036 F5400
G1 F4800 E77.8036
G1 X170.180 Y87.313 F10800
G1 X170.274 Y88.007
G1 X169.817 Y96.326
G1 X167.652 Y99.852
G1 F4800 E78.8036
G1 X165.798 Y99.863 E78.8823 F5400
G1 F4800 E77.8823
G1 X159.007 Y100.884 F10800
G1 X158.392 Y99.888
G1 F4800 E78.8823
G1 X154.143 Y99.876 E79.0624 F5400
G1 F4800 E78.0624
G1 X158.806 Y94.726 F10800
G1 F4800 E79.0624
G1 X154.141 Y94.736 E79.2603 F5400
G1 F4800 E78.2603
G1 X158.524 Y98.335 F10800
G1 F4800 E79.2603
G1 X154.132 Y98.329 E79.4466 F5400
G1 F4800 E78.4466
G1 X158.694 Y96.273 F10800
G1 F4800 E79.4466
G1 X154.117 Y96.263 E79.6407 F5400
;segType:SoftSupport
G1 F4800 E78.6407
G1 X152.913 Y116.687 F10800
G1 F4800 E79.6407
G1 X152.087 Y116.687 E79.6592 F5400
G1 X152.913 Y117.513 E79.6854
G1 X152.087 Y117.513 E79.7040
G1 F4800 E78.7040
G1 X149.356 Y116.644 F10800
G1 F4800 E79.7040
G1 X148.444 Y116.644 E79.7244 F5400
G1 X149.356 Y117.556 E79.7533
G1 X148.444 Y117.556 E79.7738
G1 F4800 E78.7738
G1 X152.913 Y121.113 F10800
G1 F4800 E79.7738
G1 X152.087 Y121.113 E79.7924 F5400
G1 X152.913 Y120.287 E79.8186
G1 X148.444 Y120.244 E79.9189
G1 X149.356 Y121.156 E79.9479
G1 X144.824 Y121.176 E80.0496
G1 X145.776 Y120.224 E80.0798
G1 X144.824 Y120.224 E80.1012
;segType:Support
G1 F4800 E79.1012
G1 X149.356 Y113.956 F10800
G1 F4800 E80.1012
G1 X148.444 Y113.956 E80.1399 F5400
G1 X149.356 Y113.044 E80.1945
G1 X144.803 Y113.003 E80.3876
G1 X145.421 Y113.621 E80.4246
G1 F4800 E79.4246
G1 X153.502 Y101.543 F10800
G1 X153.487 Y94.904
G1 X146.070 Y91.130
G1 F4800 E80.4246
G1 X144.258 Y91.147 E80.5015 F5400
G1 F4800 E79.5015
G1 X153.487 Y94.904 F10800
G1 X153.502 Y101.543
G1 X145.421 Y113.621
G1 F4800 E80.5015
;segType:SoftSupport
G1 X145.797 Y113.997 E80.5134 F5400
G1 X144.129 Y114.011 E80.5509
G1 F4800 E79.5509
G1 X145.797 Y116.603 F10800
G1 F4800 E80.5509
G1 X144.803 Y116.603 E80.5732 F5400
G1 X145.797 Y117.597 E80.6047
G1 X144.112 Y117.615 E80.6426
G1 F4800 E79.6426
G1 X152.914 Y123.886 F10800
G1 F4800 E80.6426
G1 X152.086 Y123.886 E80.6611 F5400
G1 X152.914 Y124.714 E80.6874
G1 X148.445 Y124.755 E80.7877
G1 X149.355 Y123.845 E80.8166
G1 X144.085 Y123.794 E80.9350
G1 X145.796 Y124.796 E80.9795
G1 X144.081 Y124.812 E81.0180
;segType:Support
G1 F4800 E80.0180
G1 X149.680 Y103.480 F10800
G1 F4800 E81.0180
G1 X140.961 Y103.439 E81.3878 F5400
G1 X139.722 Y103.428 E81.4403
G1 F4800 E80.4403
G1 X144.085 Y123.794 F10800
G1 F4800 E81.4403
G1 X130.260 Y123.660 E82.0266 F5400
G1 F4800 E81.0266
G1 X144.081 Y124.812 F10800
G1 F4800 E82.0266
G1 X130.260 Y124.940 E82.6127 F5400
G1 F4800 E81.6127
G1 X138.654 Y121.254 F10800
G1 F4800 E82.6127
G1 X135.108 Y121.308 E82.7632 F5400
G1 X125.783 Y121.389 E83.1586
G1 F4800 E82.1586
G1 X142.235 Y121.235 F10800
G1 F4800 E83.1586
G1 X141.165 Y121.235 E83.2040 F5400
G1 X142.235 Y120.165 E83.2682
G1 X135.108 Y120.092 E83.5705
G1 X125.781 Y120.011 E83.9661
G1 F4800 E82.9661
G1 X144.112 Y117.615 F10800
G1 F4800 E83.9661
G1 X138.673 Y117.673 E84.1967 F5400
G1 X125.776 Y117.781 E84.7437
G1 F4800 E83.7437
G1 X142.217 Y116.583 F10800
G1 F4800 E84.7437
G1 X138.673 Y116.527 E84.8940 F5400
G1 X125.773 Y116.419 E85.4410
G1 F4800 E84.4410
G1 X138.672 Y114.072 F10800
G1 F4800 E85.4410
G1 X131.541 Y114.141 E85.7434 F5400
G1 X125.768 Y114.181 E85.9883
G1 F4800 E84.9883
G1 X144.129 Y114.011 F10800
G1 F4800 E85.9883
G1 X141.164 Y114.036 E86.1140 F5400
G1 X142.236 Y112.964 E86.1782
G1 X131.541 Y112.859 E86.6318
G1 X125.766 Y112.819 E86.8767
G1 F4800 E85.8767
G1 X131.541 Y110.541 F10800
G1 F4800 E86.8767
G1 X127.971 Y110.571 E87.0281 F5400
G1 X125.761 Y110.584 E87.1218
G1 F4800 E86.1218
G1 X131.541 Y109.259 F10800
G1 F4800 E87.1218
G1 X127.971 Y109.229 E87.2732 F5400
G1 X125.758 Y109.216 E87.3671
G1 F4800 E86.3671
G1 X132.791 Y98.443 F10800
G1 F4800 E87.3671
G1 X119.549 Y98.549 E87.9287 F5400
G1 F4800 E86.9287
G1 X132.599 Y102.043 F10800
G1 F4800 E87.9287
G1 X119.546 Y102.146 E88.4822 F5400
G1 F4800 E87.4822
G1 X133.230 Y91.233 F10800
G1 F4800 E88.4822
G1 X119.535 Y91.335 E89.0630 F5400
G1 F4800 E88.0630
G1 X132.929 Y96.167 F10800
G1 F4800 E89.0630
G1 X119.533 Y96.067 E89.6311 F5400
G1 F4800 E88.6311
G1 X133.149 Y92.565 F10800
G1 F4800 E89.6311
G1 X115.991 Y92.409 E90.3588 F5400
G1 X117.009 Y91.391 E90.4199
G1 X115.991 Y91.391 E90.4631
G1 F4800 E89.4631
G1 X132.532 Y103.364 F10800
G1 F4800 E90.4631
G1 X115.984 Y103.216 E91.1648 F5400
G1 X117.016 Y102.184 E91.2267
G1 X115.984 Y102.184 E91.2705
G1 F4800 E90.2705
G1 X133.011 Y94.834 F10800
G1 F4800 E91.2705
G1 X115.988 Y94.988 E91.9924 F5400
G1 X117.012 Y96.012 E92.0537
G1 X114.565 Y95.990 E92.1575
G1 F4800 E91.1575
G1 X132.714 Y99.764 F10800
G1 F4800 E92.1575
G1 X115.986 Y99.614 E92.8668 F5400
G1 X117.014 Y98.586 E92.9285
G1 X114.419 Y98.609 E93.0385
G1 F4800 E92.0385
G1 X113.370 Y92.370 F10800
G1 F4800 E93.0385
G1 X112.430 Y92.370 E93.0783 F5400
G1 X113.370 Y91.430 E93.1346
G1 X112.430 Y91.430 E93.1745
;segType:SoftSupport
G1 F4800 E92.1745
G1 X114.565 Y95.990 F10800
G1 F4800 E93.1745
G1 X112.428 Y95.972 E93.2224 F5400
G1 X113.372 Y95.028 E93.2524
G1 X112.428 Y95.028 E93.2736
G1 F4800 E92.2736
G1 X114.419 Y98.609 F10800
G1 F4800 E93.2736
G1 X112.426 Y98.626 E93.3183 F5400
G1 X113.374 Y99.574 E93.3484
G1 X112.426 Y99.574 E93.3696
G1 F4800 E92.3696
G1 X113.375 Y103.175 F10800
G1 F4800 E93.3696
G1 X112.425 Y103.175 E93.3910 F5400
G1 X113.375 Y102.225 E93.4212
G1 X112.425 Y102.225 E93.4425
G1 F4800 E92.4425
G1 X105.387 Y111.647 F10800
G1 X104.688 Y118.196
G1 X117.566 Y121.436
G1 F4800 E93.4425
;segType:Support
G1 X112.137 Y121.463 E93.6727 F5400
G1 F4800 E92.6727
G1 X104.688 Y118.196 F10800
G1 X105.387 Y111.647
G1 X109.729 Y95.929
G1 F4800 E93.6727
;segType:SoftSupport
G1 X108.871 Y95.929 E93.6920 F5400
G1 X109.729 Y95.071 E93.7192
G1 X108.871 Y95.071 E93.7385
G1 F4800 E92.7385
G1 X109.735 Y103.135 F10800
G1 F4800 E93.7385
G1 X108.865 Y103.135 E93.7580 F5400
G1 X109.735 Y102.265 E93.7856
G1 X108.865 Y102.265 E93.8051
G1 F4800 E92.8051
G1 X109.753 Y98.647 F10800
G1 F4800 E93.8051
G1 X108.847 Y98.647 E93.8255 F5400
G1 X109.753 Y99.553 E93.8542
G1 X108.847 Y99.553 E93.8746
;segType:Support
G1 F4800 E92.8746
G1 X114.144 Y109.150 F10800
G1 F4800 E93.8746
G1 X108.518 Y109.118 E94.1132 F5400
;segType:SoftSupport
G1 F4800 E93.1132
G1 X105.412 Y95.788 F10800
G1 F4800 E94.1132
G1 X106.107 Y95.093 E94.1353 F5400
G1 X105.455 Y95.093 E94.1499
G1 X106.107 Y95.907 E94.1734
G1 X105.405 Y95.907 E94.1891
G1 X105.455 Y95.093 E94.2075
;segType:Support
G1 X105.293 Y95.093 E94.2144 F5400
G1 X105.405 Y95.907 E94.2492
G1 X105.293 Y95.907 E94.2540
G1 X105.412 Y95.788 E94.2611
;segType:SoftSupport
G1 F4800 E93.2611
G1 X106.110 Y98.690 F10800
G1 F4800 E94.2611
G1 X105.290 Y98.690 E94.2795 F5400
G1 X106.110 Y99.510 E94.3056
G1 X105.290 Y99.510 E94.3240
G1 F4800 E93.3240
G1 X106.113 Y103.113 F10800
G1 F4800 E94.3240
G1 X105.287 Y103.113 E94.3426 F5400
G1 X106.113 Y102.287 E94.3688
G1 X105.287 Y102.287 E94.3874
;segType:Support
G1 F4800 E93.3874
G1 X104.239 Y116.317 F10800
G1 F4800 E94.3874
G1 X100.340 Y116.307 E94.5527 F5400
G1 F4800 E93.5527
G1 X104.462 Y114.276 F10800
G1 F4800 E94.5527
G1 X100.252 Y114.266 E94.7312 F5400
G1 F4800 E93.7312
G1 X104.627 Y112.723 F10800
G1 F4800 E94.7312
G1 X100.185 Y112.734 E94.9196 F5400
G1 F4800 E93.9196
G1 X104.068 Y117.884 F10800
G1 F4800 E94.9196
G1 X97.701 Y117.899 E95.1896 F5400
G1 F4800 E94.1896
G1 X99.686 Y117.007 F10800
G1 X99.508 Y110.940
G1 X99.292 Y109.108
G1 F4800 E95.1896
G1 X96.423 Y109.135 E95.3112 F5400
G1 F4800 E94.3112
G1 X99.508 Y110.940 F10800
G1 X99.686 Y117.007
G1 X96.708 Y116.202
G1 X91.394 Y114.244
G1 F4800 E95.3112
G1 X90.558 Y114.242 E95.3467 F5400
G1 F4800 E94.3467
G1 X89.047 Y111.273 F10800
G1 X88.511 Y109.210
G1 F4800 E95.3467
G1 X87.024 Y109.224 E95.4098 F5400
G1 X88.464 Y110.590 E95.4940
G1 X87.024 Y110.576 E95.5550
G1 F4800 E94.5550
G1 X88.544 Y105.634 F10800
G1 F4800 E95.5550
G1 X83.545 Y105.745 E95.7671 F5400
G1 F4800 E94.7671
G1 X88.479 Y106.964 F10800
G1 F4800 E95.7671
G1 X83.545 Y106.855 E95.9763 F5400
G1 F4800 E94.9763
G1 X84.655 Y92.455 F10800
G1 F4800 E95.9763
G1 X83.545 Y92.455 E96.0234 F5400
G1 F4800 E95.0234
G1 X88.376 Y102.024 F10800
G1 F4800 E96.0234
G1 X83.503 Y102.103 E96.2301 F5400
G1 F4800 E95.2301
G1 X88.338 Y99.738 F10800
G1 F4800 E96.2301
G1 X83.503 Y99.697 E96.4351 F5400
G1 F4800 E95.4351
G1 X84.698 Y96.098 F10800
G1 F4800 E96.4351
G1 X83.502 Y96.098 E96.4858 F5400
G1 F4800 E95.4858
G1 X88.338 Y98.462 F10800
G1 F4800 E96.4858
G1 X81.184 Y98.618 E96.7892 F5400
G1 F4800 E95.7892
G1 X84.698 Y94.902 F10800
G1 F4800 E96.7892
G1 X81.148 Y95.009 E96.9398 F5400
G1 F4800 E95.9398
G1 X84.655 Y91.345 F10800
G1 F4800 E96.9398
G1 X81.096 Y91.419 E97.0908 F5400
G1 F4800 E96.0908
G1 X88.376 Y103.376 F10800
G1 F4800 E97.0908
G1 X81.082 Y103.231 E97.4002 F5400
G1 X81.082 Y103.231
;segType:SoftSupport
G1 X80.696 Y103.223 E97.4088 F5400
;segType:Support
G1 F4800 E96.4088
G1 X80.959 Y88.759 F10800
G1 F4800 E97.4088
G1 X80.643 Y88.759 E97.4223 F5400
;segType:SoftSupport
G1 F4800 E96.4223
G1 X81.148 Y95.009 F10800
G1 F4800 E97.4223
G1 X80.042 Y95.042 E97.4471 F5400
G1 X80.958 Y95.958 E97.4762
G1 X80.042 Y95.958 E97.4968
G1 F4800 E96.4968
G1 X81.096 Y91.419 F10800
G1 F4800 E97.4968
G1 X80.041 Y91.441 E97.5205 F5400
G1 X80.959 Y92.359 E97.5496
G1 X80.041 Y92.359 E97.5702
G1 F4800 E96.5702
G1 X80.643 Y88.759 F10800
G1 F4800 E97.5702
G1 X80.041 Y88.759 E97.5837 F5400
G1 X80.339 Y88.461 E97.5932
G1 F4800 E96.5932
G1 X80.372 Y102.828 F10800
G1 F4800 E97.5932
G1 X81.009 Y102.191 E97.6134 F5400
G1 X79.991 Y102.191 E97.6362
G1 X80.696 Y103.223 E97.6643
;segType:Support
G1 X79.991 Y103.209 E97.6942 F5400
G1 X80.372 Y102.828 E97.7170
G1 F4800 E96.7170
G1 X80.339 Y88.461 F10800
G1 F4800 E97.7170
G1 X80.959 Y87.841 E97.7542 F5400
G1 X79.524 Y87.857 E97.8151
;segType:SoftSupport
G1 F4800 E96.8151
G1 X81.184 Y98.618 F10800
G1 F4800 E97.8151
G1 X80.042 Y98.642 E97.8407 F5400
G1 X80.958 Y99.558 E97.8698
G1 X77.751 Y99.521 E97.9418
G1 F4800 E96.9418
G1 X79.524 Y87.857 F10800
G1 F4800 E97.9418
G1 X77.611 Y87.879 E97.9847 F5400
;segType:Support
G1 F4800 E96.9847
G1 X77.751 Y99.521 F10800
G1 F4800 E97.9847
G1 X76.494 Y99.506 E98.0381 F5400
G1 X77.306 Y98.694 E98.0868
G1 X76.494 Y98.694 E98.1213
G1 F4800 E97.1213
G1 X77.307 Y95.093 F10800
G1 F4800 E98.1213
G1 X76.493 Y95.093 E98.1558 F5400
G1 X77.307 Y95.907 E98.2045
G1 X76.493 Y95.907 E98.2390
G1 F4800 E97.2390
G1 X77.307 Y91.493 F10800
G1 F4800 E98.2390
G1 X76.493 Y91.493 E98.2736 F5400
G1 X77.307 Y92.307 E98.3224
G1 X76.493 Y92.307 E98.3570
G1 F4800 E97.3570
G1 X77.611 Y87.879 F10800
G1 F4800 E98.3570
G1 X76.492 Y87.892 E98.4044 F5400
G1 X77.308 Y88.708 E98.4533
G1 X76.492 Y88.708 E98.4879
; ------------------------------------
; Layer #2
; ------------------------------------
G21 ; mm
G90 ; abs
G92 E0 ; reset extr
M106 S255
;segType:Support
G1 F4800 E-1.0000
G1 F300 Z0.900
G1 X77.008 Y88.192 F10800
G1 F4800 E0.0000
G1 X76.792 Y88.408 E0.0129 F5400
G1 F4800 E-0.9871
G1 X80.341 Y88.141 F10800
G1 F4800 E0.0129
G1 X80.659 Y88.459 E0.0320 F5400
G1 F4800 E-0.9680
G1 X80.341 Y92.059 F10800
G1 F4800 E0.0320
G1 X80.659 Y91.741 E0.0510 F5400
G1 X84.355 Y91.645 E0.2078
G1 X84.355 Y92.155 E0.2295
G1 F4800 E-0.7705
G1 X84.398 Y95.202 F10800
G1 F4800 E0.2295
G1 X83.802 Y95.202 E0.2547 F5400
G1 X84.398 Y95.798 E0.2904
G1 X83.802 Y95.798 E0.3157
G1 F4800 E-0.6843
G1 X83.803 Y98.803 F10800
G1 F4800 E0.3157
G1 X84.397 Y98.803 E0.3409 F5400
G1 X83.803 Y99.397 E0.3765
G1 X84.397 Y99.397 E0.4016
G1 F4800 E-0.5984
G1 X80.342 Y95.658 F10800
G1 F4800 E0.4016
G1 X80.658 Y95.342 E0.4206 F5400
G1 F4800 E-0.5794
G1 X83.803 Y102.403 F10800
G1 F4800 E0.4206
G1 X84.397 Y102.403 E0.4458 F5400
G1 X83.803 Y102.997 E0.4814
G1 X88.076 Y103.076 E0.6626
G1 X87.324 Y102.324 E0.7077
G1 X88.076 Y102.324 E0.7396
G1 F4800 E-0.2604
G1 X80.658 Y98.942 F10800
G1 F4800 E0.7396
G1 X80.342 Y99.258 E0.7585 F5400
G1 F4800 E-0.2415
G1 X87.362 Y98.762 F10800
G1 F4800 E0.7585
G1 X88.038 Y98.762 E0.7871 F5400
G1 X87.362 Y99.438 E0.8277
G1 X88.038 Y99.438 E0.8563
G1 F4800 E-0.1437
G1 X105.810 Y98.990 F10800
G1 F4800 E0.8563
G1 X105.590 Y99.210 E0.8696 F5400
G1 F4800 E-0.1304
G1 X113.075 Y102.875 F10800
G1 F4800 E0.8696
G1 X112.725 Y102.525 E0.8906 F5400
G1 F4800 E-0.1094
G1 X116.716 Y102.916 F10800
G1 F4800 E0.8906
G1 X116.284 Y102.484 E0.9165 F5400
G1 F4800 E-0.0835
G1 X109.435 Y102.835 F10800
G1 F4800 E0.9165
G1 X109.165 Y102.565 E0.9327 F5400
G1 F4800 E-0.0673
G1 X109.453 Y98.947 F10800
G1 F4800 E0.9327
G1 X109.147 Y99.253 E0.9510 F5400
G1 F4800 E-0.0490
G1 X123.417 Y91.617 F10800
G1 F4800 E0.9510
G1 X123.983 Y92.183 E0.9850 F5400
G1 F4800 E-0.0150
G1 X130.548 Y95.852 F10800
G1 F4800 E0.9850
G1 X131.252 Y95.852 E1.0148 F5400
G1 X130.548 Y95.148 E1.0571
G1 X131.252 Y95.148 E1.0869
G1 F4800 E0.0869
G1 X131.254 Y98.746 F10800
G1 F4800 E1.0869
G1 X130.546 Y98.746 E1.1170 F5400
G1 X131.254 Y99.454 E1.1594
G1 X130.546 Y99.454 E1.1894
;segType:SoftSupport
G1 F4800 E0.1894
G1 X137.347 Y103.106 F10800
G1 F4800 E1.1894
G1 X134.115 Y103.085 E1.2620 F5400
G1 X134.885 Y102.315 E1.2864
G1 X134.115 Y102.315 E1.3037
G1 F4800 E0.3037
G1 X134.880 Y91.520 F10800
G1 F4800 E1.3037
G1 X134.120 Y91.520 E1.3208 F5400
G1 X134.880 Y92.280 E1.3449
G1 X134.120 Y92.280 E1.3620
;segType:Support
G1 F4800 E0.3620
G1 X126.965 Y91.565 F10800
G1 F4800 E1.3620
G1 X127.635 Y91.565 E1.3904 F5400
G1 X126.965 Y92.235 E1.4306
G1 X131.250 Y92.250 E1.6123
G1 X130.550 Y91.550 E1.6543
G1 X131.250 Y91.550 E1.6840
;segType:SoftSupport
G1 F4800 E0.6840
G1 X142.139 Y98.661 F10800
G1 F4800 E1.6840
G1 X141.261 Y98.661 E1.7037 F5400
G1 X142.139 Y99.539 E1.7315
G1 X137.688 Y99.512 E1.8314
G1 X138.512 Y98.688 E1.8576
G1 X134.116 Y98.716 E1.9563
G1 X134.884 Y99.484 E1.9807
G1 X134.116 Y99.484 E1.9979
;segType:Support
G1 F4800 E0.9979
G1 X123.415 Y95.215 F10800
G1 F4800 E1.9979
G1 X123.985 Y95.785 E2.0321 F5400
G1 X127.636 Y95.836 E2.1870
G1 X126.964 Y95.164 E2.2273
G1 X127.636 Y95.164 E2.2558
;segType:SoftSupport
G1 F4800 E1.2558
G1 X142.136 Y92.336 F10800
G1 F4800 E2.2558
G1 X141.264 Y92.336 E2.2754 F5400
G1 X142.136 Y91.464 E2.3031
G1 X137.690 Y91.490 E2.4029
G1 X138.510 Y92.310 E2.4289
G1 X137.690 Y92.310 E2.4473
;segType:Support
G1 F4800 E1.4473
G1 X145.770 Y92.370 F10800
G1 F4800 E2.4473
G1 X145.621 Y92.370 E2.4536 F5400
G1 X145.073 Y92.127 E2.4790
G1 X145.770 Y91.430 E2.5208
G1 X144.830 Y91.430 E2.5607
G1 F4800 E1.5607
G1 X159.315 Y95.885 F10800
G1 F4800 E2.5607
G1 X159.205 Y95.995 E2.5673 F5400
G1 X159.309 Y95.995 E2.5717
G1 F4800 E1.5717
G1 X137.846 Y124.554 F10800
G1 F4800 E2.5717
G1 X138.354 Y124.046 E2.6022 F5400
G1 F4800 E1.6022
G1 X134.808 Y116.792 F10800
G1 F4800 E2.6022
G1 X134.192 Y116.792 E2.6283 F5400
G1 X134.808 Y117.408 E2.6652
G1 X130.559 Y117.441 E2.8454
G1 X131.241 Y116.759 E2.8862
G1 X130.559 Y116.759 E2.9151
G1 F4800 E1.9151
G1 X127.672 Y113.128 F10800
G1 F4800 E2.9151
G1 X126.928 Y113.128 E2.9467 F5400
G1 X127.672 Y113.872 E2.9912
G1 X125.168 Y113.889 E3.0974
G1 F4800 E2.0974
G1 X125.174 Y116.711 F10800
G1 F4800 E3.0974
G1 X127.672 Y116.728 E3.2033 F5400
G1 X126.928 Y117.472 E3.2479
G1 X127.672 Y117.472 E3.2795
G1 F4800 E2.2795
G1 X130.560 Y120.360 F10800
G1 F4800 E3.2795
G1 X131.240 Y120.360 E3.3083 F5400
G1 X130.560 Y121.040 E3.3492
G1 X131.240 Y121.040 E3.3780
G1 F4800 E2.3780
G1 X148.744 Y117.256 F10800
G1 F4800 E3.3780
G1 X149.056 Y116.944 E3.3967 F5400
G1 F4800 E2.3967
G1 X152.613 Y116.987 F10800
G1 F4800 E3.3967
G1 X152.387 Y117.213 E3.4103 F5400
G1 F4800 E2.4103
G1 X152.387 Y120.587 F10800
G1 F4800 E3.4103
G1 X152.613 Y120.813 E3.4238 F5400
G1 F4800 E2.4238
G1 X152.614 Y124.186 F10800
G1 F4800 E3.4238
G1 X152.386 Y124.414 E3.4375 F5400
G1 F4800 E2.4375
G1 X149.055 Y124.455 F10800
G1 F4800 E3.4375
G1 X149.055 Y124.145 E3.4506 F5400
G1 X145.496 Y124.104 E3.6016
G1 X145.104 Y124.496 E3.6251
G1 F4800 E2.6251
G1 X141.935 Y124.065 F10800
G1 F4800 E3.6251
G1 X141.465 Y124.535 E3.6534 F5400
G1 F4800 E2.6534
G1 X149.056 Y120.544 F10800
G1 F4800 E3.6534
G1 X149.056 Y120.856 E3.6666 F5400
G1 X145.476 Y120.876 E3.8184
G1 X145.124 Y120.524 E3.8395
G1 F4800 E2.8395
G1 X130.560 Y124.640 F10800
G1 F4800 E3.8395
G1 X131.240 Y124.640 E3.8683 F5400
G1 X130.560 Y123.960 E3.9091
G1 X131.240 Y123.960 E3.9380
G1 F4800 E2.9380
G1 X127.657 Y121.057 F10800
G1 F4800 E3.9380
G1 X126.943 Y121.057 E3.9682 F5400
G1 X127.657 Y120.343 E4.0110
G1 X125.181 Y120.318 E4.1160
G1 X125.181 Y120.318
;segType:SoftSupport
G1 X123.299 Y120.299 E4.1582 F5400
G1 X124.101 Y121.101 E4.1837
G1 X123.299 Y121.101 E4.2018
G1 F4800 E3.2018
G1 X120.529 Y120.271 F10800
G1 F4800 E4.2018
G1 X119.671 Y120.271 E4.2210 F5400
G1 X120.529 Y121.129 E4.2483
G1 X119.671 Y121.129 E4.2676
G1 F4800 E3.2676
G1 X116.418 Y120.618 F10800
G1 F4800 E4.2676
G1 X116.047 Y120.247 E4.2793 F5400
G1 X116.953 Y120.247 E4.2997
G1 X116.047 Y121.153 E4.3284
;segType:Support
G1 X116.953 Y121.153 E4.3668 F5400
G1 X116.418 Y120.618 E4.3988
G1 F4800 E3.3988
G1 X113.363 Y120.237 F10800
G1 F4800 E4.3988
G1 X112.437 Y120.237 E4.4381 F5400
G1 X113.363 Y121.163 E4.4937
G1 X112.437 Y121.163 E4.5330
;segType:SoftSupport
G1 F4800 E3.5330
G1 X109.790 Y117.590 F10800
G1 F4800 E4.5330
G1 X108.810 Y117.590 E4.5549 F5400
G1 X109.790 Y116.610 E4.5861
G1 X108.810 Y116.610 E4.6080
G1 F4800 E3.6080
G1 X106.196 Y117.596 F10800
G1 F4800 E4.6080
G1 X105.204 Y117.596 E4.6303 F5400
G1 X106.196 Y116.604 E4.6618
G1 X105.204 Y116.604 E4.6841
G1 F4800 E3.6841
G1 X105.201 Y112.999 F10800
G1 F4800 E4.6841
G1 X109.790 Y113.010 E4.7871 F5400
G1 X108.810 Y113.990 E4.8182
G1 X113.364 Y113.964 E4.9205
G1 X112.436 Y113.036 E4.9499
G1 X113.364 Y113.036 E4.9708
G1 F4800 E3.9708
G1 X116.058 Y113.942 F10800
G1 F4800 E4.9708
G1 X116.942 Y113.942 E4.9906 F5400
G1 X116.058 Y113.058 E5.0187
G1 X116.942 Y113.058 E5.0385
;segType:Support
G1 F4800 E4.0385
G1 X113.077 Y110.077 F10800
G1 F4800 E5.0385
G1 X112.435 Y109.435 E5.0770 F5400
G1 X115.076 Y109.441 E5.1890
G1 F4800 E4.1890
G1 X108.818 Y109.418 F10800
G1 F4800 E5.1890
G1 X109.782 Y109.418 E5.2299 F5400
G1 X108.818 Y110.382 E5.2878
G1 X111.981 Y110.370 E5.4219
G1 X113.077 Y110.077 E5.4701
;segType:SoftSupport
G1 X113.365 Y110.365 E5.4792 F5400
G1 X111.981 Y110.370 E5.5103
G1 F4800 E4.5103
G1 X116.954 Y110.354 F10800
G1 F4800 E5.5103
G1 X116.046 Y110.354 E5.5306 F5400
G1 X116.954 Y109.446 E5.5595
G1 X115.076 Y109.441 E5.6017
;segType:Support
G1 F4800 E4.6017
G1 X105.813 Y102.813 F10800
G1 F4800 E5.6017
G1 X105.587 Y102.587 E5.6152 F5400
G1 F4800 E4.6152
G1 X105.807 Y95.607 F10800
G1 F4800 E5.6152
G1 X105.593 Y95.393 E5.6281 F5400
G1 F4800 E4.6281
G1 X109.171 Y95.371 F10800
G1 F4800 E5.6281
G1 X109.429 Y95.629 E5.6436 F5400
G1 F4800 E4.6436
G1 X112.730 Y91.730 F10800
G1 F4800 E5.6436
G1 X113.070 Y92.070 E5.6639 F5400
G1 F4800 E4.6639
G1 X112.728 Y95.328 F10800
G1 F4800 E5.6639
G1 X113.072 Y95.672 E5.6845 F5400
G1 X116.712 Y95.712 E5.8389
G1 X116.712 Y95.288 E5.8568
G1 X120.367 Y95.233 E6.0118
G1 X120.367 Y95.767 E6.0344
G1 F4800 E5.0344
G1 X119.849 Y98.849 F10800
G1 F4800 E6.0344
G1 X120.351 Y99.351 E6.0646 F5400
G1 X123.986 Y99.386 E6.2187
G1 X123.414 Y98.814 E6.2531
G1 X123.986 Y98.814 E6.2774
G1 F4800 E5.2774
G1 X134.192 Y120.392 F10800
G1 F4800 E6.2774
G1 X134.808 Y120.392 E6.3035 F5400
G1 X134.192 Y121.008 E6.3404
G1 X138.354 Y120.954 E6.5169
G1 X138.354 Y120.446 E6.5385
G1 X141.935 Y120.465 E6.6903
G1 X141.935 Y120.935 E6.7103
G1 F4800 E5.7103
G1 X131.241 Y110.241 F10800
G1 F4800 E6.7103
G1 X130.559 Y110.241 E6.7392 F5400
G1 X131.241 Y109.559 E6.7802
G1 X130.559 Y109.559 E6.8091
G1 F4800 E5.8091
G1 X130.559 Y113.841 F10800
G1 F4800 E6.8091
G1 X131.241 Y113.841 E6.8380 F5400
G1 X130.559 Y113.159 E6.8790
G1 X134.807 Y113.193 E7.0592
G1 X134.193 Y113.807 E7.0960
G1 X138.372 Y113.772 E7.2733
G1 X138.372 Y113.228 E7.2964
G1 X141.936 Y113.264 E7.4475
G1 X141.936 Y113.736 E7.4675
G1 X145.497 Y113.697 E7.6185
G1 X145.497 Y113.303 E7.6352
G1 X149.056 Y113.344 E7.7862
G1 X149.056 Y113.656 E7.7994
G1 F4800 E6.7994
G1 X134.808 Y123.992 F10800
G1 F4800 E7.7994
G1 X134.192 Y123.992 E7.8255 F5400
G1 X134.808 Y124.608 E7.8624
G1 X134.192 Y124.608 E7.8885
G1 F4800 E6.8885
G1 X145.497 Y116.903 F10800
G1 F4800 E7.8885
G1 X145.497 Y117.297 E7.9052 F5400
G1 X141.917 Y117.317 E8.0570
G1 X141.917 Y116.883 E8.0754
G1 X138.373 Y116.827 E8.2257
G1 X137.827 Y117.373 E8.2584
;segType:SoftSupport
G1 F4800 E7.2584
G1 X125.168 Y113.889 F10800
G1 F4800 E8.2584
G1 X123.299 Y113.901 E8.3004 F5400
G1 X124.101 Y113.099 E8.3259
G1 X119.685 Y113.085 E8.4250
G1 X120.515 Y113.915 E8.4514
G1 X119.685 Y113.915 E8.4700
G1 F4800 E7.4700
G1 X124.101 Y110.301 F10800
G1 F4800 E8.4700
G1 X123.299 Y110.301 E8.4881 F5400
G1 X124.101 Y109.499 E8.5136
G1 X123.299 Y109.499 E8.5316
G1 F4800 E7.5316
G1 X119.671 Y109.471 F10800
G1 F4800 E8.5316
G1 X120.529 Y109.471 E8.5508 F5400
G1 X119.671 Y110.329 E8.5781
G1 X120.529 Y110.329 E8.5974
;segType:Support
G1 F4800 E7.5974
G1 X120.354 Y102.954 F10800
G1 F4800 E8.5974
G1 X119.846 Y102.446 E8.6278 F5400
G1 F4800 E7.6278
G1 X123.393 Y102.393 F10800
G1 F4800 E8.6278
G1 X124.007 Y102.393 E8.6538 F5400
G1 X123.393 Y103.007 E8.6906
G1 X127.623 Y103.023 E8.8700
G1 X126.977 Y102.377 E8.9088
G1 X131.256 Y102.344 E9.0902
G1 X130.544 Y103.056 E9.1329
G1 X131.256 Y103.056 E9.1630
G1 F4800 E8.1630
G1 X127.622 Y98.778 F10800
G1 F4800 E9.1630
G1 X126.978 Y98.778 E9.1903 F5400
G1 X127.622 Y99.422 E9.2289
G1 X126.978 Y99.422 E9.2562
G1 F4800 E8.2562
G1 X116.714 Y99.314 F10800
G1 F4800 E9.2562
G1 X116.714 Y98.886 E9.2743 F5400
G1 X113.074 Y98.926 E9.4287
G1 X112.726 Y99.274 E9.4495
G1 F4800 E8.4495
G1 X116.709 Y92.109 F10800
G1 F4800 E9.4495
G1 X116.291 Y91.691 E9.4746 F5400
;segType:SoftSupport
G1 F4800 E8.4746
G1 X134.882 Y95.118 F10800
G1 F4800 E9.4746
G1 X134.118 Y95.118 E9.4918 F5400
G1 X134.882 Y95.882 E9.5160
G1 X134.118 Y95.882 E9.5332
;segType:Support
G1 F4800 E8.5332
G1 X144.964 Y102.364 F10800
G1 F4800 E9.5332
G1 X145.763 Y103.163 E9.5811 F5400
G1 X141.261 Y103.139 E9.7720
G1 X141.731 Y102.669 E9.8002
;segType:SoftSupport
G1 F4800 E8.8002
G1 X144.964 Y102.364 F10800
G1 F4800 E9.8002
G1 X144.837 Y102.237 E9.8043 F5400
G1 X145.763 Y102.237 E9.8250
G1 F4800 E8.8250
G1 X145.621 Y92.370 F10800
G1 F4800 E9.8250
G1 X144.830 Y92.370 E9.8428 F5400
G1 X145.073 Y92.127 E9.8505
;segType:Support
G1 F4800 E8.8505
G1 X119.835 Y91.635 F10800
G1 F4800 E9.8505
G1 X120.365 Y92.166 E9.8824 F5400
G1 F4800 E8.8824
G1 X138.397 Y102.997 F10800
G1 F4800 E9.8824
G1 X138.513 Y103.113 E9.8894 F5400
G1 X137.347 Y103.106 E9.9388
;segType:SoftSupport
G1 F4800 E8.9388
G1 X145.771 Y95.029 F10800
G1 F4800 E9.9388
G1 X144.829 Y95.029 E9.9599 F5400
G1 X145.771 Y95.971 E9.9899
G1 X141.263 Y95.937 E10.0911
G1 X142.137 Y95.063 E10.1189
G1 X137.689 Y95.089 E10.2187
G1 X138.511 Y95.911 E10.2448
G1 X137.689 Y95.911 E10.2633
G1 F4800 E9.2633
G1 X144.838 Y99.562 F10800
G1 F4800 E10.2633
G1 X145.762 Y99.562 E10.2841 F5400
G1 X144.838 Y98.638 E10.3134
G1 X149.380 Y98.620 E10.4154
G1 X148.420 Y99.580 E10.4459
G1 X153.000 Y99.600 E10.5487
G1 X152.000 Y98.600 E10.5804
G1 X153.534 Y98.599 E10.6148
G1 F4800 E9.6148
G1 X148.413 Y95.987 F10800
G1 F4800 E10.6148
G1 X149.387 Y95.987 E10.6367 F5400
G1 X148.413 Y95.013 E10.6677
G1 X149.387 Y95.013 E10.6895
G1 F4800 E9.6895
G1 X152.000 Y96.000 F10800
G1 F4800 E10.6895
G1 X153.000 Y96.000 E10.7120 F5400
G1 X152.000 Y95.000 E10.7437
G1 X153.527 Y94.999 E10.7780
G1 X153.527 Y94.999
;segType:Support
G1 X156.604 Y94.996 E10.9085 F5400
G1 X155.596 Y96.004 E10.9689
G1 X156.604 Y96.004 E11.0116
G1 F4800 E10.0116
G1 X159.378 Y95.005 F10800
G1 F4800 E11.0116
G1 X159.205 Y95.005 E11.0189 F5400
G1 X159.315 Y95.885 E11.0566
;segType:SoftSupport
G1 X160.195 Y95.005 E11.0845 F5400
G1 X159.378 Y95.005 E11.1029
;segType:Support
G1 F4800 E10.1029
G1 X153.534 Y98.599 F10800
G1 F4800 E11.1029
G1 X156.604 Y98.596 E11.2330 F5400
G1 X155.596 Y99.604 E11.2935
G1 X159.012 Y99.597 E11.4383
;segType:SoftSupport
G1 F4800 E10.4383
G1 X160.195 Y95.995 F10800
G1 F4800 E11.4383
G1 X159.309 Y95.995 E11.4582 F5400
G1 F4800 E10.4582
G1 X169.835 Y95.905 F10800
G1 F4800 E11.4582
G1 X166.447 Y95.953 E11.5342 F5400
G1 X167.353 Y95.047 E11.5630
G1 X166.447 Y95.047 E11.5833
;segType:Support
G1 F4800 E10.5833
G1 X167.352 Y99.552 F10800
G1 F4800 E11.5833
G1 X166.448 Y99.552 E11.6217 F5400
G1 X167.352 Y98.648 E11.6758
G1 X166.837 Y98.646 E11.6976
G1 X166.837 Y98.646
;segType:SoftSupport
G1 X162.829 Y98.629 E11.7876 F5400
G1 X163.771 Y99.571 E11.8175
G1 X162.829 Y99.571 E11.8387
G1 F4800 E10.8387
G1 X159.012 Y99.597 F10800
G1 F4800 E11.8387
G1 X160.194 Y99.594 E11.8652 F5400
G1 X159.206 Y98.606 E11.8966
G1 X160.194 Y98.606 E11.9188
;segType:Support
G1 F4800 E10.9188
G1 X149.380 Y102.220 F10800
G1 F4800 E11.9188
G1 X148.420 Y102.220 E11.9596 F5400
G1 X149.380 Y103.180 E12.0172
G1 X148.420 Y103.180 E12.0579
;segType:SoftSupport
G1 F4800 E11.0579
G1 X166.513 Y91.445 F10800
G1 F4800 E12.0579
G1 X167.355 Y91.445 E12.0768 F5400
G1 X166.445 Y92.355 E12.1057
G1 X167.355 Y92.355 E12.1262
;segType:Support
G1 F4800 E11.1262
G1 X170.952 Y84.248 F10800
G1 F4800 E12.1262
G1 X170.048 Y84.248 E12.1646 F5400
G1 X170.952 Y85.152 E12.2188
G1 X170.048 Y85.152 E12.2572
G1 F4800 E11.2572
G1 X170.276 Y87.905 F10800
G1 F4800 E12.2572
G1 X174.424 Y87.976 E12.4331 F5400
G1 X173.776 Y88.624 E12.4719
G1 X174.424 Y88.624 E12.4994
G1 F4800 E11.4994
G1 X174.378 Y91.622 F10800
G1 F4800 E12.4994
G1 X174.378 Y92.178 E12.5229 F5400
G1 X170.143 Y92.257 E12.7025
G1 X170.857 Y91.543 E12.7454
G1 X170.143 Y91.543 E12.7756
;segType:SoftSupport
G1 F4800 E11.7756
G1 X170.102 Y88.698 F10800
G1 F4800 E12.7756
G1 X170.203 Y88.698 E12.7779 F5400
G1 X170.203 Y88.698
;segType:Support
G1 X170.898 Y88.698 E12.8073 F5400
G1 X170.269 Y88.069 E12.8451
G1 F4800 E11.8451
G1 X166.513 Y91.445 F10800
G1 F4800 E12.8451
G1 X166.445 Y91.445 E12.8480 F5400
G1 F4800 E11.8480
G1 X177.508 Y88.108 F10800
G1 F4800 E12.8480
G1 X177.892 Y88.492 E12.8710 F5400
G1 X181.443 Y88.443 E13.0216
G1 X181.443 Y88.157 E13.0337
G1 F4800 E12.0337
G1 X181.447 Y84.847 F10800
G1 F4800 E13.0337
G1 X181.447 Y84.553 E13.0462 F5400
G1 X177.943 Y84.457 E13.1948
G1 X177.457 Y84.943 E13.2240
G1 F4800 E12.2240
G1 X177.902 Y81.302 F10800
G1 F4800 E13.2240
G1 X177.902 Y80.898 E13.2411 F5400
G1 X173.809 Y80.809 E13.4147
G1 X174.391 Y81.391 E13.4496
G1 X173.809 Y81.391 E13.4742
G1 F4800 E12.4742
G1 X181.147 Y80.947 F10800
G1 F4800 E13.4742
G1 X181.453 Y81.253 E13.4926 F5400
G1 F4800 E12.4926
G1 X181.456 Y77.344 F10800
G1 F4800 E13.4926
G1 X181.144 Y77.656 E13.5113 F5400
G1 F4800 E12.5113
G1 X181.136 Y73.736 F10800
G1 F4800 E13.5113
G1 X181.464 Y74.064 E13.5309 F5400
G1 F4800 E12.5309
G1 X177.906 Y77.294 F10800
G1 F4800 E13.5309
G1 X177.494 Y77.706 E13.5556 F5400
G1 F4800 E12.5556
G1 X174.387 Y84.413 F10800
G1 F4800 E13.5556
G1 X173.813 Y84.413 E13.5800 F5400
G1 X174.387 Y84.987 E13.6144
G1 X173.813 Y84.987 E13.6388
;segType:SoftSupport
G1 F4800 E12.6388
G1 X170.269 Y88.069 F10800
G1 F4800 E13.6388
G1 X170.102 Y87.902 E13.6440 F5400
G1 X170.276 Y87.905 E13.6480
;segType:Support
G1 F4800 E12.6479
G1 X170.890 Y95.110 F10800
G1 F4800 E13.6480
G1 X170.110 Y95.110 E13.6811 F5400
G1 X170.890 Y95.890 E13.7279
G1 X169.835 Y95.905 E13.7727
;segType:SoftSupport
G1 F4800 E12.7727
G1 X163.785 Y95.985 F10800
G1 F4800 E13.7727
G1 X162.815 Y95.985 E13.7944 F5400
G1 X163.785 Y95.015 E13.8252
G1 X162.815 Y95.015 E13.8470
G1 F4800 E12.8470
G1 X138.397 Y102.997 F10800
G1 F4800 E13.8470
G1 X137.687 Y102.287 E13.8696 F5400
G1 X142.139 Y102.261 E13.9695
G1 X141.731 Y102.669 E13.9825
;segType:Support
G1 F4800 E12.9825
G1 X127.671 Y110.271 F10800
G1 F4800 E13.9825
G1 X126.929 Y110.271 E14.0140 F5400
G1 X127.671 Y109.529 E14.0585
G1 X126.929 Y109.529 E14.0900
;segType:SoftSupport
G1 F4800 E13.0900
G1 X125.174 Y116.711 F10800
G1 F4800 E14.0900
G1 X123.299 Y116.699 E14.1321 F5400
G1 X124.101 Y117.501 E14.1576
G1 X119.671 Y117.529 E14.2571
G1 X120.529 Y116.671 E14.2843
G1 X116.047 Y116.647 E14.3849
G1 X116.953 Y117.553 E14.4137
G1 X112.426 Y117.574 E14.5153
G1 X113.374 Y116.626 E14.5454
G1 X112.426 Y116.626 E14.5667
G1 F4800 E13.5667
G1 X105.201 Y113.001 F10800
G1 F4800 E14.5667
G1 X106.201 Y114.001 E14.5985 F5400
G1 X105.095 Y114.002 E14.6233
G1 X105.201 Y113.001 E14.6459
;segType:Support
G1 X105.199 Y112.999 E14.6460 F5400
G1 X105.201 Y112.999 E14.6461
G1 X105.095 Y114.002 E14.6888
G1 X101.596 Y114.004 E14.8372
G1 X102.604 Y112.996 E14.8976
G1 X99.596 Y112.999 E15.0252
G1 F4800 E14.0252
G1 X98.008 Y109.408 F10800
G1 F4800 E15.0252
G1 X98.992 Y109.408 E15.0668 F5400
G1 X98.008 Y110.392 E15.1258
G1 X98.992 Y110.392 E15.1675
G1 F4800 E14.1675
G1 X98.999 Y117.599 F10800
G1 F4800 E15.1675
G1 X98.001 Y117.599 E15.2098 F5400
G1 X98.766 Y116.834 E15.2557
G1 F4800 E14.2557
G1 X101.597 Y116.597 F10800
G1 F4800 E15.2557
G1 X102.603 Y116.597 E15.2984 F5400
G1 X101.597 Y117.603 E15.3588
G1 X102.603 Y117.603 E15.4015
;segType:SoftSupport
G1 F4800 E14.4015
G1 X98.001 Y116.601 F10800
G1 F4800 E15.4015
G1 X98.999 Y116.601 E15.4239 F5400
G1 X98.766 Y116.834 E15.4313
G1 F4800 E14.4313
G1 X94.419 Y109.419 F10800
G1 F4800 E15.4313
G1 X95.381 Y109.419 E15.4529 F5400
G1 X94.419 Y110.381 E15.4834
G1 X95.381 Y110.381 E15.5050
G1 F4800 E14.5050
G1 X99.596 Y112.999 F10800
G1 F4800 E15.5050
G1 X98.001 Y113.001 E15.5408 F5400
G1 X98.999 Y113.999 E15.5725
G1 X94.434 Y113.966 E15.6750
G1 X95.366 Y113.034 E15.7046
G1 X90.871 Y113.058 E15.8055
G1 F4800 E14.8055
G1 X91.743 Y110.343 F10800
G1 F4800 E15.8055
G1 X90.857 Y110.343 E15.8254 F5400
G1 X91.743 Y109.457 E15.8535
G1 X90.857 Y109.457 E15.8735
;segType:Support
G1 F4800 E14.8735
G1 X88.076 Y110.276 F10800
G1 F4800 E15.8735
G1 X87.324 Y110.276 E15.9054 F5400
G1 X88.076 Y109.524 E15.9505
G1 X87.324 Y109.524 E15.9824
G1 F4800 E14.9824
G1 X90.871 Y113.058 F10800
G1 F4800 E15.9824
G1 X90.858 Y113.058 E15.9830 F5400
G1 X91.742 Y113.942 E16.0360
G1 X90.858 Y113.942 E16.0735
;segType:SoftSupport
G1 F4800 E15.0735
G1 X91.744 Y106.744 F10800
G1 F4800 E16.0735
G1 X90.856 Y106.744 E16.0934 F5400
G1 X91.744 Y105.856 E16.1216
G1 X90.856 Y105.856 E16.1415
;segType:Support
G1 F4800 E15.1415
G1 X88.076 Y106.676 F10800
G1 F4800 E16.1415
G1 X87.324 Y106.676 E16.1734 F5400
G1 X88.076 Y105.924 E16.2185
G1 X84.355 Y106.045 E16.3764
G1 X83.845 Y106.555 E16.4069
G1 F4800 E15.4069
G1 X80.709 Y102.909 F10800
G1 F4800 E16.4069
G1 X80.291 Y102.491 E16.4320 F5400
G1 F4800 E15.4320
G1 X77.006 Y99.206 F10800
G1 F4800 E16.4320
G1 X76.794 Y98.994 E16.4447 F5400
G1 F4800 E15.4447
G1 X76.793 Y95.607 F10800
G1 F4800 E16.4447
G1 X77.007 Y95.393 E16.4575 F5400
G1 F4800 E15.4575
G1 X76.793 Y92.007 F10800
G1 F4800 E16.4575
G1 X77.007 Y91.793 E16.4704 F5400
; ------------------------------------
; Layer #3
; ------------------------------------
G21 ; mm
G90 ; abs
G92 E0 ; reset extr
M106 S255
;segType:Support
G1 F4800 E-1.0000
G1 F300 Z1.200
G1 X87.624 Y109.976 F10800
G1 F4800 E0.0000
G1 X87.776 Y109.824 E0.0091 F1162
G1 F4800 E-0.9909
G1 X87.624 Y102.776 F10800
G1 F4800 E0.0091
G1 X87.776 Y102.624 E0.0183 F1162
G1 F4800 E-0.9817
G1 X87.624 Y106.224 F10800
G1 F4800 E0.0183
G1 X87.776 Y106.376 E0.0274 F1162
G1 F4800 E-0.9726
G1 X87.662 Y99.062 F10800
G1 F4800 E0.0274
G1 X87.738 Y99.138 E0.0319 F1162
G1 F4800 E-0.9681
G1 X91.156 Y106.444 F10800
G1 F4800 E0.0319
G1 X91.444 Y106.156 E0.0491 F1162
G1 F4800 E-0.9509
G1 X91.157 Y109.757 F10800
G1 F4800 E0.0491
G1 X91.443 Y110.043 E0.0664 F1162
G1 F4800 E-0.9336
G1 X91.158 Y113.358 F10800
G1 F4800 E0.0664
G1 X91.442 Y113.642 E0.0834 F1162
G1 F4800 E-0.9166
G1 X94.719 Y109.719 F10800
G1 F4800 E0.0834
G1 X95.081 Y110.081 E0.1051 F1162
G1 F4800 E-0.8949
G1 X94.734 Y113.334 F10800
G1 F4800 E0.1051
G1 X95.066 Y113.666 E0.1250 F1162
G1 X98.699 Y113.699 E0.2791
G1 X98.699 Y113.301 E0.2960
G1 F4800 E-0.7040
G1 X98.301 Y117.299 F10800
G1 F4800 E0.2960
G1 X98.699 Y116.901 E0.3198 F1162
G1 F4800 E-0.6802
G1 X98.308 Y109.708 F10800
G1 F4800 E0.3198
G1 X98.692 Y110.092 E0.3428 F1162
G1 F4800 E-0.6572
G1 X101.896 Y113.704 F10800
G1 F4800 E0.3428
G1 X102.304 Y113.296 E0.3672 F1162
G1 X105.901 Y113.299 E0.5198
G1 X105.901 Y113.701 E0.5368
G1 F4800 E-0.4632
G1 X101.897 Y117.303 F10800
G1 F4800 E0.5368
G1 X102.303 Y116.897 E0.5612 F1162
G1 X105.896 Y116.904 E0.7136
G1 X105.896 Y117.296 E0.7302
G1 F4800 E-0.2698
G1 X109.110 Y113.310 F10800
G1 F4800 E0.7302
G1 X109.490 Y113.690 E0.7530 F1162
G1 F4800 E-0.2470
G1 X109.110 Y116.910 F10800
G1 F4800 E0.7530
G1 X109.490 Y117.290 E0.7757 F1162
G1 F4800 E-0.2243
G1 X109.118 Y109.718 F10800
G1 F4800 E0.7757
G1 X109.482 Y110.082 E0.7976 F1162
G1 X113.065 Y110.065 E0.9495
G1 X113.065 Y109.735 E0.9635
G1 X116.654 Y109.746 E1.1157
G1 X116.654 Y110.054 E1.1288
G1 F4800 E0.1288
G1 X112.726 Y116.926 F10800
G1 F4800 E1.1288
G1 X113.074 Y117.274 E1.1497 F1162
G1 X116.653 Y117.253 E1.3014
G1 X116.653 Y116.947 E1.3144
G1 F4800 E0.3144
G1 X112.736 Y113.336 F10800
G1 F4800 E1.3144
G1 X113.064 Y113.664 E1.3341 F1162
G1 X116.642 Y113.642 E1.4858
G1 X116.642 Y113.358 E1.4979
G1 X120.215 Y113.385 E1.6494
G1 X120.215 Y113.615 E1.6592
G1 F4800 E0.6592
G1 X112.737 Y120.537 F10800
G1 F4800 E1.6592
G1 X113.063 Y120.863 E1.6788 F1162
G1 X116.653 Y120.853 E1.8310
G1 X116.653 Y120.547 E1.8439
G1 X120.229 Y120.571 E1.9956
G1 X120.229 Y120.829 E2.0066
G1 F4800 E1.0066
G1 X119.971 Y109.771 F10800
G1 F4800 E2.0066
G1 X120.229 Y110.029 E2.0221 F1162
G1 F4800 E1.0221
G1 X119.971 Y117.229 F10800
G1 F4800 E2.0221
G1 X120.229 Y116.971 E2.0376 F1162
G1 F4800 E1.0376
G1 X123.599 Y113.399 F10800
G1 F4800 E2.0376
G1 X123.801 Y113.601 E2.0497 F1162
G1 F4800 E1.0497
G1 X123.599 Y110.001 F10800
G1 F4800 E2.0497
G1 X123.801 Y109.799 E2.0619 F1162
G1 F4800 E1.0619
G1 X123.599 Y120.599 F10800
G1 F4800 E2.0619
G1 X123.801 Y120.801 E2.0740 F1162
G1 F4800 E1.0740
G1 X123.599 Y116.999 F10800
G1 F4800 E2.0740
G1 X123.801 Y117.201 E2.0862 F1162
G1 F4800 E1.0862
G1 X123.693 Y102.693 F10800
G1 F4800 E2.0862
G1 X123.707 Y102.707 E2.0870 F1162
G1 F4800 E1.0870
G1 X127.228 Y117.028 F10800
G1 F4800 E2.0870
G1 X127.372 Y117.172 E2.0957 F1162
G1 F4800 E1.0957
G1 X127.228 Y113.428 F10800
G1 F4800 E2.0957
G1 X127.372 Y113.572 E2.1042 F1162
G1 F4800 E1.1042
G1 X127.229 Y109.971 F10800
G1 F4800 E2.1042
G1 X127.371 Y109.829 E2.1128 F1162
G1 F4800 E1.1128
G1 X127.243 Y120.643 F10800
G1 F4800 E2.1128
G1 X127.357 Y120.757 E2.1196 F1162
G1 F4800 E1.1196
G1 X127.264 Y95.536 F10800
G1 F4800 E2.1196
G1 X127.336 Y95.464 E2.1239 F1162
G1 F4800 E1.1239
G1 X127.265 Y91.865 F10800
G1 F4800 E2.1239
G1 X127.335 Y91.935 E2.1281 F1162
G1 F4800 E1.1281
G1 X127.277 Y102.723 F10800
G1 F4800 E2.1281
G1 X127.323 Y102.677 E2.1309 F1162
G1 F4800 E1.1309
G1 X127.278 Y99.122 F10800
G1 F4800 E2.1309
G1 X127.322 Y99.078 E2.1335 F1162
G1 F4800 E1.1335
G1 X130.844 Y102.756 F10800
G1 F4800 E2.1335
G1 X130.956 Y102.644 E2.1401 F1162
G1 F4800 E1.1401
G1 X130.846 Y99.046 F10800
G1 F4800 E2.1401
G1 X130.954 Y99.154 E2.1466 F1162
G1 F4800 E1.1466
G1 X130.848 Y95.448 F10800
G1 F4800 E2.1466
G1 X130.952 Y95.552 E2.1529 F1162
G1 F4800 E1.1529
G1 X130.850 Y91.850 F10800
G1 F4800 E2.1529
G1 X130.950 Y91.950 E2.1589 F1162
G1 F4800 E1.1589
G1 X130.859 Y113.541 F10800
G1 F4800 E2.1589
G1 X130.941 Y113.459 E2.1638 F1162
G1 F4800 E1.1638
G1 X130.859 Y109.941 F10800
G1 F4800 E2.1638
G1 X130.941 Y109.859 E2.1688 F1162
G1 F4800 E1.1688
G1 X130.859 Y117.141 F10800
G1 F4800 E2.1688
G1 X130.941 Y117.059 E2.1737 F1162
G1 F4800 E1.1737
G1 X130.860 Y120.740 F10800
G1 F4800 E2.1737
G1 X130.940 Y120.660 E2.1785 F1162
G1 F4800 E1.1785
G1 X130.860 Y124.340 F10800
G1 F4800 E2.1785
G1 X130.940 Y124.260 E2.1833 F1162
G1 F4800 E1.1833
G1 X134.415 Y102.615 F10800
G1 F4800 E2.1833
G1 X134.585 Y102.785 E2.1935 F1162
G1 F4800 E1.1935
G1 X134.416 Y99.016 F10800
G1 F4800 E2.1935
G1 X134.584 Y99.184 E2.2036 F1162
G1 F4800 E1.2036
G1 X134.418 Y95.582 F10800
G1 F4800 E2.2036
G1 X134.582 Y95.418 E2.2135 F1162
G1 F4800 E1.2135
G1 X134.420 Y91.820 F10800
G1 F4800 E2.2135
G1 X134.580 Y91.980 E2.2231 F1162
G1 F4800 E1.2231
G1 X134.492 Y124.292 F10800
G1 F4800 E2.2231
G1 X134.508 Y124.308 E2.2240 F1162
G1 F4800 E1.2240
G1 X134.492 Y120.692 F10800
G1 F4800 E2.2240
G1 X134.508 Y120.708 E2.2249 F1162
G1 F4800 E1.2249
G1 X134.492 Y117.092 F10800
G1 F4800 E2.2249
G1 X134.508 Y117.108 E2.2259 F1162
G1 F4800 E1.2259
G1 X134.493 Y113.493 F10800
G1 F4800 E2.2259
G1 X134.507 Y113.507 E2.2267 F1162
G1 F4800 E1.2267
G1 X137.987 Y102.813 F10800
G1 F4800 E2.2267
G1 X138.213 Y102.587 E2.2403 F1162
G1 X141.839 Y102.561 E2.3941
G1 X141.839 Y102.839 E2.4059
G1 F4800 E1.4059
G1 X137.988 Y99.212 F10800
G1 F4800 E2.4059
G1 X138.212 Y98.988 E2.4194 F1162
G1 F4800 E1.4194
G1 X137.989 Y95.389 F10800
G1 F4800 E2.4194
G1 X138.211 Y95.611 E2.4327 F1162
G1 F4800 E1.4327
G1 X137.990 Y92.010 F10800
G1 F4800 E2.4327
G1 X138.210 Y91.790 E2.4458 F1162
G1 X141.836 Y91.764 E2.5996
G1 X141.836 Y92.036 E2.6111
G1 X145.470 Y92.070 E2.7652
G1 X145.470 Y91.730 E2.7797
G1 F4800 E1.7797
G1 X141.561 Y99.239 F10800
G1 F4800 E2.7797
G1 X141.839 Y98.961 E2.7963 F1162
G1 F4800 E1.7963
G1 X141.563 Y95.363 F10800
G1 F4800 E2.7963
G1 X141.837 Y95.637 E2.8128 F1162
G1 F4800 E1.8128
G1 X145.129 Y95.329 F10800
G1 F4800 E2.8128
G1 X145.471 Y95.671 E2.8333 F1162
G1 X149.087 Y95.687 E2.9867
G1 X149.087 Y95.313 E3.0026
G1 F4800 E2.0026
G1 X145.137 Y102.537 F10800
G1 F4800 E3.0026
G1 X145.463 Y102.863 E3.0221 F1162
G1 X149.080 Y102.880 E3.1755
G1 X149.080 Y102.520 E3.1908
G1 F4800 E2.1908
G1 X145.138 Y99.262 F10800
G1 F4800 E3.1908
G1 X145.462 Y98.938 E3.2103 F1162
G1 F4800 E2.2103
G1 X148.720 Y99.280 F10800
G1 F4800 E3.2103
G1 X149.080 Y98.920 E3.2318 F1162
G1 X152.700 Y98.900 E3.3853
G1 X152.700 Y99.300 E3.4023
G1 F4800 E2.4023
G1 X152.300 Y95.700 F10800
G1 F4800 E3.4023
G1 X152.700 Y95.300 E3.4262 F1162
G1 X156.304 Y95.296 E3.5791
G1 X156.304 Y95.704 E3.5963
G1 F4800 E2.5963
G1 X155.896 Y98.896 F10800
G1 F4800 E3.5963
G1 X156.304 Y99.304 E3.6208 F1162
G1 X159.894 Y99.294 E3.7730
G1 X159.894 Y98.906 E3.7895
G1 F4800 E2.7895
G1 X159.505 Y95.305 F10800
G1 F4800 E3.7895
G1 X159.895 Y95.695 E3.8129 F1162
G1 F4800 E2.8129
G1 X163.115 Y95.315 F10800
G1 F4800 E3.8129
G1 X163.485 Y95.685 E3.8351 F1162
G1 F4800 E2.8351
G1 X163.129 Y99.271 F10800
G1 F4800 E3.8351
G1 X163.471 Y98.929 E3.8556 F1162
G1 X167.052 Y98.948 E4.0075
G1 X167.052 Y99.252 E4.0203
G1 F4800 E3.0203
G1 X166.745 Y92.055 F10800
G1 F4800 E4.0203
G1 X167.055 Y91.745 E4.0390 F1162
G1 F4800 E3.0390
G1 X166.747 Y95.347 F10800
G1 F4800 E4.0390
G1 X167.053 Y95.653 E4.0573 F1162
G1 F4800 E3.0573
G1 X170.348 Y84.548 F10800
G1 F4800 E4.0573
G1 X170.652 Y84.852 E4.0756 F1162
G1 F4800 E3.0756
G1 X170.402 Y88.202 F10800
G1 F4800 E4.0756
G1 X170.598 Y88.398 E4.0873 F1162
G1 F4800 E3.0873
G1 X170.410 Y95.410 F10800
G1 F4800 E4.0873
G1 X170.590 Y95.590 E4.0982 F1162
G1 F4800 E3.0982
G1 X170.443 Y91.843 F10800
G1 F4800 E4.0982
G1 X170.557 Y91.957 E4.1050 F1162
G1 F4800 E3.1050
G1 X174.076 Y88.324 F10800
G1 F4800 E4.1050
G1 X174.124 Y88.276 E4.1078 F1162
G1 X70.500 Y127.500 F10800

M117 Done 
G92 E0 ; reset extrusion distance 
G1 E-3 F600 ; Retract 
M104 S0 ; turn off extruder 
M140 S0 ; turn off Bed 
G90 ; Absolute 
G28 X-33 Y-12 ; home x & y 
G1 Z100 ; Lower bed 
M117 Down Bed 
M100 ; Cleaning 
M117 Cleaning 
G28 X-33 Y-12 ; home x & y 
M84 ; Disable motors 
M117 Remove Print
November 4, 2015
Double AyeDouble Aye
Beginner
15 posts
link

M104 S0 ;turn off head heater
M140 S0 ;turn off bed heater
M106 S0
;CraftWare_Settings=AAAPNnjajVfbbts4EH3vVxB+WOwCrUHJki9r9CG14yRA3Bixm+wWBhaMRNtsJVKg6CRGsf++Q1KSqUu69UucOcO5nBnO0D/eIfj0LqKIJjMhOZUzQXe9P1Hw3kEuOXlKKEh3JMmpiyzJK4jHGNeEjK8zSmNAvBqwYSldK5oB4FdAoqjkRDG+vxUimzPZ9PMsWHwtEpoDoOSxJr/JE8LjBvKJxhuaai+jsC6yicSd6o+EqQYgWToTR64cPrSsk445y7V0JslOfRLK5Fs3BxpZQk4rKiPKFdm3LEjyUvI2LOm5JDI5Xb6CmZwJPqdgwBDeCXcGZtCYSmN6eUx0Np6L6ZOPLFYHAHA/wPYTToY4GAbBuFBdEF6keMcXTObq8y05UekYA40qACdtEBvXRd7uAZaQFERzBn+UtdWvSmacGB8uMVVDneGfJXjWuqZsf1AmxYHN0PMmPp7448mwUn59ZDyGTryUUshGV13NREwXQthAe0vPG6G54BRt+dXER5cYTZGkOVWIlqyimOWK8MjoeOjywwAthlgr3lMlSaRAvvRwgNZapo6SI7Hb2fOQkEED3EChXY1LLbx4ykVyVMa+P0Z/fRgM0N8fPB+gg0gpekW/oZN1/tUzjm/FCxh+MjaKFF54YXNpVWYJJRxIKDWc/3/qZDkOQFQ0CUqFAgpLG/c0Fc8UrSTjass/w/f0CeII3sMg8MItn4ujPnRxoudvW/6J7hmHmbTlXogykat8yxPGv295zy3KNSWxLcoU7VhCObQT+ogikcIZpqAQ/cELRDJFKYkOjGswJg+MR2zh4QKAsjKSAEKeciOqqvAReVUlDOuard+5QC8wMf6wvA3R2g9DwNaKSAX3j1c10h1ByjpFQkhoMPCWF3QWJJIkQeSVWcImNU+OG+gU39NA2fPNOCZthTMKdbDhtQv7RulNvfT/Jd/X6wNNkgu+N7c8CNviGx4BMsE1ZGbu/aApgzmpRNpC5pRD2U7ONbbyzultoSWLpNhI8kyTvBvnt1D4W8rNBBhOzGc8xqMJHgGvNeWuQWKRzSnTeVfJQeMVm8b3m8LuaAuwvWwA0Uzfybg2VG84dHRFOG5LLd914Ewg7ntjm+to6IVjL/DrhjuDtFCNhX5YwzYHFn3nNM9bkRYM+ZUQrq/e6+WCqbTN4i7GoCW3sbdqGrA8WLkj2kqmq1cid4j41Zlv9O4J39N/qm7EbWwjMrN8MK6B60iyTDvolRfkFgp8w22fwTKz3If+wBv648CvKd0dVVnX0AFA/H/HgU/L9t0zlQnJnJh1o+vI9FPLMWza6iZ2FFdEHdYprDMYiHtDES7cjX3PGw/xMByVqiX5V9bVm2RWim7v4H5o7Q4DfzDyvYE3aKo3m+Me3lAzARnqwHq6paZOPaeLc4tPDYOwH6bnqHz47k0nuC0dTFvCLkXvLbWeE1/nW0sDd7sdjHz3qWKkPDl94fqVcswyIVXrIMupeazcPX2jkSrfVrjvlyUsbkL5EKqegOvvTHZHYxBoiPINixtyaLO94d0Pa1CVQel6LXaqiNt5KAbdM9RcxmNWLCDXrbXQPVda5sdBd9PATUzhJfDGonDR82xzSXE1fq1N3RONBWA3znnM1MTAMDyG3CVi5Stp72ZdWpS3Ja8evlXBv+T0ylsIafH66H5w1q1fk1VFLc08kJwuRdxsmgcqFYtI5bcs0COR6TFbvLUzznAxvEo3j4acWSJyuhFrcYQfAT+dIVZ/QSIYSxvxQmScV6e8ms5nSuRGrCR9ZuKYrwTjRR1rWispMv2rVv+2LcdtWdlHltHqEmBHWCZfLfWvF/G3o6klfvfvu/8Azu1Utw==
