; GCode generated by CraftWare

; filename = composition.3w 
; machine = daVinciF10 
; material = abs 
; extruder = 1 
M140 S90 ; Bed (no wait) 
M106 S255 ; Start fan 
G90 ; set absolute coordinates 
G28 ; home all axis 
M190 S90 ; Bed (wait) 
M104 S210 ; Extruder (no wait) 
M109 S210 ; Extruder (wait) 
M117 Start 
M117 Cleaning 
M100 ; Cleaning 
M117 Printing 
M109 S220 ;set head temp (wait)
M190 S75 ;set bed temp (wait)
; ------------------------------------
; Layer #0
; ------------------------------------
G21 ; mm
G90 ; abs
G92 E0 ; reset extr
M106 S0
G1 F4800 E-1.0000
G1 F300 Z0.300
G1 X91.086 Y106.844 F10800
G1 X93.137 Y105.051
G1 X97.240 Y101.465
G1 F4800 E0.0000
;segType:HShell
G1 X92.759 Y106.102 E0.3217 F600
G1 X92.250 Y106.079
G1 X96.812 Y101.358 E0.6493
;segType:Perimeter
G1 X97.249 Y101.168 F10800
G1 X97.892 Y101.387 E0.6831 F359
G1 X98.684 Y101.387 E0.7227
G1 X99.102 Y102.944 E0.8031
G1 X99.140 Y103.031 E0.8078
G1 X100.159 Y104.643 E0.9030
G1 X100.883 Y105.357 E0.9537
G1 X101.694 Y105.938 E1.0035
G1 X102.585 Y106.386 E1.0532
G1 X103.533 Y106.691 E1.1029
G1 X104.518 Y106.845 E1.1527
G1 X105.513 Y106.845 E1.2023
G1 X106.499 Y106.691 E1.2521
G1 X107.447 Y106.386 E1.3018
G1 X108.338 Y105.938 E1.3515
G1 X109.160 Y105.348 E1.4020
G1 X110.159 Y104.259 E1.4757
G1 X110.915 Y102.988 E1.5495
G1 X111.348 Y101.387 E1.6323
G1 X112.196 Y101.387 E1.6746
G1 X112.263 Y100.737 E1.7072
G1 X121.817 Y100.737 E2.1839
G1 X121.817 Y102.421 E2.2679
G1 X121.763 Y103.100 E2.3019
G1 X121.606 Y103.755 E2.3355
G1 X121.349 Y104.376 E2.3690
G1 X120.997 Y104.950 E2.4026
G1 X120.559 Y105.463 E2.4363
G1 X120.046 Y105.901 E2.4699
G1 X119.471 Y106.254 E2.5036
G1 X118.847 Y106.512 E2.5372
G1 X118.190 Y106.670 E2.5710
G1 X117.508 Y106.723 E2.6051
G1 X111.168 Y106.723 E2.9214
G1 X110.508 Y107.300 E2.9651
G1 X109.533 Y107.975 E3.0243
G1 X108.477 Y108.513 E3.0834
G1 X107.359 Y108.905 E3.1425
G1 X106.198 Y109.143 E3.2016
G1 X105.016 Y109.223 E3.2607
G1 X103.834 Y109.143 E3.3199
G1 X102.673 Y108.905 E3.3790
G1 X101.555 Y108.513 E3.4381
G1 X100.499 Y107.975 E3.4972
G1 X99.525 Y107.300 E3.5564
G1 X98.864 Y106.723 E3.6001
G1 X92.524 Y106.723 E3.9164
G1 X91.842 Y106.670 E3.9505
G1 X91.185 Y106.512 E3.9842
G1 X90.562 Y106.254 E4.0179
G1 X89.986 Y105.901 E4.0516
G1 X89.474 Y105.463 E4.0852
G1 X89.035 Y104.950 E4.1189
G1 X88.683 Y104.376 E4.1525
G1 X88.426 Y103.755 E4.1860
G1 X88.269 Y103.100 E4.2196
G1 X88.215 Y102.421 E4.2536
G1 X88.215 Y100.737 E4.3376
G1 X97.772 Y100.737 E4.8144
G1 X97.830 Y101.329 E4.8441
G1 X98.104 Y101.968
;segType:Loop
G1 X98.405 Y101.894 F10800
G1 X98.725 Y103.086 E4.9057 F600
G1 X98.789 Y103.231 E4.9136
G1 X99.850 Y104.910 E5.0127
G1 X100.630 Y105.679 E5.0673
G1 X101.492 Y106.297 E5.1202
G1 X102.437 Y106.772 E5.1730
G1 X103.444 Y107.096 E5.2257
G1 X104.488 Y107.259 E5.2785
G1 X105.543 Y107.259 E5.3311
G1 X106.589 Y107.096 E5.3839
G1 X107.595 Y106.772 E5.4367
G1 X108.541 Y106.296 E5.4895
G1 X109.422 Y105.664 E5.5436
G1 X110.478 Y104.513 E5.6215
G1 X111.286 Y103.156 E5.7003
G1 X111.651 Y101.801 E5.7703
G1 X112.556 Y101.801 E5.8155
G1 X112.623 Y101.151 E5.8480
G1 X121.417 Y101.151 E6.2868
G1 X121.417 Y102.404 E6.3493
G1 X121.367 Y103.033 E6.3808
G1 X121.226 Y103.622 E6.4111
G1 X120.994 Y104.182 E6.4413
G1 X120.676 Y104.700 E6.4716
G1 X120.280 Y105.164 E6.5021
G1 X119.815 Y105.561 E6.5325
G1 X119.293 Y105.881 E6.5631
G1 X118.727 Y106.116 E6.5937
G1 X118.129 Y106.259 E6.6243
G1 X117.493 Y106.309 E6.6562
G1 X111.022 Y106.309 E6.9790
G1 X110.267 Y106.969 E7.0291
G1 X109.332 Y107.616 E7.0857
G1 X108.324 Y108.130 E7.1422
G1 X107.256 Y108.505 E7.1987
G1 X106.146 Y108.732 E7.2552
G1 X105.016 Y108.808 E7.3117
G1 X103.886 Y108.732 E7.3682
G1 X102.776 Y108.505 E7.4247
G1 X101.708 Y108.130 E7.4812
G1 X100.700 Y107.616 E7.5377
G1 X99.766 Y106.969 E7.5944
G1 X99.011 Y106.309 E7.6444
G1 X92.539 Y106.309 E7.9673
G1 X91.903 Y106.259 E7.9991
G1 X91.306 Y106.116 E8.0297
G1 X90.739 Y105.881 E8.0603
G1 X90.217 Y105.561 E8.0909
G1 X89.753 Y105.164 E8.1214
G1 X89.356 Y104.700 E8.1518
G1 X89.039 Y104.183 E8.1821
G1 X88.807 Y103.622 E8.2124
G1 X88.665 Y103.033 E8.2426
G1 X88.615 Y102.404 E8.2741
G1 X88.615 Y101.151 E8.3366
G1 X97.410 Y101.151 E8.7754
G1 X97.473 Y101.801 E8.8080
G1 X98.286 Y101.801 E8.8485
G1 F4800 E7.8485
G1 X96.762 Y101.398 F10800
G1 X89.373 Y101.358
G1 F4800 E8.8485
;segType:HShell
G1 X88.815 Y101.935 E8.8886 F600
G1 X88.821 Y102.479
G1 X89.905 Y101.358 E8.9664
G1 X90.436 Y101.358
G1 X88.862 Y102.987 E9.0794
G1 X88.966 Y103.428
G1 X90.967 Y101.358 E9.2231
G1 X91.499 Y101.358
G1 X89.110 Y103.830 E9.3946
G1 X89.285 Y104.198
G1 X92.030 Y101.358 E9.5917
G1 X92.562 Y101.358
G1 X89.491 Y104.535 E9.8121
G1 X89.736 Y104.832
G1 X93.093 Y101.358 E10.0531
G1 X93.624 Y101.358
G1 X90.000 Y105.108 E10.3133
G1 X90.291 Y105.356
G1 X94.156 Y101.358 E10.5907
G1 X94.687 Y101.358
G1 X90.619 Y105.567 E10.8828
G1 X90.970 Y105.754
G1 X95.218 Y101.358 E11.1878
G1 X95.750 Y101.358
G1 X91.349 Y105.911 E11.5037
G1 X91.779 Y106.017
G1 X96.281 Y101.358 E11.8270
G1 X97.288 Y101.965 F10800
G1 X93.290 Y106.102 E12.1140 F600
G1 X93.822 Y106.102
G1 X97.779 Y102.007 E12.3981
G1 X98.246 Y102.074
G1 X94.353 Y106.102 E12.6776
G1 X94.884 Y106.102
G1 X98.361 Y102.504 E12.9272
G1 X98.477 Y102.935
G1 X95.416 Y106.102 E13.1470
G1 X95.947 Y106.102
G1 X98.618 Y103.339 E13.3387
G1 X98.828 Y103.671
G1 X96.478 Y106.102 E13.5074
G1 X97.010 Y106.102
G1 X99.038 Y104.003 E13.6530
G1 X99.248 Y104.336
G1 X97.541 Y106.102 E13.7755
G1 X98.073 Y106.102
G1 X99.458 Y104.668 E13.8750
G1 X99.669 Y105.000
G1 X98.604 Y106.102 E13.9515
G1 X99.112 Y106.127
G1 X99.933 Y105.277 E14.0104
G1 X100.205 Y105.545
G1 X99.400 Y106.378 E14.0682
G1 X99.688 Y106.630
G1 X100.477 Y105.814 E14.1248
G1 X100.787 Y106.043
G1 X99.985 Y106.872 E14.1824
G1 X100.304 Y107.093
G1 X101.101 Y106.268 E14.2396
G1 X101.418 Y106.490
G1 X100.622 Y107.313 E14.2967
G1 X100.957 Y107.516
G1 X101.775 Y106.669 E14.3555
G1 X102.133 Y106.849
G1 X101.313 Y107.698 E14.4144
G1 X101.669 Y107.879
G1 X102.508 Y107.011 E14.4746
G1 X102.913 Y107.142
G1 X102.053 Y108.032 E14.5364
G1 X102.449 Y108.171
G1 X103.318 Y107.272 E14.5988
G1 X103.769 Y107.356
G1 X102.848 Y108.308 E14.6649
G1 X103.292 Y108.399
G1 X104.231 Y107.428 E14.7323
G1 X104.726 Y107.466
G1 X103.735 Y108.490 E14.8034
G1 X104.212 Y108.547
G1 X105.257 Y107.466 E14.8784
G1 X105.829 Y107.423
G1 X104.711 Y108.580 E14.9586
G1 X105.237 Y108.586
G1 X106.455 Y107.326 E15.0460
G1 X120.870 Y103.956 F10800
G1 X119.179 Y105.706 E15.1674 F600
G1 X112.412 Y106.523 F10800
G1 X110.156 Y106.795
G1 X115.410 Y101.358 E15.5447 F600
G1 X115.942 Y101.358
G1 X111.357 Y106.102 E15.8738
G1 X111.888 Y106.102
G1 X116.473 Y101.358 E16.2030
G1 X117.004 Y101.358
G1 X112.419 Y106.102 E16.5322
G1 X112.951 Y106.102
G1 X117.536 Y101.358 E16.8614
G1 X118.067 Y101.358
G1 X113.482 Y106.102 E17.1905
G1 X114.014 Y106.102
G1 X118.599 Y101.358 E17.5197
G1 X119.130 Y101.358
G1 X114.545 Y106.102 E17.8489
G1 X115.076 Y106.102
G1 X119.661 Y101.358 E18.1781
G1 X120.193 Y101.358
G1 X115.608 Y106.102 E18.5072
G1 X116.139 Y106.102
G1 X120.724 Y101.358 E18.8364
G1 X121.217 Y101.397
G1 X116.670 Y106.102 E19.1629
G1 X117.202 Y106.102
G1 X121.217 Y101.947 E19.4512
G1 X121.209 Y102.506
G1 X117.753 Y106.081 E19.6992
G1 X118.375 Y105.988
G1 X121.138 Y103.128 E19.8976
G1 X111.103 Y106.540 F10800
G1 X107.856 Y108.076
G1 X114.348 Y101.358 E20.3637 F600
G1 X114.879 Y101.358
G1 X108.784 Y107.665 E20.8013
G1 X109.389 Y105.939 F10800
G1 X107.078 Y108.330 E20.9672 F600
G1 X112.745 Y101.916 F10800
G1 X113.285 Y101.358 E21.0059 F600
G1 X113.816 Y101.358
G1 X110.508 Y104.781 E21.2435
G1 X107.184 Y107.121 F10800
G1 X105.806 Y108.547 E21.3424 F600
G1 X106.416 Y108.466
G1 X108.053 Y106.772 E21.4600
G1 X111.472 Y103.233 F10800
G1 X112.657 Y102.007 E21.5450 F600
G1 X112.125 Y102.007
G1 X111.678 Y102.470 E21.5771
G1 F4800 E20.5771
G1 X122.184 Y99.676 F10800
G1 X122.380 Y73.586
G1 X122.216 Y71.465
G1 X112.894 Y71.294
G1 X112.978 Y69.783
G1 F4800 E21.5771
G1 X117.555 Y65.046 E21.9058 F600
G1 X118.049 Y65.085
G1 X113.509 Y69.783 E22.2317
;segType:Perimeter
G1 X112.751 Y69.981 F10800
G1 X112.112 Y69.754 E22.2656 F359
G1 X111.316 Y69.754 E22.3053
G1 X110.898 Y68.196 E22.3857
G1 X110.860 Y68.109 E22.3904
G1 X109.841 Y66.497 E22.4856
G1 X109.117 Y65.783 E22.5363
G1 X108.306 Y65.202 E22.5861
G1 X107.415 Y64.754 E22.6358
G1 X106.467 Y64.449 E22.6855
G1 X105.482 Y64.296 E22.7353
G1 X104.487 Y64.296 E22.7849
G1 X103.501 Y64.449 E22.8347
G1 X102.553 Y64.754 E22.8844
G1 X101.662 Y65.202 E22.9341
G1 X100.840 Y65.792 E22.9846
G1 X99.841 Y66.881 E23.0583
G1 X99.085 Y68.152 E23.1321
G1 X98.652 Y69.754 E23.2149
G1 X97.804 Y69.754 E23.2572
G1 X97.737 Y70.404 E23.2898
G1 X88.183 Y70.404 E23.7665
G1 X88.183 Y68.719 E23.8505
G1 X88.237 Y68.040 E23.8845
G1 X88.394 Y67.386 E23.9181
G1 X88.651 Y66.764 E23.9516
G1 X89.003 Y66.190 E23.9852
G1 X89.441 Y65.678 E24.0189
G1 X89.954 Y65.239 E24.0525
G1 X90.529 Y64.887 E24.0862
G1 X91.153 Y64.628 E24.1199
G1 X91.810 Y64.471 E24.1536
G1 X92.492 Y64.417 E24.1877
G1 X98.832 Y64.417 E24.5040
G1 X99.492 Y63.840 E24.5477
G1 X100.467 Y63.165 E24.6069
G1 X101.523 Y62.627 E24.6660
G1 X102.641 Y62.235 E24.7251
G1 X103.802 Y61.997 E24.7843
G1 X104.984 Y61.918 E24.8434
G1 X106.166 Y61.997 E24.9025
G1 X107.327 Y62.235 E24.9616
G1 X108.445 Y62.627 E25.0207
G1 X109.501 Y63.165 E25.0798
G1 X110.475 Y63.840 E25.1390
G1 X111.136 Y64.417 E25.1827
G1 X117.476 Y64.417 E25.4991
G1 X118.158 Y64.471 E25.5332
G1 X118.815 Y64.628 E25.5669
G1 X119.438 Y64.887 E25.6005
G1 X120.014 Y65.239 E25.6342
G1 X120.526 Y65.678 E25.6679
G1 X120.965 Y66.190 E25.7015
G1 X121.317 Y66.764 E25.7351
G1 X121.574 Y67.386 E25.7686
G1 X121.731 Y68.040 E25.8022
G1 X121.785 Y68.719 E25.8362
G1 X121.785 Y70.404 E25.9203
G1 X112.220 Y70.404 E26.3975
G1 X112.173 Y69.812 E26.4271
G1 X111.901 Y69.171
;segType:Loop
G1 X111.595 Y69.246 F10800
G1 X111.275 Y68.054 E26.4886 F600
G1 X111.211 Y67.909 E26.4965
G1 X110.150 Y66.231 E26.5956
G1 X109.370 Y65.461 E26.6503
G1 X108.508 Y64.844 E26.7032
G1 X107.563 Y64.368 E26.7560
G1 X106.556 Y64.045 E26.8087
G1 X105.512 Y63.882 E26.8615
G1 X104.457 Y63.882 E26.9141
G1 X103.411 Y64.045 E26.9669
G1 X102.405 Y64.368 E27.0196
G1 X101.459 Y64.844 E27.0724
G1 X100.578 Y65.476 E27.1265
G1 X99.522 Y66.627 E27.2045
G1 X98.714 Y67.984 E27.2833
G1 X98.349 Y69.340 E27.3533
G1 X97.444 Y69.340 E27.3984
G1 X97.377 Y69.990 E27.4310
G1 X88.583 Y69.990 E27.8698
G1 X88.583 Y68.736 E27.9323
G1 X88.633 Y68.107 E27.9638
G1 X88.774 Y67.518 E27.9940
G1 X89.006 Y66.958 E28.0243
G1 X89.324 Y66.440 E28.0546
G1 X89.720 Y65.976 E28.0850
G1 X90.185 Y65.579 E28.1155
G1 X90.707 Y65.259 E28.1460
G1 X91.273 Y65.024 E28.1766
G1 X91.871 Y64.881 E28.2073
G1 X92.507 Y64.831 E28.2391
G1 X98.978 Y64.831 E28.5620
G1 X99.733 Y64.171 E28.6120
G1 X100.668 Y63.524 E28.6687
G1 X101.676 Y63.010 E28.7252
G1 X102.744 Y62.636 E28.7816
G1 X103.854 Y62.408 E28.8382
G1 X104.984 Y62.332 E28.8947
G1 X106.114 Y62.408 E28.9512
G1 X107.224 Y62.636 E29.0077
G1 X108.292 Y63.010 E29.0642
G1 X109.300 Y63.524 E29.1206
G1 X110.234 Y64.171 E29.1773
G1 X110.989 Y64.831 E29.2273
G1 X117.461 Y64.831 E29.5502
G1 X118.097 Y64.881 E29.5820
G1 X118.694 Y65.024 E29.6127
G1 X119.261 Y65.259 E29.6433
G1 X119.783 Y65.579 E29.6738
G1 X120.247 Y65.976 E29.7043
G1 X120.644 Y66.440 E29.7348
G1 X120.961 Y66.958 E29.7651
G1 X121.193 Y67.518 E29.7953
G1 X121.335 Y68.108 E29.8256
G1 X121.385 Y68.736 E29.8570
G1 X121.385 Y69.990 E29.9196
G1 X112.588 Y69.990 E30.3584
G1 X112.536 Y69.340 E30.3910
G1 X111.714 Y69.340 E30.4320
G1 F4800 E29.4320
G1 X112.748 Y69.471 F10800
G1 F4800 E30.4320
;segType:HShell
G1 X117.031 Y65.038 E30.7395 F600
G1 X116.500 Y65.038
G1 X112.543 Y69.133 E31.0236
G1 X112.011 Y69.133
G1 X115.968 Y65.038 E31.3077
G1 X115.437 Y65.038
G1 X111.709 Y68.896 E31.5754
G1 X111.593 Y68.466
G1 X114.906 Y65.038 E31.8132
G1 X114.374 Y65.038
G1 X111.478 Y68.036 E32.0211
G1 X111.299 Y67.670
G1 X113.843 Y65.038 E32.2038
G1 X113.312 Y65.038
G1 X111.089 Y67.338 E32.3633
G1 X110.879 Y67.006
G1 X112.780 Y65.038 E32.4998
G1 X112.249 Y65.038
G1 X110.669 Y66.673 E32.6133
G1 X110.459 Y66.341
G1 X111.717 Y65.038 E32.7036
G1 X111.186 Y65.038
G1 X110.232 Y66.026 E32.7722
G1 X109.960 Y65.757
G1 X110.774 Y64.914 E32.8306
G1 X110.486 Y64.662
G1 X109.688 Y65.489 E32.8880
G1 X109.403 Y65.233
G1 X110.198 Y64.411 E32.9450
G1 X109.889 Y64.181
G1 X109.089 Y65.008 E33.0024
G1 X108.775 Y64.783
G1 X109.571 Y63.960 E33.0595
G1 X109.252 Y63.740
G1 X108.441 Y64.580 E33.1178
G1 X108.083 Y64.400
G1 X108.902 Y63.552 E33.1766
G1 X108.546 Y63.371
G1 X107.725 Y64.220 E33.2355
G1 X107.332 Y64.078
G1 X108.187 Y63.192 E33.2969
G1 X107.791 Y63.053
G1 X106.927 Y63.947 E33.3590
G1 X106.510 Y63.828
G1 X107.394 Y62.914 E33.4224
G1 X106.976 Y62.796
G1 X106.048 Y63.756 E33.4890
G1 X105.587 Y63.684
G1 X106.533 Y62.705 E33.5570
G1 X106.089 Y62.614
G1 X105.064 Y63.675 E33.6306
G1 X104.533 Y63.675
G1 X105.590 Y62.581 E33.7065
G1 X105.091 Y62.547
G1 X103.923 Y63.756 E33.7903
G1 X107.484 Y64.574 F10800
G1 X120.948 Y69.783
G1 X121.185 Y69.537 E33.8073 F600
G1 X121.185 Y68.988
G1 X120.417 Y69.783 E33.8625
G1 X119.885 Y69.783
G1 X121.163 Y68.461 E33.9542
G1 X121.098 Y67.978
G1 X119.354 Y69.783 E34.0794
G1 X118.823 Y69.783
G1 X120.986 Y67.544 E34.2348
G1 X120.827 Y67.159
G1 X118.291 Y69.783 E34.4168
G1 X117.760 Y69.783
G1 X120.633 Y66.809 E34.6231
G1 X120.415 Y66.485
G1 X117.228 Y69.783 E34.8519
G1 X116.697 Y69.783
G1 X120.166 Y66.193 E35.1010
G1 X119.885 Y65.934
G1 X116.166 Y69.783 E35.3680
G1 X115.634 Y69.783
G1 X119.583 Y65.697 E35.6514
G1 X119.249 Y65.492
G1 X115.103 Y69.783 E35.9491
G1 X114.572 Y69.783
G1 X118.880 Y65.324 E36.2584
G1 X118.482 Y65.186
G1 X114.040 Y69.783 E36.5773
G1 X108.401 Y65.034 F10800
G1 X106.509 Y64.260
G1 X104.473 Y64.102
G1 X102.483 Y64.574
G1 X100.718 Y65.645
G1 X98.403 Y68.368
G1 X97.665 Y69.133 E36.6304 F600
G1 X97.217 Y69.596
G1 X97.037 Y69.783 E36.6433
G1 X96.505 Y69.783
G1 X98.859 Y67.347 E36.8123
G1 X91.352 Y65.218 F10800
G1 X88.931 Y67.723 E36.9861 F600
G1 X90.317 Y65.738 F10800
G1 X89.424 Y66.663 E37.0502 F600
G1 X88.810 Y68.398 F10800
G1 X92.019 Y65.077 E37.2806 F600
G1 X92.588 Y65.038
G1 X88.783 Y68.976 E37.5538
G1 X88.783 Y69.526
G1 X93.120 Y65.038 E37.8652
G1 X93.651 Y65.038
G1 X89.066 Y69.783 E38.1944
G1 X89.597 Y69.783
G1 X94.182 Y65.038 E38.5236
G1 X94.714 Y65.038
G1 X90.129 Y69.783 E38.8527
G1 X90.660 Y69.783
G1 X95.245 Y65.038 E39.1819
G1 X95.776 Y65.038
G1 X91.191 Y69.783 E39.5111
G1 X91.723 Y69.783
G1 X96.308 Y65.038 E39.8403
G1 X96.839 Y65.038
G1 X92.254 Y69.783 E40.1694
G1 X92.786 Y69.783
G1 X97.371 Y65.038 E40.4986
G1 X97.902 Y65.038
G1 X93.317 Y69.783 E40.8278
G1 X93.848 Y69.783
G1 X98.433 Y65.038 E41.1570
G1 X98.965 Y65.038
G1 X94.380 Y69.783 E41.4861
G1 X94.911 Y69.783
G1 X100.802 Y63.686 E41.9091
G1 X101.827 Y63.176 F10800
G1 X95.442 Y69.783 E42.3674 F600
G1 X95.974 Y69.783
G1 X102.631 Y62.894 E42.8454
G1 X102.511 Y64.118 F10800
G1 X103.970 Y62.608 E42.9501 F600
G1 X104.538 Y62.570
G1 X103.282 Y63.870 E43.0403
G1 X103.322 Y62.728 F10800
G1 X101.539 Y64.573 E43.1683 F600
G1 F4800 E42.1683
G1 X97.070 Y72.498 F10800
G1 F4800 E43.1683
G1 X92.489 Y77.238 E43.4972 F600
G1 X93.016 Y77.242
G1 X97.263 Y72.847 E43.8021
;segType:Perimeter
G1 X97.249 Y72.308 F10800
G1 X97.892 Y72.527 E43.8360 F359
G1 X98.684 Y72.527 E43.8755
G1 X99.102 Y74.085 E43.9559
G1 X99.140 Y74.171 E43.9607
G1 X100.159 Y75.783 E44.0558
G1 X100.883 Y76.498 E44.1065
G1 X101.694 Y77.079 E44.1563
G1 X102.585 Y77.526 E44.2061
G1 X103.534 Y77.831 E44.2558
G1 X104.518 Y77.985 E44.3055
G1 X105.513 Y77.985 E44.3551
G1 X106.499 Y77.831 E44.4049
G1 X107.447 Y77.526 E44.4546
G1 X108.338 Y77.078 E44.5044
G1 X109.160 Y76.488 E44.5548
G1 X110.159 Y75.400 E44.6286
G1 X110.915 Y74.129 E44.7023
G1 X111.348 Y72.527 E44.7851
G1 X112.196 Y72.527 E44.8274
G1 X112.263 Y71.877 E44.8600
G1 X121.817 Y71.877 E45.3367
G1 X121.817 Y73.562 E45.4207
G1 X121.763 Y74.241 E45.4547
G1 X121.606 Y74.895 E45.4883
G1 X121.349 Y75.516 E45.5218
G1 X120.997 Y76.090 E45.5554
G1 X120.559 Y76.603 E45.5891
G1 X120.046 Y77.041 E45.6227
G1 X119.471 Y77.394 E45.6564
G1 X118.847 Y77.652 E45.6901
G1 X118.190 Y77.810 E45.7238
G1 X117.508 Y77.863 E45.7579
G1 X111.168 Y77.863 E46.0742
G1 X110.508 Y78.441 E46.1180
G1 X109.533 Y79.115 E46.1771
G1 X108.477 Y79.653 E46.2362
G1 X107.359 Y80.046 E46.2953
G1 X106.198 Y80.284 E46.3545
G1 X105.016 Y80.363 E46.4136
G1 X103.834 Y80.284 E46.4727
G1 X102.673 Y80.046 E46.5318
G1 X101.555 Y79.653 E46.5909
G1 X100.499 Y79.115 E46.6500
G1 X99.525 Y78.441 E46.7092
G1 X98.865 Y77.863 E46.7529
G1 X92.524 Y77.863 E47.0693
G1 X91.842 Y77.810 E47.1034
G1 X91.185 Y77.652 E47.1371
G1 X90.562 Y77.394 E47.1708
G1 X89.986 Y77.041 E47.2044
G1 X89.474 Y76.603 E47.2381
G1 X89.035 Y76.090 E47.2717
G1 X88.683 Y75.516 E47.3053
G1 X88.426 Y74.895 E47.3389
G1 X88.269 Y74.241 E47.3724
G1 X88.215 Y73.562 E47.4064
G1 X88.215 Y71.877 E47.4905
G1 X97.772 Y71.877 E47.9673
G1 X97.830 Y72.469 E47.9969
G1 X98.104 Y73.109
;segType:Loop
G1 X98.405 Y73.035 F10800
G1 X98.725 Y74.226 E48.0585 F600
G1 X98.789 Y74.372 E48.0664
G1 X99.850 Y76.050 E48.1655
G1 X100.630 Y76.820 E48.2201
G1 X101.492 Y77.437 E48.2730
G1 X102.437 Y77.913 E48.3258
G1 X103.444 Y78.236 E48.3786
G1 X104.488 Y78.399 E48.4313
G1 X105.543 Y78.399 E48.4839
G1 X106.589 Y78.236 E48.5368
G1 X107.595 Y77.912 E48.5895
G1 X108.541 Y77.437 E48.6423
G1 X109.422 Y76.804 E48.6964
G1 X110.478 Y75.653 E48.7743
G1 X111.286 Y74.296 E48.8531
G1 X111.651 Y72.941 E48.9232
G1 X112.556 Y72.941 E48.9683
G1 X112.623 Y72.291 E49.0009
G1 X121.417 Y72.291 E49.4396
G1 X121.417 Y73.545 E49.5022
G1 X121.367 Y74.173 E49.5336
G1 X121.226 Y74.763 E49.5639
G1 X120.994 Y75.323 E49.5941
G1 X120.676 Y75.841 E49.6244
G1 X120.280 Y76.305 E49.6549
G1 X119.815 Y76.702 E49.6854
G1 X119.293 Y77.022 E49.7159
G1 X118.727 Y77.256 E49.7465
G1 X118.129 Y77.400 E49.7772
G1 X117.493 Y77.449 E49.8090
G1 X111.021 Y77.449 E50.1319
G1 X110.266 Y78.110 E50.1819
G1 X109.332 Y78.756 E50.2386
G1 X108.324 Y79.270 E50.2950
G1 X107.256 Y79.645 E50.3515
G1 X106.146 Y79.872 E50.4080
G1 X105.016 Y79.948 E50.4645
G1 X103.886 Y79.872 E50.5210
G1 X102.777 Y79.645 E50.5775
G1 X101.708 Y79.270 E50.6341
G1 X100.700 Y78.756 E50.6905
G1 X99.766 Y78.110 E50.7472
G1 X99.011 Y77.449 E50.7972
G1 X92.539 Y77.449 E51.1201
G1 X91.903 Y77.400 E51.1519
G1 X91.306 Y77.256 E51.1826
G1 X90.739 Y77.022 E51.2132
G1 X90.217 Y76.702 E51.2437
G1 X89.753 Y76.304 E51.2742
G1 X89.356 Y75.841 E51.3047
G1 X89.039 Y75.323 E51.3350
G1 X88.807 Y74.763 E51.3652
G1 X88.665 Y74.173 E51.3955
G1 X88.615 Y73.545 E51.4269
G1 X88.615 Y72.291 E51.4895
G1 X97.410 Y72.291 E51.9283
G1 X97.473 Y72.941 E51.9608
G1 X98.286 Y72.941 E52.0014
G1 F4800 E51.0014
G1 X96.623 Y72.612 F10800
G1 X88.815 Y72.792
G1 F4800 E52.0014
;segType:HShell
G1 X89.099 Y72.498 E52.0218 F600
G1 X89.630 Y72.498
G1 X88.815 Y73.342 E52.0803
G1 X88.841 Y73.865
G1 X90.162 Y72.498 E52.1751
G1 X90.693 Y72.498
G1 X88.912 Y74.342 E52.3030
G1 X89.028 Y74.771
G1 X91.224 Y72.498 E52.4607
G1 X91.756 Y72.498
G1 X89.187 Y75.156 E52.6452
G1 X89.385 Y75.501
G1 X92.287 Y72.498 E52.8535
G1 X92.819 Y72.498
G1 X89.607 Y75.822 E53.0841
G1 X89.856 Y76.113
G1 X93.350 Y72.498 E53.3350
G1 X93.881 Y72.498
G1 X90.141 Y76.368 E53.6035
G1 X90.447 Y76.602
G1 X94.413 Y72.498 E53.8882
G1 X94.944 Y72.498
G1 X90.781 Y76.806 E54.1871
G1 X91.154 Y76.970
G1 X95.475 Y72.498 E54.4974
G1 X96.007 Y72.498
G1 X91.556 Y77.104 E54.8169
G1 X91.995 Y77.199
G1 X96.538 Y72.498 E55.1431
G1 X97.504 Y73.148 F10800
G1 X93.548 Y77.242 E55.4272 F600
G1 X94.079 Y77.242
G1 X98.036 Y73.148 E55.7112
G1 X98.302 Y73.423
G1 X94.610 Y77.242 E55.9763
G1 X95.142 Y77.242
G1 X98.417 Y73.853 E56.2114
G1 X98.533 Y74.283
G1 X95.673 Y77.242 E56.4167
G1 X96.204 Y77.242
G1 X98.719 Y74.640 E56.5973
G1 X98.930 Y74.972
G1 X96.736 Y77.242 E56.7548
G1 X97.267 Y77.242
G1 X99.140 Y75.304 E56.8892
G1 X99.350 Y75.637
G1 X97.799 Y77.242 E57.0006
G1 X98.330 Y77.242
G1 X99.560 Y75.969 E57.0890
G1 X99.792 Y76.279
G1 X98.861 Y77.242 E57.1558
G1 X99.251 Y77.389
G1 X100.064 Y76.547 E57.2142
G1 X100.336 Y76.816
G1 X99.539 Y77.640 E57.2714
G1 X99.827 Y77.892
G1 X100.624 Y77.067 E57.3286
G1 X100.938 Y77.292
G1 X100.139 Y78.119 E57.3860
G1 X100.458 Y78.340
G1 X101.252 Y77.517 E57.4430
G1 X101.591 Y77.717
G1 X100.776 Y78.560 E57.5015
G1 X101.129 Y78.744
G1 X101.948 Y77.897 E57.5603
G1 X102.306 Y78.077
G1 X101.485 Y78.926 E57.6193
G1 X101.848 Y79.100
G1 X102.704 Y78.215 E57.6807
G1 X103.109 Y78.345
G1 X102.245 Y79.240 E57.7428
G1 X102.641 Y79.379
G1 X103.531 Y78.459 E57.8066
G1 X103.993 Y78.531
G1 X103.063 Y79.493 E57.8734
G1 X103.507 Y79.584
G1 X104.454 Y78.603 E57.9414
G1 X104.983 Y78.606
G1 X103.955 Y79.669 E58.0152
G1 X104.454 Y79.703
G1 X105.514 Y78.606 E58.0913
G1 X106.132 Y78.516
G1 X104.953 Y79.736 E58.1760
G1 X105.513 Y79.707
G1 X106.787 Y78.389 E58.2675
G1 X120.422 Y75.826 F10800
G1 X119.930 Y76.335 E58.3028 F600
G1 X118.722 Y77.035 F10800
G1 X121.053 Y74.623 E58.4702 F600
G1 X111.083 Y77.242 F10800
G1 X115.667 Y72.498 E58.7993 F600
G1 X116.199 Y72.498
G1 X111.614 Y77.242 E59.1285
G1 X112.145 Y77.242
G1 X116.730 Y72.498 E59.4576
G1 X117.261 Y72.498
G1 X112.677 Y77.242 E59.7868
G1 X113.208 Y77.242
G1 X117.793 Y72.498 E60.1160
G1 X118.324 Y72.498
G1 X113.740 Y77.242 E60.4451
G1 X114.271 Y77.242
G1 X118.856 Y72.498 E60.7743
G1 X119.387 Y72.498
G1 X114.802 Y77.242 E61.1034
G1 X115.334 Y77.242
G1 X119.918 Y72.498 E61.4326
G1 X120.450 Y72.498
G1 X115.865 Y77.242 E61.7617
G1 X116.396 Y77.242
G1 X120.981 Y72.498 E62.0909
G1 X121.217 Y72.803
G1 X116.928 Y77.242 E62.3989
G1 X117.459 Y77.242
G1 X121.217 Y73.353 E62.6687
G1 X121.186 Y73.936
G1 X118.032 Y77.200 E62.8951
G1 X111.103 Y77.681 F10800
G1 X108.245 Y79.079
G1 X114.605 Y72.498 E63.3517 F600
G1 X115.136 Y72.498
G1 X109.322 Y78.514 E63.7691
G1 X111.065 Y75.061 F10800
G1 X113.542 Y72.498 E63.9470 F600
G1 X114.073 Y72.498
G1 X107.441 Y79.362 E64.4232
G1 X106.737 Y79.540
G1 X108.553 Y77.661 E64.5536
G1 X107.557 Y78.141 F10800
G1 X106.081 Y79.669 E64.6596 F600
G1 X110.308 Y75.518 F10800
G1 X111.784 Y73.217
G1 X111.851 Y73.148 E64.6644 F600
G1 X112.382 Y73.148
G1 X111.578 Y73.980 E64.7221
G1 X113.011 Y72.498 F10800
G1 X112.778 Y72.739 E64.7388 F600
G1 F4800 E63.7388
G1 X112.769 Y98.593 F10800
G1 F4800 E64.7388
G1 X117.305 Y93.898 E65.0645 F600
G1 X117.810 Y93.926
G1 X113.252 Y98.642 E65.3917
;segType:Perimeter
G1 X112.751 Y98.841 F10800
G1 X112.112 Y98.613 E65.4256 F359
G1 X111.316 Y98.613 E65.4653
G1 X110.898 Y97.056 E65.5457
G1 X110.860 Y96.969 E65.5505
G1 X109.841 Y95.357 E65.6456
G1 X109.117 Y94.643 E65.6964
G1 X108.306 Y94.062 E65.7461
G1 X107.415 Y93.614 E65.7959
G1 X106.466 Y93.309 E65.8456
G1 X105.482 Y93.155 E65.8953
G1 X104.487 Y93.155 E65.9449
G1 X103.501 Y93.309 E65.9947
G1 X102.553 Y93.614 E66.0444
G1 X101.662 Y94.062 E66.0942
G1 X100.840 Y94.652 E66.1446
G1 X99.841 Y95.741 E66.2184
G1 X99.085 Y97.012 E66.2921
G1 X98.652 Y98.613 E66.3749
G1 X97.804 Y98.613 E66.4172
G1 X97.737 Y99.263 E66.4498
G1 X88.183 Y99.263 E66.9265
G1 X88.183 Y97.579 E67.0105
G1 X88.237 Y96.900 E67.0445
G1 X88.394 Y96.245 E67.0781
G1 X88.651 Y95.624 E67.1116
G1 X89.003 Y95.050 E67.1452
G1 X89.441 Y94.537 E67.1789
G1 X89.954 Y94.099 E67.2125
G1 X90.529 Y93.746 E67.2462
G1 X91.153 Y93.488 E67.2799
G1 X91.810 Y93.330 E67.3136
G1 X92.492 Y93.277 E67.3477
G1 X98.832 Y93.277 E67.6640
G1 X99.492 Y92.700 E67.7078
G1 X100.467 Y92.025 E67.7669
G1 X101.523 Y91.487 E67.8260
G1 X102.641 Y91.094 E67.8851
G1 X103.802 Y90.857 E67.9443
G1 X104.984 Y90.778 E68.0034
G1 X106.166 Y90.857 E68.0625
G1 X107.327 Y91.094 E68.1216
G1 X108.445 Y91.487 E68.1807
G1 X109.501 Y92.025 E68.2398
G1 X110.475 Y92.700 E68.2990
G1 X111.135 Y93.277 E68.3427
G1 X117.476 Y93.277 E68.6591
G1 X118.158 Y93.330 E68.6932
G1 X118.815 Y93.488 E68.7269
G1 X119.438 Y93.746 E68.7605
G1 X120.014 Y94.099 E68.7942
G1 X120.526 Y94.537 E68.8279
G1 X120.965 Y95.050 E68.8615
G1 X121.317 Y95.624 E68.8951
G1 X121.574 Y96.245 E68.9287
G1 X121.731 Y96.900 E68.9622
G1 X121.785 Y97.579 E68.9962
G1 X121.785 Y99.263 E69.0803
G1 X112.220 Y99.263 E69.5575
G1 X112.173 Y98.671 E69.5871
G1 X111.901 Y98.030
;segType:Loop
G1 X111.595 Y98.106 F10800
G1 X111.275 Y96.914 E69.6486 F600
G1 X111.211 Y96.769 E69.6566
G1 X110.150 Y95.091 E69.7556
G1 X109.370 Y94.321 E69.8103
G1 X108.508 Y93.703 E69.8632
G1 X107.563 Y93.228 E69.9160
G1 X106.556 Y92.905 E69.9687
G1 X105.512 Y92.741 E70.0214
G1 X104.457 Y92.741 E70.0741
G1 X103.411 Y92.905 E70.1269
G1 X102.405 Y93.228 E70.1796
G1 X101.459 Y93.703 E70.2324
G1 X100.578 Y94.336 E70.2865
G1 X99.522 Y95.487 E70.3645
G1 X98.714 Y96.844 E70.4433
G1 X98.349 Y98.199 E70.5133
G1 X97.444 Y98.199 E70.5584
G1 X97.377 Y98.849 E70.5910
G1 X88.583 Y98.849 E71.0298
G1 X88.583 Y97.596 E71.0923
G1 X88.633 Y96.967 E71.1238
G1 X88.774 Y96.378 E71.1540
G1 X89.006 Y95.818 E71.1842
G1 X89.324 Y95.299 E71.2146
G1 X89.720 Y94.836 E71.2450
G1 X90.185 Y94.439 E71.2755
G1 X90.707 Y94.119 E71.3060
G1 X91.273 Y93.884 E71.3366
G1 X91.871 Y93.741 E71.3673
G1 X92.507 Y93.691 E71.3991
G1 X98.979 Y93.691 E71.7220
G1 X99.733 Y93.031 E71.7720
G1 X100.668 Y92.384 E71.8287
G1 X101.676 Y91.870 E71.8852
G1 X102.744 Y91.495 E71.9416
G1 X103.854 Y91.268 E71.9982
G1 X104.984 Y91.192 E72.0547
G1 X106.114 Y91.268 E72.1112
G1 X107.224 Y91.495 E72.1677
G1 X108.292 Y91.870 E72.2242
G1 X109.300 Y92.384 E72.2806
G1 X110.234 Y93.031 E72.3373
G1 X110.989 Y93.691 E72.3873
G1 X117.461 Y93.691 E72.7102
G1 X118.097 Y93.741 E72.7420
G1 X118.694 Y93.884 E72.7727
G1 X119.261 Y94.119 E72.8033
G1 X119.783 Y94.439 E72.8338
G1 X120.247 Y94.836 E72.8643
G1 X120.644 Y95.299 E72.8947
G1 X120.961 Y95.817 E72.9251
G1 X121.193 Y96.378 E72.9553
G1 X121.335 Y96.967 E72.9856
G1 X121.385 Y97.596 E73.0170
G1 X121.385 Y98.849 E73.0795
G1 X112.588 Y98.849 E73.5184
G1 X112.536 Y98.199 E73.5509
G1 X111.714 Y98.199 E73.5920
G1 F4800 E72.5920
G1 X104.875 Y94.284 F10800
G1 X102.909 Y92.849
G1 F4800 E73.5920
;segType:HShell
G1 X104.263 Y91.448 E73.6892 F600
G1 X103.664 Y91.518
G1 X102.072 Y93.165 E73.8035
G1 X105.496 Y92.962 F10800
G1 X107.484 Y93.433
G1 X109.236 Y94.492
G1 X112.728 Y98.085
G1 X116.774 Y93.898 E74.0939 F600
G1 X116.242 Y93.898
G1 X112.286 Y97.992 E74.3780
G1 X111.768 Y97.978
G1 X115.711 Y93.898 E74.6611
G1 X115.180 Y93.898
G1 X111.653 Y97.548 E74.9143
G1 X111.537 Y97.117
G1 X114.648 Y93.898 E75.1376
G1 X114.117 Y93.898
G1 X111.403 Y96.706 E75.3325
G1 X111.198 Y96.369
G1 X113.586 Y93.898 E75.5039
G1 X113.054 Y93.898
G1 X110.987 Y96.037 E75.6523
G1 X110.777 Y95.704
G1 X112.523 Y93.898 E75.7776
G1 X111.991 Y93.898
G1 X110.567 Y95.372 E75.8799
G1 X110.357 Y95.040
G1 X111.460 Y93.898 E75.9591
G1 X110.929 Y93.898
G1 X110.100 Y94.755 E76.0186
G1 X109.828 Y94.487
G1 X110.635 Y93.652 E76.0765
G1 X110.347 Y93.400
G1 X109.556 Y94.218 E76.1333
G1 X109.252 Y93.984
G1 X110.053 Y93.154 E76.1908
G1 X109.735 Y92.934
G1 X108.938 Y93.759 E76.2480
G1 X108.624 Y93.534
G1 X109.416 Y92.714 E76.3050
G1 X109.086 Y92.506
G1 X108.268 Y93.352 E76.3637
G1 X107.910 Y93.172
G1 X108.730 Y92.324 E76.4225
G1 X108.374 Y92.143
G1 X107.541 Y93.004 E76.4823
G1 X107.136 Y92.874
G1 X107.995 Y91.985 E76.5440
G1 X107.599 Y91.845
G1 X106.730 Y92.744 E76.6063
G1 X106.287 Y92.653
G1 X107.202 Y91.706 E76.6721
G1 X106.762 Y91.612
G1 X105.825 Y92.581 E76.7393
G1 X105.338 Y92.535
G1 X106.318 Y91.521 E76.8096
G1 X105.848 Y91.458
G1 X104.807 Y92.534 E76.8844
G1 X104.246 Y92.565
G1 X105.349 Y91.424 E76.9635
G1 X104.831 Y91.410
G1 X103.621 Y92.663 E77.0504
G1 X106.508 Y93.120 F10800
G1 X108.401 Y93.894
G1 X109.985 Y95.233
G1 X113.783 Y98.642
G1 X118.274 Y93.996 E77.3728 F600
G1 X118.696 Y94.108
G1 X114.315 Y98.642 E77.6874
G1 X114.846 Y98.642
G1 X119.076 Y94.265 E77.9911
G1 X119.421 Y94.458
G1 X115.377 Y98.642 E78.2814
G1 X115.909 Y98.642
G1 X119.744 Y94.674 E78.5567
G1 X120.035 Y94.922
G1 X116.440 Y98.642 E78.8148
G1 X116.971 Y98.642
G1 X120.295 Y95.203 E79.0534
G1 X120.534 Y95.506
G1 X117.503 Y98.642 E79.2710
G1 X118.034 Y98.642
G1 X120.740 Y95.842 E79.4653
G1 X120.909 Y96.217
G1 X118.566 Y98.642 E79.6335
G1 X119.097 Y98.642
G1 X121.047 Y96.625 E79.7735
G1 X121.143 Y97.075
G1 X119.628 Y98.642 E79.8823
G1 X120.160 Y98.642
G1 X121.183 Y97.583 E79.9558
G1 X121.185 Y98.131
G1 X120.691 Y98.642 E79.9913
G1 X103.002 Y91.653 F10800
G1 X100.822 Y93.909 E80.1478 F600
G1 X100.044 Y93.065 F10800
G1 X94.654 Y98.642 E80.5347 F600
G1 X94.123 Y98.642
G1 X98.707 Y93.898 E80.8639
G1 X98.176 Y93.898
G1 X93.591 Y98.642 E81.1930
G1 X93.060 Y98.642
G1 X97.645 Y93.898 E81.5222
G1 X97.113 Y93.898
G1 X92.529 Y98.642 E81.8513
G1 X91.997 Y98.642
G1 X96.582 Y93.898 E82.1805
G1 X96.050 Y93.898
G1 X91.466 Y98.642 E82.5097
G1 X90.934 Y98.642
G1 X95.519 Y93.898 E82.8388
G1 X94.988 Y93.898
G1 X90.403 Y98.642 E83.1680
G1 X89.872 Y98.642
G1 X94.456 Y93.898 E83.4971
G1 X93.925 Y93.898
G1 X89.340 Y98.642 E83.8263
G1 X88.809 Y98.642
G1 X93.394 Y93.898 E84.1554
G1 X92.862 Y93.898
G1 X88.783 Y98.120 E84.4483
G1 X88.786 Y97.567
G1 X92.316 Y93.913 E84.7018
G1 X91.709 Y93.992
G1 X88.840 Y96.960 E84.9077
G1 X97.247 Y98.158 F10800
G1 X96.779 Y98.642 E84.9413 F600
G1 X96.248 Y98.642
G1 X99.271 Y95.514 E85.1584
G1 X97.939 Y97.992 F10800
G1 X98.297 Y97.622 E85.1841 F600
G1 X98.503 Y96.859
G1 X97.408 Y97.992 E85.2627
G1 X90.928 Y94.250 F10800
G1 X89.082 Y96.160 E85.3953 F600
G1 X98.897 Y93.460 F10800
G1 X101.342 Y92.271
G1 X95.185 Y98.642 E85.8373 F600
G1 X95.717 Y98.642
G1 X102.242 Y91.890 E86.3058
; ------------------------------------
; Layer #1
; ------------------------------------
G21 ; mm
G90 ; abs
G92 E0 ; reset extr
M106 S255
G1 F4800 E-1.0000
G1 F300 Z0.600
G1 X101.352 Y94.391 F10800
G1 X100.462 Y96.892
G1 X99.572 Y99.393
G1 X98.682 Y101.894
G1 F4800 E0.0000
;segType:Loop
G1 X98.965 Y102.950 E0.0545 F3600
G1 X99.054 Y103.152 E0.0656
G1 X100.041 Y104.712 E0.1577
G1 X100.797 Y105.463 E0.2108
G1 X101.626 Y106.059 E0.2617
G1 X102.535 Y106.517 E0.3125
G1 X103.503 Y106.830 E0.3633
G1 X104.508 Y106.987 E0.4140
G1 X105.522 Y106.987 E0.4646
G1 X106.529 Y106.830 E0.5155
G1 X107.497 Y106.517 E0.5662
G1 X108.407 Y106.059 E0.6170
G1 X109.261 Y105.441 E0.6696
G1 X110.267 Y104.341 E0.7440
G1 X111.019 Y103.075 E0.8175
G1 X111.072 Y102.931 E0.8251
G1 X111.376 Y101.801 E0.8835
G1 X112.616 Y101.801 E0.9454
G1 X112.616 Y101.151 E0.9778
G1 X121.417 Y101.151 E1.4169
G1 X121.417 Y102.404 E1.4795
G1 X121.367 Y103.033 E1.5109
G1 X121.226 Y103.622 E1.5412
G1 X120.994 Y104.182 E1.5714
G1 X120.676 Y104.700 E1.6017
G1 X120.280 Y105.164 E1.6322
G1 X119.815 Y105.561 E1.6627
G1 X119.293 Y105.881 E1.6932
G1 X118.727 Y106.116 E1.7238
G1 X118.129 Y106.259 E1.7544
G1 X117.493 Y106.309 E1.7863
G1 X111.022 Y106.309 E2.1091
G1 X110.267 Y106.969 E2.1592
G1 X109.332 Y107.616 E2.2159
G1 X108.324 Y108.130 E2.2723
G1 X107.256 Y108.505 E2.3288
G1 X106.146 Y108.732 E2.3853
G1 X105.016 Y108.808 E2.4418
G1 X103.886 Y108.732 E2.4983
G1 X102.776 Y108.505 E2.5548
G1 X101.708 Y108.130 E2.6113
G1 X100.700 Y107.616 E2.6678
G1 X99.766 Y106.969 E2.7245
G1 X99.011 Y106.309 E2.7745
G1 X92.539 Y106.309 E3.0974
G1 X91.903 Y106.259 E3.1292
G1 X91.306 Y106.116 E3.1599
G1 X90.739 Y105.881 E3.1904
G1 X90.217 Y105.561 E3.2210
G1 X89.753 Y105.164 E3.2515
G1 X89.356 Y104.700 E3.2819
G1 X89.039 Y104.183 E3.3122
G1 X88.807 Y103.622 E3.3425
G1 X88.665 Y103.033 E3.3727
G1 X88.615 Y102.404 E3.4042
G1 X88.615 Y101.151 E3.4667
G1 X97.416 Y101.151 E3.9058
G1 X97.416 Y101.801 E3.9382
G1 X98.562 Y101.801 E3.9954
G1 F4800 E2.9954
G1 X97.248 Y101.119 F10800
G1 F4800 E3.9954
;segType:Perimeter
G1 X97.873 Y101.387 E4.0293 F2159
G1 X98.960 Y101.387 E4.0836
G1 X99.342 Y102.808 E4.1570
G1 X99.406 Y102.952 E4.1649
G1 X100.351 Y104.446 E4.2531
G1 X101.051 Y105.142 E4.3023
G1 X101.829 Y105.701 E4.3501
G1 X102.683 Y106.132 E4.3978
G1 X103.593 Y106.425 E4.4456
G1 X104.538 Y106.573 E4.4933
G1 X105.492 Y106.573 E4.5409
G1 X106.439 Y106.425 E4.5887
G1 X107.349 Y106.132 E4.6364
G1 X108.204 Y105.701 E4.6841
G1 X108.998 Y105.126 E4.7330
G1 X109.948 Y104.088 E4.8033
G1 X110.659 Y102.891 E4.8727
G1 X110.692 Y102.801 E4.8775
G1 X111.072 Y101.387 E4.9506
G1 X112.216 Y101.387 E5.0077
G1 X112.216 Y100.737 E5.0401
G1 X121.817 Y100.737 E5.5191
G1 X121.817 Y102.421 E5.6031
G1 X121.763 Y103.100 E5.6371
G1 X121.606 Y103.755 E5.6707
G1 X121.349 Y104.376 E5.7042
G1 X120.997 Y104.950 E5.7378
G1 X120.559 Y105.463 E5.7715
G1 X120.046 Y105.901 E5.8051
G1 X119.471 Y106.254 E5.8388
G1 X118.847 Y106.512 E5.8725
G1 X118.190 Y106.670 E5.9062
G1 X117.508 Y106.723 E5.9403
G1 X111.168 Y106.723 E6.2566
G1 X110.508 Y107.300 E6.3004
G1 X109.533 Y107.975 E6.3595
G1 X108.477 Y108.513 E6.4186
G1 X107.359 Y108.905 E6.4777
G1 X106.198 Y109.143 E6.5369
G1 X105.016 Y109.223 E6.5960
G1 X103.834 Y109.143 E6.6551
G1 X102.673 Y108.905 E6.7142
G1 X101.555 Y108.513 E6.7733
G1 X100.499 Y107.975 E6.8324
G1 X99.525 Y107.300 E6.8916
G1 X98.864 Y106.723 E6.9353
G1 X92.524 Y106.723 E7.2517
G1 X91.842 Y106.670 E7.2858
G1 X91.185 Y106.512 E7.3195
G1 X90.562 Y106.254 E7.3531
G1 X89.986 Y105.901 E7.3868
G1 X89.474 Y105.463 E7.4205
G1 X89.035 Y104.950 E7.4541
G1 X88.683 Y104.376 E7.4877
G1 X88.426 Y103.755 E7.5213
G1 X88.269 Y103.100 E7.5548
G1 X88.215 Y102.421 E7.5888
G1 X88.215 Y100.737 E7.6729
G1 X97.816 Y100.737 E8.1519
G1 X97.816 Y101.328 E8.1814
G1 X98.075 Y101.975
;segType:HShell
G1 X98.709 Y102.769 F10800
G1 X97.973 Y102.007 E8.2342 F3600
G1 X97.442 Y102.007
G1 X99.322 Y103.953 E8.3692
G1 X101.734 Y105.869 F10800
G1 X103.551 Y106.614
G1 X105.506 Y106.767
G1 X107.418 Y106.312
G1 X121.217 Y101.867
G1 X120.725 Y101.358 E8.4045 F3600
G1 X120.194 Y101.358
G1 X121.216 Y102.415 E8.4779
G1 X121.175 Y102.923
G1 X119.663 Y101.358 E8.5865
G1 X119.131 Y101.358
G1 X121.079 Y103.374 E8.7264
G1 X120.942 Y103.782
G1 X118.600 Y101.358 E8.8945
G1 X118.068 Y101.358
G1 X120.773 Y104.156 E9.0887
G1 X120.567 Y104.493
G1 X117.537 Y101.358 E9.3062
G1 X117.006 Y101.358
G1 X120.328 Y104.795 E9.5447
G1 X120.068 Y105.077
G1 X116.474 Y101.358 E9.8027
G1 X115.943 Y101.358
G1 X119.777 Y105.325 E10.0780
G1 X119.455 Y105.542
G1 X115.412 Y101.358 E10.3683
G1 X114.880 Y101.358
G1 X119.110 Y105.734 E10.6719
G1 X118.730 Y105.892
G1 X114.349 Y101.358 E10.9865
G1 X113.818 Y101.358
G1 X118.308 Y106.004 E11.3089
G1 X117.844 Y106.074
G1 X113.286 Y101.358 E11.6361
G1 X112.816 Y101.421
G1 X117.340 Y106.102 E11.9609
G1 X116.808 Y106.102
G1 X112.816 Y101.971 E12.2475
G1 X112.320 Y102.007
G1 X116.277 Y106.102 E12.5316
G1 X115.746 Y106.102
G1 X111.789 Y102.007 E12.8157
G1 X111.469 Y102.227
G1 X115.214 Y106.102 E13.0846
G1 X114.683 Y106.102
G1 X111.353 Y102.657 E13.3236
G1 X111.231 Y103.080
G1 X114.152 Y106.102 E13.5332
G1 X113.620 Y106.102
G1 X111.041 Y103.433 E13.7184
G1 X110.839 Y103.774
G1 X113.089 Y106.102 E13.8799
G1 X112.557 Y106.102
G1 X110.637 Y104.115 E14.0178
G1 X110.434 Y104.455
G1 X112.026 Y106.102 E14.1321
G1 X111.495 Y106.102
G1 X110.178 Y104.740 E14.2266
G1 X109.920 Y105.022
G1 X110.963 Y106.102 E14.3016
G1 X110.668 Y106.347
G1 X109.661 Y105.305 E14.3739
G1 X109.403 Y105.587
G1 X110.380 Y106.599 E14.4441
G1 X110.087 Y106.845
G1 X109.092 Y105.816 E14.5155
G1 X108.780 Y106.042
G1 X109.768 Y107.065 E14.5865
G1 X109.450 Y107.286
G1 X108.461 Y106.262 E14.6575
G1 X108.103 Y106.442
G1 X109.120 Y107.494 E14.7304
G1 X108.764 Y107.675
G1 X107.746 Y106.622 E14.8035
G1 X107.364 Y106.777
G1 X108.408 Y107.857 E14.8784
G1 X108.029 Y108.015
G1 X106.959 Y106.908 E14.9552
G1 X106.551 Y107.035
G1 X107.632 Y108.154 E15.0328
G1 X107.236 Y108.293
G1 X106.090 Y107.108 E15.1151
G1 X105.628 Y107.180
G1 X106.796 Y108.388 E15.1989
G1 X106.352 Y108.479
G1 X105.110 Y107.194 E15.2881
G1 X104.579 Y107.194
G1 X105.882 Y108.542 E15.3816
G1 X105.383 Y108.576
G1 X103.968 Y107.112 E15.4832
G1 X102.543 Y106.737 F10800
G1 X104.298 Y108.552 E15.6092 F3600
G1 X104.866 Y108.590
G1 X103.315 Y106.986 E15.7205
G1 X103.699 Y108.483 F10800
G1 X101.535 Y106.243 E15.8759 F3600
G1 X103.037 Y108.347 F10800
G1 X96.282 Y101.358 E16.3608 F3600
G1 X95.751 Y101.358
G1 X102.277 Y108.111 E16.8293
G1 X101.379 Y107.731 F10800
G1 X95.220 Y101.358 E17.2715 F3600
G1 X94.688 Y101.358
G1 X100.082 Y106.939 E17.6588
G1 X98.742 Y106.102 F10800
G1 X94.157 Y101.358 E17.9880 F3600
G1 X93.626 Y101.358
G1 X98.211 Y106.102 E18.3171
G1 X97.679 Y106.102
G1 X93.094 Y101.358 E18.6463
G1 X92.563 Y101.358
G1 X97.148 Y106.102 E18.9755
G1 X96.616 Y106.102
G1 X92.031 Y101.358 E19.3047
G1 X91.500 Y101.358
G1 X96.085 Y106.102 E19.6338
G1 X95.554 Y106.102
G1 X90.969 Y101.358 E19.9630
G1 X90.437 Y101.358
G1 X95.022 Y106.102 E20.2922
G1 X94.491 Y106.102
G1 X89.906 Y101.358 E20.6214
G1 X89.375 Y101.358
G1 X93.960 Y106.102 E20.9505
G1 X93.428 Y106.102
G1 X88.843 Y101.358 E21.2797
G1 X88.815 Y101.878
G1 X92.897 Y106.102 E21.5728
G1 X92.351 Y106.087
G1 X88.818 Y102.431 E21.8264
G1 X88.872 Y103.037
G1 X91.744 Y106.009 E22.0326
G1 X90.964 Y105.751
G1 X89.113 Y103.836 E22.1655
G1 X97.216 Y101.774 F10800
G1 X96.814 Y101.358 E22.1944 F3600
;segType:Loop
G1 F4800 E21.1944
G1 X111.318 Y98.106 F10800
G1 F4800 E22.1944
G1 X111.035 Y97.050 E22.2489 F3600
G1 X110.946 Y96.848 E22.2599
G1 X109.959 Y95.288 E22.3520
G1 X109.203 Y94.537 E22.4052
G1 X108.374 Y93.941 E22.4561
G1 X107.465 Y93.483 E22.5069
G1 X106.497 Y93.171 E22.5576
G1 X105.492 Y93.013 E22.6084
G1 X104.478 Y93.013 E22.6590
G1 X103.471 Y93.171 E22.7098
G1 X102.503 Y93.483 E22.7606
G1 X101.593 Y93.941 E22.8114
G1 X100.739 Y94.559 E22.8640
G1 X99.733 Y95.659 E22.9384
G1 X98.980 Y96.925 E23.0119
G1 X98.928 Y97.070 E23.0196
G1 X98.624 Y98.199 E23.0779
G1 X97.384 Y98.199 E23.1398
G1 X97.384 Y98.849 E23.1722
G1 X88.583 Y98.849 E23.6113
G1 X88.583 Y97.596 E23.6738
G1 X88.633 Y96.967 E23.7053
G1 X88.774 Y96.378 E23.7355
G1 X89.006 Y95.818 E23.7658
G1 X89.324 Y95.299 E23.7961
G1 X89.720 Y94.836 E23.8265
G1 X90.185 Y94.439 E23.8570
G1 X90.707 Y94.119 E23.8875
G1 X91.273 Y93.884 E23.9181
G1 X91.871 Y93.741 E23.9488
G1 X92.507 Y93.691 E23.9806
G1 X98.979 Y93.691 E24.3035
G1 X99.733 Y93.031 E24.3535
G1 X100.668 Y92.384 E24.4102
G1 X101.676 Y91.870 E24.4667
G1 X102.744 Y91.495 E24.5232
G1 X103.854 Y91.268 E24.5797
G1 X104.984 Y91.192 E24.6362
G1 X106.114 Y91.268 E24.6927
G1 X107.224 Y91.495 E24.7492
G1 X108.292 Y91.870 E24.8057
G1 X109.300 Y92.384 E24.8621
G1 X110.234 Y93.031 E24.9188
G1 X110.989 Y93.691 E24.9689
G1 X117.461 Y93.691 E25.2917
G1 X118.097 Y93.741 E25.3236
G1 X118.694 Y93.884 E25.3542
G1 X119.261 Y94.119 E25.3848
G1 X119.783 Y94.439 E25.4153
G1 X120.247 Y94.836 E25.4458
G1 X120.644 Y95.299 E25.4763
G1 X120.961 Y95.817 E25.5066
G1 X121.193 Y96.378 E25.5368
G1 X121.335 Y96.967 E25.5671
G1 X121.385 Y97.596 E25.5985
G1 X121.385 Y98.849 E25.6611
G1 X112.584 Y98.849 E26.1002
G1 X112.584 Y98.199 E26.1326
G1 X111.438 Y98.199 E26.1898
G1 F4800 E25.1898
G1 X112.752 Y98.881 F10800
G1 F4800 E26.1898
;segType:Perimeter
G1 X112.127 Y98.613 E26.2237 F2159
G1 X111.040 Y98.613 E26.2780
G1 X110.658 Y97.193 E26.3514
G1 X110.594 Y97.048 E26.3592
G1 X109.649 Y95.554 E26.4474
G1 X108.949 Y94.858 E26.4967
G1 X108.171 Y94.299 E26.5445
G1 X107.317 Y93.869 E26.5922
G1 X106.407 Y93.575 E26.6399
G1 X105.462 Y93.427 E26.6876
G1 X104.508 Y93.427 E26.7352
G1 X103.561 Y93.575 E26.7830
G1 X102.651 Y93.869 E26.8307
G1 X101.796 Y94.299 E26.8785
G1 X101.002 Y94.874 E26.9274
G1 X100.052 Y95.912 E26.9976
G1 X99.341 Y97.109 E27.0670
G1 X99.308 Y97.199 E27.0719
G1 X98.928 Y98.613 E27.1449
G1 X97.784 Y98.613 E27.2020
G1 X97.784 Y99.263 E27.2344
G1 X88.183 Y99.263 E27.7134
G1 X88.183 Y97.579 E27.7975
G1 X88.237 Y96.900 E27.8315
G1 X88.394 Y96.245 E27.8650
G1 X88.651 Y95.624 E27.8986
G1 X89.003 Y95.050 E27.9322
G1 X89.441 Y94.537 E27.9658
G1 X89.954 Y94.099 E27.9995
G1 X90.529 Y93.746 E28.0331
G1 X91.153 Y93.488 E28.0668
G1 X91.810 Y93.330 E28.1005
G1 X92.492 Y93.277 E28.1346
G1 X98.832 Y93.277 E28.4510
G1 X99.492 Y92.700 E28.4947
G1 X100.467 Y92.025 E28.5539
G1 X101.523 Y91.487 E28.6130
G1 X102.641 Y91.094 E28.6721
G1 X103.802 Y90.857 E28.7312
G1 X104.984 Y90.778 E28.7903
G1 X106.166 Y90.857 E28.8494
G1 X107.327 Y91.094 E28.9086
G1 X108.445 Y91.487 E28.9677
G1 X109.501 Y92.025 E29.0268
G1 X110.475 Y92.700 E29.0859
G1 X111.135 Y93.277 E29.1297
G1 X117.476 Y93.277 E29.4460
G1 X118.158 Y93.330 E29.4801
G1 X118.815 Y93.488 E29.5138
G1 X119.438 Y93.746 E29.5475
G1 X120.014 Y94.099 E29.5812
G1 X120.526 Y94.537 E29.6148
G1 X120.965 Y95.050 E29.6485
G1 X121.317 Y95.624 E29.6821
G1 X121.574 Y96.245 E29.7156
G1 X121.731 Y96.900 E29.7492
G1 X121.785 Y97.579 E29.7832
G1 X121.785 Y99.263 E29.8672
G1 X112.184 Y99.263 E30.3462
G1 X112.184 Y98.672 E30.3757
G1 X111.925 Y98.025
;segType:HShell
G1 X111.628 Y97.992 F10800
G1 X111.444 Y97.802 E30.3889 F3600
G1 X111.240 Y97.040
G1 X112.160 Y97.992 E30.4550
G1 X112.691 Y97.992
G1 X110.425 Y95.647 E30.6177
G1 X108.894 Y94.063 F10800
G1 X106.467 Y91.551 E30.7919 F3600
G1 X107.129 Y91.687
G1 X113.851 Y98.642 E31.2745
G1 X114.382 Y98.642
G1 X107.924 Y91.960 E31.7381
G1 X110.555 Y93.582 F10800
G1 X115.445 Y98.642 E32.0892 F3600
G1 X114.913 Y98.642
G1 X108.883 Y92.402 E32.5221
G1 X106.189 Y92.913 F10800
G1 X104.742 Y91.416 E32.6259 F3600
G1 X104.243 Y91.449
G1 X105.562 Y92.815 E32.7207
G1 X105.023 Y92.806
G1 X103.759 Y91.498 E32.8114
G1 X103.315 Y91.589
G1 X104.491 Y92.806 E32.8958
G1 X104.026 Y92.874
G1 X102.872 Y91.680 E32.9787
G1 X102.467 Y91.811
G1 X103.564 Y92.947 E33.0574
G1 X103.142 Y93.060
G1 X102.070 Y91.950 E33.1344
G1 X101.682 Y92.098
G1 X102.737 Y93.190 E33.2102
G1 X102.343 Y93.333
G1 X101.326 Y92.280 E33.2833
G1 X100.969 Y92.461
G1 X101.986 Y93.513 E33.3563
G1 X101.629 Y93.693
G1 X100.630 Y92.659 E33.4280
G1 X100.311 Y92.880
G1 X101.299 Y93.902 E33.4989
G1 X100.986 Y94.128
G1 X99.993 Y93.100 E33.5702
G1 X99.692 Y93.338
G1 X100.673 Y94.354 E33.6407
G1 X100.404 Y94.625
G1 X99.404 Y93.590 E33.7124
G1 X99.116 Y93.842
G1 X100.145 Y94.907 E33.7863
G1 X99.887 Y95.190
G1 X98.639 Y93.898 E33.8760
G1 X98.107 Y93.898
G1 X99.628 Y95.472 E33.9852
G1 X99.414 Y95.800
G1 X97.576 Y93.898 E34.1172
G1 X97.044 Y93.898
G1 X99.212 Y96.141 E34.2728
G1 X99.009 Y96.481
G1 X96.513 Y93.898 E34.4520
G1 X95.982 Y93.898
G1 X98.807 Y96.822 E34.6549
G1 X98.676 Y97.236
G1 X95.450 Y93.898 E34.8864
G1 X94.919 Y93.898
G1 X98.560 Y97.666 E35.1478
G1 X98.344 Y97.992
G1 X94.388 Y93.898 E35.4319
G1 X93.856 Y93.898
G1 X97.813 Y97.992 E35.7160
G1 X97.281 Y97.992
G1 X93.325 Y93.898 E36.0000
G1 X92.793 Y93.898
G1 X97.184 Y98.441 E36.3152
G1 X96.847 Y98.642
G1 X92.280 Y93.916 E36.6431
G1 X91.800 Y93.970
G1 X96.315 Y98.642 E36.9673
G1 X95.784 Y98.642
G1 X91.369 Y94.074 E37.2843
G1 X90.985 Y94.226
G1 X95.253 Y98.642 E37.5906
G1 X94.721 Y98.642
G1 X90.629 Y94.407 E37.8845
G1 X90.296 Y94.612
G1 X94.190 Y98.642 E38.1641
G1 X93.659 Y98.642
G1 X90.005 Y94.861 E38.4264
G1 X89.735 Y95.131
G1 X93.127 Y98.642 E38.6700
G1 X92.596 Y98.642
G1 X89.485 Y95.423 E38.8933
G1 X89.279 Y95.759
G1 X92.064 Y98.642 E39.0933
G1 X91.533 Y98.642
G1 X89.098 Y96.122 E39.2682
G1 X88.947 Y96.516
G1 X91.002 Y98.642 E39.4157
G1 X90.470 Y98.642
G1 X88.841 Y96.956 E39.5327
G1 X88.794 Y97.458
G1 X89.939 Y98.642 E39.6148
G1 X89.408 Y98.642
G1 X88.783 Y97.996 E39.6597
G1 X88.783 Y98.545
G1 X88.876 Y98.642 E39.6664
G1 X103.519 Y93.386 F10800
G1 X106.878 Y93.077
G1 X105.277 Y91.419 E39.7814 F3600
G1 X105.845 Y91.457
G1 X107.688 Y93.365 E39.9138
G1 X111.391 Y93.898 F10800
G1 X115.976 Y98.642 E40.2429 F3600
G1 X116.507 Y98.642
G1 X111.923 Y93.898 E40.5721
G1 X112.454 Y93.898
G1 X117.039 Y98.642 E40.9013
G1 X117.570 Y98.642
G1 X112.985 Y93.898 E41.2304
G1 X113.517 Y93.898
G1 X118.101 Y98.642 E41.5596
G1 X118.633 Y98.642
G1 X114.048 Y93.898 E41.8887
G1 X114.580 Y93.898
G1 X119.164 Y98.642 E42.2179
G1 X119.696 Y98.642
G1 X115.111 Y93.898 E42.5470
G1 X115.642 Y93.898
G1 X120.227 Y98.642 E42.8762
G1 X120.758 Y98.642
G1 X116.174 Y93.898 E43.2054
G1 X116.705 Y93.898
G1 X121.185 Y98.534 E43.5270
G1 X121.185 Y97.984
G1 X117.236 Y93.898 E43.8105
G1 X117.793 Y93.924
G1 X121.170 Y97.419 E44.0530
G1 X121.084 Y96.780
G1 X118.430 Y94.033 E44.2435
G1 X119.298 Y94.382
G1 X120.788 Y95.924 E44.3505
G1 X112.784 Y98.088 F10800
G1 X113.319 Y98.642 E44.3889 F3600
G1 F4800 E43.3889
G1 X102.498 Y81.213 F10800
G1 X101.146 Y79.034
G1 X97.088 Y72.498
G1 F4800 E44.3889
G1 X97.216 Y72.631 E44.3981 F3600
;segType:Loop
G1 X98.682 Y73.035 F10800
G1 X98.965 Y74.090 E44.4526 F3600
G1 X99.054 Y74.292 E44.4637
G1 X100.041 Y75.852 E44.5557
G1 X100.797 Y76.603 E44.6089
G1 X101.626 Y77.199 E44.6598
G1 X102.535 Y77.658 E44.7106
G1 X103.503 Y77.970 E44.7614
G1 X104.508 Y78.127 E44.8121
G1 X105.522 Y78.127 E44.8627
G1 X106.529 Y77.970 E44.9136
G1 X107.497 Y77.658 E44.9643
G1 X108.407 Y77.199 E45.0151
G1 X109.261 Y76.582 E45.0677
G1 X110.267 Y75.482 E45.1421
G1 X111.020 Y74.215 E45.2156
G1 X111.072 Y74.070 E45.2233
G1 X111.376 Y72.941 E45.2816
G1 X112.616 Y72.941 E45.3435
G1 X112.616 Y72.291 E45.3759
G1 X121.417 Y72.291 E45.8150
G1 X121.417 Y73.545 E45.8775
G1 X121.367 Y74.173 E45.9090
G1 X121.226 Y74.763 E45.9392
G1 X120.994 Y75.323 E45.9695
G1 X120.676 Y75.841 E45.9998
G1 X120.280 Y76.305 E46.0303
G1 X119.815 Y76.702 E46.0607
G1 X119.293 Y77.022 E46.0913
G1 X118.727 Y77.256 E46.1219
G1 X118.129 Y77.400 E46.1525
G1 X117.493 Y77.449 E46.1844
G1 X111.021 Y77.449 E46.5072
G1 X110.266 Y78.110 E46.5573
G1 X109.332 Y78.756 E46.6139
G1 X108.324 Y79.270 E46.6704
G1 X107.256 Y79.645 E46.7269
G1 X106.146 Y79.872 E46.7834
G1 X105.016 Y79.948 E46.8399
G1 X103.886 Y79.872 E46.8964
G1 X102.777 Y79.645 E46.9529
G1 X101.708 Y79.270 E47.0094
G1 X100.700 Y78.756 E47.0659
G1 X99.766 Y78.110 E47.1226
G1 X99.011 Y77.449 E47.1726
G1 X92.539 Y77.449 E47.4955
G1 X91.903 Y77.400 E47.5273
G1 X91.306 Y77.256 E47.5580
G1 X90.739 Y77.022 E47.5885
G1 X90.217 Y76.702 E47.6191
G1 X89.753 Y76.304 E47.6496
G1 X89.356 Y75.841 E47.6800
G1 X89.039 Y75.323 E47.7103
G1 X88.807 Y74.763 E47.7406
G1 X88.665 Y74.173 E47.7708
G1 X88.615 Y73.545 E47.8023
G1 X88.615 Y72.291 E47.8648
G1 X97.416 Y72.291 E48.3039
G1 X97.416 Y72.941 E48.3363
G1 X98.562 Y72.941 E48.3935
G1 F4800 E47.3935
G1 X97.248 Y72.259 F10800
G1 F4800 E48.3935
;segType:Perimeter
G1 X97.873 Y72.527 E48.4274 F2159
G1 X98.960 Y72.527 E48.4817
G1 X99.342 Y73.948 E48.5551
G1 X99.406 Y74.092 E48.5630
G1 X100.351 Y75.586 E48.6512
G1 X101.051 Y76.282 E48.7004
G1 X101.829 Y76.841 E48.7482
G1 X102.683 Y77.272 E48.7959
G1 X103.593 Y77.565 E48.8436
G1 X104.538 Y77.713 E48.8914
G1 X105.492 Y77.713 E48.9390
G1 X106.439 Y77.565 E48.9868
G1 X107.349 Y77.272 E49.0345
G1 X108.204 Y76.841 E49.0822
G1 X108.998 Y76.266 E49.1312
G1 X109.948 Y75.228 E49.2014
G1 X110.659 Y74.032 E49.2708
G1 X110.692 Y73.941 E49.2756
G1 X111.072 Y72.527 E49.3486
G1 X112.216 Y72.527 E49.4057
G1 X112.216 Y71.877 E49.4382
G1 X121.817 Y71.877 E49.9172
G1 X121.817 Y73.562 E50.0012
G1 X121.763 Y74.241 E50.0352
G1 X121.606 Y74.895 E50.0688
G1 X121.349 Y75.516 E50.1023
G1 X120.997 Y76.090 E50.1359
G1 X120.559 Y76.603 E50.1696
G1 X120.046 Y77.041 E50.2032
G1 X119.471 Y77.394 E50.2369
G1 X118.847 Y77.652 E50.2706
G1 X118.190 Y77.810 E50.3043
G1 X117.508 Y77.863 E50.3384
G1 X111.168 Y77.863 E50.6547
G1 X110.508 Y78.441 E50.6985
G1 X109.533 Y79.115 E50.7576
G1 X108.477 Y79.653 E50.8167
G1 X107.359 Y80.046 E50.8758
G1 X106.198 Y80.284 E50.9350
G1 X105.016 Y80.363 E50.9941
G1 X103.834 Y80.284 E51.0532
G1 X102.673 Y80.046 E51.1123
G1 X101.555 Y79.653 E51.1714
G1 X100.499 Y79.115 E51.2305
G1 X99.525 Y78.441 E51.2897
G1 X98.865 Y77.863 E51.3334
G1 X92.524 Y77.863 E51.6498
G1 X91.842 Y77.810 E51.6839
G1 X91.185 Y77.652 E51.7176
G1 X90.562 Y77.394 E51.7512
G1 X89.986 Y77.041 E51.7849
G1 X89.474 Y76.603 E51.8186
G1 X89.035 Y76.090 E51.8522
G1 X88.683 Y75.516 E51.8858
G1 X88.426 Y74.895 E51.9194
G1 X88.269 Y74.241 E51.9529
G1 X88.215 Y73.562 E51.9869
G1 X88.215 Y71.877 E52.0710
G1 X97.816 Y71.877 E52.5500
G1 X97.816 Y72.469 E52.5795
G1 X98.075 Y73.115
;segType:HShell
G1 X99.811 Y75.865 F10800
G1 X96.557 Y72.498 E52.8131 F3600
G1 X96.025 Y72.498
G1 X102.692 Y79.397 E53.2917
G1 X103.378 Y79.557
G1 X100.700 Y76.785 E53.4840
G1 X102.070 Y77.653 F10800
G1 X104.023 Y79.674 E53.6242 F3600
G1 X98.986 Y77.715 F10800
G1 X88.957 Y74.532
G1 X91.409 Y77.068 E53.8002 F3600
G1 X90.397 Y76.571 F10800
G1 X89.422 Y75.563 E53.8702 F3600
G1 X98.603 Y73.516 F10800
G1 X98.248 Y73.148 E53.8958 F3600
G1 X97.716 Y73.148
G1 X98.845 Y74.316 E53.9768
G1 X99.016 Y77.242 F10800
G1 X94.431 Y72.498 E54.3059 F3600
G1 X93.900 Y72.498
G1 X98.485 Y77.242 E54.6351
G1 X97.953 Y77.242
G1 X93.369 Y72.498 E54.9643
G1 X92.837 Y72.498
G1 X97.422 Y77.242 E55.2934
G1 X96.890 Y77.242
G1 X92.306 Y72.498 E55.6226
G1 X91.774 Y72.498
G1 X96.359 Y77.242 E55.9517
G1 X95.828 Y77.242
G1 X91.243 Y72.498 E56.2809
G1 X90.712 Y72.498
G1 X95.296 Y77.242 E56.6100
G1 X94.765 Y77.242
G1 X90.180 Y72.498 E56.9392
G1 X89.649 Y72.498
G1 X94.234 Y77.242 E57.2684
G1 X93.702 Y77.242
G1 X89.118 Y72.498 E57.5975
G1 X88.815 Y72.735
G1 X93.171 Y77.242 E57.9103
G1 X92.640 Y77.242
G1 X88.815 Y73.284 E58.1849
G1 X88.841 Y73.861
G1 X92.072 Y77.205 E58.4169
G1 X105.506 Y77.907 F10800
G1 X107.418 Y77.452
G1 X121.217 Y72.723
G1 X121.000 Y72.498 E58.4325 F3600
G1 X120.468 Y72.498
G1 X121.217 Y73.273 E58.4863
G1 X121.196 Y73.801
G1 X119.937 Y72.498 E58.5767
G1 X119.406 Y72.498
G1 X121.134 Y74.287 E58.7008
G1 X121.024 Y74.723
G1 X118.874 Y72.498 E58.8552
G1 X118.343 Y72.498
G1 X120.865 Y75.108 E59.0363
G1 X120.673 Y75.459
G1 X117.811 Y72.498 E59.2417
G1 X117.280 Y72.498
G1 X120.457 Y75.785 E59.4698
G1 X120.207 Y76.077
G1 X116.749 Y72.498 E59.7181
G1 X116.217 Y72.498
G1 X119.927 Y76.337 E59.9845
G1 X119.627 Y76.576
G1 X115.686 Y72.498 E60.2674
G1 X115.155 Y72.498
G1 X119.293 Y76.781 E60.5646
G1 X118.926 Y76.951
G1 X114.623 Y72.498 E60.8735
G1 X114.092 Y72.498
G1 X118.530 Y77.091 E61.1921
G1 X118.099 Y77.195
G1 X113.560 Y72.498 E61.5180
G1 X113.029 Y72.498
G1 X117.605 Y77.233 E61.8465
G1 X117.082 Y77.242
G1 X112.816 Y72.827 E62.1528
G1 X112.594 Y73.148
G1 X116.551 Y77.242 E62.4369
G1 X116.020 Y77.242
G1 X112.063 Y73.148 E62.7209
G1 X111.532 Y73.148
G1 X115.488 Y77.242 E63.0050
G1 X114.957 Y77.242
G1 X111.413 Y73.575 E63.2594
G1 X111.297 Y74.005
G1 X114.426 Y77.242 E63.4840
G1 X113.894 Y77.242
G1 X111.146 Y74.398 E63.6814
G1 X110.943 Y74.738
G1 X113.363 Y77.242 E63.8551
G1 X112.832 Y77.242
G1 X110.741 Y75.079 E64.0052
G1 X110.539 Y75.420
G1 X112.300 Y77.242 E64.1316
G1 X111.769 Y77.242
G1 X110.311 Y75.734 E64.2363
G1 X110.053 Y76.017
G1 X111.237 Y77.242 E64.3213
G1 X110.817 Y77.357
G1 X109.794 Y76.299 E64.3947
G1 X109.536 Y76.582
G1 X110.529 Y77.609 E64.4660
G1 X110.241 Y77.861
G1 X109.254 Y76.839 E64.5369
G1 X108.941 Y77.065
G1 X109.933 Y78.092 E64.6081
G1 X109.614 Y78.312
G1 X108.628 Y77.292 E64.6789
G1 X108.288 Y77.489
G1 X109.296 Y78.533 E64.7513
G1 X108.947 Y78.722
G1 X107.930 Y77.669 E64.8243
G1 X107.573 Y77.849
G1 X108.591 Y78.903 E64.8974
G1 X108.234 Y79.083
G1 X107.168 Y77.980 E64.9739
G1 X106.763 Y78.111
G1 X107.837 Y79.222 E65.0510
G1 X107.440 Y79.362
G1 X106.328 Y78.211 E65.1308
G1 X105.866 Y78.283
G1 X107.025 Y79.481 E65.2140
G1 X106.581 Y79.572
G1 X105.385 Y78.334 E65.2999
G1 X104.853 Y78.334
G1 X106.137 Y79.663 E65.3921
G1 X105.641 Y79.699
G1 X104.291 Y78.303 E65.4889
G1 X103.665 Y78.204
G1 X105.142 Y79.732 E65.5949
G1 X104.591 Y79.712
G1 X102.942 Y78.005 E65.7134
G1 X101.888 Y79.114 F10800
G1 X95.494 Y72.498 E66.1724 F3600
G1 X94.963 Y72.498
G1 X100.872 Y78.613 E66.5967
G1 F4800 E65.5967
G1 X111.029 Y71.253 F10800
G1 X113.060 Y69.781
G1 F4800 E66.5967
G1 X112.784 Y69.495 E66.6165 F3600
;segType:Loop
G1 X111.318 Y69.246 F10800
G1 X111.035 Y68.191 E66.6711 F3600
G1 X110.946 Y67.988 E66.6821
G1 X109.959 Y66.428 E66.7742
G1 X109.203 Y65.677 E66.8273
G1 X108.374 Y65.081 E66.8783
G1 X107.465 Y64.623 E66.9291
G1 X106.497 Y64.311 E66.9798
G1 X105.492 Y64.153 E67.0306
G1 X104.478 Y64.153 E67.0811
G1 X103.471 Y64.311 E67.1320
G1 X102.503 Y64.623 E67.1827
G1 X101.593 Y65.082 E67.2336
G1 X100.739 Y65.699 E67.2861
G1 X99.733 Y66.799 E67.3605
G1 X98.981 Y68.065 E67.4340
G1 X98.928 Y68.210 E67.4417
G1 X98.624 Y69.340 E67.5000
G1 X97.384 Y69.340 E67.5619
G1 X97.384 Y69.990 E67.5943
G1 X88.583 Y69.990 E68.0334
G1 X88.583 Y68.736 E68.0960
G1 X88.633 Y68.107 E68.1274
G1 X88.774 Y67.518 E68.1577
G1 X89.006 Y66.958 E68.1879
G1 X89.324 Y66.440 E68.2182
G1 X89.720 Y65.976 E68.2487
G1 X90.185 Y65.579 E68.2792
G1 X90.707 Y65.259 E68.3097
G1 X91.273 Y65.024 E68.3403
G1 X91.871 Y64.881 E68.3710
G1 X92.507 Y64.831 E68.4028
G1 X98.978 Y64.831 E68.7257
G1 X99.733 Y64.171 E68.7757
G1 X100.668 Y63.524 E68.8324
G1 X101.676 Y63.010 E68.8888
G1 X102.744 Y62.636 E68.9453
G1 X103.854 Y62.408 E69.0018
G1 X104.984 Y62.332 E69.0583
G1 X106.114 Y62.408 E69.1148
G1 X107.224 Y62.636 E69.1714
G1 X108.292 Y63.010 E69.2278
G1 X109.300 Y63.524 E69.2843
G1 X110.234 Y64.171 E69.3410
G1 X110.989 Y64.831 E69.3910
G1 X117.461 Y64.831 E69.7139
G1 X118.097 Y64.881 E69.7457
G1 X118.694 Y65.024 E69.7764
G1 X119.261 Y65.259 E69.8069
G1 X119.783 Y65.579 E69.8375
G1 X120.247 Y65.976 E69.8680
G1 X120.644 Y66.440 E69.8984
G1 X120.961 Y66.958 E69.9287
G1 X121.193 Y67.518 E69.9590
G1 X121.335 Y68.108 E69.9892
G1 X121.385 Y68.736 E70.0207
G1 X121.385 Y69.990 E70.0832
G1 X112.584 Y69.988 E70.5223
G1 X112.584 Y69.340 E70.5547
G1 X111.438 Y69.340 E70.6118
G1 F4800 E69.6118
G1 X112.752 Y70.021 F10800
G1 F4800 E70.6118
;segType:Perimeter
G1 X112.127 Y69.754 E70.6458 F2159
G1 X111.040 Y69.754 E70.7000
G1 X110.658 Y68.333 E70.7734
G1 X110.594 Y68.188 E70.7813
G1 X109.649 Y66.694 E70.8695
G1 X108.949 Y65.999 E70.9188
G1 X108.171 Y65.439 E70.9665
G1 X107.317 Y65.009 E71.0143
G1 X106.407 Y64.715 E71.0620
G1 X105.462 Y64.567 E71.1097
G1 X104.508 Y64.567 E71.1573
G1 X103.561 Y64.715 E71.2051
G1 X102.651 Y65.009 E71.2528
G1 X101.796 Y65.439 E71.3005
G1 X101.002 Y66.014 E71.3495
G1 X100.052 Y67.052 E71.4197
G1 X99.341 Y68.249 E71.4891
G1 X99.308 Y68.339 E71.4939
G1 X98.928 Y69.754 E71.5670
G1 X97.784 Y69.754 E71.6241
G1 X97.784 Y70.404 E71.6565
G1 X88.183 Y70.404 E72.1355
G1 X88.183 Y68.719 E72.2195
G1 X88.237 Y68.040 E72.2535
G1 X88.394 Y67.386 E72.2871
G1 X88.651 Y66.764 E72.3206
G1 X89.003 Y66.190 E72.3542
G1 X89.441 Y65.678 E72.3879
G1 X89.954 Y65.239 E72.4215
G1 X90.529 Y64.887 E72.4552
G1 X91.153 Y64.628 E72.4889
G1 X91.810 Y64.471 E72.5226
G1 X92.492 Y64.417 E72.5567
G1 X98.832 Y64.417 E72.8730
G1 X99.492 Y63.840 E72.9168
G1 X100.467 Y63.165 E72.9759
G1 X101.523 Y62.627 E73.0350
G1 X102.641 Y62.235 E73.0941
G1 X103.802 Y61.997 E73.1533
G1 X104.984 Y61.918 E73.2124
G1 X106.166 Y61.997 E73.2715
G1 X107.327 Y62.235 E73.3306
G1 X108.445 Y62.627 E73.3897
G1 X109.501 Y63.165 E73.4488
G1 X110.475 Y63.840 E73.5080
G1 X111.136 Y64.417 E73.5517
G1 X117.476 Y64.417 E73.8681
G1 X118.158 Y64.471 E73.9022
G1 X118.815 Y64.628 E73.9359
G1 X119.438 Y64.887 E73.9695
G1 X120.014 Y65.239 E74.0032
G1 X120.526 Y65.678 E74.0369
G1 X120.965 Y66.190 E74.0705
G1 X121.317 Y66.764 E74.1041
G1 X121.574 Y67.386 E74.1377
G1 X121.731 Y68.040 E74.1713
G1 X121.785 Y68.719 E74.2052
G1 X121.785 Y70.404 E74.2893
G1 X112.184 Y70.402 E74.7683
G1 X112.184 Y69.812 E74.7977
G1 X111.925 Y69.165
;segType:HShell
G1 X111.339 Y68.549 F10800
G1 X111.903 Y69.133 E74.8382 F3600
G1 X112.434 Y69.133
G1 X110.914 Y67.559 E74.9474
G1 X108.266 Y65.272 F10800
G1 X106.449 Y64.526
G1 X104.494 Y64.373
G1 X102.582 Y64.828
G1 X88.783 Y69.402
G1 X89.151 Y69.783 E74.9738 F3600
G1 X89.682 Y69.783
G1 X88.783 Y68.852 E75.0383
G1 X88.815 Y68.336
G1 X90.213 Y69.783 E75.1387
G1 X90.745 Y69.783
G1 X88.896 Y67.869 E75.2715
G1 X89.021 Y67.449
G1 X91.276 Y69.783 E75.4334
G1 X91.807 Y69.783
G1 X89.180 Y67.064 E75.6220
G1 X89.385 Y66.726
G1 X92.339 Y69.783 E75.8341
G1 X92.870 Y69.783
G1 X89.614 Y66.413 E76.0679
G1 X89.864 Y66.122
G1 X93.402 Y69.783 E76.3219
G1 X93.933 Y69.783
G1 X90.155 Y65.873 E76.5931
G1 X90.467 Y65.646
G1 X94.464 Y69.783 E76.8801
G1 X94.996 Y69.783
G1 X90.802 Y65.443 E77.1812
G1 X91.181 Y65.285
G1 X95.527 Y69.783 E77.4932
G1 X96.058 Y69.783
G1 X91.592 Y65.160 E77.8139
G1 X92.041 Y65.075
G1 X96.590 Y69.783 E78.1405
G1 X97.121 Y69.783
G1 X92.536 Y65.038 E78.4696
G1 X93.068 Y65.038
G1 X97.184 Y69.298 E78.7652
G1 X97.556 Y69.133
G1 X93.599 Y65.038 E79.0493
G1 X94.130 Y65.038
G1 X98.087 Y69.133 E79.3333
G1 X98.504 Y69.014
G1 X94.662 Y65.038 E79.6092
G1 X95.193 Y65.038
G1 X98.620 Y68.584 E79.8552
G1 X98.735 Y68.154
G1 X95.724 Y65.038 E80.0714
G1 X96.256 Y65.038
G1 X98.912 Y67.787 E80.2620
G1 X99.114 Y67.446
G1 X96.787 Y65.038 E80.4291
G1 X97.318 Y65.038
G1 X99.316 Y67.105 E80.5725
G1 X99.518 Y66.765
G1 X97.850 Y65.038 E80.6923
G1 X98.381 Y65.038
G1 X99.762 Y66.466 E80.7914
G1 X100.020 Y66.184
G1 X98.913 Y65.038 E80.8709
G1 X99.264 Y64.852
G1 X100.278 Y65.902 E80.9437
G1 X100.537 Y65.619
G1 X99.552 Y64.600 E81.0144
G1 X99.840 Y64.349
G1 X100.835 Y65.377 E81.0858
G1 X101.147 Y65.151
G1 X100.157 Y64.127 E81.1569
G1 X100.476 Y63.906
G1 X101.460 Y64.925 E81.2276
G1 X101.813 Y64.740
G1 X100.797 Y63.689 E81.3005
G1 X101.153 Y63.508
G1 X102.170 Y64.560 E81.3735
G1 X102.541 Y64.394
G1 X101.509 Y63.326 E81.4476
G1 X101.878 Y63.158
G1 X102.946 Y64.263 E81.5243
G1 X103.351 Y64.133
G1 X102.275 Y63.019 E81.6016
G1 X102.672 Y62.879
G1 X103.802 Y64.050 E81.6828
G1 X104.264 Y63.977
G1 X103.101 Y62.773 E81.7663
G1 X103.544 Y62.683
G1 X104.765 Y63.946 E81.8540
G1 X105.297 Y63.947
G1 X104.001 Y62.606 E81.9470
G1 X104.500 Y62.572
G1 X105.886 Y64.006 E82.0464
G1 X106.512 Y64.104
G1 X105.001 Y62.541 E82.1549
G1 X105.570 Y62.579
G1 X107.276 Y64.345 E82.2774
G1 X108.223 Y64.775 F10800
G1 X106.146 Y62.626 E82.4265 F3600
G1 X106.809 Y62.762
G1 X113.592 Y69.781 E82.9135
G1 X114.123 Y69.781
G1 X107.535 Y62.963 E83.3865
G1 X108.376 Y63.284
G1 X114.655 Y69.781 E83.8373
G1 X115.186 Y69.781
G1 X109.543 Y63.941 E84.2424
G1 X111.134 Y65.038 F10800
G1 X115.718 Y69.781 E84.5715 F3600
G1 X116.249 Y69.782
G1 X111.665 Y65.038 E84.9006
G1 X112.197 Y65.038
G1 X116.781 Y69.782 E85.2297
G1 X117.312 Y69.782
G1 X112.728 Y65.038 E85.5588
G1 X113.259 Y65.038
G1 X117.844 Y69.782 E85.8880
G1 X118.375 Y69.782
G1 X113.791 Y65.038 E86.2171
G1 X114.322 Y65.038
G1 X118.906 Y69.782 E86.5462
G1 X119.438 Y69.782
G1 X114.854 Y65.038 E86.8753
G1 X115.385 Y65.038
G1 X119.969 Y69.782 E87.2045
G1 X120.501 Y69.782
G1 X115.916 Y65.038 E87.5336
G1 X116.448 Y65.038
G1 X121.032 Y69.782 E87.8628
G1 X121.185 Y69.391
G1 X116.979 Y65.038 E88.1647
G1 X117.515 Y65.043
G1 X121.185 Y68.841 E88.4282
G1 X121.146 Y68.250
G1 X118.095 Y65.093 E88.6473
G1 X118.829 Y65.303
G1 X120.980 Y67.529 E88.8017
; ------------------------------------
; Layer #2
; ------------------------------------
G21 ; mm
G90 ; abs
G92 E0 ; reset extr
M106 S255
;segType:HShell
G1 F4800 E-1.0000
G1 F300 Z0.900
G1 X112.978 Y69.783 F10800
G1 F4800 E0.0000
G1 X117.555 Y65.046 E0.3286 F3600
G1 X117.031 Y65.038
G1 X112.784 Y69.433 E0.6336
;segType:Perimeter
G1 X112.752 Y70.021 F10800
G1 X112.127 Y69.754 E0.6675 F2159
G1 X110.763 Y69.754 E0.7356
G1 X110.418 Y68.469 E0.8019
G1 X110.329 Y68.267 E0.8129
G1 X109.461 Y66.897 E0.8938
G1 X109.354 Y66.776 E0.9019
G1 X108.780 Y66.213 E0.9420
G1 X108.037 Y65.677 E0.9877
G1 X107.218 Y65.263 E1.0335
G1 X106.347 Y64.981 E1.0791
G1 X105.442 Y64.839 E1.1249
G1 X104.529 Y64.839 E1.1704
G1 X103.621 Y64.981 E1.2163
G1 X102.749 Y65.263 E1.2620
G1 X101.931 Y65.677 E1.3077
G1 X101.163 Y66.236 E1.3551
G1 X100.263 Y67.224 E1.4218
G1 X99.593 Y68.354 E1.4873
G1 X99.548 Y68.476 E1.4938
G1 X99.205 Y69.754 E1.5598
G1 X97.784 Y69.754 E1.6307
G1 X97.784 Y70.404 E1.6631
G1 X88.183 Y70.404 E2.1421
G1 X88.183 Y68.719 E2.2262
G1 X88.237 Y68.040 E2.2602
G1 X88.394 Y67.386 E2.2937
G1 X88.651 Y66.764 E2.3273
G1 X89.003 Y66.190 E2.3609
G1 X89.441 Y65.678 E2.3945
G1 X89.954 Y65.239 E2.4282
G1 X90.529 Y64.887 E2.4619
G1 X91.153 Y64.628 E2.4955
G1 X91.810 Y64.471 E2.5292
G1 X92.492 Y64.417 E2.5633
G1 X98.832 Y64.417 E2.8797
G1 X99.492 Y63.840 E2.9234
G1 X100.467 Y63.165 E2.9826
G1 X101.523 Y62.627 E3.0417
G1 X102.641 Y62.235 E3.1008
G1 X103.802 Y61.997 E3.1599
G1 X104.984 Y61.918 E3.2190
G1 X106.166 Y61.997 E3.2781
G1 X107.327 Y62.235 E3.3373
G1 X108.445 Y62.627 E3.3964
G1 X109.501 Y63.165 E3.4555
G1 X110.475 Y63.840 E3.5146
G1 X111.136 Y64.417 E3.5584
G1 X117.476 Y64.417 E3.8747
G1 X118.158 Y64.471 E3.9088
G1 X118.815 Y64.628 E3.9425
G1 X119.438 Y64.887 E3.9762
G1 X120.014 Y65.239 E4.0099
G1 X120.526 Y65.678 E4.0435
G1 X120.965 Y66.190 E4.0772
G1 X121.317 Y66.764 E4.1108
G1 X121.574 Y67.386 E4.1443
G1 X121.731 Y68.040 E4.1779
G1 X121.785 Y68.719 E4.2119
G1 X121.785 Y70.404 E4.2959
G1 X112.184 Y70.404 E4.7749
G1 X112.184 Y69.812 E4.8044
G1 X111.925 Y69.165
;segType:Loop
G1 X111.151 Y69.340 F10800
G1 X111.067 Y69.340 E4.8086 F3600
G1 X110.795 Y68.327 E4.8609
G1 X110.680 Y68.067 E4.8751
G1 X109.778 Y66.643 E4.9592
G1 X109.640 Y66.486 E4.9696
G1 X109.033 Y65.892 E5.0120
G1 X108.240 Y65.319 E5.0608
G1 X107.367 Y64.878 E5.1096
G1 X106.437 Y64.577 E5.1584
G1 X105.472 Y64.425 E5.2071
G1 X104.499 Y64.425 E5.2557
G1 X103.530 Y64.577 E5.3046
G1 X102.601 Y64.878 E5.3533
G1 X101.727 Y65.320 E5.4022
G1 X100.900 Y65.921 E5.4532
G1 X99.944 Y66.971 E5.5240
G1 X99.233 Y68.170 E5.5936
G1 X99.168 Y68.346 E5.6029
G1 X98.901 Y69.340 E5.6543
G1 X97.384 Y69.340 E5.7300
G1 X97.384 Y69.990 E5.7624
G1 X88.583 Y69.990 E6.2015
G1 X88.583 Y68.736 E6.2640
G1 X88.633 Y68.107 E6.2955
G1 X88.774 Y67.518 E6.3257
G1 X89.006 Y66.958 E6.3560
G1 X89.324 Y66.440 E6.3863
G1 X89.720 Y65.976 E6.4167
G1 X90.185 Y65.579 E6.4472
G1 X90.707 Y65.259 E6.4778
G1 X91.273 Y65.024 E6.5084
G1 X91.871 Y64.881 E6.5390
G1 X92.507 Y64.831 E6.5708
G1 X98.978 Y64.831 E6.8937
G1 X99.733 Y64.171 E6.9437
G1 X100.668 Y63.524 E7.0004
G1 X101.676 Y63.010 E7.0569
G1 X102.744 Y62.636 E7.1134
G1 X103.854 Y62.408 E7.1699
G1 X104.984 Y62.332 E7.2264
G1 X106.114 Y62.408 E7.2829
G1 X107.224 Y62.636 E7.3394
G1 X108.292 Y63.010 E7.3959
G1 X109.300 Y63.524 E7.4523
G1 X110.234 Y64.171 E7.5090
G1 X110.989 Y64.831 E7.5591
G1 X117.461 Y64.831 E7.8819
G1 X118.097 Y64.881 E7.9138
G1 X118.694 Y65.024 E7.9444
G1 X119.261 Y65.259 E7.9750
G1 X119.783 Y65.579 E8.0055
G1 X120.247 Y65.976 E8.0360
G1 X120.644 Y66.440 E8.0665
G1 X120.961 Y66.958 E8.0968
G1 X121.193 Y67.518 E8.1270
G1 X121.335 Y68.108 E8.1573
G1 X121.385 Y68.736 E8.1887
G1 X121.385 Y69.990 E8.2513
G1 X112.584 Y69.990 E8.6904
G1 X112.584 Y69.340 E8.7228
G1 X111.338 Y69.340 E8.7849
G1 F4800 E7.7849
G1 X107.184 Y66.168 F10800
G1 X105.577 Y64.388
G1 X103.970 Y62.608
G1 F4800 E8.7849
;segType:HShell
G1 X101.279 Y65.392 E8.9781 F3600
G1 X98.962 Y68.340 F10800
G1 X98.196 Y69.133 E9.0331 F3600
G1 X97.665 Y69.133
G1 X99.638 Y67.090 E9.1748
G1 X97.184 Y69.630 F10800
G1 X97.037 Y69.783 E9.1854 F3600
G1 X90.317 Y65.738 F10800
G1 X89.424 Y66.663 E9.2495 F3600
G1 X88.931 Y67.723 F10800
G1 X91.352 Y65.218 E9.4233 F3600
G1 X92.019 Y65.077
G1 X88.810 Y68.398 E9.6537
G1 X88.783 Y68.976
G1 X92.588 Y65.038 E9.9269
G1 X93.120 Y65.038
G1 X88.783 Y69.526 E10.2383
G1 X89.066 Y69.783
G1 X93.651 Y65.038 E10.5675
G1 X94.182 Y65.038
G1 X89.597 Y69.783 E10.8966
G1 X90.129 Y69.783
G1 X94.714 Y65.038 E11.2258
G1 X95.245 Y65.038
G1 X90.660 Y69.783 E11.5550
G1 X91.191 Y69.783
G1 X95.776 Y65.038 E11.8842
G1 X96.308 Y65.038
G1 X91.723 Y69.783 E12.2133
G1 X92.254 Y69.783
G1 X96.839 Y65.038 E12.5425
G1 X97.371 Y65.038
G1 X92.786 Y69.783 E12.8717
G1 X93.317 Y69.783
G1 X97.902 Y65.038 E13.2009
G1 X98.433 Y65.038
G1 X93.848 Y69.783 E13.5300
G1 X94.380 Y69.783
G1 X98.965 Y65.038 E13.8592
G1 X101.827 Y63.176 F10800
G1 X95.442 Y69.783 E14.3176 F3600
G1 X94.911 Y69.783
G1 X100.802 Y63.686 E14.7405
G1 X102.631 Y62.894 F10800
G1 X95.974 Y69.783 E15.2185 F3600
G1 X96.505 Y69.783
G1 X103.322 Y62.728 E15.7079
G1 X102.463 Y64.717 F10800
G1 X104.538 Y62.570 E15.8569 F3600
G1 X105.091 Y62.547
G1 X103.253 Y64.450 E15.9889
G1 X103.923 Y64.306
G1 X105.590 Y62.581 E16.1086
G1 X106.089 Y62.614
G1 X104.539 Y64.218 E16.2199
G1 X105.071 Y64.218
G1 X106.533 Y62.705 E16.3248
G1 X106.976 Y62.796
G1 X105.587 Y64.234 E16.4246
G1 X106.048 Y64.306
G1 X107.394 Y62.914 E16.5212
G1 X107.791 Y63.053
G1 X106.506 Y64.382 E16.6134
G1 X106.911 Y64.513
G1 X108.187 Y63.192 E16.7051
G1 X108.546 Y63.371
G1 X107.316 Y64.644 E16.7934
G1 X107.687 Y64.809
G1 X108.902 Y63.552 E16.8807
G1 X109.252 Y63.740
G1 X108.044 Y64.990 E16.9674
G1 X108.394 Y65.178
G1 X109.571 Y63.960 E17.0518
G1 X109.889 Y64.181
G1 X108.707 Y65.404 E17.1367
G1 X109.020 Y65.630
G1 X110.198 Y64.411 E17.2213
G1 X110.486 Y64.662
G1 X109.311 Y65.879 E17.3057
G1 X109.584 Y66.146
G1 X110.774 Y64.914 E17.3912
G1 X111.186 Y65.038
G1 X109.851 Y66.419 E17.4870
G1 X110.076 Y66.736
G1 X111.717 Y65.038 E17.6048
G1 X112.249 Y65.038
G1 X110.287 Y67.068 E17.7457
G1 X110.497 Y67.401
G1 X112.780 Y65.038 E17.9096
G1 X113.312 Y65.038
G1 X110.708 Y67.733 E18.0965
G1 X110.905 Y68.078
G1 X113.843 Y65.038 E18.3074
G1 X114.374 Y65.038
G1 X111.044 Y68.484 E18.5465
G1 X111.160 Y68.914
G1 X114.906 Y65.038 E18.8154
G1 X115.437 Y65.038
G1 X111.480 Y69.133 E19.0995
G1 X112.011 Y69.133
G1 X115.968 Y65.038 E19.3836
G1 X116.500 Y65.038
G1 X112.543 Y69.133 E19.6677
G1 X113.509 Y69.783 F10800
G1 X118.049 Y65.085 E19.9936 F3600
G1 X118.482 Y65.186
G1 X114.040 Y69.783 E20.3125
G1 X114.572 Y69.783
G1 X118.880 Y65.324 E20.6218
G1 X119.249 Y65.492
G1 X115.103 Y69.783 E20.9195
G1 X115.634 Y69.783
G1 X119.583 Y65.697 E21.2030
G1 X119.885 Y65.934
G1 X116.166 Y69.783 E21.4699
G1 X116.697 Y69.783
G1 X120.166 Y66.193 E21.7190
G1 X120.415 Y66.485
G1 X117.228 Y69.783 E21.9478
G1 X117.760 Y69.783
G1 X120.633 Y66.809 E22.1541
G1 X120.827 Y67.159
G1 X118.291 Y69.783 E22.3362
G1 X118.823 Y69.783
G1 X120.986 Y67.544 E22.4915
G1 X121.098 Y67.978
G1 X119.354 Y69.783 E22.6167
G1 X119.885 Y69.783
G1 X121.163 Y68.461 E22.7084
G1 X121.185 Y68.988
G1 X120.417 Y69.783 E22.7636
G1 X120.948 Y69.783
G1 X121.185 Y69.537 E22.7806
G1 F4800 E21.7806
G1 X99.481 Y72.202 F10800
G1 X97.070 Y72.498
G1 F4800 E22.7806
G1 X92.489 Y77.238 E23.1095 F3600
G1 X91.995 Y77.199
G1 X96.538 Y72.498 E23.4356
;segType:Perimeter
G1 X97.248 Y72.259 F10800
G1 X97.873 Y72.527 E23.4695 F2159
G1 X99.237 Y72.527 E23.5376
G1 X99.582 Y73.811 E23.6040
G1 X99.671 Y74.013 E23.6150
G1 X100.539 Y75.383 E23.6959
G1 X100.646 Y75.504 E23.7039
G1 X101.220 Y76.067 E23.7441
G1 X101.963 Y76.604 E23.7898
G1 X102.781 Y77.017 E23.8355
G1 X103.653 Y77.299 E23.8812
G1 X104.558 Y77.441 E23.9269
G1 X105.471 Y77.442 E23.9725
G1 X106.379 Y77.299 E24.0184
G1 X107.251 Y77.017 E24.0640
G1 X108.069 Y76.603 E24.1098
G1 X108.836 Y76.045 E24.1571
G1 X109.650 Y75.161 E24.2171
G1 X109.795 Y74.954 E24.2297
G1 X110.407 Y73.927 E24.2893
G1 X110.452 Y73.805 E24.2958
G1 X110.795 Y72.527 E24.3618
G1 X112.216 Y72.527 E24.4327
G1 X112.216 Y71.877 E24.4651
G1 X121.817 Y71.877 E24.9441
G1 X121.817 Y73.562 E25.0282
G1 X121.763 Y74.241 E25.0622
G1 X121.606 Y74.895 E25.0957
G1 X121.349 Y75.516 E25.1293
G1 X120.997 Y76.090 E25.1629
G1 X120.559 Y76.603 E25.1965
G1 X120.046 Y77.041 E25.2302
G1 X119.471 Y77.394 E25.2639
G1 X118.847 Y77.652 E25.2975
G1 X118.190 Y77.810 E25.3312
G1 X117.508 Y77.863 E25.3653
G1 X111.168 Y77.863 E25.6817
G1 X110.508 Y78.441 E25.7254
G1 X109.533 Y79.115 E25.7846
G1 X108.477 Y79.653 E25.8437
G1 X107.359 Y80.046 E25.9028
G1 X106.198 Y80.284 E25.9619
G1 X105.016 Y80.363 E26.0210
G1 X103.834 Y80.284 E26.0801
G1 X102.673 Y80.046 E26.1393
G1 X101.555 Y79.653 E26.1984
G1 X100.499 Y79.115 E26.2575
G1 X99.525 Y78.441 E26.3167
G1 X98.865 Y77.863 E26.3604
G1 X92.524 Y77.863 E26.6767
G1 X91.842 Y77.810 E26.7108
G1 X91.185 Y77.652 E26.7446
G1 X90.562 Y77.394 E26.7782
G1 X89.986 Y77.041 E26.8119
G1 X89.474 Y76.603 E26.8455
G1 X89.035 Y76.090 E26.8792
G1 X88.683 Y75.516 E26.9128
G1 X88.426 Y74.895 E26.9463
G1 X88.269 Y74.241 E26.9799
G1 X88.215 Y73.562 E27.0139
G1 X88.215 Y71.877 E27.0979
G1 X97.816 Y71.877 E27.5769
G1 X97.816 Y72.469 E27.6065
G1 X98.075 Y73.115
;segType:Loop
G1 X98.849 Y72.941 F10800
G1 X98.933 Y72.941 E27.6106 F3600
G1 X99.205 Y73.953 E27.6629
G1 X99.320 Y74.214 E27.6771
G1 X100.222 Y75.638 E27.7612
G1 X100.360 Y75.794 E27.7716
G1 X100.967 Y76.389 E27.8140
G1 X101.760 Y76.961 E27.8628
G1 X102.633 Y77.403 E27.9116
G1 X103.563 Y77.704 E27.9604
G1 X104.528 Y77.855 E28.0091
G1 X105.501 Y77.856 E28.0577
G1 X106.470 Y77.704 E28.1066
G1 X107.399 Y77.403 E28.1553
G1 X108.274 Y76.961 E28.2042
G1 X109.098 Y76.360 E28.2551
G1 X109.958 Y75.426 E28.3185
G1 X110.128 Y75.185 E28.3332
G1 X110.767 Y74.111 E28.3955
G1 X110.832 Y73.934 E28.4049
G1 X111.099 Y72.941 E28.4562
G1 X112.616 Y72.941 E28.5319
G1 X112.616 Y72.291 E28.5643
G1 X121.417 Y72.291 E29.0034
G1 X121.417 Y73.545 E29.0660
G1 X121.367 Y74.173 E29.0974
G1 X121.226 Y74.763 E29.1277
G1 X120.994 Y75.323 E29.1579
G1 X120.676 Y75.841 E29.1882
G1 X120.280 Y76.305 E29.2187
G1 X119.815 Y76.702 E29.2492
G1 X119.293 Y77.022 E29.2797
G1 X118.727 Y77.256 E29.3103
G1 X118.129 Y77.400 E29.3410
G1 X117.493 Y77.449 E29.3728
G1 X111.021 Y77.449 E29.6957
G1 X110.266 Y78.110 E29.7457
G1 X109.332 Y78.756 E29.8024
G1 X108.324 Y79.270 E29.8588
G1 X107.256 Y79.645 E29.9153
G1 X106.146 Y79.872 E29.9718
G1 X105.016 Y79.948 E30.0283
G1 X103.886 Y79.872 E30.0848
G1 X102.777 Y79.645 E30.1413
G1 X101.708 Y79.270 E30.1978
G1 X100.700 Y78.756 E30.2543
G1 X99.766 Y78.110 E30.3110
G1 X99.011 Y77.449 E30.3610
G1 X92.539 Y77.449 E30.6839
G1 X91.903 Y77.400 E30.7157
G1 X91.306 Y77.256 E30.7464
G1 X90.739 Y77.022 E30.7770
G1 X90.217 Y76.702 E30.8075
G1 X89.753 Y76.304 E30.8380
G1 X89.356 Y75.841 E30.8684
G1 X89.039 Y75.323 E30.8987
G1 X88.807 Y74.763 E30.9290
G1 X88.665 Y74.173 E30.9592
G1 X88.615 Y73.545 E30.9907
G1 X88.615 Y72.291 E31.0532
G1 X97.416 Y72.291 E31.4923
G1 X97.416 Y72.941 E31.5247
G1 X98.662 Y72.941 E31.5869
G1 F4800 E30.5869
G1 X105.012 Y76.494 F10800
G1 X106.816 Y77.809
G1 F4800 E31.5869
;segType:HShell
G1 X104.953 Y79.736 E31.7206 F3600
G1 X104.454 Y79.703
G1 X106.132 Y77.966 E31.8411
G1 X105.508 Y78.063
G1 X103.955 Y79.669 E31.9526
G1 X103.507 Y79.584
G1 X104.977 Y78.062 E32.0581
G1 X104.454 Y78.053
G1 X103.063 Y79.493 E32.1580
G1 X102.641 Y79.379
G1 X103.993 Y77.981 E32.2550
G1 X103.532 Y77.908
G1 X102.245 Y79.240 E32.3474
G1 X101.848 Y79.100
G1 X103.125 Y77.779 E32.4391
G1 X102.720 Y77.648
G1 X101.485 Y78.926 E32.5278
G1 X101.129 Y78.744
G1 X102.344 Y77.487 E32.6150
G1 X101.987 Y77.307
G1 X100.776 Y78.560 E32.7019
G1 X100.458 Y78.340
G1 X101.634 Y77.123 E32.7864
G1 X101.321 Y76.897
G1 X100.139 Y78.119 E32.8712
G1 X99.827 Y77.892
G1 X101.008 Y76.671 E32.9559
G1 X100.713 Y76.426
G1 X99.539 Y77.640 E33.0402
G1 X99.251 Y77.389
G1 X100.440 Y76.158 E33.1256
G1 X100.171 Y75.887
G1 X98.861 Y77.242 E33.2196
G1 X98.330 Y77.242
G1 X99.942 Y75.574 E33.3354
G1 X99.732 Y75.242
G1 X97.799 Y77.242 E33.4742
G1 X97.267 Y77.242
G1 X99.522 Y74.909 E33.6361
G1 X99.311 Y74.577
G1 X96.736 Y77.242 E33.8209
G1 X96.204 Y77.242
G1 X99.110 Y74.236 E34.0295
G1 X98.966 Y73.835
G1 X95.673 Y77.242 E34.2659
G1 X95.142 Y77.242
G1 X98.850 Y73.405 E34.5322
G1 X98.567 Y73.148
G1 X94.610 Y77.242 E34.8163
G1 X94.079 Y77.242
G1 X98.036 Y73.148 E35.1003
G1 X97.504 Y73.148
G1 X93.548 Y77.242 E35.3844
G1 X93.016 Y77.242
G1 X97.216 Y72.896 E35.6859
G1 X96.007 Y72.498 F10800
G1 X91.556 Y77.104 E36.0055 F3600
G1 X91.154 Y76.970
G1 X95.475 Y72.498 E36.3158
G1 X94.944 Y72.498
G1 X90.781 Y76.806 E36.6147
G1 X90.447 Y76.602
G1 X94.413 Y72.498 E36.8994
G1 X93.881 Y72.498
G1 X90.141 Y76.368 E37.1679
G1 X89.856 Y76.113
G1 X93.350 Y72.498 E37.4187
G1 X92.819 Y72.498
G1 X89.607 Y75.822 E37.6493
G1 X89.385 Y75.501
G1 X92.287 Y72.498 E37.8577
G1 X91.756 Y72.498
G1 X89.187 Y75.156 E38.0421
G1 X89.028 Y74.771
G1 X91.224 Y72.498 E38.1998
G1 X90.693 Y72.498
G1 X88.912 Y74.342 E38.3277
G1 X88.841 Y73.865
G1 X90.162 Y72.498 E38.4226
G1 X89.630 Y72.498
G1 X88.815 Y73.342 E38.4811
G1 X88.815 Y72.792
G1 X89.099 Y72.498 E38.5015
G1 X103.611 Y77.488 F10800
G1 X105.485 Y77.636
G1 X107.320 Y77.198
G1 X109.794 Y75.285
G1 X111.019 Y74.009
G1 X111.851 Y73.148 E38.5613 F3600
G1 X111.320 Y73.148
G1 X111.225 Y73.246 E38.5681
G1 X108.881 Y76.772 F10800
G1 X106.081 Y79.669 E38.7691 F3600
G1 X105.513 Y79.707
G1 X107.629 Y77.517 E38.9210
G1 X106.737 Y79.540 F10800
G1 X113.542 Y72.498 E39.4096 F3600
G1 X113.011 Y72.498
G1 X112.816 Y72.699 E39.4236
G1 X112.382 Y73.148
G1 X110.270 Y75.333 E39.5752
G1 X108.245 Y79.079 F10800
G1 X114.605 Y72.498 E40.0318 F3600
G1 X114.073 Y72.498
G1 X107.441 Y79.362 E40.5080
G1 X111.046 Y77.715 F10800
G1 X121.186 Y73.936
G1 X118.032 Y77.200 E40.7344 F3600
G1 X117.459 Y77.242
G1 X121.217 Y73.353 E41.0043
G1 X121.217 Y72.803
G1 X116.928 Y77.242 E41.3122
G1 X116.396 Y77.242
G1 X120.981 Y72.498 E41.6414
G1 X120.450 Y72.498
G1 X115.865 Y77.242 E41.9705
G1 X115.334 Y77.242
G1 X119.918 Y72.498 E42.2997
G1 X119.387 Y72.498
G1 X114.802 Y77.242 E42.6289
G1 X114.271 Y77.242
G1 X118.856 Y72.498 E42.9580
G1 X118.324 Y72.498
G1 X113.740 Y77.242 E43.2872
G1 X113.208 Y77.242
G1 X117.793 Y72.498 E43.6163
G1 X117.261 Y72.498
G1 X112.677 Y77.242 E43.9455
G1 X112.145 Y77.242
G1 X116.730 Y72.498 E44.2746
G1 X116.199 Y72.498
G1 X111.614 Y77.242 E44.6038
G1 X111.083 Y77.242
G1 X115.667 Y72.498 E44.9329
G1 X115.136 Y72.498
G1 X109.322 Y78.514 E45.3503
G1 X111.103 Y77.681 F10800
G1 X118.722 Y77.035
G1 X121.053 Y74.623 E45.5177 F3600
G1 X120.422 Y75.826 F10800
G1 X119.930 Y76.335 E45.5530 F3600
G1 F4800 E44.5530
G1 X122.348 Y97.555 F10800
G1 X122.184 Y99.676
G1 X99.044 Y99.688
G1 X97.216 Y101.490
G1 F4800 E45.5530
G1 X92.759 Y106.102 E45.8731 F3600
G1 X93.290 Y106.102
G1 X97.247 Y102.007 E46.1571
;segType:Perimeter
G1 X97.248 Y101.119 F10800
G1 X97.873 Y101.387 E46.1911 F2159
G1 X99.237 Y101.387 E46.2591
G1 X99.582 Y102.671 E46.3255
G1 X99.671 Y102.873 E46.3365
G1 X100.539 Y104.243 E46.4174
G1 X100.646 Y104.364 E46.4255
G1 X101.220 Y104.927 E46.4656
G1 X101.963 Y105.463 E46.5113
G1 X102.782 Y105.877 E46.5570
G1 X103.653 Y106.159 E46.6027
G1 X104.558 Y106.301 E46.6484
G1 X105.471 Y106.301 E46.6940
G1 X106.379 Y106.159 E46.7399
G1 X107.251 Y105.877 E46.7856
G1 X108.069 Y105.463 E46.8313
G1 X108.836 Y104.905 E46.8786
G1 X109.650 Y104.020 E46.9386
G1 X109.795 Y103.814 E46.9512
G1 X110.407 Y102.786 E47.0109
G1 X110.452 Y102.665 E47.0173
G1 X110.795 Y101.387 E47.0833
G1 X112.216 Y101.387 E47.1542
G1 X112.216 Y100.737 E47.1867
G1 X121.817 Y100.737 E47.6657
G1 X121.817 Y102.421 E47.7497
G1 X121.763 Y103.100 E47.7837
G1 X121.606 Y103.755 E47.8173
G1 X121.349 Y104.376 E47.8508
G1 X120.997 Y104.950 E47.8844
G1 X120.559 Y105.463 E47.9181
G1 X120.046 Y105.901 E47.9517
G1 X119.471 Y106.254 E47.9854
G1 X118.847 Y106.512 E48.0191
G1 X118.190 Y106.670 E48.0528
G1 X117.508 Y106.723 E48.0869
G1 X111.168 Y106.723 E48.4032
G1 X110.508 Y107.300 E48.4469
G1 X109.533 Y107.975 E48.5061
G1 X108.477 Y108.513 E48.5652
G1 X107.359 Y108.905 E48.6243
G1 X106.198 Y109.143 E48.6835
G1 X105.016 Y109.223 E48.7426
G1 X103.834 Y109.143 E48.8017
G1 X102.673 Y108.905 E48.8608
G1 X101.555 Y108.513 E48.9199
G1 X100.499 Y107.975 E48.9790
G1 X99.525 Y107.300 E49.0382
G1 X98.864 Y106.723 E49.0819
G1 X92.524 Y106.723 E49.3982
G1 X91.842 Y106.670 E49.4323
G1 X91.185 Y106.512 E49.4661
G1 X90.562 Y106.254 E49.4997
G1 X89.986 Y105.901 E49.5334
G1 X89.474 Y105.463 E49.5670
G1 X89.035 Y104.950 E49.6007
G1 X88.683 Y104.376 E49.6343
G1 X88.426 Y103.755 E49.6678
G1 X88.269 Y103.100 E49.7014
G1 X88.215 Y102.421 E49.7354
G1 X88.215 Y100.737 E49.8194
G1 X97.816 Y100.737 E50.2984
G1 X97.816 Y101.328 E50.3280
G1 X98.075 Y101.975
;segType:Loop
G1 X98.849 Y101.801 F10800
G1 X98.933 Y101.801 E50.3321 F3600
G1 X99.205 Y102.813 E50.3844
G1 X99.320 Y103.073 E50.3986
G1 X100.222 Y104.497 E50.4827
G1 X100.360 Y104.654 E50.4932
G1 X100.967 Y105.248 E50.5355
G1 X101.760 Y105.821 E50.5843
G1 X102.633 Y106.263 E50.6331
G1 X103.563 Y106.563 E50.6819
G1 X104.528 Y106.715 E50.7306
G1 X105.501 Y106.715 E50.7792
G1 X106.470 Y106.563 E50.8281
G1 X107.399 Y106.263 E50.8768
G1 X108.273 Y105.821 E50.9257
G1 X109.098 Y105.220 E50.9766
G1 X109.958 Y104.286 E51.0400
G1 X110.128 Y104.044 E51.0547
G1 X110.767 Y102.971 E51.1170
G1 X110.832 Y102.795 E51.1264
G1 X111.099 Y101.801 E51.1777
G1 X112.616 Y101.801 E51.2534
G1 X112.616 Y101.151 E51.2859
G1 X121.417 Y101.151 E51.7249
G1 X121.417 Y102.404 E51.7875
G1 X121.367 Y103.033 E51.8190
G1 X121.226 Y103.622 E51.8492
G1 X120.994 Y104.182 E51.8794
G1 X120.676 Y104.700 E51.9097
G1 X120.280 Y105.164 E51.9402
G1 X119.815 Y105.561 E51.9707
G1 X119.293 Y105.881 E52.0012
G1 X118.727 Y106.116 E52.0318
G1 X118.129 Y106.259 E52.0625
G1 X117.493 Y106.309 E52.0943
G1 X111.022 Y106.309 E52.4172
G1 X110.267 Y106.969 E52.4672
G1 X109.332 Y107.616 E52.5239
G1 X108.324 Y108.130 E52.5803
G1 X107.256 Y108.505 E52.6368
G1 X106.146 Y108.732 E52.6934
G1 X105.016 Y108.808 E52.7499
G1 X103.886 Y108.732 E52.8064
G1 X102.776 Y108.505 E52.8629
G1 X101.708 Y108.130 E52.9194
G1 X100.700 Y107.616 E52.9758
G1 X99.766 Y106.969 E53.0325
G1 X99.011 Y106.309 E53.0825
G1 X92.539 Y106.309 E53.4054
G1 X91.903 Y106.259 E53.4372
G1 X91.306 Y106.116 E53.4679
G1 X90.739 Y105.881 E53.4985
G1 X90.217 Y105.561 E53.5290
G1 X89.753 Y105.164 E53.5595
G1 X89.356 Y104.700 E53.5900
G1 X89.039 Y104.183 E53.6203
G1 X88.807 Y103.622 E53.6505
G1 X88.665 Y103.033 E53.6808
G1 X88.615 Y102.404 E53.7122
G1 X88.615 Y101.151 E53.7748
G1 X97.416 Y101.151 E54.2139
G1 X97.416 Y101.801 E54.2463
G1 X98.662 Y101.801 E54.3084
G1 F4800 E53.3084
G1 X97.779 Y102.007 F10800
G1 F4800 E54.3084
;segType:HShell
G1 X93.822 Y106.102 E54.5925 F3600
G1 X94.353 Y106.102
G1 X98.310 Y102.007 E54.8766
G1 X98.794 Y102.056
G1 X94.884 Y106.102 E55.1573
G1 X95.416 Y106.102
G1 X98.910 Y102.486 E55.4082
G1 X99.029 Y102.913
G1 X95.947 Y106.102 E55.6294
G1 X96.478 Y106.102
G1 X99.209 Y103.276 E55.8255
G1 X99.420 Y103.609
G1 X97.010 Y106.102 E55.9985
G1 X97.541 Y106.102
G1 X99.630 Y103.941 E56.1485
G1 X99.841 Y104.273
G1 X98.073 Y106.102 E56.2754
G1 X98.604 Y106.102
G1 X100.051 Y104.605 E56.3793
G1 X100.308 Y104.888
G1 X99.112 Y106.127 E56.4652
G1 X99.400 Y106.378
G1 X100.581 Y105.156 E56.5500
G1 X100.856 Y105.421
G1 X99.688 Y106.630 E56.6339
G1 X99.985 Y106.872
G1 X101.169 Y105.647 E56.7189
G1 X101.482 Y105.873
G1 X100.304 Y107.093 E56.8036
G1 X100.622 Y107.313
G1 X101.814 Y106.079 E56.8892
G1 X102.171 Y106.260
G1 X100.957 Y107.516 E56.9764
G1 X101.313 Y107.698
G1 X102.528 Y106.440 E57.0636
G1 X102.929 Y106.575
G1 X101.669 Y107.879 E57.1541
G1 X102.053 Y108.032
G1 X103.334 Y106.706 E57.2461
G1 X103.770 Y106.805
G1 X102.449 Y108.171 E57.3409
G1 X102.848 Y108.308
G1 X104.231 Y106.878 E57.4401
G1 X104.720 Y106.922
G1 X103.292 Y108.399 E57.5426
G1 X103.735 Y108.490
G1 X105.251 Y106.922 E57.6514
G1 X105.829 Y106.873
G1 X104.212 Y108.547 E57.7675
G1 X104.711 Y108.580
G1 X106.456 Y106.775 E57.8927
G1 X108.574 Y105.133 F10800
G1 X110.693 Y103.490
G1 X112.125 Y102.007 E57.9956 F3600
G1 X112.657 Y102.007
G1 X106.416 Y108.466 E58.4436
G1 X107.078 Y108.330
G1 X113.816 Y101.358 E58.9274
G1 X114.348 Y101.358
G1 X107.856 Y108.076 E59.3935
G1 X108.784 Y107.665 F10800
G1 X114.879 Y101.358 E59.8311 F3600
G1 X115.410 Y101.358
G1 X110.156 Y106.795 E60.2083
G1 X111.119 Y102.499 F10800
G1 X111.594 Y102.007 E60.2424 F3600
G1 X108.972 Y105.039 F10800
G1 X107.215 Y106.539
G1 X105.237 Y108.586 E60.3844 F3600
G1 X105.806 Y108.548
G1 X108.165 Y106.106 E60.5538
G1 X111.357 Y106.102 F10800
G1 X115.942 Y101.358 E60.8830 F3600
G1 X116.473 Y101.358
G1 X111.888 Y106.102 E61.2121
G1 X112.419 Y106.102
G1 X117.004 Y101.358 E61.5413
G1 X117.536 Y101.358
G1 X112.951 Y106.102 E61.8705
G1 X113.482 Y106.102
G1 X118.067 Y101.358 E62.1996
G1 X118.599 Y101.358
G1 X114.014 Y106.102 E62.5288
G1 X114.545 Y106.102
G1 X119.130 Y101.358 E62.8580
G1 X119.661 Y101.358
G1 X115.076 Y106.102 E63.1872
G1 X115.608 Y106.102
G1 X120.193 Y101.358 E63.5163
G1 X120.724 Y101.358
G1 X116.139 Y106.102 E63.8455
G1 X116.670 Y106.102
G1 X121.217 Y101.397 E64.1720
G1 X121.217 Y101.947
G1 X117.202 Y106.102 E64.4603
G1 X117.753 Y106.081
G1 X121.209 Y102.506 E64.7083
G1 X121.138 Y103.128
G1 X118.375 Y105.988 E64.9067
G1 X119.179 Y105.706
G1 X120.870 Y103.956 E65.0281
G1 X113.285 Y101.358 F10800
G1 X112.816 Y101.843 E65.0618 F3600
G1 X108.165 Y105.631 F10800
G1 X106.422 Y106.348
G1 X104.544 Y106.495
G1 X102.712 Y106.058
G1 X101.102 Y105.078
G1 X96.812 Y101.358
G1 X92.250 Y106.079 E65.3893 F3600
G1 X91.779 Y106.017
G1 X96.281 Y101.358 E65.7126
G1 X95.750 Y101.358
G1 X91.349 Y105.911 E66.0285
G1 X90.970 Y105.754
G1 X95.218 Y101.358 E66.3335
G1 X94.687 Y101.358
G1 X90.619 Y105.567 E66.6256
G1 X90.291 Y105.356
G1 X94.156 Y101.358 E66.9030
G1 X93.624 Y101.358
G1 X90.000 Y105.108 E67.1632
G1 X89.736 Y104.832
G1 X93.093 Y101.358 E67.4042
G1 X92.562 Y101.358
G1 X89.491 Y104.535 E67.6247
G1 X89.285 Y104.198
G1 X92.030 Y101.358 E67.8217
G1 X91.499 Y101.358
G1 X89.110 Y103.830 E67.9932
G1 X88.966 Y103.428
G1 X90.967 Y101.358 E68.1369
G1 X90.436 Y101.358
G1 X88.862 Y102.987 E68.2499
G1 X88.821 Y102.479
G1 X89.905 Y101.358 E68.3277
G1 X89.373 Y101.358
G1 X88.815 Y101.935 E68.3678
G1 F4800 E67.3678
G1 X112.784 Y98.577 F10800
G1 F4800 E68.3678
G1 X117.305 Y93.898 E68.6924 F3600
G1 X117.810 Y93.926
G1 X113.252 Y98.642 E69.0196
;segType:Perimeter
G1 X112.752 Y98.881 F10800
G1 X112.127 Y98.613 E69.0536 F2159
G1 X110.763 Y98.613 E69.1216
G1 X110.418 Y97.329 E69.1880
G1 X110.329 Y97.127 E69.1990
G1 X109.461 Y95.757 E69.2799
G1 X109.354 Y95.636 E69.2880
G1 X108.780 Y95.073 E69.3281
G1 X108.037 Y94.537 E69.3738
G1 X107.218 Y94.123 E69.4195
G1 X106.347 Y93.841 E69.4652
G1 X105.442 Y93.699 E69.5109
G1 X104.529 Y93.698 E69.5565
G1 X103.621 Y93.841 E69.6024
G1 X102.749 Y94.123 E69.6480
G1 X101.931 Y94.537 E69.6938
G1 X101.164 Y95.095 E69.7411
G1 X100.350 Y95.980 E69.8011
G1 X100.205 Y96.186 E69.8137
G1 X99.593 Y97.214 E69.8733
G1 X99.548 Y97.335 E69.8798
G1 X99.205 Y98.613 E69.9458
G1 X97.784 Y98.613 E70.0167
G1 X97.784 Y99.263 E70.0492
G1 X88.183 Y99.263 E70.5282
G1 X88.183 Y97.579 E70.6122
G1 X88.237 Y96.900 E70.6462
G1 X88.394 Y96.245 E70.6798
G1 X88.651 Y95.624 E70.7133
G1 X89.003 Y95.050 E70.7469
G1 X89.441 Y94.537 E70.7806
G1 X89.954 Y94.099 E70.8142
G1 X90.529 Y93.746 E70.8479
G1 X91.153 Y93.488 E70.8816
G1 X91.810 Y93.330 E70.9153
G1 X92.492 Y93.277 E70.9494
G1 X98.832 Y93.277 E71.2657
G1 X99.492 Y92.700 E71.3095
G1 X100.467 Y92.025 E71.3686
G1 X101.523 Y91.487 E71.4277
G1 X102.641 Y91.094 E71.4868
G1 X103.802 Y90.857 E71.5460
G1 X104.984 Y90.778 E71.6051
G1 X106.166 Y90.857 E71.6642
G1 X107.327 Y91.094 E71.7233
G1 X108.445 Y91.487 E71.7824
G1 X109.501 Y92.025 E71.8415
G1 X110.475 Y92.700 E71.9007
G1 X111.135 Y93.277 E71.9444
G1 X117.476 Y93.277 E72.2607
G1 X118.158 Y93.330 E72.2948
G1 X118.815 Y93.488 E72.3286
G1 X119.438 Y93.746 E72.3622
G1 X120.014 Y94.099 E72.3959
G1 X120.526 Y94.537 E72.4296
G1 X120.965 Y95.050 E72.4632
G1 X121.317 Y95.624 E72.4968
G1 X121.574 Y96.245 E72.5304
G1 X121.731 Y96.900 E72.5639
G1 X121.785 Y97.579 E72.5979
G1 X121.785 Y99.263 E72.6819
G1 X112.184 Y99.263 E73.1610
G1 X112.184 Y98.672 E73.1905
G1 X111.925 Y98.025
;segType:Loop
G1 X111.151 Y98.199 F10800
G1 X111.067 Y98.199 E73.1947 F3600
G1 X110.795 Y97.187 E73.2469
G1 X110.680 Y96.927 E73.2611
G1 X109.778 Y95.503 E73.3452
G1 X109.640 Y95.346 E73.3557
G1 X109.033 Y94.751 E73.3980
G1 X108.240 Y94.179 E73.4468
G1 X107.367 Y93.737 E73.4957
G1 X106.437 Y93.437 E73.5444
G1 X105.472 Y93.285 E73.5931
G1 X104.499 Y93.284 E73.6417
G1 X103.530 Y93.437 E73.6906
G1 X102.601 Y93.737 E73.7393
G1 X101.726 Y94.179 E73.7882
G1 X100.901 Y94.780 E73.8391
G1 X100.042 Y95.714 E73.9025
G1 X99.872 Y95.955 E73.9172
G1 X99.233 Y97.029 E73.9795
G1 X99.168 Y97.206 E73.9889
G1 X98.901 Y98.199 E74.0402
G1 X97.384 Y98.199 E74.1159
G1 X97.384 Y98.849 E74.1484
G1 X88.583 Y98.849 E74.5874
G1 X88.583 Y97.596 E74.6500
G1 X88.633 Y96.967 E74.6814
G1 X88.774 Y96.378 E74.7117
G1 X89.006 Y95.818 E74.7419
G1 X89.324 Y95.299 E74.7722
G1 X89.720 Y94.836 E74.8027
G1 X90.185 Y94.439 E74.8332
G1 X90.707 Y94.119 E74.8637
G1 X91.273 Y93.884 E74.8943
G1 X91.871 Y93.741 E74.9250
G1 X92.507 Y93.691 E74.9568
G1 X98.979 Y93.691 E75.2797
G1 X99.733 Y93.031 E75.3297
G1 X100.668 Y92.384 E75.3864
G1 X101.676 Y91.870 E75.4428
G1 X102.744 Y91.495 E75.4993
G1 X103.854 Y91.268 E75.5558
G1 X104.984 Y91.192 E75.6123
G1 X106.114 Y91.268 E75.6688
G1 X107.224 Y91.495 E75.7254
G1 X108.292 Y91.870 E75.7818
G1 X109.300 Y92.384 E75.8383
G1 X110.234 Y93.031 E75.8950
G1 X110.989 Y93.691 E75.9450
G1 X117.461 Y93.691 E76.2679
G1 X118.097 Y93.741 E76.2997
G1 X118.694 Y93.884 E76.3304
G1 X119.261 Y94.119 E76.3610
G1 X119.783 Y94.439 E76.3915
G1 X120.247 Y94.836 E76.4220
G1 X120.644 Y95.299 E76.4524
G1 X120.961 Y95.817 E76.4827
G1 X121.193 Y96.378 E76.5130
G1 X121.335 Y96.967 E76.5432
G1 X121.385 Y97.596 E76.5747
G1 X121.385 Y98.849 E76.6372
G1 X112.584 Y98.849 E77.0763
G1 X112.584 Y98.199 E77.1087
G1 X111.338 Y98.199 E77.1709
G1 F4800 E76.1709
G1 X120.691 Y98.642 F10800
G1 F4800 E77.1709
;segType:HShell
G1 X121.185 Y98.131 E77.2063 F3600
G1 X121.183 Y97.583
G1 X120.160 Y98.642 E77.2798
G1 X119.628 Y98.642
G1 X121.143 Y97.075 E77.3886
G1 X121.047 Y96.625
G1 X119.097 Y98.642 E77.5286
G1 X118.566 Y98.642
G1 X120.909 Y96.217 E77.6968
G1 X120.740 Y95.842
G1 X118.034 Y98.642 E77.8911
G1 X117.503 Y98.642
G1 X120.534 Y95.506 E78.1087
G1 X120.295 Y95.203
G1 X116.971 Y98.642 E78.3473
G1 X116.440 Y98.642
G1 X120.035 Y94.922 E78.6054
G1 X119.744 Y94.674
G1 X115.909 Y98.642 E78.8807
G1 X115.377 Y98.642
G1 X119.421 Y94.458 E79.1711
G1 X119.076 Y94.265
G1 X114.846 Y98.642 E79.4747
G1 X114.315 Y98.642
G1 X118.696 Y94.108 E79.7893
G1 X118.274 Y93.996
G1 X113.783 Y98.642 E80.1117
G1 X112.784 Y98.027 F10800
G1 X116.774 Y93.898 E80.3982 F3600
G1 X116.242 Y93.898
G1 X112.286 Y97.992 E80.6822
G1 X111.754 Y97.992
G1 X115.711 Y93.898 E80.9663
G1 X115.180 Y93.898
G1 X111.223 Y97.992 E81.2504
G1 X111.104 Y97.566
G1 X114.648 Y93.898 E81.5048
G1 X114.117 Y93.898
G1 X110.988 Y97.135 E81.7294
G1 X110.816 Y96.764
G1 X113.586 Y93.898 E81.9283
G1 X113.054 Y93.898
G1 X110.606 Y96.432 E82.1040
G1 X110.395 Y96.100
G1 X112.523 Y93.898 E82.2568
G1 X111.991 Y93.898
G1 X110.185 Y95.768 E82.3865
G1 X109.974 Y95.435
G1 X111.460 Y93.898 E82.4932
G1 X110.929 Y93.898
G1 X109.725 Y95.144 E82.5796
G1 X109.452 Y94.877
G1 X110.635 Y93.652 E82.6646
G1 X110.347 Y93.400
G1 X109.179 Y94.609 E82.7484
G1 X108.869 Y94.380
G1 X110.053 Y93.154 E82.8335
G1 X109.735 Y92.934
G1 X108.556 Y94.154 E82.9181
G1 X108.229 Y93.943
G1 X109.416 Y92.714 E83.0034
G1 X109.086 Y92.506
G1 X107.872 Y93.762 E83.0906
G1 X107.515 Y93.582
G1 X108.730 Y92.324 E83.1778
G1 X108.374 Y92.143
G1 X107.120 Y93.441 E83.2679
G1 X106.715 Y93.310
G1 X107.995 Y91.985 E83.3598
G1 X107.599 Y91.845
G1 X106.286 Y93.204 E83.4540
G1 X105.825 Y93.131
G1 X107.202 Y91.706 E83.5529
G1 X106.762 Y91.612
G1 X105.345 Y93.078 E83.6546
G1 X104.814 Y93.078
G1 X106.318 Y91.521 E83.7626
G1 X105.848 Y91.458
G1 X104.246 Y93.115 E83.8776
G1 X103.620 Y93.213
G1 X105.349 Y91.424 E84.0017
G1 X104.831 Y91.410
G1 X102.878 Y93.431 E84.1419
G1 X89.082 Y96.160 F10800
G1 X90.928 Y94.250 E84.2744 F3600
G1 X98.832 Y93.472 F10800
G1 X100.044 Y93.065
G1 X94.654 Y98.642 E84.6614 F3600
G1 X94.123 Y98.642
G1 X98.707 Y93.898 E84.9906
G1 X98.176 Y93.898
G1 X93.591 Y98.642 E85.3197
G1 X93.060 Y98.642
G1 X97.645 Y93.898 E85.6489
G1 X97.113 Y93.898
G1 X92.529 Y98.642 E85.9780
G1 X91.997 Y98.642
G1 X96.582 Y93.898 E86.3072
G1 X96.050 Y93.898
G1 X91.466 Y98.642 E86.6363
G1 X90.934 Y98.642
G1 X95.519 Y93.898 E86.9655
G1 X94.988 Y93.898
G1 X90.403 Y98.642 E87.2946
G1 X89.872 Y98.642
G1 X94.456 Y93.898 E87.6238
G1 X93.925 Y93.898
G1 X89.340 Y98.642 E87.9529
G1 X88.809 Y98.642
G1 X93.394 Y93.898 E88.2821
G1 X92.862 Y93.898
G1 X88.783 Y98.120 E88.5750
G1 X88.786 Y97.567
G1 X92.316 Y93.913 E88.8285
G1 X91.709 Y93.992
G1 X88.840 Y96.960 E89.0344
G1 X98.897 Y93.460 F10800
G1 X102.242 Y91.890
G1 X95.717 Y98.642 E89.5028 F3600
G1 X95.185 Y98.642
G1 X101.342 Y92.271 E89.9449
G1 X97.184 Y98.224 F10800
G1 X96.779 Y98.642 E89.9739 F3600
G1 X96.248 Y98.642
G1 X103.002 Y91.653 E90.4588
G1 X101.961 Y93.831 F10800
G1 X104.263 Y91.448 E90.6241 F3600
G1 X103.664 Y91.518
G1 X97.408 Y97.992 E91.0733
G1 X98.856 Y97.593 F10800
G1 X98.470 Y97.992 E91.1010 F3600
G1 X97.939 Y97.992
G1 X99.204 Y96.683 E91.1918
; ------------------------------------
; Layer #3
; ------------------------------------
G21 ; mm
G90 ; abs
G92 E0 ; reset extr
M106 S255
G1 F4800 E-1.0000
G1 F300 Z1.200
G1 X99.027 Y99.242 F10800
G1 X98.849 Y101.801
G1 F4800 E0.0000
;segType:Loop
G1 X99.210 Y101.801 E0.0180 F3600
G1 X99.445 Y102.677 E0.0633
G1 X99.586 Y102.995 E0.0806
G1 X100.415 Y104.301 E0.1578
G1 X100.583 Y104.492 E0.1705
G1 X101.135 Y105.033 E0.2090
G1 X101.894 Y105.583 E0.2558
G1 X102.731 Y106.008 E0.3026
G1 X103.622 Y106.297 E0.3494
G1 X104.548 Y106.443 E0.3961
G1 X105.480 Y106.444 E0.4426
G1 X106.410 Y106.297 E0.4896
G1 X107.301 Y106.008 E0.5364
G1 X108.137 Y105.584 E0.5831
G1 X108.763 Y105.136 E0.6215
G1 X108.947 Y104.986 E0.6334
G1 X109.720 Y104.147 E0.6903
G1 X109.933 Y103.843 E0.7088
G1 X110.516 Y102.865 E0.7656
G1 X110.592 Y102.657 E0.7767
G1 X110.822 Y101.801 E0.8209
G1 X112.616 Y101.801 E0.9104
G1 X112.616 Y101.151 E0.9428
G1 X121.417 Y101.151 E1.3819
G1 X121.417 Y102.404 E1.4444
G1 X121.367 Y103.033 E1.4759
G1 X121.226 Y103.622 E1.5061
G1 X120.994 Y104.182 E1.5364
G1 X120.676 Y104.700 E1.5667
G1 X120.280 Y105.164 E1.5971
G1 X119.815 Y105.561 E1.6276
G1 X119.293 Y105.881 E1.6582
G1 X118.727 Y106.116 E1.6888
G1 X118.129 Y106.259 E1.7194
G1 X117.493 Y106.309 E1.7512
G1 X111.022 Y106.309 E2.0741
G1 X110.267 Y106.969 E2.1241
G1 X109.332 Y107.616 E2.1808
G1 X108.324 Y108.130 E2.2373
G1 X107.256 Y108.505 E2.2938
G1 X106.146 Y108.732 E2.3503
G1 X105.016 Y108.808 E2.4068
G1 X103.886 Y108.732 E2.4633
G1 X102.776 Y108.505 E2.5198
G1 X101.708 Y108.130 E2.5763
G1 X100.700 Y107.616 E2.6328
G1 X99.766 Y106.969 E2.6895
G1 X99.011 Y106.309 E2.7395
G1 X92.539 Y106.309 E3.0624
G1 X91.903 Y106.259 E3.0942
G1 X91.306 Y106.116 E3.1248
G1 X90.739 Y105.881 E3.1554
G1 X90.217 Y105.561 E3.1860
G1 X89.753 Y105.164 E3.2165
G1 X89.356 Y104.700 E3.2469
G1 X89.039 Y104.183 E3.2772
G1 X88.807 Y103.622 E3.3074
G1 X88.665 Y103.033 E3.3377
G1 X88.615 Y102.404 E3.3692
G1 X88.615 Y101.151 E3.4317
G1 X97.416 Y101.151 E3.8708
G1 X97.416 Y101.801 E3.9032
G1 X98.662 Y101.801 E3.9653
G1 F4800 E2.9653
G1 X99.333 Y101.439 F10800
G1 X97.248 Y101.119
G1 F4800 E3.9653
;segType:Perimeter
G1 X97.873 Y101.387 E3.9993 F2159
G1 X99.514 Y101.387 E4.0811
G1 X99.822 Y102.535 E4.1404
G1 X99.937 Y102.794 E4.1546
G1 X100.732 Y104.046 E4.2286
G1 X100.869 Y104.202 E4.2389
G1 X101.389 Y104.712 E4.2753
G1 X102.098 Y105.226 E4.3190
G1 X102.880 Y105.622 E4.3627
G1 X103.713 Y105.893 E4.4064
G1 X104.578 Y106.029 E4.4501
G1 X105.450 Y106.030 E4.4936
G1 X106.320 Y105.893 E4.5375
G1 X107.152 Y105.622 E4.5812
G1 X107.934 Y105.226 E4.6249
G1 X108.525 Y104.803 E4.6612
G1 X108.678 Y104.679 E4.6710
G1 X109.412 Y103.881 E4.7251
G1 X109.601 Y103.612 E4.7415
G1 X110.156 Y102.681 E4.7956
G1 X110.212 Y102.528 E4.8037
G1 X110.518 Y101.387 E4.8627
G1 X112.216 Y101.387 E4.9474
G1 X112.216 Y100.737 E4.9798
G1 X121.817 Y100.737 E5.4588
G1 X121.817 Y102.421 E5.5428
G1 X121.763 Y103.100 E5.5768
G1 X121.606 Y103.755 E5.6104
G1 X121.349 Y104.376 E5.6440
G1 X120.997 Y104.950 E5.6775
G1 X120.559 Y105.463 E5.7112
G1 X120.046 Y105.901 E5.7449
G1 X119.471 Y106.254 E5.7785
G1 X118.847 Y106.512 E5.8122
G1 X118.190 Y106.670 E5.8459
G1 X117.508 Y106.723 E5.8800
G1 X111.168 Y106.723 E6.1963
G1 X110.508 Y107.300 E6.2401
G1 X109.533 Y107.975 E6.2992
G1 X108.477 Y108.513 E6.3583
G1 X107.359 Y108.905 E6.4175
G1 X106.198 Y109.143 E6.4766
G1 X105.016 Y109.223 E6.5357
G1 X103.834 Y109.143 E6.5948
G1 X102.673 Y108.905 E6.6539
G1 X101.555 Y108.513 E6.7130
G1 X100.499 Y107.975 E6.7721
G1 X99.525 Y107.300 E6.8313
G1 X98.864 Y106.723 E6.8751
G1 X92.524 Y106.723 E7.1914
G1 X91.842 Y106.670 E7.2255
G1 X91.185 Y106.512 E7.2592
G1 X90.562 Y106.254 E7.2929
G1 X89.986 Y105.901 E7.3265
G1 X89.474 Y105.463 E7.3602
G1 X89.035 Y104.950 E7.3938
G1 X88.683 Y104.376 E7.4274
G1 X88.426 Y103.755 E7.4610
G1 X88.269 Y103.100 E7.4946
G1 X88.215 Y102.421 E7.5285
G1 X88.215 Y100.737 E7.6126
G1 X97.816 Y100.737 E8.0916
G1 X97.816 Y101.328 E8.1211
G1 X98.075 Y101.975
;segType:HShell
G1 X98.505 Y102.007 F10800
G1 X99.288 Y102.818 E8.1773 F3600
G1 X101.270 Y104.862 F10800
G1 X102.810 Y105.803
G1 X104.564 Y106.223
G1 X106.362 Y106.082
G1 X108.637 Y104.960
G1 X114.668 Y101.358
;segType:Infill
G1 X114.668 Y101.602 E8.1895 F5400
G1 X107.222 Y105.803 F10800
G1 X105.464 Y106.224
G1 X103.670 Y106.082
G1 X102.003 Y105.393
G1 X100.148 Y104.259
;segType:HShell
G1 X97.973 Y102.007 E8.3457 F3600
G1 X97.442 Y102.007
G1 X103.699 Y108.483 E8.7950
G1 X103.037 Y108.347
G1 X96.519 Y101.602 E9.2629
G1 X95.987 Y101.602
G1 X102.277 Y108.111 E9.7145
G1 X97.216 Y101.774 F10800
G1 X97.050 Y101.602 E9.7264 F3600
;segType:Infill
G1 X90.938 Y101.358 F10800
G1 X90.938 Y101.602 E9.7386 F5400
;segType:HShell
G1 X89.113 Y103.836 F10800
G1 X90.964 Y105.751 E9.8715 F3600
G1 X91.744 Y106.009
G1 X88.872 Y103.037 E10.0777
G1 X88.818 Y102.431
G1 X92.351 Y106.087 E10.3313
G1 X92.897 Y106.102
G1 X88.815 Y101.878 E10.6244
G1 X89.080 Y101.602
G1 X93.428 Y106.102 E10.9366
G1 X93.960 Y106.102
G1 X89.611 Y101.602 E11.2488
G1 X90.142 Y101.602
G1 X94.491 Y106.102 E11.5610
G1 X95.022 Y106.102
G1 X90.674 Y101.602 E11.8732
G1 X91.205 Y101.602
G1 X95.554 Y106.102 E12.1854
G1 X96.085 Y106.102
G1 X91.736 Y101.602 E12.4976
G1 X92.268 Y101.602
G1 X96.616 Y106.102 E12.8098
G1 X97.148 Y106.102
G1 X92.799 Y101.602 E13.1220
G1 X93.331 Y101.602
G1 X97.679 Y106.102 E13.4343
G1 X98.211 Y106.102
G1 X93.862 Y101.602 E13.7465
G1 X94.393 Y101.602
G1 X98.742 Y106.102 E14.0587
G1 X105.464 Y106.224 F10800
G1 X107.222 Y105.803
G1 X118.624 Y101.358
;segType:Infill
G1 X118.624 Y101.602 E14.0709 F5400
;segType:HShell
G1 X121.217 Y101.867 F10800
G1 X120.962 Y101.602 E14.0892 F3600
G1 X120.430 Y101.602
G1 X121.216 Y102.415 E14.1456
G1 X121.175 Y102.923
G1 X119.899 Y101.602 E14.2373
G1 X119.367 Y101.602
G1 X121.079 Y103.374 E14.3602
G1 X120.942 Y103.782
G1 X118.836 Y101.602 E14.5114
G1 X118.305 Y101.602
G1 X120.773 Y104.156 E14.6886
G1 X120.567 Y104.493
G1 X117.773 Y101.602 E14.8891
G1 X117.242 Y101.602
G1 X120.328 Y104.795 E15.1107
G1 X120.068 Y105.077
G1 X116.711 Y101.602 E15.3517
G1 X116.179 Y101.602
G1 X119.777 Y105.325 E15.6101
G1 X119.455 Y105.542
G1 X115.648 Y101.602 E15.8834
G1 X115.117 Y101.602
G1 X119.110 Y105.734 E16.1700
G1 X118.730 Y105.892
G1 X114.585 Y101.602 E16.4676
G1 X114.054 Y101.602
G1 X118.308 Y106.004 E16.7730
G1 X117.844 Y106.074
G1 X113.522 Y101.602 E17.0833
G1 X112.991 Y101.602
G1 X117.340 Y106.102 E17.3955
G1 X116.808 Y106.102
G1 X112.816 Y101.971 E17.6821
G1 X112.320 Y102.007
G1 X116.277 Y106.102 E17.9662
G1 X115.746 Y106.102
G1 X111.789 Y102.007 E18.2503
G1 X111.257 Y102.007
G1 X115.214 Y106.102 E18.5344
G1 X114.683 Y106.102
G1 X110.920 Y102.209 E18.8045
G1 X110.805 Y102.639
G1 X114.152 Y106.102 E19.0448
G1 X113.620 Y106.102
G1 X110.652 Y103.031 E19.2579
G1 X110.450 Y103.371
G1 X113.089 Y106.102 E19.4473
G1 X112.557 Y106.102
G1 X110.247 Y103.711 E19.6132
G1 X110.038 Y104.045
G1 X112.026 Y106.102 E19.7559
G1 X111.495 Y106.102
G1 X109.806 Y104.354 E19.8772
G1 X109.546 Y104.636
G1 X110.963 Y106.102 E19.9789
G1 X110.668 Y106.347
G1 X109.287 Y104.917 E20.0781
G1 X109.020 Y105.191
G1 X110.380 Y106.599 E20.1758
G1 X110.087 Y106.845
G1 X108.713 Y105.423 E20.2744
G1 X108.399 Y105.648
G1 X109.768 Y107.065 E20.3727
G1 X109.450 Y107.286
G1 X108.064 Y105.851 E20.4722
G1 X107.707 Y106.032
G1 X109.120 Y107.494 E20.5736
G1 X108.764 Y107.675
G1 X107.347 Y106.209 E20.6753
G1 X106.943 Y106.341
G1 X108.408 Y107.857 E20.7805
G1 X108.029 Y108.015
G1 X106.539 Y106.472 E20.8875
G1 X106.089 Y106.557
G1 X107.632 Y108.154 E20.9983
G1 X107.236 Y108.293
G1 X105.628 Y106.630 E21.1137
G1 X105.117 Y106.651
G1 X106.796 Y108.388 E21.2342
G1 X106.352 Y108.479
G1 X104.585 Y106.650 E21.3611
G1 X103.968 Y106.561
G1 X105.882 Y108.542 E21.4985
G1 X105.383 Y108.576
G1 X103.285 Y106.405 E21.6492
G1 X102.460 Y106.100
G1 X104.866 Y108.590 E21.8219
G1 X104.298 Y108.552
G1 X101.155 Y105.301 E22.0475
;segType:Infill
G1 X94.893 Y101.358 F10800
G1 X94.893 Y101.602 E22.0597 F5400
;segType:HShell
G1 X100.082 Y106.939 F10800
G1 X94.925 Y101.602 E22.4300 F3600
G1 X95.456 Y101.602
G1 X101.379 Y107.731 E22.8553
G1 F4800 E21.8553
G1 X109.196 Y100.106 F10800
G1 X111.151 Y98.199
G1 F4800 E22.8553
;segType:Loop
G1 X110.790 Y98.199 E22.8732 F3600
G1 X110.555 Y97.324 E22.9185
G1 X110.415 Y97.005 E22.9358
G1 X109.585 Y95.699 E23.0130
G1 X109.418 Y95.508 E23.0257
G1 X108.865 Y94.967 E23.0643
G1 X108.106 Y94.417 E23.1111
G1 X107.269 Y93.993 E23.1579
G1 X106.378 Y93.703 E23.2046
G1 X105.452 Y93.557 E23.2514
G1 X104.520 Y93.556 E23.2979
G1 X103.590 Y93.703 E23.3449
G1 X102.699 Y93.993 E23.3916
G1 X101.863 Y94.416 E23.4383
G1 X101.237 Y94.863 E23.4767
G1 X101.053 Y95.014 E23.4886
