; GCode generated by CraftWare

; filename = composition.3w 
; machine = daVinciF10 
; material = abs 
; extruder = 1 
M140 S90 ; Bed (no wait) 
M106 S255 ; Start fan 
G90 ; set absolute coordinates 
G28 ; home all axis 
M190 S90 ; Bed (wait) 
M104 S210 ; Extruder (no wait) 
M109 S210 ; Extruder (wait) 
M117 Start 
M117 Cleaning 
M100 ; Cleaning 
M117 Printing 
M190 S75 ;set bed temp (wait)
M109 S220 ;set head temp (wait)
; ------------------------------------
; Layer #0
; ------------------------------------
G21 ; mm
G90 ; abs
G92 E0 ; reset extr
M106 S0
;segType:Skirt
G1 F4800 E-1.0000
G1 F300 Z0.400
G1 X83.869 Y97.428 F10800
G1 F4800 E0.0000
G1 X89.644 Y97.428 E0.3842 F1200
G1 X90.103 Y97.486 E0.4150
G1 X90.103 Y98.171 E0.4606
G1 X89.972 Y98.286 E0.4722
G1 X89.972 Y101.943 E0.7154
G1 X90.103 Y102.057 E0.7270
G1 X90.103 Y102.514 E0.7574
G1 X90.235 Y103.314 E0.8113
G1 X90.366 Y103.657 E0.8358
G1 X90.431 Y104.057 E0.8627
G1 X91.088 Y105.771 E0.9848
G1 X91.285 Y106.057 E1.0079
G1 X91.416 Y106.400 E1.0323
G1 X92.400 Y107.828 E1.1477
G1 X92.663 Y108.057 E1.1709
G1 X92.860 Y108.343 E1.1940
G1 X93.122 Y108.571 E1.2171
G1 X93.319 Y108.857 E1.2402
G1 X97.256 Y112.285 E1.5875
G1 X97.913 Y112.628 E1.6367
G1 X98.175 Y112.857 E1.6599
G1 X99.816 Y113.714 E1.7831
G1 X100.603 Y113.943 E1.8376
G1 X100.866 Y114.057 E1.8566
G1 X101.325 Y114.114 E1.8874
G1 X101.456 Y114.228 E1.8990
G1 X102.375 Y114.343 E1.9606
G1 X102.769 Y114.457 E1.9879
G1 X107.231 Y114.457 E2.2847
G1 X107.363 Y114.343 E2.2963
G1 X107.888 Y114.343 E2.3312
G1 X108.019 Y114.228 E2.3428
G1 X108.478 Y114.171 E2.3736
G1 X110.053 Y113.714 E2.4826
G1 X112.022 Y112.686 E2.6304
G1 X112.284 Y112.457 E2.6536
G1 X112.613 Y112.285 E2.6782
G1 X116.550 Y108.857 E3.0255
G1 X116.747 Y108.571 E3.0486
G1 X117.009 Y108.343 E3.0717
G1 X117.206 Y108.057 E3.0948
G1 X117.469 Y107.828 E3.1180
G1 X118.453 Y106.400 E3.2334
G1 X118.584 Y106.057 E3.2578
G1 X118.781 Y105.771 E3.2809
G1 X119.438 Y104.057 E3.4030
G1 X119.503 Y103.657 E3.4299
G1 X119.634 Y103.314 E3.4544
G1 X119.765 Y102.514 E3.5083
G1 X119.765 Y102.057 E3.5387
G1 X119.897 Y101.714 E3.5631
G1 X119.897 Y98.286 E3.7912
G1 X119.765 Y98.171 E3.8028
G1 X119.765 Y97.486 E3.8484
G1 X120.225 Y97.428 E3.8792
G1 X124.294 Y97.428 E4.1498
G1 X124.556 Y97.428 E4.1673
G1 X126.000 Y97.428 E4.2633
G1 X128.888 Y94.914 E4.5180
G1 X128.953 Y94.514 E4.5450
G1 X128.953 Y88.571 E4.9403
G1 X128.888 Y88.172 E4.9672
G1 X125.869 Y85.543 E5.2335
G1 X84.394 Y85.543 E7.9924
G1 X83.935 Y85.600 E8.0232
G1 X80.916 Y88.229 E8.2895
G1 X80.916 Y94.857 E8.7304
G1 X83.803 Y97.371 E8.9851
G1 F4800 E7.9851
G1 X103.884 Y99.771 F10800
G1 F4800 E8.9851
G1 X104.015 Y99.657 E8.9967 F1200
G1 X104.081 Y99.257 E9.0237
G1 X104.213 Y98.914 E9.0481
G1 X104.409 Y98.629 E9.0711
G1 X105.000 Y98.457 E9.1121
G1 X105.131 Y98.571 E9.1237
G1 X105.394 Y98.571 E9.1411
G1 X105.722 Y98.971 E9.1755
G1 X105.722 Y99.200 E9.1908
G1 X105.853 Y99.314 E9.2023
G1 X105.985 Y100.114 E9.2563
G1 X105.985 Y100.343 E9.2715
G1 X105.853 Y100.457 E9.2830
G1 X105.788 Y100.857 E9.3100
G1 X105.591 Y101.371 E9.3466
G1 X105.263 Y101.543 E9.3713
G1 X104.606 Y101.543 E9.4149
G1 X104.344 Y101.429 E9.4340
G1 X104.147 Y101.143 E9.4571
G1 X104.147 Y100.914 E9.4723
G1 X104.015 Y100.800 E9.4839
G1 X103.884 Y100.000 E9.5378
G1 X103.884 Y99.771 E9.5530
G1 X104.278 Y100.000 E9.5833
G1 X104.278 Y99.771 E9.5985
G1 X104.409 Y99.657 E9.6101
G1 X104.475 Y99.257 E9.6370
G1 X104.606 Y98.914 E9.6615
G1 X105.000 Y98.800 E9.6887
G1 X105.328 Y98.971 E9.7134
G1 X105.328 Y99.200 E9.7286
G1 X105.460 Y99.314 E9.7402
G1 X105.591 Y100.114 E9.7941
G1 X105.591 Y100.343 E9.8093
G1 X105.460 Y100.457 E9.8209
G1 X105.394 Y100.857 E9.8479
G1 X105.263 Y101.200 E9.8723
G1 X104.606 Y101.200 E9.9159
G1 X104.540 Y100.914 E9.9355
G1 X104.409 Y100.800 E9.9470
G1 X104.278 Y100.000 E10.0010
G1 F4800 E9.0010
G1 X89.710 Y98.171 F10800
G1 F4800 E10.0010
G1 X89.578 Y98.286 E10.0125 F1200
G1 X89.578 Y101.943 E10.2558
G1 X89.710 Y102.057 E10.2674
G1 X89.710 Y102.514 E10.2978
G1 X89.841 Y103.314 E10.3517
G1 X89.972 Y103.657 E10.3761
G1 X90.038 Y104.057 E10.4031
G1 X90.694 Y105.771 E10.5252
G1 X90.891 Y106.057 E10.5483
G1 X91.022 Y106.400 E10.5727
G1 X92.006 Y107.828 E10.6881
G1 X92.269 Y108.057 E10.7113
G1 X92.466 Y108.343 E10.7344
G1 X92.728 Y108.571 E10.7575
G1 X92.925 Y108.857 E10.7806
G1 X97.388 Y112.743 E11.1742
G1 X98.044 Y113.085 E11.2234
G1 X98.306 Y113.314 E11.2466
G1 X99.619 Y114.000 E11.3451
G1 X100.406 Y114.228 E11.3996
G1 X100.669 Y114.343 E11.4187
G1 X100.931 Y114.457 E11.4377
G1 X101.850 Y114.571 E11.4993
G1 X101.981 Y114.685 E11.5109
G1 X102.506 Y114.685 E11.5458
G1 X102.638 Y114.800 E11.5574
G1 X106.838 Y114.800 E11.8368
G1 X107.756 Y114.685 E11.8984
G1 X108.150 Y114.571 E11.9256
G1 X108.413 Y114.571 E11.9431
G1 X108.544 Y114.457 E11.9547
G1 X108.806 Y114.457 E11.9721
G1 X108.938 Y114.343 E11.9837
G1 X109.200 Y114.343 E12.0012
G1 X109.331 Y114.228 E12.0128
G1 X109.594 Y114.228 E12.0302
G1 X109.725 Y114.114 E12.0418
G1 X109.988 Y114.114 E12.0593
G1 X111.956 Y113.085 E12.2070
G1 X112.219 Y112.857 E12.2302
G1 X112.547 Y112.686 E12.2548
G1 X117.009 Y108.800 E12.6484
G1 X117.206 Y108.514 E12.6715
G1 X117.469 Y108.285 E12.6946
G1 X117.665 Y108.000 E12.7177
G1 X117.928 Y107.771 E12.7408
G1 X118.715 Y106.629 E12.8332
G1 X118.847 Y106.286 E12.8576
G1 X119.240 Y105.714 E12.9037
G1 X119.240 Y105.486 E12.9190
G1 X119.372 Y105.371 E12.9305
G1 X119.372 Y105.143 E12.9457
G1 X119.503 Y105.029 E12.9573
G1 X119.503 Y104.800 E12.9725
G1 X119.634 Y104.686 E12.9841
G1 X119.634 Y104.457 E12.9993
G1 X119.765 Y104.343 E13.0109
G1 X119.765 Y104.114 E13.0261
G1 X119.897 Y104.000 E13.0377
G1 X119.897 Y103.543 E13.0681
G1 X120.028 Y103.429 E13.0796
G1 X120.028 Y102.971 E13.1101
G1 X120.159 Y102.857 E13.1216
G1 X120.159 Y101.943 E13.1824
G1 X120.290 Y101.829 E13.1940
G1 X120.290 Y98.629 E13.4069
G1 X120.159 Y97.829 E13.4608
G1 X120.619 Y97.771 E13.4916
G1 X125.869 Y97.771 E13.8409
G1 X126.197 Y97.600 E13.8655
G1 X129.347 Y94.857 E14.1433
G1 X129.347 Y88.229 E14.5842
G1 X125.934 Y85.257 E14.8852
G1 X125.475 Y85.200 E14.9160
G1 X108.675 Y85.200 E16.0336
G1 X100.899 Y85.200 E16.5508
;segType:Support
G1 F4800 E15.5508
G1 X90.600 Y87.400 F10800
G1 F4800 E16.5508
G1 X92.400 Y87.400 E16.6526 F1800
G1 F4800 E15.6526
G1 X119.400 Y87.400 F10800
G1 F4800 E16.6526
G1 X121.200 Y87.400 E16.7544 F1800
G1 F4800 E15.7544
G1 X103.525 Y90.013 F10800
G1 X96.674 Y93.684
G1 F4800 E16.7544
;segType:HShell
G1 X101.253 Y89.696 E17.1583 F1200
G1 X101.811 Y89.696 E17.1954
G1 X96.482 Y94.336 E17.6654
;segType:Perimeter
G1 X96.533 Y94.219 F10800
G1 X95.953 Y93.863 E17.7107 F719
G1 X95.780 Y93.826 E17.7224
G1 X85.200 Y93.826 E18.4262
G1 X85.200 Y89.174 E18.7357
G1 X124.800 Y89.174 E21.3699
G1 X124.800 Y93.826 E21.6793
G1 X114.220 Y93.826 E22.3831
G1 X113.989 Y93.875 E22.3988
G1 X114.040 Y94.077 E22.4127
G1 X114.718 Y95.277 E22.5044
G1 X115.234 Y96.544 E22.5954
G1 X115.588 Y97.867 E22.6865
G1 X115.772 Y99.224 E22.7776
G1 X115.784 Y100.594 E22.8687
G1 X115.622 Y101.954 E22.9598
G1 X115.291 Y103.282 E23.0508
G1 X114.796 Y104.558 E23.1419
G1 X114.143 Y105.760 E23.2329
G1 X113.346 Y106.870 E23.3238
G1 X112.415 Y107.870 E23.4147
G1 X111.367 Y108.744 E23.5054
G1 X110.218 Y109.478 E23.5961
G1 X108.987 Y110.061 E23.6867
G1 X107.693 Y110.483 E23.7773
G1 X106.357 Y110.740 E23.8678
G1 X105.000 Y110.825 E23.9582
G1 X103.643 Y110.740 E24.0487
G1 X102.307 Y110.483 E24.1392
G1 X101.013 Y110.061 E24.2297
G1 X99.782 Y109.478 E24.3203
G1 X98.633 Y108.744 E24.4110
G1 X97.585 Y107.870 E24.5018
G1 X96.654 Y106.870 E24.5926
G1 X95.857 Y105.760 E24.6835
G1 X95.204 Y104.558 E24.7745
G1 X94.709 Y103.282 E24.8656
G1 X94.378 Y101.954 E24.9567
G1 X94.216 Y100.594 E25.0478
G1 X94.228 Y99.224 E25.1389
G1 X94.412 Y97.867 E25.2300
G1 X94.766 Y96.544 E25.3210
G1 X95.282 Y95.277 E25.4121
G1 X95.960 Y94.077 E25.5038
G1 X95.998 Y93.925 E25.5142
G1 X95.886 Y93.315
;segType:Loop
G1 X94.934 Y93.478 F10800
G1 X85.600 Y93.478 E26.1351 F1200
G1 X85.600 Y89.522 E26.3982
G1 X124.400 Y89.522 E28.9792
G1 X124.400 Y93.478 E29.2423
G1 X114.171 Y93.478 E29.9227
G1 X113.514 Y93.618 E29.9674
G1 X113.660 Y94.193 E30.0068
G1 X114.348 Y95.413 E30.1000
G1 X114.850 Y96.642 E30.1884
G1 X115.193 Y97.927 E30.2768
G1 X115.372 Y99.246 E30.3654
G1 X115.383 Y100.577 E30.4539
G1 X115.227 Y101.899 E30.5424
G1 X114.905 Y103.189 E30.6309
G1 X114.424 Y104.427 E30.7193
G1 X113.792 Y105.593 E30.8075
G1 X113.020 Y106.667 E30.8955
G1 X112.120 Y107.633 E30.9833
G1 X111.109 Y108.476 E31.0709
G1 X110.003 Y109.183 E31.1582
G1 X108.820 Y109.743 E31.2452
G1 X107.579 Y110.148 E31.3321
G1 X106.299 Y110.394 E31.4188
G1 X105.000 Y110.476 E31.5054
G1 X103.701 Y110.394 E31.5920
G1 X102.421 Y110.148 E31.6787
G1 X101.180 Y109.743 E31.7655
G1 X99.997 Y109.183 E31.8525
G1 X98.891 Y108.476 E31.9399
G1 X97.880 Y107.633 E32.0274
G1 X96.980 Y106.667 E32.1152
G1 X96.208 Y105.593 E32.2033
G1 X95.576 Y104.427 E32.2915
G1 X95.095 Y103.189 E32.3798
G1 X94.773 Y101.899 E32.4683
G1 X94.617 Y100.577 E32.5568
G1 X94.628 Y99.246 E32.6454
G1 X94.807 Y97.927 E32.7339
G1 X95.150 Y96.642 E32.8224
G1 X95.652 Y95.413 E32.9107
G1 X96.340 Y94.193 E33.0039
G1 X96.486 Y93.618 E33.0433
G1 X95.829 Y93.478 E33.0880
G1 X95.131 Y93.478 E33.1344
G1 X94.149 Y93.654 F10800
G1 X95.804 Y93.656
G1 X96.178 Y93.784
G1 X96.645 Y97.592
;segType:HShell
G1 X102.502 Y92.492 E33.6511 F1200
G1 X102.618 Y92.876 E33.6778
G1 X97.222 Y97.575 E34.1538
;segType:Perimeter
G1 X96.514 Y97.680 F10800
G1 X97.053 Y98.081 E34.1985 F719
G1 X97.484 Y98.135 E34.2274
G1 X97.804 Y98.247 E34.2499
G1 X98.094 Y98.407 E34.2720
G1 X98.352 Y98.613 E34.2939
G1 X98.569 Y98.857 E34.3157
G1 X98.741 Y99.133 E34.3373
G1 X98.864 Y99.433 E34.3589
G1 X98.933 Y99.749 E34.3803
G1 X98.948 Y100.071 E34.4018
G1 X98.909 Y100.391 E34.4233
G1 X98.816 Y100.701 E34.4448
G1 X98.671 Y100.992 E34.4664
G1 X98.479 Y101.255 E34.4881
G1 X98.243 Y101.483 E34.5099
G1 X97.970 Y101.669 E34.5319
G1 X97.667 Y101.808 E34.5540
G1 X97.344 Y101.894 E34.5762
G1 X97.010 Y101.924 E34.5986
G1 X96.675 Y101.898 E34.6209
G1 X96.351 Y101.815 E34.6432
G1 X96.047 Y101.679 E34.6653
G1 X95.773 Y101.495 E34.6873
G1 X95.534 Y101.269 E34.7091
G1 X95.339 Y101.008 E34.7308
G1 X95.191 Y100.719 E34.7524
G1 X95.095 Y100.410 E34.7740
G1 X95.052 Y100.090 E34.7954
G1 X95.064 Y99.768 E34.8169
G1 X95.131 Y99.452 E34.8384
G1 X95.250 Y99.151 E34.8599
G1 X95.419 Y98.873 E34.8815
G1 X95.634 Y98.626 E34.9033
G1 X95.889 Y98.418 E34.9252
G1 X96.178 Y98.255 E34.9473
G1 X96.496 Y98.140 E34.9698
G1 X96.936 Y98.082 E34.9993
G1 X97.472 Y97.676
G1 X103.768 Y90.283 F10800
G1 X104.444 Y89.975
G1 X105.535 Y89.970
G1 X106.225 Y90.067
;segType:Loop
G1 X106.338 Y90.129 E35.0079 F1200
G1 X106.647 Y90.376 E35.0342
G1 X106.905 Y90.667 E35.0600
G1 X107.108 Y90.992 E35.0855
G1 X107.250 Y91.342 E35.1107
G1 X107.331 Y91.708 E35.1357
G1 X107.349 Y92.082 E35.1606
G1 X107.304 Y92.454 E35.1855
G1 X107.195 Y92.815 E35.2105
G1 X107.026 Y93.155 E35.2358
G1 X106.798 Y93.466 E35.2615
G1 X106.517 Y93.738 E35.2875
G1 X106.188 Y93.963 E35.3140
G1 X105.820 Y94.132 E35.3409
G1 X105.424 Y94.237 E35.3682
G1 X105.013 Y94.274 E35.3956
G1 X104.600 Y94.241 E35.4232
G1 X104.203 Y94.140 E35.4505
G1 X103.832 Y93.975 E35.4774
G1 X103.501 Y93.753 E35.5039
G1 X103.217 Y93.484 E35.5300
G1 X102.986 Y93.175 E35.5556
G1 X102.813 Y92.836 E35.5810
G1 X102.701 Y92.476 E35.6060
G1 X102.652 Y92.105 E35.6309
G1 X102.665 Y91.731 E35.6558
G1 X102.743 Y91.363 E35.6808
G1 X102.882 Y91.011 E35.7060
G1 X103.081 Y90.685 E35.7314
G1 X103.336 Y90.392 E35.7572
G1 X103.642 Y90.143 E35.7835
G1 X103.991 Y89.945 E35.8102
G1 X104.389 Y89.802 E35.8383
G1 X104.993 Y89.722 E35.8789
G1 X105.588 Y89.797 E35.9188
G1 X105.987 Y89.935 E35.9468
G1 X106.059 Y89.975 E35.9523
G1 X104.994 Y89.903 F10800
G1 X104.087 Y90.103
G1 X95.310 Y96.813
;segType:HShell
G1 X103.483 Y89.696 E36.6732 F1200
G1 X104.040 Y89.696 E36.7103
G1 X103.957 Y89.769 E36.7176
;segType:Perimeter
G1 X104.514 Y89.680 F10800
G1 X105.053 Y90.081 E36.7623 F719
G1 X105.484 Y90.135 E36.7912
G1 X105.804 Y90.247 E36.8137
G1 X106.094 Y90.407 E36.8358
G1 X106.352 Y90.613 E36.8577
G1 X106.569 Y90.857 E36.8795
G1 X106.741 Y91.133 E36.9011
G1 X106.863 Y91.433 E36.9227
G1 X106.933 Y91.749 E36.9442
G1 X106.949 Y92.071 E36.9656
G1 X106.909 Y92.391 E36.9871
G1 X106.816 Y92.701 E37.0086
G1 X106.671 Y92.992 E37.0302
G1 X106.479 Y93.255 E37.0519
G1 X106.243 Y93.483 E37.0737
G1 X105.970 Y93.669 E37.0957
G1 X105.668 Y93.808 E37.1178
G1 X105.344 Y93.894 E37.1401
G1 X105.010 Y93.924 E37.1624
G1 X104.675 Y93.898 E37.1847
G1 X104.351 Y93.815 E37.2070
G1 X104.047 Y93.679 E37.2292
G1 X103.772 Y93.495 E37.2511
G1 X103.534 Y93.269 E37.2730
G1 X103.339 Y93.008 E37.2947
G1 X103.191 Y92.719 E37.3163
G1 X103.095 Y92.410 E37.3378
G1 X103.052 Y92.090 E37.3593
G1 X103.064 Y91.768 E37.3807
G1 X103.131 Y91.452 E37.4022
G1 X103.250 Y91.151 E37.4238
G1 X103.419 Y90.873 E37.4454
G1 X103.634 Y90.626 E37.4671
G1 X103.889 Y90.418 E37.4891
G1 X104.178 Y90.255 E37.5111
G1 X104.497 Y90.140 E37.5336
G1 X104.936 Y90.082 E37.5632
G1 X105.472 Y89.676
G1 F4800 E36.5632
G1 X107.129 Y91.729 F10800
G1 X107.002 Y92.757
G1 X106.378 Y93.608
G1 X104.491 Y94.579
G1 X102.692 Y95.059
G1 X101.158 Y96.106
G1 X100.072 Y97.590
G1 X99.545 Y99.341
G1 X99.632 Y101.165
G1 X100.323 Y102.859
G1 X101.549 Y104.238
G1 X103.842 Y105.491
G1 F4800 E37.5632
;segType:Loop
G1 X103.103 Y105.303 E37.6139 F1200
G1 X102.214 Y104.906 E37.6786
G1 X101.411 Y104.369 E37.7429
G1 X100.696 Y103.692 E37.8084
G1 X100.143 Y102.944 E37.8703
G1 X99.713 Y102.100 E37.9333
G1 X99.431 Y101.198 E37.9961
G1 X99.317 Y100.343 E38.0535
G1 X99.304 Y100.454 E38.0610
G1 X99.195 Y100.815 E38.0860
G1 X99.026 Y101.155 E38.1113
G1 X98.798 Y101.466 E38.1369
G1 X98.517 Y101.738 E38.1630
G1 X98.189 Y101.963 E38.1894
G1 X97.820 Y102.132 E38.2164
G1 X97.424 Y102.237 E38.2437
G1 X97.013 Y102.274 E38.2711
G1 X96.600 Y102.241 E38.2987
G1 X96.203 Y102.140 E38.3260
G1 X95.833 Y101.975 E38.3529
G1 X95.501 Y101.753 E38.3794
G1 X95.217 Y101.484 E38.4055
G1 X94.986 Y101.175 E38.4311
G1 X94.813 Y100.836 E38.4564
G1 X94.701 Y100.477 E38.4815
G1 X94.652 Y100.105 E38.5064
G1 X94.666 Y99.731 E38.5313
G1 X94.743 Y99.363 E38.5563
G1 X94.882 Y99.011 E38.5815
G1 X95.081 Y98.685 E38.6069
G1 X95.336 Y98.392 E38.6327
G1 X95.642 Y98.143 E38.6590
G1 X95.991 Y97.945 E38.6857
G1 X96.389 Y97.802 E38.7138
G1 X96.993 Y97.722 E38.7543
G1 X97.588 Y97.797 E38.7942
G1 X97.987 Y97.935 E38.8223
G1 X98.339 Y98.129 E38.8490
G1 X98.647 Y98.376 E38.8753
G1 X98.905 Y98.666 E38.9011
G1 X99.108 Y98.991 E38.9266
G1 X99.251 Y99.342 E38.9518
G1 X99.328 Y99.694 E38.9757
G1 X99.342 Y99.322 E39.0005
G1 X99.536 Y98.399 E39.0632
G1 X99.884 Y97.519 E39.1261
G1 X100.378 Y96.708 E39.1894
G1 X101.007 Y95.987 E39.2530
G1 X101.756 Y95.375 E39.3173
G1 X102.597 Y94.901 E39.3815
G1 X103.515 Y94.571 E39.4464
G1 X104.465 Y94.403 E39.5106
G1 X104.984 Y94.377 E39.5451
G1 X105.491 Y94.398 E39.5789
G1 X106.429 Y94.557 E39.6422
G1 X107.350 Y94.877 E39.7071
G1 X108.199 Y95.346 E39.7716
G1 X108.952 Y95.947 E39.8357
G1 X109.587 Y96.661 E39.8993
G1 X110.090 Y97.469 E39.9626
G1 X110.447 Y98.345 E40.0255
G1 X110.651 Y99.266 E40.0883
G1 X110.672 Y99.702 E40.1173
G1 X110.743 Y99.363 E40.1403
G1 X110.882 Y99.011 E40.1655
G1 X111.081 Y98.685 E40.1909
G1 X111.336 Y98.392 E40.2168
G1 X111.642 Y98.143 E40.2430
G1 X111.991 Y97.945 E40.2697
G1 X112.389 Y97.802 E40.2978
G1 X112.993 Y97.722 E40.3383
G1 X113.588 Y97.797 E40.3783
G1 X113.987 Y97.935 E40.4063
G1 X114.338 Y98.129 E40.4331
G1 X114.647 Y98.376 E40.4593
G1 X114.905 Y98.666 E40.4852
G1 X115.108 Y98.991 E40.5106
G1 X115.251 Y99.342 E40.5358
G1 X115.332 Y99.708 E40.5608
G1 X115.350 Y100.083 E40.5857
G1 X115.303 Y100.454 E40.6106
G1 X115.195 Y100.815 E40.6357
G1 X115.026 Y101.155 E40.6610
G1 X114.798 Y101.466 E40.6866
G1 X114.517 Y101.738 E40.7126
G1 X114.189 Y101.963 E40.7391
G1 X113.820 Y102.132 E40.7660
G1 X113.424 Y102.237 E40.7933
G1 X113.013 Y102.274 E40.8208
G1 X112.600 Y102.241 E40.8483
G1 X112.203 Y102.140 E40.8756
G1 X111.832 Y101.975 E40.9026
G1 X111.501 Y101.753 E40.9291
G1 X111.217 Y101.484 E40.9551
G1 X110.986 Y101.175 E40.9808
G1 X110.813 Y100.836 E41.0061
G1 X110.701 Y100.476 E41.0312
G1 X110.681 Y100.327 E41.0412
G1 X110.581 Y101.143 E41.0959
G1 X110.309 Y102.048 E41.1587
G1 X109.886 Y102.896 E41.2218
G1 X109.323 Y103.666 E41.2852
G1 X108.632 Y104.335 E41.3492
G1 X107.836 Y104.878 E41.4133
G1 X106.952 Y105.283 E41.4780
G1 X106.007 Y105.534 E41.5431
G1 X105.029 Y105.623 E41.6083
G1 X104.051 Y105.544 E41.6736
G1 X104.031 Y105.539 E41.6750
G1 X106.411 Y106.187 F10800
G1 X106.647 Y106.376 E41.6951 F1200
G1 X106.905 Y106.667 E41.7210
G1 X107.108 Y106.992 E41.7464
G1 X107.250 Y107.342 E41.7716
G1 X107.331 Y107.708 E41.7966
G1 X107.349 Y108.082 E41.8215
G1 X107.304 Y108.454 E41.8464
G1 X107.195 Y108.815 E41.8714
G1 X107.026 Y109.155 E41.8967
G1 X106.798 Y109.466 E41.9224
G1 X106.517 Y109.738 E41.9484
G1 X106.188 Y109.963 E41.9749
G1 X105.820 Y110.132 E42.0018
G1 X105.424 Y110.237 E42.0291
G1 X105.013 Y110.274 E42.0566
G1 X104.600 Y110.241 E42.0841
G1 X104.203 Y110.140 E42.1114
G1 X103.832 Y109.975 E42.1384
G1 X103.501 Y109.753 E42.1649
G1 X103.217 Y109.484 E42.1909
G1 X102.986 Y109.175 E42.2165
G1 X102.813 Y108.836 E42.2419
G1 X102.701 Y108.476 E42.2669
G1 X102.652 Y108.105 E42.2918
G1 X102.665 Y107.731 E42.3168
G1 X102.743 Y107.363 E42.3417
G1 X102.882 Y107.011 E42.3669
G1 X103.081 Y106.685 E42.3924
G1 X103.336 Y106.392 E42.4181
G1 X103.642 Y106.143 E42.4444
G1 X103.991 Y105.945 E42.4711
G1 X104.389 Y105.802 E42.4992
G1 X104.993 Y105.722 E42.5398
G1 X105.588 Y105.797 E42.5797
G1 X105.987 Y105.935 E42.6077
G1 X106.255 Y106.084 E42.6281
;segType:Perimeter
G1 X105.497 Y105.680 F10800
G1 X104.968 Y105.268 E42.6727 F719
G1 X104.126 Y105.201 E42.7289
G1 X103.252 Y104.978 E42.7889
G1 X102.429 Y104.611 E42.8489
G1 X101.682 Y104.112 E42.9086
G1 X101.014 Y103.478 E42.9699
G1 X100.496 Y102.778 E43.0278
G1 X100.090 Y101.983 E43.0872
G1 X99.825 Y101.132 E43.1464
G1 X99.707 Y100.249 E43.2057
G1 X99.741 Y99.360 E43.2649
G1 X99.924 Y98.488 E43.3242
G1 X100.252 Y97.658 E43.3835
G1 X100.717 Y96.896 E43.4429
G1 X101.305 Y96.221 E43.5025
G1 X102.003 Y95.651 E43.5624
G1 X102.783 Y95.210 E43.6220
G1 X103.632 Y94.906 E43.6820
G1 X104.516 Y94.750 E43.7417
G1 X104.986 Y94.726 E43.7730
G1 X105.443 Y94.744 E43.8035
G1 X106.316 Y94.892 E43.8624
G1 X107.167 Y95.188 E43.9223
G1 X107.955 Y95.623 E43.9822
G1 X108.656 Y96.183 E44.0419
G1 X109.251 Y96.852 E44.1014
G1 X109.724 Y97.611 E44.1609
G1 X110.060 Y98.437 E44.2202
G1 X110.252 Y99.307 E44.2795
G1 X110.295 Y100.196 E44.3387
G1 X110.186 Y101.080 E44.3979
G1 X109.930 Y101.934 E44.4572
G1 X109.532 Y102.733 E44.5166
G1 X109.004 Y103.454 E44.5761
G1 X108.358 Y104.079 E44.6359
G1 X107.618 Y104.585 E44.6955
G1 X106.799 Y104.960 E44.7554
G1 X105.927 Y105.192 E44.8154
G1 X105.086 Y105.267 E44.8716
G1 X104.563 Y105.685
G1 F4800 E43.8716
G1 X104.514 Y105.680 F10800
G1 F4800 E44.8716
G1 X105.053 Y106.081 E44.9163 F719
G1 X105.484 Y106.135 E44.9452
G1 X105.804 Y106.247 E44.9677
G1 X106.094 Y106.407 E44.9898
G1 X106.352 Y106.613 E45.0117
G1 X106.569 Y106.857 E45.0335
G1 X106.741 Y107.133 E45.0551
G1 X106.863 Y107.433 E45.0767
G1 X106.933 Y107.749 E45.0982
G1 X106.949 Y108.071 E45.1196
G1 X106.909 Y108.391 E45.1411
G1 X106.816 Y108.701 E45.1626
G1 X106.671 Y108.992 E45.1842
G1 X106.479 Y109.255 E45.2059
G1 X106.243 Y109.483 E45.2277
G1 X105.970 Y109.669 E45.2497
G1 X105.668 Y109.808 E45.2718
G1 X105.344 Y109.894 E45.2941
G1 X105.010 Y109.924 E45.3164
G1 X104.675 Y109.898 E45.3387
G1 X104.351 Y109.815 E45.3610
G1 X104.047 Y109.679 E45.3831
G1 X103.772 Y109.495 E45.4051
G1 X103.534 Y109.269 E45.4270
G1 X103.339 Y109.008 E45.4487
G1 X103.191 Y108.719 E45.4703
G1 X103.095 Y108.410 E45.4918
G1 X103.052 Y108.090 E45.5132
G1 X103.064 Y107.768 E45.5347
G1 X103.131 Y107.452 E45.5562
G1 X103.250 Y107.151 E45.5777
G1 X103.419 Y106.873 E45.5994
G1 X103.634 Y106.626 E45.6211
G1 X103.889 Y106.418 E45.6430
G1 X104.178 Y106.255 E45.6651
G1 X104.497 Y106.140 E45.6876
G1 X104.936 Y106.082 E45.7171
G1 X105.472 Y105.676
G1 F4800 E44.7171
G1 X109.160 Y100.964 F10800
G1 X110.762 Y99.019
G1 X113.966 Y95.129
G1 F4800 E45.7171
;segType:HShell
G1 X110.558 Y98.096 E46.0177 F1200
G1 X110.680 Y98.476 E46.0442
G1 X114.149 Y95.455 E46.3502
G1 X114.298 Y95.810 E46.3759
G1 X112.113 Y97.713 E46.5686
;segType:Perimeter
G1 X112.514 Y97.680 F10800
G1 X113.053 Y98.081 E46.6133 F719
G1 X113.484 Y98.135 E46.6422
G1 X113.804 Y98.247 E46.6647
G1 X114.094 Y98.407 E46.6868
G1 X114.352 Y98.613 E46.7087
G1 X114.569 Y98.857 E46.7305
G1 X114.741 Y99.133 E46.7521
G1 X114.863 Y99.433 E46.7737
G1 X114.933 Y99.749 E46.7952
G1 X114.949 Y100.071 E46.8166
G1 X114.909 Y100.391 E46.8381
G1 X114.816 Y100.701 E46.8596
G1 X114.671 Y100.992 E46.8812
G1 X114.479 Y101.255 E46.9029
G1 X114.243 Y101.483 E46.9247
G1 X113.970 Y101.669 E46.9467
G1 X113.668 Y101.808 E46.9688
G1 X113.344 Y101.894 E46.9911
G1 X113.010 Y101.924 E47.0134
G1 X112.676 Y101.898 E47.0357
G1 X112.351 Y101.815 E47.0580
G1 X112.047 Y101.679 E47.0801
G1 X111.772 Y101.495 E47.1021
G1 X111.534 Y101.269 E47.1240
G1 X111.339 Y101.008 E47.1457
G1 X111.191 Y100.719 E47.1673
G1 X111.095 Y100.410 E47.1888
G1 X111.052 Y100.090 E47.2102
G1 X111.064 Y99.768 E47.2317
G1 X111.131 Y99.452 E47.2532
G1 X111.250 Y99.151 E47.2747
G1 X111.419 Y98.873 E47.2964
G1 X111.634 Y98.626 E47.3181
G1 X111.889 Y98.418 E47.3400
G1 X112.178 Y98.255 E47.3621
G1 X112.497 Y98.140 E47.3846
G1 X112.936 Y98.082 E47.4141
G1 X113.471 Y97.676
;segType:HShell
G1 X112.839 Y97.566 F10800
G1 X114.444 Y96.169 E47.5557 F1200
G1 X114.590 Y96.527 E47.5814
G1 X113.366 Y97.593 E47.6894
G1 X113.814 Y97.688 E47.7199
G1 X114.714 Y96.904 E47.7993
G1 X114.820 Y97.298 E47.8264
G1 X114.193 Y97.843 E47.8817
G1 X114.524 Y98.041 E47.9073
G1 X114.925 Y97.691 E47.9427
G1 X115.015 Y98.098 E47.9704
G1 X114.811 Y98.276 E47.9884
G1 X113.822 Y93.784 F10800
G1 X114.196 Y93.656
G1 X123.866 Y93.304
G1 X124.200 Y93.013 E48.0179 F1200
G1 X124.200 Y92.527 E48.0502
G1 X123.309 Y93.304 E48.1288
G1 X122.751 Y93.304 E48.1659
G1 X124.200 Y92.042 E48.2937
G1 X124.200 Y91.557 E48.3260
G1 X122.194 Y93.304 E48.5030
G1 X121.636 Y93.304 E48.5400
G1 X124.200 Y91.071 E48.7662
G1 X124.200 Y90.586 E48.7985
G1 X121.079 Y93.304 E49.0738
G1 X120.522 Y93.304 E49.1108
G1 X124.200 Y90.100 E49.4353
G1 X124.107 Y89.696 E49.4629
G1 X119.964 Y93.304 E49.8283
G1 X119.407 Y93.304 E49.8654
G1 X123.549 Y89.696 E50.2308
G1 X122.992 Y89.696 E50.2678
G1 X118.849 Y93.304 E50.6332
G1 X118.292 Y93.304 E50.6703
G1 X122.435 Y89.696 E51.0357
G1 X121.877 Y89.696 E51.0728
G1 X117.735 Y93.304 E51.4382
G1 X117.177 Y93.304 E51.4753
G1 X121.320 Y89.696 E51.8407
G1 X120.762 Y89.696 E51.8777
G1 X116.620 Y93.304 E52.2431
G1 X116.062 Y93.304 E52.2802
G1 X120.205 Y89.696 E52.6456
G1 X119.648 Y89.696 E52.6827
G1 X115.505 Y93.304 E53.0481
G1 X114.948 Y93.304 E53.0852
G1 X119.090 Y89.696 E53.4505
G1 X118.533 Y89.696 E53.4876
G1 X114.390 Y93.304 E53.8530
G1 X113.731 Y93.392 E53.8973
G1 X117.975 Y89.696 E54.2716
G1 X117.418 Y89.696 E54.3087
G1 X109.657 Y96.455 E54.9933
G1 X109.413 Y96.181 E55.0176
G1 X116.861 Y89.696 E55.6745
G1 X116.303 Y89.696 E55.7116
G1 X109.170 Y95.908 E56.3408
G1 X108.893 Y95.663 E56.3653
G1 X115.746 Y89.696 E56.9698
G1 X115.188 Y89.696 E57.0069
G1 X108.602 Y95.431 E57.5878
G1 X108.310 Y95.200 E57.6125
G1 X114.631 Y89.696 E58.1701
G1 X114.073 Y89.696 E58.2072
G1 X107.969 Y95.012 E58.7456
G1 X107.628 Y94.824 E58.7715
G1 X113.516 Y89.696 E59.2909
G1 X112.959 Y89.696 E59.3280
G1 X107.261 Y94.658 E59.8305
G1 X106.862 Y94.520 E59.8586
G1 X112.401 Y89.696 E60.3472
G1 X111.844 Y89.696 E60.3842
G1 X106.460 Y94.384 E60.8591
G1 X105.993 Y94.305 E60.8906
G1 X106.130 Y94.187 E60.9026
G1 X108.801 Y96.067 F10800
G1 X109.904 Y97.541
G1 X110.448 Y99.287
G1 X110.726 Y101.348
G1 X110.817 Y101.268 E60.9107 F1200
G1 X109.161 Y103.558 F10800
G1 X107.725 Y104.729
G1 X106.380 Y105.617
G1 X106.149 Y105.819 E60.9311 F1200
G1 X115.011 Y101.499 F10800
G1 X115.080 Y101.439 E60.9371 F1200
G1 X114.998 Y101.996 E60.9746
G1 X107.486 Y108.537 E61.6372
G1 X107.546 Y108.000 E61.6732
G1 X114.356 Y102.070 E62.2739
G1 X110.528 Y102.005 F10800
G1 X111.037 Y101.562 E62.3188 F1200
G1 X111.299 Y101.819 E62.3432
G1 X110.136 Y102.832 E62.4458
G1 X107.725 Y104.729 F10800
G1 X105.966 Y105.360
G1 X104.089 Y105.369
G1 X102.324 Y104.756
G1 X100.858 Y103.583
G1 X99.336 Y101.558
G1 X95.876 Y104.572 E62.7510 F1200
G1 X96.054 Y104.901 E62.7760
G1 X99.455 Y101.940 E63.0760
G1 X99.597 Y102.302 E63.1018
G1 X96.233 Y105.231 E63.3985
G1 X96.418 Y105.556 E63.4234
G1 X99.768 Y102.638 E63.7189
G1 X99.940 Y102.974 E63.7440
G1 X96.632 Y105.854 E64.0358
G1 X96.847 Y106.153 E64.0602
G1 X100.151 Y103.276 E64.3517
G1 X100.369 Y103.571 E64.3761
G1 X97.061 Y106.451 E64.6679
G1 X97.297 Y106.731 E64.6922
G1 X100.599 Y103.857 E64.9834
G1 X100.865 Y104.110 E65.0079
G1 X97.547 Y106.999 E65.3006
G1 X97.796 Y107.267 E65.3250
G1 X101.132 Y104.363 E65.6192
G1 X101.421 Y104.596 E65.6439
G1 X98.049 Y107.533 E65.9414
G1 X98.333 Y107.770 E65.9661
G1 X101.737 Y104.807 E66.2662
G1 X102.052 Y105.018 E66.2915
G1 X98.618 Y108.008 E66.5944
G1 X98.903 Y108.245 E66.6190
G1 X102.411 Y105.190 E66.9285
G1 X102.780 Y105.354 E66.9553
G1 X99.209 Y108.464 E67.2703
G1 X99.531 Y108.669 E67.2957
G1 X103.169 Y105.501 E67.6166
G1 X103.600 Y105.611 E67.6462
G1 X99.852 Y108.875 E67.9768
G1 X100.182 Y109.073 E68.0024
G1 X102.775 Y106.815 E68.2311
G1 X102.503 Y107.537 E68.2824
G1 X100.543 Y109.244 E68.4552
G1 X100.904 Y109.414 E68.4818
G1 X102.453 Y108.066 E68.6184
G1 X102.504 Y108.507 E68.6479
G1 X101.266 Y109.585 E68.7571
G1 X101.671 Y109.718 E68.7855
G1 X102.623 Y108.889 E68.8694
G1 X102.793 Y109.226 E68.8945
G1 X102.076 Y109.850 E68.9578
G1 X102.482 Y109.982 E68.9861
G1 X103.008 Y109.524 E69.0325
G1 X103.265 Y109.786 E69.0569
G1 X102.939 Y110.070 E69.0856
G1 X103.396 Y110.157 E69.1166
G1 X103.561 Y110.013 E69.1312
G1 X106.779 Y110.124 F10800
G1 X114.669 Y103.253 E69.8271 F1200
G1 X114.843 Y102.616 E69.8711
G1 X107.139 Y109.325 E70.5506
G1 X106.170 Y110.168 F10800
G1 X106.097 Y110.232 E70.5571 F1200
G1 X114.384 Y103.987 F10800
G1 X107.494 Y109.986 E71.1649 F1200
G1 X106.921 Y107.064 F10800
G1 X106.214 Y106.271
G1 X105.535 Y105.970
G1 X104.444 Y105.975
G1 X97.976 Y102.257
G1 X95.710 Y104.230 E71.3647 F1200
G1 X95.569 Y103.867 E71.3906
G1 X97.220 Y102.431 E71.5362
G1 X96.672 Y102.422 E71.5726
G1 X95.429 Y103.505 E71.6823
G1 X95.288 Y103.142 E71.7081
G1 X96.224 Y102.327 E71.7907
G1 X95.841 Y102.174 E71.8181
G1 X95.188 Y102.743 E71.8757
G1 X95.089 Y102.344 E71.9031
G1 X95.509 Y101.978 E71.9402
G1 X95.221 Y101.744 E71.9649
G1 X94.990 Y101.945 E71.9853
G1 X97.384 Y102.062 F10800
G1 X98.377 Y101.608
G1 X99.002 Y100.757
G1 X99.268 Y98.705
G1 X99.196 Y98.768 E71.9916 F1200
G1 X99.462 Y98.051 E72.0425
G1 X98.982 Y98.469 E72.0848
G1 X98.728 Y98.205 E72.1092
G1 X99.819 Y97.255 E72.2053
G1 X101.854 Y95.726 F10800
G1 X103.890 Y94.196
G1 X103.700 Y94.360 E72.2220 F1200
G1 X102.839 Y94.625 E72.2820
G1 X103.550 Y94.006 E72.3447
G1 X103.255 Y93.777 E72.3695
G1 X98.434 Y97.976 E72.7948
G1 X98.093 Y97.787 E72.8207
G1 X103.001 Y93.514 E73.2536
G1 X102.787 Y93.214 E73.2781
G1 X97.697 Y97.647 E73.7271
G1 X95.943 Y95.291 F10800
G1 X102.368 Y89.696 E74.2938 F1200
G1 X102.925 Y89.696 E74.3309
G1 X95.590 Y96.083 E74.9779
G1 X94.990 Y98.062 F10800
G1 X102.507 Y91.517 E75.6409 F1200
G1 X102.453 Y92.049 E75.6765
G1 X95.790 Y97.851 E76.2643
G1 X95.141 Y97.446 E76.3152
G1 X102.797 Y90.779 E76.9905
G1 X86.203 Y89.696 F10800
G1 X85.800 Y90.048 E77.0261 F1200
G1 X85.800 Y90.533 E77.0584
G1 X86.761 Y89.696 E77.1431
G1 X87.318 Y89.696 E77.1802
G1 X85.800 Y91.018 E77.3141
G1 X85.800 Y91.504 E77.3464
G1 X87.876 Y89.696 E77.5295
G1 X88.433 Y89.696 E77.5666
G1 X85.800 Y91.989 E77.7988
G1 X85.800 Y92.475 E77.8311
G1 X88.990 Y89.696 E78.1125
G1 X89.548 Y89.696 E78.1496
G1 X85.800 Y92.960 E78.4802
G1 X85.963 Y93.304 E78.5055
G1 X90.105 Y89.696 E78.8709
G1 X90.663 Y89.696 E78.9079
G1 X86.520 Y93.304 E79.2733
G1 X87.077 Y93.304 E79.3104
G1 X91.220 Y89.696 E79.6758
G1 X91.777 Y89.696 E79.7129
G1 X87.635 Y93.304 E80.0783
G1 X88.192 Y93.304 E80.1154
G1 X92.335 Y89.696 E80.4808
G1 X92.892 Y89.696 E80.5178
G1 X88.750 Y93.304 E80.8832
G1 X89.307 Y93.304 E80.9203
G1 X93.450 Y89.696 E81.2857
G1 X94.007 Y89.696 E81.3228
G1 X89.864 Y93.304 E81.6882
G1 X90.422 Y93.304 E81.7253
G1 X94.564 Y89.696 E82.0907
G1 X95.122 Y89.696 E82.1277
G1 X90.979 Y93.304 E82.4931
G1 X91.537 Y93.304 E82.5302
G1 X95.679 Y89.696 E82.8956
G1 X96.237 Y89.696 E82.9327
G1 X92.094 Y93.304 E83.2981
G1 X92.651 Y93.304 E83.3352
G1 X96.794 Y89.696 E83.7005
G1 X97.351 Y89.696 E83.7376
G1 X93.209 Y93.304 E84.1030
G1 X93.766 Y93.304 E84.1401
G1 X97.909 Y89.696 E84.5055
G1 X98.466 Y89.696 E84.5426
G1 X94.324 Y93.304 E84.9080
G1 X94.881 Y93.304 E84.9450
G1 X99.024 Y89.696 E85.3104
G1 X99.581 Y89.696 E85.3475
G1 X95.438 Y93.304 E85.7129
G1 X95.968 Y93.328 E85.7482
G1 X100.138 Y89.696 E86.1160
G1 X100.696 Y89.696 E86.1531
G1 X96.416 Y93.423 E86.5307
G1 X104.444 Y89.975 F10800
G1 X106.137 Y89.812
G1 X106.270 Y89.696 E86.5424 F1200
G1 X106.827 Y89.696 E86.5794
G1 X106.476 Y90.003 E86.6105
G1 X106.766 Y90.235 E86.6352
G1 X107.385 Y89.696 E86.6898
G1 X107.942 Y89.696 E86.7268
G1 X107.014 Y90.504 E86.8087
G1 X107.222 Y90.809 E86.8332
G1 X108.499 Y89.696 E86.9459
G1 X109.057 Y89.696 E86.9830
G1 X107.385 Y91.152 E87.1304
G1 X107.498 Y91.539 E87.1573
G1 X109.614 Y89.696 E87.3440
G1 X110.172 Y89.696 E87.3810
G1 X107.545 Y91.984 E87.6127
G1 X107.492 Y92.515 E87.6482
G1 X110.729 Y89.696 E87.9337
G1 X111.286 Y89.696 E87.9708
G1 X107.173 Y93.279 E88.3336
G1 X109.904 Y97.541 F10800
G1 X110.448 Y99.287
G1 X110.380 Y101.111
G1 X109.706 Y102.813
G1 X107.342 Y104.905
G1 X107.254 Y105.342
G1 X106.486 Y106.011 E88.4014 F1200
G1 X106.776 Y106.243 E88.4262
G1 X111.603 Y102.041 E88.8519
G1 X111.950 Y102.223 E88.8780
G1 X107.023 Y106.514 E89.3126
G1 X107.228 Y106.820 E89.3372
G1 X112.351 Y102.359 E89.7890
G1 X112.823 Y102.434 E89.8208
G1 X107.390 Y107.164 E90.3000
G1 X107.501 Y107.553 E90.3269
G1 X113.404 Y102.414 E90.8475
G1 X113.391 Y105.822 F10800
G1 X109.468 Y109.238 E91.1935 F1200
G1 X113.994 Y104.811 F10800
G1 X108.379 Y109.701 E91.6888 F1200
G1 X111.069 Y99.082 F10800
G1 X113.339 Y93.734
G1 X109.872 Y96.753 E91.9947 F1200
G1 X110.068 Y97.067 E92.0193
G1 X113.440 Y94.131 E92.3167
G1 X113.598 Y94.478 E92.3421
G1 X110.264 Y97.382 E92.6362
G1 X110.412 Y97.738 E92.6619
G1 X113.782 Y94.804 E92.9591
; ------------------------------------
; Layer #1
; ------------------------------------
G21 ; mm
G90 ; abs
G92 E0 ; reset extr
M106 S255
G1 F4800 E-1.0000
G1 F300 Z0.700
G1 X103.743 Y94.120 F10800
G1 X92.387 Y89.696
G1 F4800 E0.0000
;segType:HShell
G1 X100.259 Y96.550 E0.5207 F3600
G1 X100.058 Y96.861 E0.5392
G1 X96.626 Y93.873 E0.7662
;segType:Perimeter
G1 X96.533 Y94.219 F10800
G1 X95.953 Y93.863 E0.8001 F2159
G1 X95.780 Y93.826 E0.8090
G1 X85.200 Y93.826 E1.3368
G1 X85.200 Y89.174 E1.5689
G1 X124.800 Y89.174 E3.5445
G1 X124.800 Y93.826 E3.7766
G1 X114.220 Y93.826 E4.3045
G1 X113.989 Y93.875 E4.3162
G1 X114.040 Y94.077 E4.3266
G1 X114.718 Y95.277 E4.3954
G1 X115.234 Y96.544 E4.4637
G1 X115.588 Y97.867 E4.5320
G1 X115.772 Y99.224 E4.6003
G1 X115.784 Y100.594 E4.6686
G1 X115.622 Y101.954 E4.7370
G1 X115.291 Y103.282 E4.8053
G1 X114.796 Y104.558 E4.8735
G1 X114.143 Y105.760 E4.9418
G1 X113.346 Y106.870 E5.0100
G1 X112.415 Y107.870 E5.0781
G1 X111.367 Y108.744 E5.1462
G1 X110.218 Y109.478 E5.2142
G1 X108.987 Y110.061 E5.2822
G1 X107.693 Y110.483 E5.3501
G1 X106.357 Y110.740 E5.4179
G1 X105.000 Y110.825 E5.4858
G1 X103.643 Y110.740 E5.5536
G1 X102.307 Y110.483 E5.6215
G1 X101.013 Y110.061 E5.6894
G1 X99.782 Y109.478 E5.7573
G1 X98.633 Y108.744 E5.8254
G1 X97.585 Y107.870 E5.8935
G1 X96.654 Y106.870 E5.9616
G1 X95.857 Y105.760 E6.0298
G1 X95.204 Y104.558 E6.0980
G1 X94.709 Y103.282 E6.1663
G1 X94.378 Y101.954 E6.2346
G1 X94.216 Y100.594 E6.3029
G1 X94.228 Y99.224 E6.3713
G1 X94.412 Y97.867 E6.4396
G1 X94.766 Y96.544 E6.5079
G1 X95.282 Y95.277 E6.5762
G1 X95.960 Y94.077 E6.6450
G1 X95.998 Y93.925 E6.6527
G1 X95.886 Y93.315
;segType:Loop
G1 X94.934 Y93.478 F10800
G1 X85.600 Y93.478 E7.1184 F3600
G1 X85.600 Y89.522 E7.3158
G1 X124.400 Y89.522 E9.2515
G1 X124.400 Y93.478 E9.4488
G1 X114.171 Y93.478 E9.9592
G1 X113.514 Y93.618 E9.9927
G1 X113.660 Y94.193 E10.0223
G1 X114.348 Y95.413 E10.0922
G1 X114.850 Y96.642 E10.1584
G1 X115.193 Y97.927 E10.2248
G1 X115.372 Y99.246 E10.2912
G1 X115.383 Y100.577 E10.3576
G1 X115.227 Y101.899 E10.4240
G1 X114.905 Y103.189 E10.4903
G1 X114.424 Y104.427 E10.5566
G1 X113.792 Y105.593 E10.6227
G1 X113.020 Y106.667 E10.6888
G1 X112.120 Y107.633 E10.7546
G1 X111.109 Y108.476 E10.8203
G1 X110.003 Y109.183 E10.8858
G1 X108.820 Y109.743 E10.9511
G1 X107.579 Y110.148 E11.0162
G1 X106.299 Y110.394 E11.0812
G1 X105.000 Y110.476 E11.1462
G1 X103.701 Y110.394 E11.2111
G1 X102.421 Y110.148 E11.2761
G1 X101.180 Y109.743 E11.3413
G1 X99.997 Y109.183 E11.4065
G1 X98.891 Y108.476 E11.4720
G1 X97.880 Y107.633 E11.5377
G1 X96.980 Y106.667 E11.6036
G1 X96.208 Y105.593 E11.6696
G1 X95.576 Y104.427 E11.7357
G1 X95.095 Y103.189 E11.8020
G1 X94.773 Y101.899 E11.8684
G1 X94.617 Y100.577 E11.9347
G1 X94.628 Y99.246 E12.0012
G1 X94.807 Y97.927 E12.0676
G1 X95.150 Y96.642 E12.1339
G1 X95.652 Y95.413 E12.2001
G1 X96.340 Y94.193 E12.2700
G1 X96.486 Y93.618 E12.2996
G1 X95.829 Y93.478 E12.3332
G1 X95.131 Y93.478 E12.3680
G1 X94.150 Y93.654 F10800
G1 X95.804 Y93.656
G1 X96.178 Y93.784
G1 X97.585 Y97.619
;segType:HShell
G1 X95.651 Y95.935 E12.4959 F3600
G1 X95.505 Y96.294 E12.5152
G1 X96.949 Y97.551 E12.6107
G1 X98.489 Y98.490 F10800
G1 X99.050 Y99.379
G1 X99.893 Y102.016
G1 X100.856 Y103.580
G1 X102.298 Y104.744
G1 X103.813 Y105.487
;segType:Loop
G1 X103.075 Y105.295 E12.6488 F3600
G1 X102.188 Y104.894 E12.6974
G1 X101.387 Y104.353 E12.7456
G1 X100.694 Y103.689 E12.7935
G1 X100.127 Y102.922 E12.8411
G1 X99.700 Y102.075 E12.8884
G1 X99.423 Y101.171 E12.9355
G1 X99.317 Y100.344 E12.9772
G1 X99.305 Y100.443 E12.9822
G1 X99.199 Y100.804 E13.0009
G1 X99.031 Y101.145 E13.0199
G1 X98.805 Y101.457 E13.0391
G1 X98.526 Y101.731 E13.0586
G1 X98.198 Y101.956 E13.0785
G1 X97.832 Y102.127 E13.0986
G1 X97.436 Y102.234 E13.1191
G1 X97.025 Y102.273 E13.1397
G1 X96.613 Y102.243 E13.1603
G1 X96.214 Y102.143 E13.1808
G1 X95.843 Y101.980 E13.2010
G1 X95.511 Y101.760 E13.2209
G1 X95.225 Y101.492 E13.2404
G1 X94.993 Y101.184 E13.2597
G1 X94.818 Y100.846 E13.2787
G1 X94.704 Y100.487 E13.2975
G1 X94.653 Y100.116 E13.3162
G1 X94.665 Y99.742 E13.3348
G1 X94.740 Y99.374 E13.3536
G1 X94.878 Y99.022 E13.3724
G1 X95.074 Y98.695 E13.3915
G1 X95.328 Y98.401 E13.4108
G1 X95.632 Y98.150 E13.4305
G1 X95.981 Y97.951 E13.4505
G1 X96.377 Y97.806 E13.4716
G1 X96.986 Y97.722 E13.5022
G1 X97.577 Y97.794 E13.5319
G1 X97.976 Y97.931 E13.5530
G1 X98.328 Y98.124 E13.5730
G1 X98.638 Y98.369 E13.5927
G1 X98.898 Y98.657 E13.6121
G1 X99.102 Y98.981 E13.6312
G1 X99.247 Y99.331 E13.6501
G1 X99.327 Y99.685 E13.6682
G1 X99.343 Y99.294 E13.6877
G1 X99.542 Y98.371 E13.7348
G1 X99.895 Y97.493 E13.7820
G1 X100.394 Y96.683 E13.8295
G1 X101.026 Y95.965 E13.8772
G1 X101.775 Y95.360 E13.9253
G1 X102.622 Y94.887 E13.9737
G1 X103.543 Y94.562 E14.0224
G1 X104.495 Y94.398 E14.0706
G1 X105.000 Y94.377 E14.0958
G1 X105.505 Y94.398 E14.1210
G1 X106.457 Y94.562 E14.1692
G1 X107.378 Y94.887 E14.2179
G1 X108.225 Y95.360 E14.2663
G1 X108.974 Y95.965 E14.3144
G1 X109.606 Y96.683 E14.3621
G1 X110.105 Y97.493 E14.4096
G1 X110.458 Y98.371 E14.4568
G1 X110.657 Y99.294 E14.5039
G1 X110.674 Y99.697 E14.5240
G1 X110.740 Y99.374 E14.5405
G1 X110.878 Y99.022 E14.5593
G1 X111.075 Y98.695 E14.5784
G1 X111.328 Y98.401 E14.5978
G1 X111.632 Y98.150 E14.6174
G1 X111.981 Y97.951 E14.6374
G1 X112.377 Y97.806 E14.6585
G1 X112.986 Y97.722 E14.6891
G1 X113.577 Y97.794 E14.7189
G1 X113.975 Y97.931 E14.7399
G1 X114.328 Y98.124 E14.7599
G1 X114.638 Y98.369 E14.7796
G1 X114.898 Y98.657 E14.7990
G1 X115.102 Y98.981 E14.8181
G1 X115.246 Y99.331 E14.8370
G1 X115.329 Y99.697 E14.8557
G1 X115.349 Y100.071 E14.8744
G1 X115.305 Y100.443 E14.8931
G1 X115.199 Y100.804 E14.9119
G1 X115.031 Y101.145 E14.9308
G1 X114.806 Y101.457 E14.9500
G1 X114.526 Y101.731 E14.9696
G1 X114.199 Y101.956 E14.9894
G1 X113.831 Y102.127 E15.0096
G1 X113.436 Y102.234 E15.0300
G1 X113.025 Y102.273 E15.0506
G1 X112.613 Y102.243 E15.0712
G1 X112.214 Y102.143 E15.0917
G1 X111.843 Y101.980 E15.1120
G1 X111.511 Y101.760 E15.1318
G1 X111.225 Y101.492 E15.1514
G1 X110.993 Y101.184 E15.1706
G1 X110.818 Y100.846 E15.1896
G1 X110.704 Y100.487 E15.2084
G1 X110.684 Y100.338 E15.2159
G1 X110.577 Y101.171 E15.2578
G1 X110.300 Y102.075 E15.3049
G1 X109.873 Y102.922 E15.3522
G1 X109.306 Y103.689 E15.3998
G1 X108.613 Y104.353 E15.4477
G1 X107.812 Y104.894 E15.4960
G1 X106.925 Y105.295 E15.5445
G1 X105.978 Y105.542 E15.5933
G1 X105.000 Y105.625 E15.6423
G1 X104.022 Y105.542 E15.6913
G1 X104.002 Y105.536 E15.6923
;segType:Perimeter
G1 X104.506 Y105.682 F10800
G1 X105.048 Y106.081 E15.7259 F2159
G1 X105.475 Y106.134 E15.7473
G1 X105.794 Y106.243 E15.7642
G1 X106.086 Y106.402 E15.7807
G1 X106.344 Y106.606 E15.7972
G1 X106.563 Y106.850 E15.8135
G1 X106.736 Y107.125 E15.8297
G1 X106.860 Y107.424 E15.8459
G1 X106.931 Y107.739 E15.8620
G1 X106.948 Y108.061 E15.8781
G1 X106.910 Y108.382 E15.8942
G1 X106.819 Y108.692 E15.9103
G1 X106.676 Y108.983 E15.9265
G1 X106.485 Y109.247 E15.9427
G1 X106.250 Y109.476 E15.9591
G1 X105.978 Y109.664 E15.9756
G1 X105.677 Y109.804 E15.9922
G1 X105.354 Y109.892 E16.0089
G1 X105.020 Y109.923 E16.0256
G1 X104.686 Y109.898 E16.0423
G1 X104.361 Y109.817 E16.0590
G1 X104.056 Y109.683 E16.0756
G1 X103.781 Y109.501 E16.0921
G1 X103.541 Y109.276 E16.1085
G1 X103.345 Y109.016 E16.1248
G1 X103.196 Y108.727 E16.1410
G1 X103.098 Y108.420 E16.1571
G1 X103.053 Y108.100 E16.1732
G1 X103.064 Y107.778 E16.1893
G1 X103.129 Y107.461 E16.2054
G1 X103.246 Y107.160 E16.2215
G1 X103.414 Y106.881 E16.2378
G1 X103.628 Y106.634 E16.2541
G1 X103.882 Y106.424 E16.2705
G1 X104.169 Y106.260 E16.2870
G1 X104.487 Y106.144 E16.3039
G1 X104.931 Y106.082 E16.3263
G1 X105.464 Y105.675
G1 F4800 E15.3263
G1 X106.401 Y106.181 F10800
G1 F4800 E16.3263
;segType:Loop
G1 X106.638 Y106.369 E16.3413 F3600
G1 X106.898 Y106.658 E16.3607
G1 X107.102 Y106.981 E16.3798
G1 X107.247 Y107.331 E16.3987
G1 X107.329 Y107.697 E16.4174
G1 X107.349 Y108.071 E16.4361
G1 X107.305 Y108.443 E16.4548
G1 X107.199 Y108.804 E16.4736
G1 X107.031 Y109.145 E16.4925
G1 X106.806 Y109.457 E16.5117
G1 X106.526 Y109.731 E16.5313
G1 X106.198 Y109.956 E16.5511
G1 X105.832 Y110.127 E16.5713
G1 X105.436 Y110.234 E16.5917
G1 X105.025 Y110.273 E16.6123
G1 X104.613 Y110.243 E16.6329
G1 X104.214 Y110.143 E16.6534
G1 X103.843 Y109.980 E16.6737
G1 X103.511 Y109.760 E16.6935
G1 X103.226 Y109.492 E16.7131
G1 X102.993 Y109.184 E16.7323
G1 X102.818 Y108.846 E16.7513
G1 X102.704 Y108.488 E16.7701
G1 X102.653 Y108.116 E16.7888
G1 X102.665 Y107.742 E16.8075
G1 X102.740 Y107.374 E16.8262
G1 X102.878 Y107.022 E16.8450
G1 X103.075 Y106.695 E16.8641
G1 X103.328 Y106.401 E16.8835
G1 X103.632 Y106.150 E16.9031
G1 X103.981 Y105.951 E16.9231
G1 X104.377 Y105.806 E16.9442
G1 X104.986 Y105.722 E16.9749
G1 X105.577 Y105.794 E17.0046
G1 X105.975 Y105.931 E17.0256
G1 X106.245 Y106.078 E17.0409
;segType:Perimeter
G1 X105.467 Y105.685 F10800
G1 X104.941 Y105.270 E17.0743 F2159
G1 X104.099 Y105.198 E17.1165
G1 X103.226 Y104.971 E17.1615
G1 X102.404 Y104.600 E17.2065
G1 X101.660 Y104.096 E17.2513
G1 X101.012 Y103.476 E17.2960
G1 X100.480 Y102.756 E17.3407
G1 X100.079 Y101.959 E17.3852
G1 X99.817 Y101.107 E17.4297
G1 X99.704 Y100.223 E17.4742
G1 X99.742 Y99.333 E17.5186
G1 X99.930 Y98.462 E17.5631
G1 X100.262 Y97.634 E17.6076
G1 X100.731 Y96.873 E17.6522
G1 X101.323 Y96.200 E17.6969
G1 X102.021 Y95.636 E17.7416
G1 X102.807 Y95.197 E17.7866
G1 X103.658 Y94.897 E17.8316
G1 X104.543 Y94.745 E17.8764
G1 X105.000 Y94.726 E17.8992
G1 X105.457 Y94.745 E17.9220
G1 X106.342 Y94.897 E17.9668
G1 X107.193 Y95.197 E18.0118
G1 X107.979 Y95.636 E18.0568
G1 X108.677 Y96.200 E18.1015
G1 X109.269 Y96.873 E18.1462
G1 X109.738 Y97.634 E18.1908
G1 X110.070 Y98.462 E18.2353
G1 X110.258 Y99.333 E18.2798
G1 X110.296 Y100.223 E18.3242
G1 X110.183 Y101.107 E18.3687
G1 X109.921 Y101.959 E18.4132
G1 X109.519 Y102.756 E18.4577
G1 X108.988 Y103.476 E18.5024
G1 X108.340 Y104.096 E18.5471
G1 X107.596 Y104.600 E18.5919
G1 X106.774 Y104.971 E18.6369
G1 X105.901 Y105.198 E18.6819
G1 X105.059 Y105.270 E18.7241
G1 X104.533 Y105.685
G1 F4800 E17.7241
G1 X102.221 Y104.832 F10800
G1 X95.648 Y101.628
G1 X95.010 Y100.786
G1 X94.868 Y99.760
G1 X94.964 Y98.250
G1 F4800 E18.7241
;segType:HShell
G1 X95.104 Y98.371 E18.7333 F3600
G1 X95.375 Y98.122 E18.7517
G1 X95.038 Y97.829 E18.7740
G1 X95.144 Y97.435 E18.7943
G1 X95.688 Y97.910 E18.8303
G1 X96.048 Y97.737 E18.8502
G1 X95.249 Y97.042 E18.9031
G1 X95.359 Y96.652 E18.9233
G1 X96.467 Y97.617 E18.9967
G1 X103.759 Y90.290 F10800
G1 X104.433 Y89.979
G1 X105.525 Y89.968
G1 X106.219 Y90.064
;segType:Loop
G1 X106.328 Y90.124 E19.0029 F3600
G1 X106.638 Y90.369 E19.0226
G1 X106.898 Y90.658 E19.0420
G1 X107.102 Y90.981 E19.0611
G1 X107.247 Y91.331 E19.0799
G1 X107.329 Y91.697 E19.0987
G1 X107.349 Y92.071 E19.1174
G1 X107.305 Y92.443 E19.1361
G1 X107.199 Y92.804 E19.1548
G1 X107.031 Y93.145 E19.1738
G1 X106.806 Y93.457 E19.1930
G1 X106.526 Y93.730 E19.2125
G1 X106.198 Y93.956 E19.2324
G1 X105.832 Y94.127 E19.2525
G1 X105.436 Y94.234 E19.2730
G1 X105.025 Y94.273 E19.2936
G1 X104.613 Y94.243 E19.3142
G1 X104.214 Y94.143 E19.3347
G1 X103.843 Y93.980 E19.3549
G1 X103.511 Y93.760 E19.3748
G1 X103.226 Y93.492 E19.3943
G1 X102.993 Y93.184 E19.4136
G1 X102.818 Y92.846 E19.4326
G1 X102.704 Y92.488 E19.4513
G1 X102.653 Y92.116 E19.4701
G1 X102.665 Y91.742 E19.4887
G1 X102.740 Y91.374 E19.5074
G1 X102.878 Y91.022 E19.5263
G1 X103.075 Y90.695 E19.5454
G1 X103.328 Y90.401 E19.5647
G1 X103.632 Y90.150 E19.5844
G1 X103.981 Y89.951 E19.6044
G1 X104.377 Y89.806 E19.6255
G1 X104.986 Y89.722 E19.6561
G1 X105.577 Y89.794 E19.6858
G1 X105.975 Y89.931 E19.7068
G1 X106.052 Y89.973 E19.7112
;segType:Perimeter
G1 X104.506 Y89.682 F10800
G1 X105.048 Y90.081 E19.7448 F2159
G1 X105.475 Y90.134 E19.7662
G1 X105.794 Y90.243 E19.7831
G1 X106.086 Y90.402 E19.7996
G1 X106.344 Y90.606 E19.8161
G1 X106.563 Y90.850 E19.8324
G1 X106.736 Y91.125 E19.8486
G1 X106.860 Y91.424 E19.8648
G1 X106.931 Y91.739 E19.8809
G1 X106.948 Y92.061 E19.8970
G1 X106.910 Y92.382 E19.9131
G1 X106.819 Y92.692 E19.9292
G1 X106.676 Y92.983 E19.9454
G1 X106.485 Y93.247 E19.9616
G1 X106.250 Y93.476 E19.9780
G1 X105.978 Y93.664 E19.9945
G1 X105.677 Y93.804 E20.0111
G1 X105.354 Y93.892 E20.0278
G1 X105.020 Y93.923 E20.0445
G1 X104.686 Y93.898 E20.0612
G1 X104.361 Y93.817 E20.0779
G1 X104.056 Y93.683 E20.0945
G1 X103.781 Y93.501 E20.1110
G1 X103.541 Y93.276 E20.1274
G1 X103.345 Y93.016 E20.1437
G1 X103.196 Y92.727 E20.1599
G1 X103.098 Y92.420 E20.1760
G1 X103.053 Y92.100 E20.1921
G1 X103.064 Y91.778 E20.2082
G1 X103.129 Y91.461 E20.2243
G1 X103.246 Y91.160 E20.2405
G1 X103.414 Y90.881 E20.2567
G1 X103.628 Y90.634 E20.2730
G1 X103.882 Y90.424 E20.2894
G1 X104.169 Y90.260 E20.3059
G1 X104.487 Y90.144 E20.3228
G1 X104.931 Y90.082 E20.3452
G1 X105.464 Y89.675
G1 F4800 E19.3452
G1 X112.610 Y97.598 F10800
G1 F4800 E20.3452
;segType:HShell
G1 X107.323 Y92.994 E20.6949 F3600
G1 X107.458 Y92.626 E20.7144
G1 X113.128 Y97.564 E21.0895
;segType:Perimeter
G1 X112.506 Y97.682 F10800
G1 X113.048 Y98.082 E21.1231 F2159
G1 X113.475 Y98.134 E21.1446
G1 X113.795 Y98.243 E21.1614
G1 X114.086 Y98.402 E21.1780
G1 X114.344 Y98.606 E21.1944
G1 X114.563 Y98.850 E21.2107
G1 X114.736 Y99.125 E21.2270
G1 X114.860 Y99.424 E21.2431
G1 X114.931 Y99.739 E21.2592
G1 X114.948 Y100.061 E21.2753
G1 X114.910 Y100.382 E21.2914
G1 X114.819 Y100.692 E21.3075
G1 X114.676 Y100.983 E21.3237
G1 X114.485 Y101.247 E21.3400
G1 X114.250 Y101.476 E21.3564
G1 X113.978 Y101.664 E21.3728
G1 X113.677 Y101.804 E21.3894
G1 X113.354 Y101.892 E21.4061
G1 X113.020 Y101.923 E21.4228
G1 X112.686 Y101.898 E21.4396
G1 X112.361 Y101.817 E21.4563
G1 X112.056 Y101.683 E21.4729
G1 X111.781 Y101.501 E21.4894
G1 X111.541 Y101.276 E21.5057
G1 X111.345 Y101.016 E21.5220
G1 X111.196 Y100.727 E21.5382
G1 X111.098 Y100.420 E21.5543
G1 X111.054 Y100.100 E21.5704
G1 X111.064 Y99.778 E21.5865
G1 X111.129 Y99.461 E21.6026
G1 X111.246 Y99.160 E21.6188
G1 X111.414 Y98.881 E21.6350
G1 X111.628 Y98.634 E21.6513
G1 X111.882 Y98.424 E21.6677
G1 X112.169 Y98.260 E21.6843
G1 X112.487 Y98.144 E21.7011
G1 X112.931 Y98.082 E21.7235
G1 X113.464 Y97.675
G1 X105.481 Y94.575 F10800
G1 X103.601 Y94.732
G1 X96.506 Y97.682
G1 X97.048 Y98.082 E21.7571 F2159
G1 X97.475 Y98.134 E21.7785
G1 X97.795 Y98.243 E21.7954
G1 X98.086 Y98.402 E21.8119
G1 X98.344 Y98.606 E21.8284
G1 X98.563 Y98.850 E21.8447
G1 X98.736 Y99.125 E21.8609
G1 X98.860 Y99.424 E21.8771
G1 X98.931 Y99.739 E21.8932
G1 X98.948 Y100.061 E21.9093
G1 X98.910 Y100.382 E21.9254
G1 X98.819 Y100.692 E21.9415
G1 X98.676 Y100.983 E21.9577
G1 X98.485 Y101.247 E21.9740
G1 X98.250 Y101.476 E21.9903
G1 X97.978 Y101.664 E22.0068
G1 X97.677 Y101.804 E22.0234
G1 X97.354 Y101.892 E22.0401
G1 X97.020 Y101.923 E22.0568
G1 X96.686 Y101.898 E22.0735
G1 X96.361 Y101.817 E22.0902
G1 X96.056 Y101.683 E22.1068
G1 X95.780 Y101.501 E22.1233
G1 X95.541 Y101.276 E22.1397
G1 X95.345 Y101.016 E22.1560
G1 X95.195 Y100.728 E22.1722
G1 X95.098 Y100.419 E22.1883
G1 X95.054 Y100.100 E22.2044
G1 X95.064 Y99.778 E22.2205
G1 X95.129 Y99.461 E22.2366
G1 X95.246 Y99.160 E22.2527
G1 X95.414 Y98.881 E22.2690
G1 X95.628 Y98.634 E22.2853
G1 X95.882 Y98.424 E22.3017
G1 X96.169 Y98.260 E22.3182
G1 X96.487 Y98.144 E22.3351
G1 X96.931 Y98.082 E22.3575
G1 X97.464 Y97.675
G1 X99.127 Y99.719 F10800
G1 X99.579 Y102.268
;segType:HShell
G1 X98.873 Y101.653 E22.4042 F3600
G1 X99.105 Y101.370 E22.4225
G1 X99.341 Y101.576 E22.4381
G1 X98.916 Y99.054 F10800
G1 X96.521 Y94.267
G1 X99.863 Y97.177 E22.6592 F3600
G1 X99.680 Y97.502 E22.6778
G1 X96.338 Y94.592 E22.8989
G1 X96.154 Y94.918 E22.9175
G1 X99.535 Y97.862 E23.1412
G1 X99.391 Y98.221 E23.1605
G1 X95.970 Y95.243 E23.3868
G1 X95.797 Y95.577 E23.4056
G1 X99.286 Y98.615 E23.6364
G1 X96.203 Y93.912 F10800
G1 X92.945 Y89.696
G1 X100.501 Y96.276 E24.1362 F3600
G1 X100.742 Y96.001 E24.1545
G1 X93.502 Y89.696 E24.6335
G1 X94.060 Y89.696 E24.6613
G1 X101.005 Y95.744 E25.1208
G1 X101.294 Y95.511 E25.1393
G1 X94.617 Y89.696 E25.5810
G1 X95.174 Y89.696 E25.6088
G1 X101.584 Y95.277 E26.0328
G1 X101.911 Y95.077 E26.0520
G1 X95.732 Y89.696 E26.4608
G1 X96.289 Y89.696 E26.4886
G1 X102.251 Y94.887 E26.8829
G1 X102.600 Y94.706 E26.9026
G1 X96.847 Y89.696 E27.2832
G1 X97.404 Y89.696 E27.3110
G1 X102.997 Y94.566 E27.6810
G1 X103.393 Y94.426 E27.7020
G1 X97.961 Y89.696 E28.0613
G1 X98.519 Y89.696 E28.0891
G1 X103.843 Y94.333 E28.4413
G1 X102.579 Y92.746 F10800
G1 X99.076 Y89.696 E28.6731 F3600
G1 X99.634 Y89.696 E28.7009
G1 X102.456 Y92.154 E28.8876
G1 X102.474 Y91.684 E28.9111
G1 X100.191 Y89.696 E29.0621
G1 X100.748 Y89.696 E29.0899
G1 X102.566 Y91.279 E29.2101
G1 X102.713 Y90.921 E29.2294
G1 X101.306 Y89.696 E29.3225
G1 X101.863 Y89.696 E29.3503
G1 X102.904 Y90.603 E29.4192
G1 X103.143 Y90.326 E29.4374
G1 X102.421 Y89.696 E29.4852
G1 X102.978 Y89.696 E29.5130
G1 X103.422 Y90.083 E29.5424
G1 X103.744 Y89.878 E29.5614
G1 X103.535 Y89.696 E29.5752
G1 X123.602 Y89.696 F10800
G1 X124.200 Y90.217 E29.6148 F3600
G1 X124.200 Y90.703 E29.6390
G1 X123.045 Y89.696 E29.7155
G1 X122.487 Y89.696 E29.7433
G1 X124.200 Y91.188 E29.8566
G1 X124.200 Y91.673 E29.8808
G1 X121.930 Y89.696 E30.0310
G1 X121.372 Y89.696 E30.0588
G1 X124.200 Y92.159 E30.2459
G1 X124.200 Y92.644 E30.2701
G1 X120.815 Y89.696 E30.4940
G1 X120.258 Y89.696 E30.5218
G1 X124.200 Y93.129 E30.7827
G1 X123.843 Y93.304 E30.8025
G1 X119.700 Y89.696 E31.0765
G1 X119.143 Y89.696 E31.1043
G1 X123.285 Y93.304 E31.3784
G1 X122.728 Y93.304 E31.4062
G1 X118.585 Y89.696 E31.6802
G1 X118.028 Y89.696 E31.7080
G1 X122.171 Y93.304 E31.9821
G1 X121.613 Y93.304 E32.0099
G1 X117.471 Y89.696 E32.2839
G1 X116.913 Y89.696 E32.3118
G1 X121.056 Y93.304 E32.5858
G1 X120.498 Y93.304 E32.6136
G1 X116.356 Y89.696 E32.8877
G1 X115.798 Y89.696 E32.9155
G1 X119.941 Y93.304 E33.1895
G1 X119.384 Y93.304 E33.2173
G1 X115.241 Y89.696 E33.4914
G1 X114.684 Y89.696 E33.5192
G1 X118.826 Y93.304 E33.7932
G1 X118.269 Y93.304 E33.8210
G1 X114.126 Y89.696 E34.0951
G1 X113.569 Y89.696 E34.1229
G1 X117.711 Y93.304 E34.3969
G1 X117.154 Y93.304 E34.4247
G1 X113.011 Y89.696 E34.6988
G1 X112.454 Y89.696 E34.7266
G1 X116.597 Y93.304 E35.0006
G1 X116.039 Y93.304 E35.0284
G1 X111.897 Y89.696 E35.3025
G1 X111.339 Y89.696 E35.3303
G1 X115.482 Y93.304 E35.6043
G1 X114.924 Y93.304 E35.6321
G1 X110.782 Y89.696 E35.9062
G1 X110.224 Y89.696 E35.9340
G1 X114.367 Y93.304 E36.2080
G1 X113.876 Y93.361 E36.2327
G1 X109.667 Y89.696 E36.5111
G1 X109.110 Y89.696 E36.5389
G1 X113.428 Y93.457 E36.8246
G1 X113.381 Y93.902 E36.8469
G1 X108.552 Y89.696 E37.1664
G1 X107.995 Y89.696 E37.1942
G1 X113.706 Y94.670 E37.5720
G1 X106.322 Y89.696 F10800
G1 X114.749 Y97.034 E38.1295 F3600
G1 X111.759 Y98.290 F10800
G1 X111.065 Y99.092
G1 X110.107 Y102.016
G1 X108.474 Y104.222
G1 X106.848 Y105.130
G1 X105.000 Y105.447
G1 X102.344 Y105.161
G1 X103.413 Y106.092 E38.2002 F3600
G1 X103.732 Y105.885 E38.2192
G1 X103.344 Y105.547 E38.2448
G1 X106.252 Y105.652 F10800
G1 X110.035 Y108.946 E38.4951 F3600
G1 X110.357 Y108.741 E38.5142
G1 X106.681 Y105.540 E38.7573
G1 X107.094 Y105.415 E38.7789
G1 X110.678 Y108.535 E39.0160
G1 X110.998 Y108.328 E39.0350
G1 X107.461 Y105.249 E39.2689
G1 X107.829 Y105.083 E39.2890
G1 X111.282 Y108.091 E39.5174
G1 X111.567 Y107.853 E39.5359
G1 X108.156 Y104.883 E39.7616
G1 X108.469 Y104.671 E39.7805
G1 X111.852 Y107.616 E40.0043
G1 X112.116 Y107.361 E40.0226
G1 X108.778 Y104.454 E40.2435
G1 X109.043 Y104.200 E40.2618
G1 X112.366 Y107.093 E40.4816
G1 X112.616 Y106.825 E40.4999
G1 X109.309 Y103.945 E40.7186
G1 X109.555 Y103.674 E40.7369
G1 X112.864 Y106.556 E40.9558
G1 X113.079 Y106.257 E40.9742
G1 X109.773 Y103.379 E41.1928
G1 X109.991 Y103.083 E41.2112
G1 X113.293 Y105.959 E41.4296
G1 X113.508 Y105.660 E41.4479
G1 X110.174 Y102.757 E41.6685
G1 X110.344 Y102.420 E41.6873
G1 X113.704 Y105.346 E41.9096
G1 X113.883 Y105.016 E41.9283
G1 X110.507 Y102.076 E42.1517
G1 X110.624 Y101.693 E42.1717
G1 X114.062 Y104.687 E42.3991
G1 X114.240 Y104.357 E42.4178
G1 X111.503 Y101.974 E42.5989
G1 X106.445 Y110.188 F10800
G1 X106.330 Y110.088 E42.6064 F3600
G1 X106.641 Y109.873 E42.6253
G1 X106.901 Y110.100 E42.6425
G1 X107.358 Y110.013 E42.6657
G1 X106.907 Y109.620 E42.6956
G1 X107.133 Y109.331 E42.7139
G1 X107.782 Y109.896 E42.7568
G1 X108.187 Y109.764 E42.7781
G1 X107.317 Y109.006 E42.8356
G1 X107.454 Y108.640 E42.8551
G1 X108.593 Y109.631 E42.9305
G1 X108.969 Y109.474 E42.9508
G1 X107.532 Y108.223 E43.0459
G1 X107.532 Y107.737 E43.0701
G1 X109.331 Y109.303 E43.1891
G1 X109.692 Y109.132 E43.2091
G1 X107.367 Y107.108 E43.3629
G1 X105.883 Y106.090 F10800
G1 X104.987 Y105.903
G1 X104.077 Y106.108
G1 X100.105 Y109.036
G1 X96.934 Y106.275 E43.5726 F3600
G1 X95.716 Y104.243 F10800
G1 X102.202 Y109.891 E44.0017 F3600
G1 X102.971 Y110.076 E44.0412
G1 X95.430 Y103.509 E44.5401
G1 X95.211 Y102.833 E44.5756
G1 X103.686 Y110.213 E45.1363
G1 X102.586 Y108.770 F10800
G1 X95.056 Y102.213 E45.6344 F3600
G1 X94.942 Y101.628 E45.6641
G1 X102.459 Y108.173 E46.1614
G1 X102.471 Y107.698 E46.1851
G1 X96.333 Y102.354 E46.5911
G1 X96.996 Y102.446 E46.6245
G1 X102.561 Y107.292 E46.9926
G1 X102.706 Y106.932 E47.0120
G1 X97.500 Y102.399 E47.3564
G1 X97.923 Y102.282 E47.3782
G1 X102.898 Y106.614 E47.7074
G1 X103.135 Y106.335 E47.7256
G1 X98.286 Y102.113 E48.0464
G1 X98.600 Y101.901 E48.0653
G1 X100.100 Y103.207 E48.1645
G1 X101.310 Y109.600 F10800
G1 X96.180 Y105.133 E48.5039 F3600
G1 X105.000 Y105.447 F10800
G1 X106.848 Y105.130
G1 X109.144 Y103.580
G1 X110.741 Y101.310
G1 X111.054 Y101.583 E48.5246 F3600
G1 X110.648 Y98.316 F10800
G1 X110.935 Y98.567 E48.5436 F3600
G1 X111.174 Y98.289 E48.5618
G1 X110.347 Y97.569 E48.6166
G1 X113.883 Y98.090 F10800
G1 X114.727 Y98.755
G1 X115.127 Y99.719
G1 X115.053 Y101.667
G1 X114.950 Y101.577 E48.6233 F3600
G1 X114.688 Y101.834 E48.6417
G1 X114.976 Y102.085 E48.6607
G1 X114.876 Y102.484 E48.6812
G1 X114.381 Y102.052 E48.7140
G1 X114.030 Y102.232 E48.7337
G1 X114.777 Y102.883 E48.7831
G1 X114.663 Y103.269 E48.8032
G1 X113.625 Y102.365 E48.8718
G1 X113.150 Y102.437 E48.8958
G1 X114.522 Y103.631 E48.9866
G1 X114.381 Y103.994 E49.0060
G1 X112.564 Y102.412 E49.1262
G1 X110.376 Y101.139 F10800
G1 X110.454 Y99.314
G1 X109.918 Y97.565
G1 X108.823 Y96.085
G1 X107.284 Y95.045
G1 X105.481 Y94.575
G1 X96.178 Y93.784
G1 X95.804 Y93.656
G1 X85.800 Y93.182
G1 X85.939 Y93.304 E49.1354 F3600
G1 X86.497 Y93.304 E49.1632
G1 X85.800 Y92.697 E49.2093
G1 X85.800 Y92.211 E49.2335
G1 X87.054 Y93.304 E49.3165
G1 X87.612 Y93.304 E49.3443
G1 X85.800 Y91.726 E49.4642
G1 X85.800 Y91.241 E49.4884
G1 X88.169 Y93.304 E49.6451
G1 X88.726 Y93.304 E49.6729
G1 X85.800 Y90.755 E49.8665
G1 X85.800 Y90.270 E49.8907
G1 X89.284 Y93.304 E50.1212
G1 X89.841 Y93.304 E50.1490
G1 X85.800 Y89.785 E50.4164
G1 X86.256 Y89.696 E50.4395
G1 X90.399 Y93.304 E50.7136
G1 X90.956 Y93.304 E50.7414
G1 X86.813 Y89.696 E51.0154
G1 X87.371 Y89.696 E51.0432
G1 X91.513 Y93.304 E51.3173
G1 X92.071 Y93.304 E51.3451
G1 X87.928 Y89.696 E51.6191
G1 X88.486 Y89.696 E51.6469
G1 X92.628 Y93.304 E51.9210
G1 X93.186 Y93.304 E51.9488
G1 X89.043 Y89.696 E52.2228
G1 X89.600 Y89.696 E52.2507
G1 X93.743 Y93.304 E52.5247
G1 X94.300 Y93.304 E52.5525
G1 X90.158 Y89.696 E52.8265
G1 X90.715 Y89.696 E52.8544
G1 X94.858 Y93.304 E53.1284
G1 X95.415 Y93.304 E53.1562
G1 X91.273 Y89.696 E53.4303
G1 X91.830 Y89.696 E53.4581
G1 X96.011 Y93.337 E53.7347
G1 X106.399 Y94.732 F10800
G1 X115.036 Y98.255
G1 X107.531 Y91.719 E54.2312 F3600
G1 X107.534 Y92.208 E54.2555
G1 X113.838 Y97.697 E54.6725
G1 X114.918 Y97.667 F10800
G1 X107.356 Y91.082 E55.1728 F3600
G1 X106.850 Y93.063 F10800
G1 X105.983 Y94.254
G1 X106.052 Y94.315 E55.1774 F3600
G1 X106.827 Y94.504 E55.2173
G1 X106.341 Y94.080 E55.2495
G1 X106.652 Y93.866 E55.2683
G1 X107.960 Y95.005 E55.3548
G1 X109.762 Y96.575 F10800
G1 X111.460 Y98.053 E55.4671 F3600
G1 X111.788 Y97.853 E55.4863
G1 X106.916 Y93.611 E55.8086
G1 X107.140 Y93.321 E55.8269
G1 X112.164 Y97.695 E56.1592
G1 X114.517 Y96.346 F10800
G1 X106.880 Y89.696 E56.6644 F3600
G1 X107.437 Y89.696 E56.6922
G1 X114.210 Y95.594 E57.1402
;segType:Support
G1 F4800 E56.1402
G1 X121.200 Y87.400 F10800
G1 F4800 E57.1402
G1 X119.400 Y87.400 E57.2166 F5400
G1 F4800 E56.2166
G1 X92.400 Y87.400 F10800
G1 F4800 E57.2166
G1 X90.600 Y87.400 E57.2929 F5400
; ------------------------------------
; Layer #2
; ------------------------------------
G21 ; mm
G90 ; abs
G92 E0 ; reset extr
M106 S255
;segType:Support
G1 F4800 E-1.0000
G1 F300 Z1.000
G1 X90.600 Y87.400 F10800
G1 F4800 E0.0000
G1 X92.400 Y87.400 E0.0763 F5400
G1 F4800 E-0.9237
G1 X119.400 Y87.400 F10800
G1 F4800 E0.0763
G1 X121.200 Y87.400 E0.1527 F5400
G1 F4800 E-0.8473
G1 X103.504 Y90.029 F10800
G1 X96.674 Y93.684
G1 F4800 E0.1527
;segType:HShell
G1 X101.253 Y89.696 E0.4556 F3600
G1 X101.811 Y89.696 E0.4834
G1 X96.482 Y94.336 E0.8359
;segType:Perimeter
G1 X96.533 Y94.219 F10800
G1 X95.953 Y93.863 E0.8699 F2159
G1 X95.780 Y93.826 E0.8787
G1 X85.200 Y93.826 E1.4066
G1 X85.200 Y89.174 E1.6386
G1 X124.800 Y89.174 E3.6143
G1 X124.800 Y93.826 E3.8464
G1 X114.220 Y93.826 E4.3742
G1 X113.989 Y93.875 E4.3860
G1 X114.040 Y94.077 E4.3964
G1 X114.718 Y95.277 E4.4652
G1 X115.234 Y96.544 E4.5334
G1 X115.588 Y97.867 E4.6017
G1 X115.772 Y99.224 E4.6700
G1 X115.784 Y100.594 E4.7384
G1 X115.622 Y101.954 E4.8067
G1 X115.291 Y103.282 E4.8750
G1 X114.796 Y104.558 E4.9433
G1 X114.143 Y105.760 E5.0115
G1 X113.346 Y106.870 E5.0797
G1 X112.415 Y107.870 E5.1479
G1 X111.367 Y108.744 E5.2160
G1 X110.218 Y109.478 E5.2840
G1 X108.987 Y110.061 E5.3519
G1 X107.693 Y110.483 E5.4198
G1 X106.357 Y110.740 E5.4877
G1 X105.000 Y110.825 E5.5555
G1 X103.643 Y110.740 E5.6234
G1 X102.307 Y110.483 E5.6912
G1 X101.013 Y110.061 E5.7591
G1 X99.782 Y109.478 E5.8271
G1 X98.633 Y108.744 E5.8951
G1 X97.585 Y107.870 E5.9632
G1 X96.654 Y106.870 E6.0313
G1 X95.857 Y105.760 E6.0995
G1 X95.204 Y104.558 E6.1678
G1 X94.709 Y103.282 E6.2361
G1 X94.378 Y101.954 E6.3044
G1 X94.216 Y100.594 E6.3727
G1 X94.228 Y99.224 E6.4410
G1 X94.412 Y97.867 E6.5093
G1 X94.766 Y96.544 E6.5777
G1 X95.282 Y95.277 E6.6459
G1 X95.960 Y94.077 E6.7147
G1 X95.998 Y93.925 E6.7225
G1 X95.886 Y93.315
;segType:Loop
G1 X94.934 Y93.478 F10800
G1 X85.600 Y93.478 E7.1882 F3600
G1 X85.600 Y89.522 E7.3855
G1 X124.400 Y89.522 E9.3213
G1 X124.400 Y93.478 E9.5186
G1 X114.171 Y93.478 E10.0289
G1 X113.514 Y93.618 E10.0624
G1 X113.660 Y94.193 E10.0920
G1 X114.348 Y95.413 E10.1619
G1 X114.850 Y96.642 E10.2282
G1 X115.193 Y97.927 E10.2945
G1 X115.372 Y99.246 E10.3609
G1 X115.383 Y100.577 E10.4273
G1 X115.227 Y101.899 E10.4937
G1 X114.905 Y103.189 E10.5601
G1 X114.424 Y104.427 E10.6263
G1 X113.792 Y105.593 E10.6925
G1 X113.020 Y106.667 E10.7585
G1 X112.120 Y107.633 E10.8244
G1 X111.109 Y108.476 E10.8900
G1 X110.003 Y109.183 E10.9555
G1 X108.820 Y109.743 E11.0208
G1 X107.579 Y110.148 E11.0859
G1 X106.299 Y110.394 E11.1510
G1 X105.000 Y110.476 E11.2159
G1 X103.701 Y110.394 E11.2808
G1 X102.421 Y110.148 E11.3459
G1 X101.180 Y109.743 E11.4110
G1 X99.997 Y109.183 E11.4763
G1 X98.891 Y108.476 E11.5418
G1 X97.880 Y107.633 E11.6074
G1 X96.980 Y106.667 E11.6733
G1 X96.208 Y105.593 E11.7393
G1 X95.576 Y104.427 E11.8055
G1 X95.095 Y103.189 E11.8718
G1 X94.773 Y101.899 E11.9381
G1 X94.617 Y100.577 E12.0045
G1 X94.628 Y99.246 E12.0709
G1 X94.807 Y97.927 E12.1373
G1 X95.150 Y96.642 E12.2036
G1 X95.652 Y95.413 E12.2699
G1 X96.340 Y94.193 E12.3398
G1 X96.486 Y93.618 E12.3694
G1 X95.829 Y93.478 E12.4029
G1 X95.131 Y93.478 E12.4377
G1 X94.149 Y93.654 F10800
G1 X95.804 Y93.656
G1 X96.178 Y93.784
G1 X96.643 Y97.594
;segType:HShell
G1 X102.504 Y92.490 E12.8255 F3600
G1 X102.621 Y92.874 E12.8455
G1 X97.221 Y97.576 E13.2027
;segType:Perimeter
G1 X96.499 Y97.685 F10800
G1 X97.043 Y98.082 E13.2363 F2159
G1 X97.465 Y98.132 E13.2575
G1 X97.785 Y98.240 E13.2744
G1 X98.077 Y98.397 E13.2909
G1 X98.337 Y98.600 E13.3074
G1 X98.556 Y98.842 E13.3237
G1 X98.731 Y99.117 E13.3399
G1 X98.856 Y99.415 E13.3561
G1 X98.929 Y99.730 E13.3722
G1 X98.948 Y100.052 E13.3882
G1 X98.912 Y100.372 E13.4043
G1 X98.822 Y100.683 E13.4205
G1 X98.680 Y100.974 E13.4366
G1 X98.491 Y101.239 E13.4529
G1 X98.257 Y101.469 E13.4692
G1 X97.987 Y101.658 E13.4857
G1 X97.686 Y101.800 E13.5023
G1 X97.364 Y101.889 E13.5190
G1 X97.030 Y101.923 E13.5357
G1 X96.696 Y101.899 E13.5524
G1 X96.371 Y101.820 E13.5691
G1 X96.066 Y101.688 E13.5857
G1 X95.789 Y101.507 E13.6022
G1 X95.548 Y101.283 E13.6186
G1 X95.350 Y101.024 E13.6349
G1 X95.200 Y100.736 E13.6510
G1 X95.100 Y100.429 E13.6672
G1 X95.055 Y100.109 E13.6833
G1 X95.063 Y99.788 E13.6993
G1 X95.127 Y99.471 E13.7155
G1 X95.243 Y99.169 E13.7316
G1 X95.409 Y98.890 E13.7478
G1 X95.621 Y98.641 E13.7641
G1 X95.874 Y98.431 E13.7805
G1 X96.160 Y98.264 E13.7970
G1 X96.478 Y98.147 E13.8139
G1 X96.926 Y98.083 E13.8365
G1 X97.457 Y97.674
G1 X103.751 Y90.297 F10800
G1 X104.423 Y89.982
G1 X105.514 Y89.966
G1 X106.213 Y90.061
;segType:Loop
G1 X106.318 Y90.117 E13.8425 F3600
G1 X106.629 Y90.361 E13.8622
G1 X106.891 Y90.649 E13.8816
G1 X107.096 Y90.972 E13.9007
G1 X107.243 Y91.321 E13.9196
G1 X107.327 Y91.687 E13.9383
G1 X107.349 Y92.060 E13.9569
G1 X107.307 Y92.432 E13.9756
G1 X107.202 Y92.794 E13.9944
G1 X107.036 Y93.135 E14.0134
G1 X106.813 Y93.448 E14.0325
G1 X106.535 Y93.722 E14.0520
G1 X106.209 Y93.950 E14.0719
G1 X105.843 Y94.122 E14.0921
G1 X105.448 Y94.231 E14.1125
G1 X105.037 Y94.273 E14.1331
G1 X104.625 Y94.244 E14.1537
G1 X104.226 Y94.146 E14.1742
G1 X103.855 Y93.985 E14.1944
G1 X103.521 Y93.767 E14.2143
G1 X103.234 Y93.500 E14.2338
G1 X103.000 Y93.194 E14.2531
G1 X102.823 Y92.856 E14.2721
G1 X102.707 Y92.498 E14.2909
G1 X102.654 Y92.127 E14.3096
G1 X102.664 Y91.753 E14.3282
G1 X102.738 Y91.385 E14.3469
G1 X102.873 Y91.033 E14.3658
G1 X103.069 Y90.704 E14.3849
G1 X103.320 Y90.410 E14.4042
G1 X103.623 Y90.158 E14.4238
G1 X103.970 Y89.956 E14.4438
G1 X104.366 Y89.810 E14.4649
G1 X104.979 Y89.722 E14.4958
G1 X105.565 Y89.793 E14.5253
G1 X105.964 Y89.927 E14.5462
G1 X106.045 Y89.970 E14.5508
G1 X104.982 Y89.903 F10800
G1 X104.067 Y90.113
G1 X95.310 Y96.813
;segType:HShell
G1 X103.483 Y89.696 E15.0915 F3600
G1 X104.040 Y89.696 E15.1193
G1 X103.951 Y89.774 E15.1252
;segType:Perimeter
G1 X104.499 Y89.685 F10800
G1 X105.043 Y90.082 E15.1588 F2159
G1 X105.465 Y90.132 E15.1800
G1 X105.785 Y90.240 E15.1969
G1 X106.077 Y90.397 E15.2134
G1 X106.337 Y90.600 E15.2299
G1 X106.557 Y90.842 E15.2462
G1 X106.731 Y91.117 E15.2624
G1 X106.856 Y91.415 E15.2786
G1 X106.929 Y91.730 E15.2947
G1 X106.948 Y92.052 E15.3107
G1 X106.912 Y92.372 E15.3268
G1 X106.822 Y92.683 E15.3430
G1 X106.680 Y92.974 E15.3591
G1 X106.491 Y93.239 E15.3754
G1 X106.257 Y93.469 E15.3917
G1 X105.987 Y93.658 E15.4082
G1 X105.686 Y93.800 E15.4248
G1 X105.364 Y93.889 E15.4415
G1 X105.030 Y93.923 E15.4582
G1 X104.695 Y93.899 E15.4749
G1 X104.371 Y93.820 E15.4916
G1 X104.066 Y93.688 E15.5082
G1 X103.789 Y93.507 E15.5247
G1 X103.548 Y93.283 E15.5411
G1 X103.350 Y93.024 E15.5574
G1 X103.200 Y92.736 E15.5736
G1 X103.100 Y92.429 E15.5897
G1 X103.055 Y92.109 E15.6058
G1 X103.063 Y91.787 E15.6219
G1 X103.127 Y91.471 E15.6380
G1 X103.242 Y91.169 E15.6541
G1 X103.409 Y90.890 E15.6703
G1 X103.621 Y90.641 E15.6866
G1 X103.874 Y90.431 E15.7030
G1 X104.160 Y90.264 E15.7196
G1 X104.478 Y90.147 E15.7364
G1 X104.926 Y90.083 E15.7590
G1 X105.458 Y89.674
G1 F4800 E14.7590
G1 X107.125 Y91.709 F10800
G1 X107.009 Y92.737
G1 X106.393 Y93.594
G1 X104.519 Y94.575
G1 X102.716 Y95.045
G1 X101.177 Y96.085
G1 X100.082 Y97.565
G1 X99.546 Y99.314
G1 X99.624 Y101.139
G1 X100.307 Y102.838
G1 X101.526 Y104.222
G1 X103.813 Y105.487
G1 F4800 E15.7590
;segType:Loop
G1 X103.075 Y105.295 E15.7971 F3600
G1 X102.188 Y104.894 E15.8456
G1 X101.387 Y104.353 E15.8939
G1 X100.694 Y103.689 E15.9418
G1 X100.127 Y102.922 E15.9894
G1 X99.700 Y102.075 E16.0367
G1 X99.423 Y101.171 E16.0838
G1 X99.317 Y100.343 E16.1255
G1 X99.307 Y100.432 E16.1299
G1 X99.202 Y100.794 E16.1487
G1 X99.036 Y101.135 E16.1677
G1 X98.813 Y101.448 E16.1868
G1 X98.535 Y101.722 E16.2063
G1 X98.209 Y101.950 E16.2262
G1 X97.843 Y102.122 E16.2463
G1 X97.448 Y102.231 E16.2668
G1 X97.037 Y102.273 E16.2874
G1 X96.625 Y102.244 E16.3080
G1 X96.226 Y102.146 E16.3285
G1 X95.855 Y101.985 E16.3487
G1 X95.521 Y101.767 E16.3686
G1 X95.233 Y101.500 E16.3881
G1 X95.000 Y101.194 E16.4074
G1 X94.823 Y100.856 E16.4264
G1 X94.707 Y100.498 E16.4452
G1 X94.654 Y100.127 E16.4639
G1 X94.664 Y99.754 E16.4825
G1 X94.738 Y99.385 E16.5012
G1 X94.873 Y99.033 E16.5201
G1 X95.069 Y98.704 E16.5391
G1 X95.320 Y98.410 E16.5585
G1 X95.623 Y98.158 E16.5781
G1 X95.970 Y97.956 E16.5981
G1 X96.365 Y97.810 E16.6192
G1 X96.979 Y97.722 E16.6501
G1 X97.565 Y97.793 E16.6796
G1 X97.964 Y97.927 E16.7005
G1 X98.318 Y98.117 E16.7206
G1 X98.629 Y98.361 E16.7403
G1 X98.890 Y98.649 E16.7597
G1 X99.096 Y98.972 E16.7788
G1 X99.242 Y99.321 E16.7977
G1 X99.327 Y99.684 E16.8163
G1 X99.343 Y99.294 E16.8357
G1 X99.542 Y98.371 E16.8828
G1 X99.895 Y97.493 E16.9301
G1 X100.394 Y96.683 E16.9775
G1 X101.026 Y95.965 E17.0252
G1 X101.775 Y95.360 E17.0733
G1 X102.622 Y94.887 E17.1217
G1 X103.543 Y94.562 E17.1704
G1 X104.495 Y94.398 E17.2186
G1 X105.000 Y94.377 E17.2438
G1 X105.505 Y94.398 E17.2691
G1 X106.457 Y94.562 E17.3172
G1 X107.378 Y94.887 E17.3659
G1 X108.225 Y95.360 E17.4144
G1 X108.974 Y95.965 E17.4624
G1 X109.606 Y96.683 E17.5101
G1 X110.105 Y97.493 E17.5576
G1 X110.458 Y98.371 E17.6048
G1 X110.657 Y99.294 E17.6519
G1 X110.674 Y99.704 E17.6723
G1 X110.738 Y99.385 E17.6885
G1 X110.873 Y99.033 E17.7074
G1 X111.069 Y98.704 E17.7265
G1 X111.320 Y98.410 E17.7458
G1 X111.623 Y98.158 E17.7654
G1 X111.970 Y97.956 E17.7854
G1 X112.365 Y97.810 E17.8065
G1 X112.979 Y97.722 E17.8374
G1 X113.565 Y97.793 E17.8669
G1 X113.964 Y97.927 E17.8878
G1 X114.318 Y98.117 E17.9079
G1 X114.629 Y98.361 E17.9276
G1 X114.890 Y98.649 E17.9470
G1 X115.096 Y98.972 E17.9661
G1 X115.242 Y99.321 E17.9850
G1 X115.327 Y99.686 E18.0037
G1 X115.349 Y100.060 E18.0224
G1 X115.307 Y100.432 E18.0411
G1 X115.202 Y100.793 E18.0598
G1 X115.037 Y101.135 E18.0788
G1 X114.812 Y101.448 E18.0980
G1 X114.535 Y101.722 E18.1175
G1 X114.209 Y101.950 E18.1373
G1 X113.843 Y102.122 E18.1575
G1 X113.448 Y102.231 E18.1779
G1 X113.037 Y102.273 E18.1985
G1 X112.625 Y102.244 E18.2191
G1 X112.226 Y102.146 E18.2396
G1 X111.854 Y101.985 E18.2598
G1 X111.520 Y101.767 E18.2797
G1 X111.233 Y101.500 E18.2993
G1 X111.000 Y101.194 E18.3185
G1 X110.823 Y100.856 E18.3375
G1 X110.707 Y100.498 E18.3563
G1 X110.684 Y100.336 E18.3645
G1 X110.577 Y101.171 E18.4065
G1 X110.300 Y102.075 E18.4537
G1 X109.873 Y102.922 E18.5010
G1 X109.306 Y103.689 E18.5485
G1 X108.613 Y104.353 E18.5965
G1 X107.812 Y104.894 E18.6447
G1 X106.925 Y105.295 E18.6932
G1 X105.978 Y105.542 E18.7421
G1 X105.000 Y105.625 E18.7910
G1 X104.022 Y105.542 E18.8400
G1 X104.002 Y105.536 E18.8410
G1 X106.391 Y106.175 F10800
G1 X106.629 Y106.361 E18.8561 F3600
G1 X106.891 Y106.649 E18.8755
G1 X107.096 Y106.972 E18.8946
G1 X107.243 Y107.321 E18.9135
G1 X107.327 Y107.687 E18.9322
G1 X107.349 Y108.060 E18.9508
G1 X107.307 Y108.432 E18.9695
G1 X107.202 Y108.794 E18.9883
G1 X107.036 Y109.135 E19.0073
G1 X106.813 Y109.448 E19.0264
G1 X106.535 Y109.722 E19.0459
G1 X106.209 Y109.950 E19.0658
G1 X105.843 Y110.122 E19.0860
G1 X105.448 Y110.231 E19.1064
G1 X105.037 Y110.273 E19.1270
G1 X104.625 Y110.244 E19.1476
G1 X104.226 Y110.146 E19.1681
G1 X103.855 Y109.985 E19.1883
G1 X103.521 Y109.767 E19.2082
G1 X103.234 Y109.500 E19.2277
G1 X103.000 Y109.194 E19.2470
G1 X102.823 Y108.856 E19.2660
G1 X102.707 Y108.498 E19.2848
G1 X102.654 Y108.127 E19.3035
G1 X102.664 Y107.753 E19.3221
G1 X102.738 Y107.385 E19.3408
G1 X102.873 Y107.033 E19.3597
G1 X103.069 Y106.704 E19.3787
G1 X103.320 Y106.410 E19.3981
G1 X103.623 Y106.158 E19.4177
G1 X103.970 Y105.956 E19.4377
G1 X104.366 Y105.810 E19.4588
G1 X104.979 Y105.722 E19.4897
G1 X105.565 Y105.793 E19.5192
G1 X105.964 Y105.927 E19.5401
G1 X106.234 Y106.072 E19.5555
;segType:Perimeter
G1 X105.467 Y105.685 F10800
G1 X104.941 Y105.270 E19.5889 F2159
G1 X104.099 Y105.198 E19.6310
G1 X103.226 Y104.971 E19.6761
G1 X102.404 Y104.600 E19.7210
G1 X101.660 Y104.096 E19.7659
G1 X101.012 Y103.476 E19.8106
G1 X100.480 Y102.756 E19.8552
G1 X100.079 Y101.959 E19.8998
G1 X99.817 Y101.107 E19.9443
G1 X99.704 Y100.223 E19.9887
G1 X99.742 Y99.333 E20.0332
G1 X99.930 Y98.462 E20.0776
G1 X100.262 Y97.634 E20.1221
G1 X100.731 Y96.873 E20.1667
G1 X101.323 Y96.200 E20.2114
G1 X102.021 Y95.636 E20.2562
G1 X102.807 Y95.197 E20.3011
G1 X103.658 Y94.897 E20.3461
G1 X104.543 Y94.745 E20.3910
G1 X105.000 Y94.726 E20.4138
G1 X105.457 Y94.745 E20.4366
G1 X106.342 Y94.897 E20.4814
G1 X107.193 Y95.197 E20.5264
G1 X107.979 Y95.636 E20.5713
G1 X108.677 Y96.200 E20.6161
G1 X109.269 Y96.873 E20.6608
G1 X109.738 Y97.634 E20.7054
G1 X110.070 Y98.462 E20.7499
G1 X110.258 Y99.333 E20.7944
G1 X110.296 Y100.223 E20.8388
G1 X110.183 Y101.107 E20.8833
G1 X109.921 Y101.959 E20.9277
G1 X109.519 Y102.756 E20.9723
G1 X108.988 Y103.476 E21.0169
G1 X108.340 Y104.096 E21.0617
G1 X107.596 Y104.600 E21.1065
G1 X106.774 Y104.971 E21.1515
G1 X105.901 Y105.198 E21.1965
G1 X105.059 Y105.270 E21.2386
G1 X104.533 Y105.685
G1 F4800 E20.2386
G1 X104.499 Y105.685 F10800
G1 F4800 E21.2386
G1 X105.043 Y106.082 E21.2722 F2159
G1 X105.465 Y106.132 E21.2934
G1 X105.785 Y106.240 E21.3103
G1 X106.077 Y106.397 E21.3268
G1 X106.337 Y106.600 E21.3433
G1 X106.557 Y106.842 E21.3596
G1 X106.731 Y107.117 E21.3758
G1 X106.856 Y107.415 E21.3920
G1 X106.929 Y107.730 E21.4081
G1 X106.948 Y108.052 E21.4242
G1 X106.912 Y108.372 E21.4403
G1 X106.822 Y108.683 E21.4564
G1 X106.680 Y108.974 E21.4726
G1 X106.491 Y109.239 E21.4888
G1 X106.257 Y109.469 E21.5052
G1 X105.987 Y109.658 E21.5216
G1 X105.686 Y109.800 E21.5382
G1 X105.364 Y109.889 E21.5549
G1 X105.030 Y109.923 E21.5716
G1 X104.695 Y109.899 E21.5884
G1 X104.371 Y109.820 E21.6051
G1 X104.066 Y109.688 E21.6216
G1 X103.789 Y109.507 E21.6381
G1 X103.548 Y109.283 E21.6545
G1 X103.350 Y109.024 E21.6708
G1 X103.200 Y108.736 E21.6870
G1 X103.100 Y108.429 E21.7031
G1 X103.055 Y108.109 E21.7192
G1 X103.063 Y107.787 E21.7353
G1 X103.127 Y107.471 E21.7514
G1 X103.242 Y107.169 E21.7675
G1 X103.409 Y106.890 E21.7837
G1 X103.621 Y106.641 E21.8000
G1 X103.874 Y106.431 E21.8165
G1 X104.160 Y106.264 E21.8330
G1 X104.478 Y106.147 E21.8499
G1 X104.926 Y106.083 E21.8724
G1 X105.458 Y105.674
G1 F4800 E20.8724
G1 X109.375 Y102.250 F10800
G1 X111.095 Y100.950
G1 X110.867 Y99.771
G1 X111.242 Y98.799
G1 X112.067 Y98.113
G1 X112.982 Y97.903
G1 X115.015 Y98.098
G1 F4800 E21.8724
;segType:HShell
G1 X114.809 Y98.278 E21.8861 F3600
G1 X114.522 Y98.043 E21.9046
G1 X114.925 Y97.691 E21.9313
G1 X114.820 Y97.298 E21.9516
G1 X114.192 Y97.844 E21.9932
G1 X113.813 Y97.689 E22.0136
G1 X114.714 Y96.904 E22.0732
G1 X114.590 Y96.527 E22.0931
G1 X113.366 Y97.593 E22.1741
G1 X112.840 Y97.566 E22.2003
G1 X114.444 Y96.169 E22.3065
G1 X114.298 Y95.810 E22.3258
G1 X112.111 Y97.715 E22.4705
;segType:Perimeter
G1 X112.499 Y97.685 F10800
G1 X113.043 Y98.082 E22.5041 F2159
G1 X113.465 Y98.132 E22.5253
G1 X113.785 Y98.240 E22.5421
G1 X114.077 Y98.397 E22.5587
G1 X114.336 Y98.600 E22.5751
G1 X114.556 Y98.842 E22.5914
G1 X114.731 Y99.117 E22.6077
G1 X114.856 Y99.415 E22.6238
G1 X114.929 Y99.730 E22.6399
G1 X114.948 Y100.052 E22.6560
G1 X114.912 Y100.372 E22.6721
G1 X114.822 Y100.682 E22.6882
G1 X114.680 Y100.974 E22.7044
G1 X114.491 Y101.239 E22.7206
G1 X114.257 Y101.469 E22.7370
G1 X113.987 Y101.658 E22.7535
G1 X113.686 Y101.800 E22.7701
G1 X113.364 Y101.889 E22.7867
G1 X113.030 Y101.923 E22.8035
G1 X112.696 Y101.899 E22.8202
G1 X112.371 Y101.820 E22.8369
G1 X112.065 Y101.688 E22.8535
G1 X111.789 Y101.507 E22.8700
G1 X111.548 Y101.283 E22.8864
G1 X111.350 Y101.024 E22.9026
G1 X111.200 Y100.736 E22.9188
G1 X111.101 Y100.429 E22.9350
G1 X111.055 Y100.109 E22.9511
G1 X111.063 Y99.788 E22.9671
G1 X111.126 Y99.471 E22.9832
G1 X111.243 Y99.169 E22.9994
G1 X111.409 Y98.890 E23.0156
G1 X111.621 Y98.641 E23.0319
G1 X111.874 Y98.431 E23.0483
G1 X112.161 Y98.264 E23.0648
G1 X112.478 Y98.147 E23.0817
G1 X112.926 Y98.083 E23.1043
G1 X113.458 Y97.674
;segType:HShell
G1 X105.994 Y94.305 F10800
G1 X106.134 Y94.183 E23.1135 F3600
G1 X107.488 Y92.518 F10800
G1 X110.729 Y89.696 E23.3279 F3600
G1 X110.172 Y89.696 E23.3557
G1 X107.545 Y91.984 E23.5295
G1 X107.497 Y91.540 E23.5518
G1 X109.614 Y89.696 E23.6918
G1 X109.057 Y89.696 E23.7197
G1 X107.385 Y91.152 E23.8303
G1 X107.221 Y90.809 E23.8492
G1 X108.499 Y89.696 E23.9338
G1 X107.942 Y89.696 E23.9616
G1 X107.014 Y90.504 E24.0229
G1 X106.767 Y90.234 E24.0412
G1 X107.385 Y89.696 E24.0821
G1 X106.827 Y89.696 E24.1099
G1 X106.473 Y90.005 E24.1333
G1 X106.135 Y89.814 E24.1527
G1 X106.270 Y89.696 E24.1616
G1 X107.125 Y91.709 F10800
G1 X107.164 Y93.286
G1 X111.286 Y89.696 E24.4343 F3600
G1 X111.844 Y89.696 E24.4621
G1 X106.460 Y94.385 E24.8183
G1 X106.865 Y94.517 E24.8395
G1 X112.401 Y89.696 E25.2058
G1 X112.959 Y89.696 E25.2336
G1 X107.261 Y94.657 E25.6105
G1 X107.631 Y94.821 E25.6307
G1 X113.516 Y89.696 E26.0200
G1 X114.073 Y89.696 E26.0478
G1 X107.970 Y95.011 E26.4515
G1 X108.310 Y95.201 E26.4709
G1 X114.631 Y89.696 E26.8891
G1 X115.188 Y89.696 E26.9169
G1 X108.605 Y95.429 E27.3524
G1 X108.894 Y95.663 E27.3710
G1 X115.746 Y89.696 E27.8243
G1 X116.303 Y89.696 E27.8521
G1 X109.173 Y95.905 E28.3238
G1 X109.415 Y96.180 E28.3420
G1 X116.861 Y89.696 E28.8346
G1 X117.418 Y89.696 E28.8624
G1 X109.657 Y96.455 E29.3758
G1 X109.874 Y96.750 E29.3941
G1 X113.339 Y93.734 E29.6233
G1 X113.440 Y94.131 E29.6438
G1 X110.069 Y97.066 E29.8668
G1 X110.263 Y97.382 E29.8853
G1 X113.598 Y94.478 E30.1059
G1 X113.782 Y94.804 E30.1245
G1 X110.414 Y97.736 E30.3473
G1 X110.559 Y98.096 E30.3666
G1 X113.966 Y95.129 E30.5920
G1 X114.149 Y95.455 E30.6106
G1 X110.683 Y98.473 E30.8399
G1 X113.822 Y93.784 F10800
G1 X114.196 Y93.656
G1 X124.200 Y93.013
G1 X123.866 Y93.304 E30.8620 F3600
G1 X123.309 Y93.304 E30.8898
G1 X124.200 Y92.527 E30.9488
G1 X124.200 Y92.042 E30.9730
G1 X122.751 Y93.304 E31.0689
G1 X122.194 Y93.304 E31.0967
G1 X124.200 Y91.557 E31.2294
G1 X124.200 Y91.071 E31.2536
G1 X121.636 Y93.304 E31.4232
G1 X121.079 Y93.304 E31.4510
G1 X124.200 Y90.586 E31.6575
G1 X124.200 Y90.100 E31.6817
G1 X120.522 Y93.304 E31.9251
G1 X119.964 Y93.304 E31.9529
G1 X124.107 Y89.696 E32.2269
G1 X123.549 Y89.696 E32.2547
G1 X119.407 Y93.304 E32.5288
G1 X118.849 Y93.304 E32.5566
G1 X122.992 Y89.696 E32.8306
G1 X122.435 Y89.696 E32.8584
G1 X118.292 Y93.304 E33.1325
G1 X117.735 Y93.304 E33.1603
G1 X121.877 Y89.696 E33.4343
G1 X121.320 Y89.696 E33.4621
G1 X117.177 Y93.304 E33.7362
G1 X116.620 Y93.304 E33.7640
G1 X120.762 Y89.696 E34.0380
G1 X120.205 Y89.696 E34.0659
G1 X116.062 Y93.304 E34.3399
G1 X115.505 Y93.304 E34.3677
G1 X119.648 Y89.696 E34.6418
G1 X119.090 Y89.696 E34.6696
G1 X114.948 Y93.304 E34.9436
G1 X114.390 Y93.304 E34.9714
G1 X118.533 Y89.696 E35.2455
G1 X117.975 Y89.696 E35.2733
G1 X113.731 Y93.392 E35.5540
G1 X104.661 Y94.068 F10800
G1 X96.416 Y93.423
G1 X100.696 Y89.696 E35.8372 F3600
G1 X100.138 Y89.696 E35.8650
G1 X95.968 Y93.328 E36.1409
G1 X95.438 Y93.304 E36.1673
G1 X99.581 Y89.696 E36.4414
G1 X99.024 Y89.696 E36.4692
G1 X94.881 Y93.304 E36.7432
G1 X94.324 Y93.304 E36.7710
G1 X98.466 Y89.696 E37.0451
G1 X97.909 Y89.696 E37.0729
G1 X93.766 Y93.304 E37.3469
G1 X93.209 Y93.304 E37.3747
G1 X97.351 Y89.696 E37.6488
G1 X96.794 Y89.696 E37.6766
G1 X92.651 Y93.304 E37.9506
G1 X92.094 Y93.304 E37.9785
G1 X96.237 Y89.696 E38.2525
G1 X95.679 Y89.696 E38.2803
G1 X91.537 Y93.304 E38.5544
G1 X90.979 Y93.304 E38.5822
G1 X95.122 Y89.696 E38.8562
G1 X94.564 Y89.696 E38.8840
G1 X90.422 Y93.304 E39.1581
G1 X89.864 Y93.304 E39.1859
G1 X94.007 Y89.696 E39.4599
G1 X93.450 Y89.696 E39.4877
G1 X89.307 Y93.304 E39.7618
G1 X88.750 Y93.304 E39.7896
G1 X92.892 Y89.696 E40.0636
G1 X92.335 Y89.696 E40.0914
G1 X88.192 Y93.304 E40.3655
G1 X87.635 Y93.304 E40.3933
G1 X91.777 Y89.696 E40.6673
G1 X91.220 Y89.696 E40.6951
G1 X87.077 Y93.304 E40.9692
G1 X86.520 Y93.304 E40.9970
G1 X90.663 Y89.696 E41.2710
G1 X90.105 Y89.696 E41.2988
G1 X85.963 Y93.304 E41.5729
G1 X85.800 Y92.960 E41.5919
G1 X89.548 Y89.696 E41.8398
G1 X88.990 Y89.696 E41.8676
G1 X85.800 Y92.475 E42.0787
G1 X85.800 Y91.989 E42.1029
G1 X88.433 Y89.696 E42.2771
G1 X87.876 Y89.696 E42.3049
G1 X85.800 Y91.504 E42.4422
G1 X85.800 Y91.018 E42.4664
G1 X87.318 Y89.696 E42.5668
G1 X86.761 Y89.696 E42.5947
G1 X85.800 Y90.533 E42.6582
G1 X85.800 Y90.048 E42.6824
G1 X86.203 Y89.696 E42.7091
G1 X102.801 Y90.776 F10800
G1 X95.141 Y97.446 E43.2158 F3600
G1 X97.856 Y98.080 F10800
G1 X99.266 Y98.707
G1 X99.195 Y98.769 E43.2205 F3600
G1 X99.810 Y97.263 F10800
G1 X98.728 Y98.205 E43.2921 F3600
G1 X98.982 Y98.469 E43.3104
G1 X99.457 Y98.055 E43.3418
G1 X101.177 Y96.085 F10800
G1 X103.890 Y94.195
G1 X103.705 Y94.356 E43.3541 F3600
G1 X100.884 Y95.842 F10800
G1 X103.257 Y93.776 E43.5110 F3600
G1 X103.551 Y94.005 E43.5296
G1 X102.845 Y94.620 E43.5764
G1 X100.876 Y95.849 F10800
G1 X98.434 Y97.975 E43.7379 F3600
G1 X98.090 Y97.790 E43.7574
G1 X103.003 Y93.512 E44.0824
G1 X102.790 Y93.212 E44.1007
G1 X97.694 Y97.649 E44.4378
G1 X95.789 Y97.852 F10800
G1 X102.456 Y92.046 E44.8789 F3600
G1 X102.509 Y91.515 E44.9055
G1 X94.990 Y98.062 E45.4029
G1 X95.590 Y96.083 F10800
G1 X102.925 Y89.696 E45.8881 F3600
G1 X102.368 Y89.696 E45.9159
G1 X95.943 Y95.291 E46.3410
G1 X94.858 Y100.118 F10800
G1 X94.990 Y101.945
G1 X95.221 Y101.744 E46.3563 F3600
G1 X95.510 Y101.978 E46.3748
G1 X95.089 Y102.344 E46.4027
G1 X95.188 Y102.743 E46.4232
G1 X95.842 Y102.174 E46.4664
G1 X96.224 Y102.327 E46.4869
G1 X95.288 Y103.142 E46.5489
G1 X95.429 Y103.505 E46.5683
G1 X96.672 Y102.422 E46.6506
G1 X97.221 Y102.430 E46.6779
G1 X95.569 Y103.867 E46.7872
G1 X95.710 Y104.230 E46.8066
G1 X97.976 Y102.257 E46.9564
G1 X99.336 Y101.559 F10800
G1 X95.876 Y104.572 E47.1853 F3600
G1 X96.054 Y104.901 E47.2040
G1 X99.453 Y101.942 E47.4289
G1 X99.596 Y102.302 E47.4482
G1 X96.233 Y105.231 E47.6707
G1 X96.418 Y105.556 E47.6893
G1 X99.766 Y102.640 E47.9108
G1 X99.936 Y102.977 E47.9297
G1 X96.632 Y105.854 E48.1483
G1 X96.847 Y106.153 E48.1666
G1 X100.151 Y103.276 E48.3852
G1 X100.369 Y103.571 E48.4035
G1 X97.061 Y106.451 E48.6223
G1 X97.297 Y106.731 E48.6406
G1 X100.599 Y103.857 E48.8590
G1 X100.864 Y104.111 E48.8773
G1 X97.547 Y106.999 E49.0968
G1 X97.796 Y107.267 E49.1150
G1 X101.129 Y104.365 E49.3355
G1 X101.421 Y104.597 E49.3541
G1 X98.049 Y107.533 E49.5772
G1 X98.333 Y107.770 E49.5957
G1 X101.735 Y104.809 E49.8207
G1 X102.049 Y105.021 E49.8396
G1 X98.618 Y108.008 E50.0665
G1 X98.903 Y108.245 E50.0850
G1 X102.410 Y105.191 E50.3170
G1 X102.777 Y105.357 E50.3371
G1 X99.209 Y108.464 E50.5732
G1 X99.531 Y108.669 E50.5922
G1 X103.169 Y105.501 E50.8329
G1 X103.598 Y105.613 E50.8550
G1 X99.852 Y108.875 E51.1028
G1 X100.182 Y109.073 E51.1220
G1 X102.780 Y106.811 E51.2938
G1 X102.505 Y107.536 E51.3325
G1 X100.543 Y109.244 E51.4623
G1 X100.904 Y109.414 E51.4822
G1 X102.456 Y108.064 E51.5848
G1 X102.507 Y108.505 E51.6070
G1 X101.266 Y109.585 E51.6891
G1 X101.671 Y109.718 E51.7103
G1 X102.625 Y108.887 E51.7735
G1 X102.796 Y109.224 E51.7923
G1 X102.076 Y109.850 E51.8399
G1 X102.482 Y109.982 E51.8612
G1 X103.010 Y109.522 E51.8961
G1 X103.266 Y109.785 E51.9144
G1 X102.939 Y110.070 E51.9360
G1 X103.396 Y110.157 E51.9592
G1 X103.563 Y110.012 E51.9702
G1 X106.097 Y110.232 F10800
G1 X106.176 Y110.163 E51.9754 F3600
G1 X107.132 Y109.330 F10800
G1 X114.843 Y102.616 E52.4855 F3600
G1 X107.494 Y109.986 F10800
G1 X114.384 Y103.987 E52.9414 F3600
G1 X114.669 Y103.253 E52.9806
G1 X106.779 Y110.124 E53.5026
G1 X110.818 Y101.267 F10800
G1 X110.731 Y101.343 E53.5084 F3600
G1 X113.391 Y105.822 F10800
G1 X109.468 Y109.238 E53.7679 F3600
G1 X113.994 Y104.811 F10800
G1 X108.379 Y109.701 E54.1394 F3600
G1 X106.147 Y105.820 F10800
G1 X106.378 Y105.619 E54.1547 F3600
G1 X108.474 Y104.222 F10800
G1 X110.528 Y102.005
G1 X111.039 Y101.560 E54.1885 F3600
G1 X111.301 Y101.818 E54.2068
G1 X110.137 Y102.832 E54.2838
G1 X112.608 Y102.135 F10800
G1 X115.080 Y101.439
G1 X115.012 Y101.499 E54.2883 F3600
G1 X114.998 Y101.996 E54.3132
G1 X107.482 Y108.541 E54.8104
G1 X107.545 Y108.000 E54.8375
G1 X114.353 Y102.072 E55.2878
G1 X113.407 Y102.411 F10800
G1 X107.500 Y107.554 E55.6786 F3600
G1 X107.390 Y107.165 E55.6988
G1 X112.825 Y102.433 E56.0583
G1 X112.353 Y102.358 E56.0821
G1 X107.228 Y106.820 E56.4211
G1 X107.023 Y106.514 E56.4395
G1 X111.952 Y102.222 E56.7656
G1 X111.604 Y102.039 E56.7852
G1 X106.777 Y106.243 E57.1045
G1 X106.483 Y106.013 E57.1231
G1 X107.252 Y105.344 E57.1739
; ------------------------------------
; Layer #3
; ------------------------------------
G21 ; mm
G90 ; abs
G92 E0 ; reset extr
M106 S255
G1 F4800 E-1.0000
G1 F300 Z1.300
G1 X103.985 Y105.703 F10800
G1 X101.258 Y104.474
G1 X99.521 Y102.130
G1 X99.236 Y101.202
G1 X99.113 Y100.242
G1 X99.154 Y99.276
G1 X96.513 Y93.603
G1 X94.934 Y93.478
G1 F4800 E0.0000
;segType:Loop
G1 X85.600 Y93.478 E0.4657 F3600
G1 X85.600 Y89.522 E0.6630
G1 X124.400 Y89.522 E2.5988
G1 X124.400 Y93.478 E2.7961
G1 X114.171 Y93.478 E3.3064
G1 X113.514 Y93.618 E3.3399
G1 X113.660 Y94.193 E3.3695
G1 X114.348 Y95.413 E3.4394
G1 X114.850 Y96.642 E3.5057
G1 X115.193 Y97.927 E3.5720
G1 X115.372 Y99.246 E3.6384
G1 X115.383 Y100.577 E3.7048
G1 X115.227 Y101.899 E3.7712
G1 X114.905 Y103.189 E3.8376
G1 X114.424 Y104.427 E3.9038
G1 X113.792 Y105.593 E3.9700
G1 X113.020 Y106.667 E4.0360
G1 X112.120 Y107.633 E4.1019
G1 X111.109 Y108.476 E4.1675
G1 X110.003 Y109.183 E4.2330
G1 X108.820 Y109.743 E4.2983
G1 X107.579 Y110.148 E4.3634
G1 X106.299 Y110.394 E4.4285
G1 X105.000 Y110.476 E4.4934
G1 X103.701 Y110.394 E4.5584
G1 X102.421 Y110.148 E4.6234
G1 X101.180 Y109.743 E4.6885
G1 X99.997 Y109.183 E4.7538
G1 X98.891 Y108.476 E4.8193
G1 X97.880 Y107.633 E4.8850
G1 X96.980 Y106.667 E4.9508
G1 X96.208 Y105.593 E5.0168
G1 X95.576 Y104.427 E5.0830
G1 X95.095 Y103.189 E5.1493
G1 X94.773 Y101.899 E5.2156
G1 X94.617 Y100.577 E5.2820
G1 X94.628 Y99.246 E5.3484
G1 X94.807 Y97.927 E5.4148
G1 X95.150 Y96.642 E5.4812
G1 X95.652 Y95.413 E5.5474
G1 X96.340 Y94.193 E5.6173
G1 X96.486 Y93.618 E5.6469
G1 X95.829 Y93.478 E5.6804
G1 X95.131 Y93.478 E5.7152
G1 X94.176 Y93.654 F10800
G1 X95.804 Y93.656
G1 X96.178 Y93.784
G1 X96.533 Y94.219
;segType:Perimeter
G1 X95.953 Y93.863 E5.7492 F2159
G1 X95.780 Y93.826 E5.7580
G1 X85.200 Y93.826 E6.2858
G1 X85.200 Y89.174 E6.5179
G1 X124.800 Y89.174 E8.4936
G1 X124.800 Y93.826 E8.7257
G1 X114.220 Y93.826 E9.2535
G1 X113.989 Y93.875 E9.2653
G1 X114.040 Y94.077 E9.2757
G1 X114.718 Y95.277 E9.3444
G1 X115.234 Y96.544 E9.4127
G1 X115.588 Y97.867 E9.4810
G1 X115.772 Y99.224 E9.5493
G1 X115.784 Y100.594 E9.6177
G1 X115.622 Y101.954 E9.6860
G1 X115.291 Y103.282 E9.7543
G1 X114.796 Y104.558 E9.8226
G1 X114.143 Y105.760 E9.8908
G1 X113.346 Y106.870 E9.9590
G1 X112.415 Y107.870 E10.0272
G1 X111.367 Y108.744 E10.0952
G1 X110.218 Y109.478 E10.1633
G1 X108.987 Y110.061 E10.2312
G1 X107.693 Y110.483 E10.2991
G1 X106.357 Y110.740 E10.3670
G1 X105.000 Y110.825 E10.4348
G1 X103.643 Y110.740 E10.5027
G1 X102.307 Y110.483 E10.5705
G1 X101.013 Y110.061 E10.6384
G1 X99.782 Y109.478 E10.7064
G1 X98.633 Y108.744 E10.7744
G1 X97.585 Y107.870 E10.8425
G1 X96.654 Y106.870 E10.9106
G1 X95.857 Y105.760 E10.9788
G1 X95.204 Y104.558 E11.0471
G1 X94.709 Y103.282 E11.1154
G1 X94.378 Y101.954 E11.1837
G1 X94.216 Y100.594 E11.2520
G1 X94.228 Y99.224 E11.3203
G1 X94.412 Y97.867 E11.3886
G1 X94.766 Y96.544 E11.4569
G1 X95.282 Y95.277 E11.5252
G1 X95.960 Y94.077 E11.5940
G1 X95.998 Y93.925 E11.6018
G1 X95.886 Y93.315
G1 X99.546 Y99.314 F10800
G1 X99.624 Y101.139
G1 X100.307 Y102.838
G1 X101.526 Y104.222
G1 X103.813 Y105.487
;segType:Loop
G1 X103.075 Y105.295 E11.6399 F3600
G1 X102.188 Y104.894 E11.6884
G1 X101.387 Y104.353 E11.7366
G1 X100.694 Y103.689 E11.7845
G1 X100.127 Y102.922 E11.8321
G1 X99.700 Y102.075 E11.8794
G1 X99.423 Y101.171 E11.9266
G1 X99.317 Y100.342 E11.9683
G1 X99.308 Y100.421 E11.9723
G1 X99.206 Y100.783 E11.9910
G1 X99.042 Y101.125 E12.0099
G1 X98.820 Y101.439 E12.0291
G1 X98.543 Y101.714 E12.0486
G1 X98.219 Y101.943 E12.0684
G1 X97.854 Y102.117 E12.0886
G1 X97.460 Y102.228 E12.1090
G1 X97.050 Y102.272 E12.1296
G1 X96.637 Y102.245 E12.1502
G1 X96.238 Y102.150 E12.1707
G1 X95.865 Y101.990 E12.1909
G1 X95.530 Y101.774 E12.2108
G1 X95.242 Y101.508 E12.2304
G1 X95.006 Y101.203 E12.2496
G1 X94.828 Y100.867 E12.2686
G1 X94.711 Y100.508 E12.2874
G1 X94.656 Y100.138 E12.3061
G1 X94.664 Y99.765 E12.3247
G1 X94.735 Y99.396 E12.3434
G1 X94.869 Y99.043 E12.3623
G1 X95.062 Y98.714 E12.3813
G1 X95.312 Y98.419 E12.4006
G1 X95.613 Y98.165 E12.4203
G1 X95.959 Y97.962 E12.4403
G1 X96.354 Y97.814 E12.4613
G1 X96.972 Y97.722 E12.4925
G1 X97.554 Y97.791 E12.5217
G1 X97.952 Y97.922 E12.5426
G1 X98.308 Y98.112 E12.5627
G1 X98.620 Y98.353 E12.5824
G1 X98.883 Y98.640 E12.6018
G1 X99.090 Y98.962 E12.6209
G1 X99.238 Y99.310 E12.6398
G1 X99.325 Y99.675 E12.6585
G1 X99.326 Y99.695 E12.6595
G1 X99.343 Y99.294 E12.6795
G1 X99.542 Y98.371 E12.7266
G1 X99.895 Y97.493 E12.7738
G1 X100.394 Y96.683 E12.8213
G1 X101.026 Y95.965 E12.8690
G1 X101.775 Y95.360 E12.9170
G1 X102.622 Y94.887 E12.9655
G1 X103.543 Y94.562 E13.0142
G1 X104.495 Y94.398 E13.0624
G1 X105.000 Y94.377 E13.0876
G1 X105.505 Y94.398 E13.1128
G1 X106.457 Y94.562 E13.1610
G1 X107.378 Y94.887 E13.2097
G1 X108.225 Y95.360 E13.2581
G1 X108.974 Y95.965 E13.3062
G1 X109.606 Y96.683 E13.3539
G1 X110.105 Y97.493 E13.4013
G1 X110.458 Y98.371 E13.4486
G1 X110.657 Y99.294 E13.4957
G1 X110.674 Y99.708 E13.5163
G1 X110.735 Y99.396 E13.5322
G1 X110.869 Y99.043 E13.5511
G1 X111.062 Y98.714 E13.5701
G1 X111.312 Y98.418 E13.5894
G1 X111.614 Y98.165 E13.6091
G1 X111.959 Y97.963 E13.6290
G1 X112.354 Y97.814 E13.6501
G1 X112.972 Y97.722 E13.6812
G1 X113.554 Y97.791 E13.7105
G1 X113.952 Y97.922 E13.7314
G1 X114.307 Y98.112 E13.7515
G1 X114.620 Y98.353 E13.7712
G1 X114.883 Y98.640 E13.7906
G1 X115.090 Y98.962 E13.8097
G1 X115.238 Y99.310 E13.8286
G1 X115.325 Y99.675 E13.8473
G1 X115.348 Y100.049 E13.8660
G1 X115.309 Y100.421 E13.8847
G1 X115.206 Y100.783 E13.9034
G1 X115.041 Y101.125 E13.9224
G1 X114.820 Y101.438 E13.9415
G1 X114.544 Y101.714 E13.9610
G1 X114.219 Y101.943 E13.9808
G1 X113.854 Y102.117 E14.0010
G1 X113.460 Y102.228 E14.0214
G1 X113.050 Y102.272 E14.0420
G1 X112.637 Y102.245 E14.0626
G1 X112.238 Y102.150 E14.0831
G1 X111.865 Y101.990 E14.1033
G1 X111.530 Y101.774 E14.1232
G1 X111.242 Y101.508 E14.1428
G1 X111.006 Y101.203 E14.1620
G1 X110.828 Y100.867 E14.1810
G1 X110.711 Y100.508 E14.1998
G1 X110.684 Y100.332 E14.2087
G1 X110.577 Y101.171 E14.2509
G1 X110.300 Y102.075 E14.2980
G1 X109.873 Y102.922 E14.3453
G1 X109.306 Y103.689 E14.3929
G1 X108.613 Y104.353 E14.4408
G1 X107.812 Y104.894 E14.4891
G1 X106.925 Y105.295 E14.5376
G1 X105.978 Y105.542 E14.5864
G1 X105.000 Y105.625 E14.6354
G1 X104.022 Y105.542 E14.6844
G1 X104.002 Y105.536 E14.6854
;segType:Perimeter
G1 X104.491 Y105.687 F10800
G1 X105.037 Y106.081 E14.7190 F2159
G1 X105.455 Y106.131 E14.7400
G1 X105.776 Y106.236 E14.7568
G1 X106.068 Y106.392 E14.7734
G1 X106.329 Y106.594 E14.7898
G1 X106.550 Y106.835 E14.8061
G1 X106.726 Y107.108 E14.8224
G1 X106.853 Y107.406 E14.8385
G1 X106.927 Y107.720 E14.8546
G1 X106.947 Y108.042 E14.8707
G1 X106.913 Y108.363 E14.8868
G1 X106.825 Y108.673 E14.9029
G1 X106.685 Y108.965 E14.9190
G1 X106.496 Y109.231 E14.9353
G1 X106.265 Y109.463 E14.9516
G1 X105.995 Y109.653 E14.9681
G1 X105.695 Y109.796 E14.9847
G1 X105.374 Y109.887 E15.0014
G1 X105.040 Y109.922 E15.0181
G1 X104.706 Y109.900 E15.0348
G1 X104.380 Y109.823 E15.0515
G1 X104.074 Y109.692 E15.0681
G1 X103.797 Y109.512 E15.0846
G1 X103.555 Y109.290 E15.1009
G1 X103.356 Y109.032 E15.1172
G1 X103.204 Y108.745 E15.1334
G1 X103.103 Y108.438 E15.1495
G1 X103.056 Y108.119 E15.1656
G1 X103.063 Y107.797 E15.1817
G1 X103.125 Y107.480 E15.1978
G1 X103.239 Y107.178 E15.2139
G1 X103.404 Y106.898 E15.2301
G1 X103.614 Y106.648 E15.2464
G1 X103.866 Y106.437 E15.2628
G1 X104.152 Y106.269 E15.2794
G1 X104.468 Y106.150 E15.2962
G1 X104.920 Y106.083 E15.3190
G1 X105.451 Y105.673
G1 F4800 E14.3190
G1 X106.381 Y106.169 F10800
G1 F4800 E15.3190
;segType:Loop
G1 X106.620 Y106.353 E15.3341 F3600
G1 X106.883 Y106.640 E15.3535
G1 X107.090 Y106.962 E15.3726
G1 X107.238 Y107.310 E15.3915
G1 X107.325 Y107.675 E15.4102
G1 X107.348 Y108.049 E15.4289
G1 X107.308 Y108.421 E15.4476
G1 X107.206 Y108.783 E15.4663
G1 X107.042 Y109.125 E15.4853
G1 X106.819 Y109.439 E15.5044
G1 X106.543 Y109.715 E15.5239
G1 X106.218 Y109.943 E15.5437
G1 X105.854 Y110.117 E15.5639
G1 X105.460 Y110.228 E15.5843
G1 X105.049 Y110.272 E15.6049
G1 X104.637 Y110.245 E15.6255
G1 X104.238 Y110.150 E15.6460
G1 X103.865 Y109.990 E15.6662
G1 X103.530 Y109.774 E15.6861
G1 X103.242 Y109.508 E15.7057
G1 X103.007 Y109.203 E15.7249
G1 X102.828 Y108.867 E15.7439
G1 X102.711 Y108.508 E15.7627
G1 X102.655 Y108.138 E15.7814
G1 X102.664 Y107.765 E15.8000
G1 X102.735 Y107.396 E15.8187
G1 X102.869 Y107.043 E15.8376
G1 X103.063 Y106.714 E15.8566
G1 X103.312 Y106.419 E15.8759
G1 X103.613 Y106.165 E15.8956
G1 X103.959 Y105.962 E15.9156
G1 X104.354 Y105.814 E15.9366
G1 X104.972 Y105.722 E15.9678
G1 X105.554 Y105.791 E15.9970
G1 X105.953 Y105.922 E16.0180
G1 X106.223 Y106.067 E16.0333
;segType:Perimeter
G1 X105.467 Y105.685 F10800
G1 X104.941 Y105.270 E16.0667 F2159
G1 X104.099 Y105.198 E16.1088
G1 X103.226 Y104.971 E16.1539
G1 X102.404 Y104.600 E16.1988
G1 X101.660 Y104.096 E16.2437
G1 X101.012 Y103.476 E16.2884
G1 X100.480 Y102.756 E16.3331
G1 X100.079 Y101.959 E16.3776
G1 X99.817 Y101.107 E16.4221
G1 X99.704 Y100.223 E16.4665
G1 X99.742 Y99.333 E16.5110
G1 X99.930 Y98.462 E16.5554
G1 X100.262 Y97.634 E16.6000
G1 X100.731 Y96.873 E16.6445
G1 X101.323 Y96.200 E16.6892
G1 X102.021 Y95.636 E16.7340
G1 X102.807 Y95.197 E16.7789
G1 X103.658 Y94.897 E16.8239
G1 X104.543 Y94.745 E16.8688
G1 X105.000 Y94.726 E16.8916
G1 X105.457 Y94.745 E16.9144
G1 X106.342 Y94.897 E16.9592
G1 X107.193 Y95.197 E17.0042
G1 X107.979 Y95.636 E17.0491
G1 X108.677 Y96.200 E17.0939
G1 X109.269 Y96.873 E17.1386
G1 X109.738 Y97.634 E17.1832
G1 X110.070 Y98.462 E17.2277
G1 X110.258 Y99.333 E17.2722
G1 X110.296 Y100.223 E17.3166
G1 X110.183 Y101.107 E17.3611
G1 X109.921 Y101.959 E17.4056
G1 X109.519 Y102.756 E17.4501
G1 X108.988 Y103.476 E17.4947
G1 X108.340 Y104.096 E17.5395
G1 X107.596 Y104.600 E17.5843
G1 X106.774 Y104.971 E17.6293
G1 X105.901 Y105.198 E17.6743
G1 X105.059 Y105.270 E17.7165
G1 X104.533 Y105.685
G1 F4800 E16.7165
G1 X104.219 Y105.381 F10800
G1 X103.152 Y105.130
G1 X101.526 Y104.222
G1 X100.307 Y102.838
G1 X99.624 Y101.139
G1 X99.546 Y99.314
G1 X100.082 Y97.565
G1 X101.177 Y96.085
G1 X102.716 Y95.045
G1 X104.519 Y94.575
G1 X106.401 Y93.586
G1 X107.012 Y92.727
G1 X107.123 Y91.698
G1 X106.713 Y90.739
G1 X106.207 Y90.058
G1 F4800 E17.7165
;segType:Loop
G1 X106.307 Y90.112 E17.7221 F3600
G1 X106.620 Y90.353 E17.7419
G1 X106.883 Y90.640 E17.7613
G1 X107.090 Y90.962 E17.7804
G1 X107.238 Y91.310 E17.7992
G1 X107.325 Y91.675 E17.8180
G1 X107.348 Y92.049 E17.8366
G1 X107.308 Y92.421 E17.8553
G1 X107.206 Y92.783 E17.8741
G1 X107.042 Y93.125 E17.8930
G1 X106.819 Y93.439 E17.9122
G1 X106.543 Y93.715 E17.9317
G1 X106.218 Y93.943 E17.9515
G1 X105.854 Y94.117 E17.9716
G1 X105.460 Y94.228 E17.9921
G1 X105.049 Y94.272 E18.0126
G1 X104.637 Y94.245 E18.0333
G1 X104.238 Y94.150 E18.0537
G1 X103.865 Y93.990 E18.0740
G1 X103.530 Y93.774 E18.0939
G1 X103.242 Y93.508 E18.1134
G1 X103.007 Y93.203 E18.1326
G1 X102.828 Y92.867 E18.1516
G1 X102.711 Y92.508 E18.1705
G1 X102.655 Y92.138 E18.1891
G1 X102.664 Y91.765 E18.2078
G1 X102.735 Y91.396 E18.2265
G1 X102.869 Y91.043 E18.2453
G1 X103.063 Y90.714 E18.2644
G1 X103.312 Y90.419 E18.2837
G1 X103.613 Y90.165 E18.3033
G1 X103.959 Y89.962 E18.3233
G1 X104.354 Y89.814 E18.3444
G1 X104.972 Y89.722 E18.3755
G1 X105.554 Y89.791 E18.4048
G1 X105.953 Y89.922 E18.4257
G1 X106.039 Y89.968 E18.4306
;segType:Perimeter
G1 X104.492 Y89.687 F10800
G1 X105.038 Y90.081 E18.4642 F2159
G1 X105.455 Y90.131 E18.4852
G1 X105.776 Y90.236 E18.5020
G1 X106.068 Y90.392 E18.5186
G1 X106.329 Y90.594 E18.5350
G1 X106.550 Y90.835 E18.5513
G1 X106.726 Y91.108 E18.5675
G1 X106.853 Y91.406 E18.5837
G1 X106.927 Y91.720 E18.5998
G1 X106.947 Y92.042 E18.6159
G1 X106.913 Y92.363 E18.6319
G1 X106.825 Y92.673 E18.6481
G1 X106.685 Y92.965 E18.6642
G1 X106.496 Y93.231 E18.6805
G1 X106.265 Y93.463 E18.6968
G1 X105.995 Y93.653 E18.7133
G1 X105.695 Y93.796 E18.7299
G1 X105.374 Y93.887 E18.7465
G1 X105.040 Y93.922 E18.7633
G1 X104.706 Y93.900 E18.7800
G1 X104.380 Y93.823 E18.7967
G1 X104.074 Y93.692 E18.8133
G1 X103.797 Y93.512 E18.8298
G1 X103.555 Y93.290 E18.8461
G1 X103.356 Y93.032 E18.8624
G1 X103.204 Y92.745 E18.8786
G1 X103.103 Y92.438 E18.8947
G1 X103.056 Y92.119 E18.9108
G1 X103.063 Y91.797 E18.9269
G1 X103.125 Y91.480 E18.9430
G1 X103.239 Y91.178 E18.9591
G1 X103.404 Y90.898 E18.9753
G1 X103.614 Y90.648 E18.9916
G1 X103.866 Y90.437 E19.0080
G1 X104.152 Y90.269 E19.0245
G1 X104.468 Y90.150 E19.0414
G1 X104.921 Y90.083 E19.0642
G1 X105.451 Y89.673
G1 F4800 E18.0642
G1 X112.904 Y89.696 F10800
G1 F4800 E19.0642
;segType:Infill
G1 X112.904 Y97.559 E19.4565 F5400
;segType:Perimeter
G1 X112.491 Y97.687 F10800
G1 X113.037 Y98.081 E19.4901 F2159
G1 X113.455 Y98.131 E19.5111
G1 X113.776 Y98.236 E19.5279
G1 X114.068 Y98.392 E19.5445
G1 X114.329 Y98.594 E19.5609
G1 X114.550 Y98.835 E19.5772
G1 X114.726 Y99.108 E19.5934
G1 X114.853 Y99.406 E19.6096
G1 X114.927 Y99.720 E19.6257
G1 X114.947 Y100.042 E19.6418
G1 X114.913 Y100.363 E19.6579
G1 X114.825 Y100.673 E19.6740
G1 X114.685 Y100.965 E19.6901
G1 X114.496 Y101.231 E19.7064
G1 X114.265 Y101.463 E19.7227
G1 X113.995 Y101.653 E19.7392
G1 X113.695 Y101.796 E19.7558
G1 X113.374 Y101.887 E19.7724
G1 X113.040 Y101.922 E19.7892
G1 X112.706 Y101.900 E19.8059
G1 X112.380 Y101.823 E19.8226
G1 X112.074 Y101.692 E19.8392
G1 X111.797 Y101.512 E19.8557
G1 X111.555 Y101.290 E19.8720
G1 X111.356 Y101.032 E19.8883
G1 X111.204 Y100.745 E19.9045
G1 X111.103 Y100.438 E19.9206
G1 X111.056 Y100.119 E19.9367
G1 X111.063 Y99.797 E19.9528
G1 X111.125 Y99.480 E19.9689
G1 X111.239 Y99.178 E19.9850
G1 X111.404 Y98.898 E20.0012
G1 X111.615 Y98.648 E20.0175
G1 X111.866 Y98.437 E20.0339
G1 X112.152 Y98.269 E20.0504
G1 X112.468 Y98.150 E20.0673
G1 X112.920 Y98.083 E20.0901
G1 X113.450 Y97.673
G1 X105.481 Y94.575 F10800
G1 X103.601 Y94.732
G1 X96.491 Y97.687
G1 X97.037 Y98.081 E20.1237 F2159
G1 X97.455 Y98.131 E20.1447
G1 X97.776 Y98.236 E20.1615
G1 X98.068 Y98.392 E20.1781
G1 X98.329 Y98.594 E20.1945
G1 X98.550 Y98.835 E20.2108
G1 X98.726 Y99.108 E20.2271
G1 X98.853 Y99.406 E20.2432
G1 X98.927 Y99.720 E20.2593
G1 X98.947 Y100.042 E20.2754
G1 X98.913 Y100.363 E20.2915
G1 X98.825 Y100.673 E20.3076
G1 X98.685 Y100.965 E20.3237
G1 X98.496 Y101.231 E20.3400
G1 X98.264 Y101.463 E20.3563
G1 X97.995 Y101.653 E20.3728
G1 X97.695 Y101.796 E20.3894
G1 X97.374 Y101.887 E20.4060
G1 X97.040 Y101.922 E20.4228
G1 X96.706 Y101.900 E20.4395
G1 X96.380 Y101.823 E20.4562
G1 X96.074 Y101.692 E20.4728
G1 X95.797 Y101.512 E20.4893
G1 X95.555 Y101.290 E20.5056
G1 X95.356 Y101.032 E20.5219
G1 X95.204 Y100.745 E20.5381
G1 X95.103 Y100.438 E20.5542
G1 X95.056 Y100.119 E20.5703
G1 X95.063 Y99.797 E20.5864
G1 X95.125 Y99.480 E20.6025
G1 X95.239 Y99.178 E20.6186
G1 X95.404 Y98.898 E20.6348
G1 X95.614 Y98.648 E20.6511
G1 X95.866 Y98.437 E20.6675
G1 X96.152 Y98.269 E20.6840
G1 X96.468 Y98.150 E20.7009
G1 X96.920 Y98.083 E20.7237
G1 X97.450 Y97.673
G1 X96.178 Y93.784 F10800
G1 X95.804 Y93.656
G1 X86.628 Y93.304
;segType:Infill
G1 X86.628 Y89.696 E20.9037 F5400
G1 X89.255 Y89.696 F10800
G1 X89.255 Y93.304 E21.0836 F5400
G1 X91.883 Y93.304 F10800
G1 X91.883 Y89.696 E21.2636 F5400
G1 X94.511 Y89.696 F10800
G1 X94.511 Y93.304 E21.4436 F5400
G1 X96.178 Y93.784 F10800
G1 X97.138 Y97.568
G1 X97.138 Y89.696 E21.8363 F5400
G1 X99.766 Y89.696 F10800
G1 X99.766 Y97.342 E22.2177 F5400
G1 X102.393 Y94.808 F10800
G1 X102.393 Y89.696 E22.4727 F5400
G1 X102.529 Y91.408 F10800
G1 X85.800 Y91.408 E23.3073 F5400
G1 X96.671 Y93.696 F10800
G1 X103.167 Y93.696 E23.6315 F5400
G1 X100.758 Y95.984 F10800
G1 X95.631 Y95.984 E23.8872 F5400
G1 X98.807 Y98.272 F10800
G1 X99.375 Y98.272 E23.9155 F5400
G1 X96.975 Y97.903 F10800
G1 X94.961 Y98.272
G1 X95.204 Y98.272 E23.9277 F5400
G1 X103.601 Y94.732 F10800
G1 X105.481 Y94.575
G1 X107.649 Y94.831
G1 X107.649 Y89.696 E24.1838 F5400
G1 X110.276 Y89.696 F10800
G1 X110.276 Y97.403 E24.5683 F5400
G1 X115.532 Y89.696 F10800
G1 X115.532 Y93.304 E24.7483 F5400
G1 X118.159 Y93.304 F10800
G1 X118.159 Y89.696 E24.9282 F5400
G1 X120.787 Y89.696 F10800
G1 X120.787 Y93.304 E25.1082 F5400
G1 X123.414 Y93.304 F10800
G1 X123.414 Y89.696 E25.2881 F5400
G1 X124.200 Y91.408 F10800
G1 X107.469 Y91.408 E26.1228 F5400
G1 X106.831 Y93.696 F10800
G1 X113.329 Y93.696 E26.4470 F5400
G1 X114.369 Y95.984 F10800
G1 X109.243 Y95.984 E26.7028 F5400
G1 X114.807 Y98.272 F10800
G1 X115.039 Y98.272 E26.7143 F5400
G1 X112.975 Y97.903 F10800
G1 X110.630 Y98.272
G1 X111.191 Y98.272 E26.7423 F5400
G1 X110.107 Y102.016 F10800
G1 X108.474 Y104.222
G1 X106.848 Y105.130
G1 X105.000 Y105.447
G1 X97.138 Y106.559
G1 X97.138 Y102.440 E26.9478 F5400
G1 X99.766 Y102.633 F10800
G1 X99.766 Y108.819 E27.2564 F5400
G1 X102.393 Y109.953 F10800
G1 X102.393 Y105.182 E27.4945 F5400
G1 X99.875 Y102.848 F10800
G1 X95.214 Y102.848 E27.7270 F5400
G1 X96.182 Y105.136 F10800
G1 X102.290 Y105.136 E28.0318 F5400
G1 X102.526 Y107.424 F10800
G1 X97.942 Y107.424 E28.2605 F5400
G1 X101.654 Y109.712 F10800
G1 X103.184 Y109.712 E28.3368 F5400
G1 X105.045 Y110.093 F10800
G1 X107.649 Y109.940
G1 X107.649 Y105.165 E28.5750 F5400
G1 X110.276 Y102.555 F10800
G1 X110.276 Y108.792 E28.8862 F5400
G1 X112.904 Y106.500 F10800
G1 X112.904 Y102.441 E29.0887 F5400
G1 X114.786 Y102.848 F10800
G1 X110.129 Y102.848 E29.3210 F5400
G1 X107.712 Y105.136 F10800
G1 X113.818 Y105.136 E29.6257 F5400
G1 X112.058 Y107.424 F10800
G1 X107.473 Y107.424 E29.8544 F5400
G1 X106.815 Y109.712 F10800
G1 X108.346 Y109.712 E29.9308 F5400
G1 F4800 E28.9308
G1 X115.496 Y100.448 F10800
G1 X121.200 Y87.400
G1 F4800 E29.9308
;segType:Support
G1 X119.400 Y87.400 E30.0071 F5400
G1 F4800 E29.0071
G1 X92.400 Y87.400 F10800
G1 F4800 E30.0071
G1 X90.600 Y87.400 E30.0835 F5400
