; GCode generated by CraftWare

; filename = composition.3w 
; machine = daVinciF10 
; material = abs 
; extruder = 1 
M140 S90 ; Bed (no wait) 
M106 S255 ; Start fan 
G90 ; set absolute coordinates 
G28 ; home all axis 
M190 S90 ; Bed (wait) 
M104 S210 ; Extruder (no wait) 
M109 S210 ; Extruder (wait) 
M117 Start 
M117 Cleaning 
M100 ; Cleaning 
M117 Printing 
M190 S75 ;set bed temp (wait)
M109 S220 ;set head temp (wait)
; ------------------------------------
; Layer #0
; ------------------------------------
G21 ; mm
G90 ; abs
G92 E0 ; reset extr
M106 S0
;segType:Skirt
G1 F4800 E-1.0000
G1 F300 Z0.400
G1 X95.780 Y133.400 F10800
G1 F4800 E0.0000
G1 X96.167 Y133.787 E0.0364 F1200
G1 X96.360 Y133.980 E0.0546
G1 X96.876 Y134.367 E0.0975
G1 X113.383 Y134.367 E1.1955
G1 X114.931 Y134.367 E1.2984
G1 X115.704 Y133.593 E1.3712
G1 X115.898 Y133.271 E1.3962
G1 X115.898 Y126.049 E1.8766
G1 X115.124 Y125.275 E1.9494
G1 X114.802 Y125.082 E1.9744
G1 X109.127 Y125.082 E2.3519
G1 X108.676 Y125.018 E2.3822
G1 X108.676 Y122.438 E2.5538
G1 X107.902 Y121.665 E2.6266
G1 X107.580 Y121.471 E2.6515
G1 X100.874 Y121.471 E3.0976
G1 X100.423 Y121.536 E3.1279
G1 X99.391 Y122.567 E3.2250
G1 X99.391 Y124.631 E3.3623
G1 X99.326 Y125.082 E3.3926
G1 X97.263 Y125.082 E3.5299
G1 X96.812 Y125.147 E3.5602
G1 X95.780 Y126.178 E3.6572
G1 X95.780 Y133.400 E4.1376
G1 F4800 E3.1376
G1 X118.542 Y130.756 F10800
G1 F4800 E4.1376
G1 X122.024 Y130.756 E4.3692 F1200
G1 X122.346 Y130.563 E4.3942
G1 X123.119 Y129.789 E4.4670
G1 X123.119 Y127.726 E4.6043
G1 X123.184 Y127.274 E4.6346
G1 X125.248 Y127.274 E4.7719
G1 X125.699 Y127.210 E4.8022
G1 X126.730 Y126.178 E4.8992
G1 X126.730 Y124.115 E5.0365
G1 X126.795 Y123.663 E5.0668
G1 X128.858 Y123.663 E5.2041
G1 X129.310 Y123.599 E5.2344
G1 X130.341 Y122.567 E5.3315
G1 X130.341 Y120.504 E5.4687
G1 X130.406 Y120.052 E5.4991
G1 X132.469 Y120.052 E5.6363
G1 X132.920 Y119.988 E5.6666
G1 X133.952 Y118.956 E5.7637
G1 X133.952 Y115.346 E6.0039
G1 X133.178 Y114.572 E6.0767
G1 X132.856 Y114.379 E6.1017
G1 X130.793 Y114.379 E6.2389
G1 X130.341 Y114.314 E6.2693
G1 X130.341 Y111.735 E6.4408
G1 X129.567 Y110.961 E6.5136
G1 X129.245 Y110.768 E6.5386
G1 X125.634 Y110.768 E6.7788
G1 X124.861 Y111.541 E6.8516
G1 X124.667 Y111.864 E6.8766
G1 X124.667 Y113.927 E7.0138
G1 X124.603 Y114.379 E7.0442
G1 X123.571 Y114.379 E7.1128
G1 X123.119 Y114.314 E7.1432
G1 X123.119 Y111.735 E7.3147
G1 X122.346 Y110.961 E7.3875
G1 X122.024 Y110.768 E7.4125
G1 X119.960 Y110.768 E7.5498
G1 X119.509 Y110.703 E7.5801
G1 X119.509 Y108.124 E7.7517
G1 X119.573 Y107.672 E7.7820
G1 X119.766 Y107.350 E7.8070
G1 X119.895 Y106.963 E7.8342
G1 X120.089 Y106.640 E7.8592
G1 X120.218 Y106.254 E7.8863
G1 X120.411 Y105.931 E7.9113
G1 X120.411 Y105.674 E7.9285
G1 X120.540 Y105.545 E7.9406
G1 X120.540 Y105.287 E7.9578
G1 X120.669 Y105.158 E7.9699
G1 X120.669 Y104.900 E7.9870
G1 X120.798 Y104.771 E7.9992
G1 X120.798 Y104.513 E8.0163
G1 X120.927 Y104.384 E8.0285
G1 X121.056 Y103.481 E8.0891
G1 X121.185 Y103.094 E8.1162
G1 X121.185 Y102.578 E8.1506
G1 X121.314 Y102.192 E8.1777
G1 X121.314 Y97.807 E8.4694
G1 X121.185 Y97.678 E8.4815
G1 X121.185 Y96.904 E8.5330
G1 X121.056 Y96.775 E8.5451
G1 X121.056 Y96.259 E8.5794
G1 X120.927 Y96.130 E8.5915
G1 X120.863 Y95.679 E8.6219
G1 X120.734 Y95.292 E8.6490
G1 X120.669 Y94.841 E8.6793
G1 X120.476 Y94.519 E8.7043
G1 X120.218 Y93.745 E8.7586
G1 X120.024 Y93.422 E8.7836
G1 X119.895 Y93.035 E8.8107
G1 X119.509 Y92.391 E8.8608
G1 X119.509 Y87.748 E9.1696
G1 X119.573 Y87.554 E9.1832
G1 X122.152 Y87.554 E9.3547
G1 X122.926 Y86.781 E9.4275
G1 X123.119 Y86.458 E9.4525
G1 X123.119 Y84.137 E9.6069
G1 X123.571 Y84.072 E9.6373
G1 X124.603 Y84.072 E9.7059
G1 X124.667 Y84.524 E9.7362
G1 X124.667 Y86.587 E9.8735
G1 X125.441 Y87.361 E9.9463
G1 X125.763 Y87.554 E9.9713
G1 X132.985 Y87.554 E10.4517
G1 X133.759 Y86.781 E10.5245
G1 X133.952 Y86.458 E10.5495
G1 X133.952 Y79.752 E10.9955
G1 X133.888 Y79.301 E11.0258
G1 X132.856 Y78.270 E11.1229
G1 X130.793 Y78.270 E11.2602
G1 X130.341 Y78.205 E11.2905
G1 X130.341 Y76.142 E11.4278
G1 X130.277 Y75.690 E11.4581
G1 X129.245 Y74.659 E11.5551
G1 X127.182 Y74.659 E11.6924
G1 X126.730 Y74.594 E11.7227
G1 X126.730 Y72.531 E11.8600
G1 X126.666 Y72.080 E11.8903
G1 X125.763 Y71.177 E11.9752
G1 X118.542 Y71.177 E12.4556
G1 X118.219 Y71.370 E12.4806
G1 X117.446 Y72.144 E12.5534
G1 X117.446 Y79.366 E13.0338
G1 X117.639 Y79.688 E13.0588
G1 X118.413 Y80.461 E13.1316
G1 X120.992 Y80.461 E13.3031
G1 X121.057 Y80.913 E13.3335
G1 X121.057 Y81.429 E13.3678
G1 X120.992 Y81.881 E13.3981
G1 X118.413 Y81.881 E13.5697
G1 X117.639 Y82.654 E13.6425
G1 X117.446 Y82.976 E13.6675
G1 X117.446 Y85.040 E13.8047
G1 X117.381 Y85.491 E13.8351
G1 X112.738 Y85.491 E14.1439
G1 X112.351 Y85.362 E14.1710
G1 X111.707 Y84.976 E14.2211
G1 X111.320 Y84.847 E14.2482
G1 X111.191 Y84.718 E14.2603
G1 X110.933 Y84.718 E14.2775
G1 X110.610 Y84.524 E14.3025
G1 X109.837 Y84.266 E14.3568
G1 X109.385 Y84.202 E14.3871
G1 X109.256 Y84.073 E14.3992
G1 X108.999 Y84.073 E14.4164
G1 X108.870 Y83.944 E14.4285
G1 X107.967 Y83.815 E14.4892
G1 X107.709 Y83.815 E14.5063
G1 X107.580 Y83.686 E14.5185
G1 X102.422 Y83.686 E14.8616
G1 X102.035 Y83.815 E14.8887
G1 X101.519 Y83.815 E14.9230
G1 X101.390 Y83.944 E14.9352
G1 X100.939 Y84.008 E14.9655
G1 X100.552 Y84.137 E14.9926
G1 X100.100 Y84.202 E15.0230
G1 X99.971 Y84.331 E15.0351
G1 X99.713 Y84.331 E15.0522
G1 X99.584 Y84.460 E15.0644
G1 X99.326 Y84.460 E15.0815
G1 X99.004 Y84.653 E15.1065
G1 X98.617 Y84.782 E15.1336
G1 X98.295 Y84.976 E15.1587
G1 X97.908 Y85.105 E15.1858
G1 X97.263 Y85.491 E15.2358
G1 X94.426 Y85.491 E15.4246
G1 X94.361 Y85.040 E15.4549
G1 X94.361 Y82.976 E15.5922
G1 X93.330 Y81.945 E15.6892
G1 X92.878 Y81.881 E15.7195
G1 X90.815 Y81.881 E15.8568
G1 X90.750 Y81.429 E15.8871
G1 X90.750 Y80.913 E15.9214
G1 X90.815 Y80.461 E15.9518
G1 X92.878 Y80.461 E16.0890
G1 X93.330 Y80.397 E16.1194
G1 X93.728 Y79.998 E16.1569
;segType:Support
G1 F4800 E15.1569
G1 X83.400 Y76.600 F10800
G1 F4800 E16.1569
G1 X92.400 Y76.600 E16.6658 F1800
G1 F4800 E15.6658
G1 X78.000 Y91.000 F10800
G1 F4800 E16.6658
G1 X72.600 Y91.000 E16.9711 F1800
G1 F4800 E15.9711
G1 X72.600 Y96.400 F10800
G1 F4800 E16.9711
G1 X78.000 Y96.400 E17.2764 F1800
G1 F4800 E16.2764
G1 X78.000 Y92.800 F10800
G1 F4800 E17.2764
G1 X72.600 Y92.800 E17.5817 F1800
G1 F4800 E16.5817
G1 X76.200 Y83.800 F10800
G1 F4800 E17.5817
G1 X92.400 Y83.800 E18.4977 F1800
G1 F4800 E17.4977
G1 X92.400 Y78.400 F10800
G1 F4800 E18.4977
G1 X83.400 Y78.400 E19.0066 F1800
G1 F4800 E18.0066
G1 X88.800 Y80.200 F10800
G1 F4800 E19.0066
G1 X79.800 Y80.200 E19.5155 F1800
G1 F4800 E18.5155
G1 X72.600 Y98.200 F10800
G1 F4800 E19.5155
G1 X81.600 Y98.200 E20.0244 F1800
G1 F4800 E19.0244
G1 X103.857 Y73.000 F10800
G1 F4800 E20.0244
G1 X97.800 Y73.000 E20.3669 F1800
G1 F4800 E19.3669
G1 X90.600 Y87.400 F10800
G1 F4800 E20.3669
G1 X99.600 Y87.400 E20.8757 F1800
G1 F4800 E19.8757
G1 X132.000 Y82.000 F10800
G1 F4800 E20.8757
G1 X123.000 Y82.000 E21.3846 F1800
G1 F4800 E20.3846
G1 X117.600 Y87.400 F10800
G1 F4800 E21.3846
G1 X112.200 Y87.400 E21.6899 F1800
G1 F4800 E20.6899
G1 X92.400 Y85.600 F10800
G1 F4800 E21.6899
G1 X76.200 Y85.600 E22.6059 F1800
G1 F4800 E21.6059
G1 X72.600 Y103.600 F10800
G1 F4800 E22.6059
G1 X81.600 Y103.600 E23.1148 F1800
G1 F4800 E22.1148
G1 X90.600 Y112.600 F10800
G1 F4800 E23.1148
G1 X92.400 Y112.600 E23.2166 F1800
G1 X94.200 Y110.800 E23.3605
G1 X96.000 Y110.800 E23.4623
G1 F4800 E22.4623
G1 X96.000 Y108.100 F10800
G1 X96.000 Y94.600
G1 F4800 E23.4623
G1 X95.415 Y94.600 E23.4954 F1800
G1 F4800 E22.4954
G1 X95.654 Y92.080 F10800
G1 X95.892 Y89.560
G1 X97.800 Y69.400
G1 F4800 E23.4954
G1 X104.386 Y69.400 E23.8678 F1800
G1 F4800 E22.8678
G1 X93.174 Y95.903 F10800
G1 X92.605 Y98.289
G1 X92.509 Y100.744
G1 X92.898 Y103.175
G1 X94.200 Y109.000
G1 F4800 E23.8678
G1 X94.816 Y109.000 E23.9026 F1800
G1 F4800 E22.9026
G1 X81.600 Y100.000 F10800
G1 F4800 E23.9026
G1 X79.655 Y100.000 E24.0126 F1800
G1 F4800 E23.0126
G1 X97.116 Y110.228 F10800
G1 X100.991 Y111.855
G1 X103.446 Y112.415
G1 X105.892 Y112.481
G1 X108.317 Y112.064
G1 X130.200 Y107.200
G1 F4800 E24.0126
G1 X135.600 Y107.200 E24.3179 F1800
G1 F4800 E23.3179
G1 X117.600 Y110.800 F10800
G1 F4800 E24.3179
G1 X115.800 Y110.800 E24.4197 F1800
G1 F4800 E23.4197
G1 X124.800 Y123.400 F10800
G1 F4800 E24.4197
G1 X119.400 Y123.400 E24.7250 F1800
G1 F4800 E23.7250
G1 X121.200 Y114.400 F10800
G1 F4800 E24.7250
G1 X115.800 Y114.400 E25.0303 F1800
G1 F4800 E24.0303
G1 X117.600 Y107.200 F10800
G1 F4800 E25.0303
G1 X116.154 Y107.200 E25.1121 F1800
G1 F4800 E24.1121
G1 X106.800 Y123.400 F10800
G1 F4800 E25.1121
G1 X101.400 Y123.400 E25.4174 F1800
G1 F4800 E24.4174
G1 X88.800 Y127.000 F10800
G1 F4800 E25.4174
G1 X87.000 Y127.000 E25.5192 F1800
G1 F4800 E24.5192
G1 X88.800 Y121.600 F10800
G1 F4800 E25.5192
G1 X79.800 Y121.600 E26.0281 F1800
G1 F4800 E25.0281
G1 X78.000 Y105.400 F10800
G1 F4800 E26.0281
G1 X72.600 Y105.400 E26.3334 F1800
G1 F4800 E25.3334
G1 X114.000 Y71.200 F10800
G1 F4800 E26.3334
G1 X106.143 Y71.200 E26.7777 F1800
G1 F4800 E25.7777
G1 X97.173 Y89.170 F10800
G1 X96.052 Y91.416
G1 F4800 E26.7777
;segType:Loop
G1 X96.068 Y91.398 E26.7793 F1200
G1 X96.395 Y91.072 E26.8100
G1 X97.014 Y90.520 E26.8652
G1 X97.274 Y90.349 E26.8858
G1 X97.747 Y90.170 E26.9195
G1 X97.823 Y90.138 E26.9250
G1 X97.533 Y90.347 E26.9487
G1 X96.918 Y90.856 E27.0018
G1 X96.336 Y91.404 E27.0550
G1 X95.793 Y91.990 E27.1082
G1 X95.289 Y92.609 E27.1612
G1 X95.123 Y92.843 E27.1804
G1 X95.270 Y92.478 E27.2065
G1 X95.409 Y92.164 E27.2294
G1 X95.757 Y91.737 E27.2660
G1 X95.921 Y91.559 E27.2822
G1 F4800 E26.2822
G1 X95.949 Y92.125 F10800
G1 X94.586 Y94.042
G1 X93.623 Y96.193
G1 X93.098 Y98.485
G1 X93.031 Y100.836
G1 X93.425 Y103.156
G1 X94.261 Y105.349
G1 X95.511 Y107.341
G1 X97.125 Y109.051
G1 X99.042 Y110.414
G1 X101.193 Y111.377
G1 X103.485 Y111.902
G1 X104.493 Y111.982
G1 X104.693 Y112.292
G1 F4800 E27.2822
;segType:Perimeter
G1 X104.222 Y111.778 E27.3285 F719
G1 X103.510 Y111.710 E27.3761
G1 X102.748 Y111.588 E27.4274
G1 X101.994 Y111.415 E27.4789
G1 X101.254 Y111.194 E27.5303
G1 X100.526 Y110.923 E27.5820
G1 X99.820 Y110.606 E27.6334
G1 X99.138 Y110.246 E27.6847
G1 X98.480 Y109.840 E27.7361
G1 X97.851 Y109.392 E27.7875
G1 X97.252 Y108.905 E27.8389
G1 X96.686 Y108.379 E27.8903
G1 X96.156 Y107.817 E27.9417
G1 X95.664 Y107.222 E27.9930
G1 X95.211 Y106.596 E28.0444
G1 X94.801 Y105.942 E28.0958
G1 X94.435 Y105.262 E28.1471
G1 X94.112 Y104.559 E28.1986
G1 X93.839 Y103.843 E28.2496
G1 X93.611 Y103.105 E28.3009
G1 X93.432 Y102.353 E28.3524
G1 X93.304 Y101.592 E28.4037
G1 X93.224 Y100.823 E28.4552
G1 X93.196 Y100.052 E28.5065
G1 X93.217 Y99.280 E28.5578
G1 X93.290 Y98.510 E28.6093
G1 X93.412 Y97.748 E28.6606
G1 X93.585 Y96.994 E28.7121
G1 X93.806 Y96.254 E28.7635
G1 X94.077 Y95.525 E28.8152
G1 X94.394 Y94.821 E28.8666
G1 X94.754 Y94.138 E28.9179
G1 X95.160 Y93.480 E28.9693
G1 X95.608 Y92.851 E29.0207
G1 X96.095 Y92.252 E29.0720
G1 X96.621 Y91.686 E29.1234
G1 X97.183 Y91.156 E29.1749
G1 X97.778 Y90.664 E29.2262
G1 X98.404 Y90.211 E29.2776
G1 X99.058 Y89.801 E29.3290
G1 X99.738 Y89.434 E29.3804
G1 X100.441 Y89.112 E29.4318
G1 X101.157 Y88.839 E29.4827
G1 X101.895 Y88.611 E29.5341
G1 X102.647 Y88.432 E29.5856
G1 X103.408 Y88.304 E29.6369
G1 X104.177 Y88.224 E29.6883
G1 X104.948 Y88.196 E29.7397
G1 X105.720 Y88.217 E29.7910
G1 X106.490 Y88.290 E29.8425
G1 X107.252 Y88.412 E29.8938
G1 X108.006 Y88.585 E29.9453
G1 X108.746 Y88.806 E29.9966
G1 X109.474 Y89.077 E30.0483
G1 X110.180 Y89.394 E30.0998
G1 X110.862 Y89.754 E30.1511
G1 X111.520 Y90.160 E30.2025
G1 X112.149 Y90.608 E30.2539
G1 X112.748 Y91.095 E30.3052
G1 X113.314 Y91.621 E30.3566
G1 X113.844 Y92.183 E30.4080
G1 X114.336 Y92.778 E30.4594
G1 X114.789 Y93.404 E30.5108
G1 X115.199 Y94.059 E30.5622
G1 X115.565 Y94.738 E30.6135
G1 X115.888 Y95.441 E30.6649
G1 X116.161 Y96.157 E30.7159
G1 X116.389 Y96.895 E30.7673
G1 X116.568 Y97.647 E30.8187
G1 X116.696 Y98.408 E30.8701
G1 X116.776 Y99.177 E30.9215
G1 X116.804 Y99.948 E30.9729
G1 X116.783 Y100.720 E31.0242
G1 X116.710 Y101.490 E31.0756
G1 X116.588 Y102.252 E31.1270
G1 X116.415 Y103.006 E31.1784
G1 X116.194 Y103.746 E31.2298
G1 X115.923 Y104.474 E31.2815
G1 X115.606 Y105.180 E31.3329
G1 X115.246 Y105.862 E31.3843
G1 X114.840 Y106.520 E31.4357
G1 X114.392 Y107.149 E31.4870
G1 X113.905 Y107.748 E31.5384
G1 X113.379 Y108.314 E31.5898
G1 X112.817 Y108.844 E31.6412
G1 X112.222 Y109.336 E31.6926
G1 X111.596 Y109.789 E31.7440
G1 X110.941 Y110.199 E31.7954
G1 X110.262 Y110.565 E31.8467
G1 X109.559 Y110.888 E31.8981
G1 X108.843 Y111.161 E31.9491
G1 X108.105 Y111.389 E32.0005
G1 X107.353 Y111.568 E32.0519
G1 X106.592 Y111.696 E32.1033
G1 X105.823 Y111.776 E32.1547
G1 X105.052 Y111.804 E32.2060
G1 X104.338 Y111.785 E32.2535
G1 X103.808 Y112.238
G1 F4800 E31.2535
G1 X103.857 Y111.937 F10800
G1 X106.618 Y111.888
G1 X108.906 Y111.344
G1 X111.039 Y110.367
G1 X114.547 Y107.266
G1 X116.602 Y103.055
G1 X116.976 Y100.732
G1 X116.888 Y98.382
G1 X116.344 Y96.094
G1 X115.367 Y93.961
G1 X113.989 Y92.055
G1 X112.268 Y90.172
G1 F4800 E32.2535
;segType:Loop
G1 X112.637 Y90.313 E32.2798 F1200
G1 X112.902 Y90.454 E32.2998
G1 X113.434 Y90.912 E32.3465
G1 X113.768 Y91.232 E32.3772
G1 X114.088 Y91.566 E32.4080
G1 X114.546 Y92.098 E32.4547
G1 X114.687 Y92.363 E32.4747
G1 X114.864 Y92.825 E32.5076
G1 X114.653 Y92.533 E32.5315
G1 X114.144 Y91.918 E32.5846
G1 X113.596 Y91.336 E32.6378
G1 X113.010 Y90.793 E32.6910
G1 X112.391 Y90.289 E32.7440
G1 X112.256 Y90.193 E32.7550
G1 X110.958 Y89.586 F10800
G1 X108.807 Y88.623
G1 X106.515 Y88.098
G1 X104.164 Y88.031
G1 X101.844 Y88.425
G1 X99.651 Y89.260
G1 X97.659 Y90.511
G1 X95.309 Y92.574
;segType:Perimeter
G1 X95.101 Y91.908 E32.8014 F719
G1 X95.454 Y91.475 E32.8386
G1 X95.780 Y91.121 E32.8705
G1 X96.120 Y90.781 E32.9026
G1 X96.770 Y90.202 E32.9605
G1 X97.091 Y89.991 E32.9860
G1 X97.599 Y89.798 E33.0221
G1 X98.115 Y89.582 E33.0594
G1 X99.392 Y88.992 E33.1530
G1 X100.203 Y88.640 E33.2118
G1 X100.965 Y88.358 E33.2658
G1 X101.734 Y88.123 E33.3193
G1 X102.519 Y87.933 E33.3730
G1 X103.315 Y87.797 E33.4268
G1 X104.122 Y87.712 E33.4808
G1 X104.927 Y87.680 E33.5343
G1 X105.733 Y87.702 E33.5879
G1 X106.530 Y87.777 E33.6412
G1 X107.327 Y87.903 E33.6948
G1 X108.126 Y88.085 E33.7494
G1 X108.948 Y88.329 E33.8064
G1 X109.747 Y88.621 E33.8630
G1 X110.201 Y88.810 E33.8958
G1 X111.508 Y89.409 E33.9914
G1 X112.173 Y89.707 E34.0398
G1 X112.804 Y89.948 E34.0847
G1 X113.129 Y90.122 E34.1093
G1 X113.703 Y90.615 E34.1596
G1 X114.051 Y90.949 E34.1917
G1 X114.385 Y91.297 E34.2238
G1 X114.878 Y91.871 E34.2741
G1 X115.052 Y92.196 E34.2987
G1 X115.293 Y92.828 E34.3436
G1 X116.190 Y94.798 E34.4876
G1 X116.379 Y95.253 E34.5204
G1 X116.671 Y96.052 E34.5770
G1 X116.915 Y96.874 E34.6341
G1 X117.097 Y97.673 E34.6886
G1 X117.223 Y98.470 E34.7422
G1 X117.298 Y99.267 E34.7955
G1 X117.320 Y100.073 E34.8491
G1 X117.288 Y100.878 E34.9027
G1 X117.203 Y101.685 E34.9567
G1 X117.067 Y102.481 E35.0104
G1 X116.877 Y103.266 E35.0641
G1 X116.642 Y104.035 E35.1176
G1 X116.360 Y104.797 E35.1717
G1 X116.008 Y105.608 E35.2305
G1 X115.418 Y106.886 E35.3241
G1 X115.099 Y107.677 E35.3809
G1 X114.935 Y108.047 E35.4077
G1 X114.546 Y108.525 E35.4488
G1 X114.220 Y108.879 E35.4807
G1 X113.880 Y109.219 E35.5128
G1 X113.230 Y109.798 E35.5707
G1 X112.909 Y110.009 E35.5962
G1 X112.401 Y110.202 E35.6323
G1 X111.885 Y110.418 E35.6696
G1 X110.608 Y111.008 E35.7632
G1 X109.797 Y111.360 E35.8220
G1 X109.035 Y111.642 E35.8760
G1 X108.266 Y111.877 E35.9295
G1 X107.481 Y112.067 E35.9832
G1 X106.685 Y112.203 E36.0370
G1 X105.878 Y112.288 E36.0909
G1 X105.073 Y112.320 E36.1445
G1 X104.267 Y112.298 E36.1981
G1 X103.470 Y112.223 E36.2514
G1 X102.673 Y112.097 E36.3050
G1 X101.874 Y111.915 E36.3596
G1 X101.052 Y111.671 E36.4166
G1 X100.253 Y111.380 E36.4732
G1 X99.798 Y111.190 E36.5060
G1 X98.492 Y110.591 E36.6016
G1 X97.827 Y110.292 E36.6500
G1 X97.196 Y110.052 E36.6950
G1 X96.870 Y109.878 E36.7195
G1 X96.297 Y109.385 E36.7698
G1 X95.949 Y109.051 E36.8019
G1 X95.615 Y108.703 E36.8340
G1 X95.122 Y108.130 E36.8843
G1 X94.948 Y107.804 E36.9089
G1 X94.707 Y107.172 E36.9538
G1 X93.810 Y105.202 E37.0978
G1 X93.620 Y104.747 E37.1306
G1 X93.329 Y103.948 E37.1872
G1 X93.085 Y103.126 E37.2443
G1 X92.903 Y102.327 E37.2988
G1 X92.777 Y101.530 E37.3524
G1 X92.702 Y100.733 E37.4057
G1 X92.680 Y99.927 E37.4593
G1 X92.712 Y99.122 E37.5129
G1 X92.797 Y98.315 E37.5669
G1 X92.933 Y97.519 E37.6206
G1 X93.123 Y96.734 E37.6743
G1 X93.358 Y95.965 E37.7278
G1 X93.640 Y95.203 E37.7819
G1 X93.992 Y94.392 E37.8407
G1 X94.582 Y93.114 E37.9343
G1 X94.901 Y92.323 E37.9911
G1 X95.041 Y92.006 E38.0141
G1 X95.728 Y91.890
G1 X94.586 Y94.042 F10800
G1 X93.623 Y96.193
G1 X93.098 Y98.485
G1 X93.031 Y100.836
G1 X93.425 Y103.156
G1 X94.261 Y105.349
G1 X95.511 Y107.341
G1 X97.731 Y109.828
;segType:Loop
G1 X97.363 Y109.687 E38.0403 F1200
G1 X97.098 Y109.546 E38.0603
G1 X96.566 Y109.088 E38.1069
G1 X96.232 Y108.768 E38.1377
G1 X95.912 Y108.434 E38.1685
G1 X95.454 Y107.902 E38.2152
G1 X95.313 Y107.637 E38.2351
G1 X95.137 Y107.175 E38.2680
G1 X95.348 Y107.467 E38.2920
G1 X95.856 Y108.082 E38.3450
G1 X96.404 Y108.664 E38.3982
G1 X96.990 Y109.207 E38.4513
G1 X97.609 Y109.711 E38.5044
G1 X97.743 Y109.806 E38.5154
G1 X101.945 Y111.603 F10800
G1 X104.268 Y111.976
G1 X106.618 Y111.888
G1 X108.906 Y111.344
G1 X112.255 Y109.806
G1 X112.467 Y109.652 E38.5327 F1200
G1 X113.082 Y109.144 E38.5858
G1 X113.664 Y108.596 E38.6390
G1 X114.207 Y108.010 E38.6921
G1 X114.711 Y107.391 E38.7452
G1 X114.877 Y107.157 E38.7643
G1 X114.730 Y107.522 E38.7905
G1 X114.591 Y107.836 E38.8133
G1 X114.243 Y108.263 E38.8500
G1 X113.932 Y108.602 E38.8806
G1 X113.605 Y108.928 E38.9113
G1 X112.986 Y109.480 E38.9665
G1 X112.726 Y109.651 E38.9872
G1 X112.266 Y109.825 E39.0199
G1 F4800 E38.0199
G1 X115.324 Y106.841 F10800
G1 X117.158 Y102.363
G1 X117.137 Y97.531
G1 X116.159 Y92.800
G1 F4800 E39.0199
;segType:Support
G1 X117.600 Y92.800 E39.1014 F1800
G1 F4800 E38.1014
G1 X112.895 Y89.777 F10800
G1 X87.000 Y74.800
G1 F4800 E39.1014
G1 X88.800 Y74.800 E39.2031 F1800
G1 F4800 E38.2031
G1 X87.000 Y128.800 F10800
G1 F4800 E39.2031
G1 X88.800 Y128.800 E39.3049 F1800
G1 F4800 E38.3049
G1 X97.800 Y128.800 F10800
G1 F4800 E39.3049
G1 X103.857 Y128.800 E39.6474 F1800
G1 X104.386 Y130.600 E39.7535
;segType:SoftSupport
G1 X105.614 Y130.600 E39.7902 F1800
;segType:Support
G1 F4800 E38.7902
G1 X114.000 Y127.000 F10800
G1 F4800 E39.7902
G1 X106.143 Y127.000 E40.2345 F1800
G1 F4800 E39.2345
G1 X114.000 Y130.600 F10800
G1 F4800 E40.2345
G1 X105.614 Y130.600 E40.7087 F1800
G1 F4800 E39.7087
G1 X103.857 Y127.000 F10800
G1 F4800 E40.7087
G1 X97.800 Y127.000 E41.0511 F1800
G1 F4800 E40.0511
G1 X76.200 Y116.200 F10800
G1 F4800 E41.0511
G1 X88.800 Y116.200 E41.7636 F1800
G1 F4800 E40.7636
G1 X79.800 Y119.800 F10800
G1 F4800 E41.7636
G1 X88.800 Y119.800 E42.2725 F1800
G1 F4800 E41.2725
G1 X119.400 Y128.800 F10800
G1 F4800 E42.2725
G1 X121.200 Y128.800 E42.3742 F1800
G1 F4800 E41.3742
G1 X88.800 Y118.000 F10800
G1 F4800 E42.3742
G1 X76.200 Y118.000 E43.0867 F1800
G1 F4800 E42.0867
G1 X72.600 Y107.200 F10800
G1 F4800 E43.0867
G1 X78.000 Y107.200 E43.3920 F1800
G1 F4800 E42.3920
G1 X72.600 Y101.800 F10800
G1 F4800 E43.3920
G1 X81.600 Y101.800 E43.9009 F1800
G1 F4800 E42.9009
G1 X92.400 Y114.400 F10800
G1 F4800 E43.9009
G1 X90.600 Y114.400 E44.0026 F1800
G1 F4800 E43.0026
G1 X88.800 Y125.200 F10800
G1 F4800 E44.0026
G1 X83.400 Y125.200 E44.3080 F1800
G1 F4800 E43.3080
G1 X88.800 Y123.400 F10800
G1 F4800 E44.3080
G1 X83.400 Y123.400 E44.6133 F1800
G1 F4800 E43.6133
G1 X101.727 Y112.927 F10800
G1 X104.018 Y111.618
G1 X108.600 Y109.000
G1 F4800 E44.6133
G1 X110.400 Y109.000 E44.7151 F1800
G1 F4800 E43.7151
G1 X112.920 Y108.460 F10800
G1 X115.440 Y107.920
G1 X135.600 Y103.600
G1 F4800 E44.7151
G1 X130.200 Y103.600 E45.0204 F1800
G1 X130.200 Y105.400 E45.1222
G1 X135.600 Y105.400 E45.4275
G1 F4800 E44.4275
G1 X128.400 Y114.400 F10800
G1 F4800 E45.4275
G1 X126.600 Y114.400 E45.5293 F1800
G1 F4800 E44.5293
G1 X128.400 Y119.800 F10800
G1 F4800 E45.5293
G1 X119.400 Y119.800 E46.0382 F1800
G1 F4800 E45.0382
G1 X128.400 Y112.600 F10800
G1 F4800 E46.0382
G1 X126.600 Y112.600 E46.1399 F1800
G1 F4800 E45.1399
G1 X117.600 Y89.200 F10800
G1 F4800 E46.1399
G1 X113.088 Y89.200 E46.3951 F1800
G1 F4800 E45.3951
G1 X103.856 Y71.200 F10800
G1 F4800 E46.3951
G1 X97.800 Y71.200 E46.7375 F1800
G1 F4800 E45.7375
G1 X106.143 Y73.000 F10800
G1 F4800 E46.7375
G1 X114.000 Y73.000 E47.1818 F1800
;segType:SoftSupport
G1 F4800 E46.1818
G1 X106.143 Y73.000 F10800
G1 F4800 E47.1818
G1 X103.857 Y73.000 E47.2502 F1800
;segType:Support
G1 F4800 E46.2502
G1 X87.000 Y73.000 F10800
G1 F4800 E47.2502
G1 X88.800 Y73.000 E47.3519 F1800
G1 F4800 E46.3519
G1 X92.898 Y103.175 F10800
G1 X93.633 Y105.279
G1 X94.963 Y108.239
G1 X106.800 Y125.200
G1 F4800 E47.3519
G1 X101.400 Y125.200 E47.6573 F1800
;segType:SoftSupport
G1 F4800 E46.6573
G1 X74.291 Y100.000 F10800
G1 F4800 E47.6573
G1 X79.655 Y100.000 E47.8179 F1800
G1 F4800 E46.8179
G1 X97.116 Y110.228 F10800
G1 X100.991 Y111.855
G1 X103.446 Y112.415
G1 X115.800 Y112.600
G1 F4800 E47.8179
;segType:Support
G1 X121.200 Y112.600 E48.1232 F1800
G1 F4800 E47.1232
G1 X119.400 Y118.000 F10800
G1 F4800 E48.1232
G1 X132.000 Y118.000 E48.8356 F1800
G1 X132.000 Y116.200 E48.9374
G1 X119.400 Y116.200 E49.6498
G1 F4800 E48.6498
G1 X119.400 Y127.000 F10800
G1 F4800 E49.6498
G1 X121.200 Y127.000 E49.7516 F1800
G1 F4800 E48.7516
G1 X96.167 Y109.528 F10800
G1 X94.772 Y107.884
G1 X93.145 Y104.009
G1 X92.585 Y101.554
G1 X92.519 Y99.108
G1 X92.936 Y96.683
G1 X94.723 Y92.247
G1 X96.920 Y89.200
G1 F4800 E49.7516
G1 X90.600 Y89.200 E50.1089 F1800
G1 F4800 E49.1089
G1 X78.000 Y94.600 F10800
G1 F4800 E50.1089
G1 X72.600 Y94.600 E50.4143 F1800
G1 F4800 E49.4143
G1 X96.000 Y96.400 F10800
G1 F4800 E50.4143
G1 X94.605 Y96.400 E50.4931 F1800
G1 F4800 E49.4931
G1 X92.755 Y94.600 F10800
G1 X79.800 Y82.000
G1 F4800 E50.4931
G1 X88.800 Y82.000 E51.0020 F1800
G1 F4800 E50.0020
G1 X74.291 Y100.000 F10800
G1 F4800 E51.0020
G1 X72.600 Y100.000 E51.0976 F1800
G1 F4800 E50.0976
G1 X100.903 Y88.174 F10800
G1 X103.289 Y87.605
G1 X105.744 Y87.509
G1 X108.175 Y87.898
G1 X111.588 Y89.233
G1 X115.800 Y91.000
G1 F4800 E51.0976
G1 X117.600 Y91.000 E51.1994 F1800
G1 F4800 E50.1994
G1 X128.400 Y78.400 F10800
G1 F4800 E51.1994
G1 X119.400 Y78.400 E51.7082 F1800
G1 F4800 E50.7082
G1 X117.600 Y109.000 F10800
G1 F4800 E51.7082
G1 X115.800 Y109.000 E51.8100 F1800
G1 F4800 E50.8100
G1 X116.971 Y105.400 F10800
G1 F4800 E51.8100
G1 X117.600 Y105.400 E51.8456 F1800
G1 F4800 E50.8456
G1 X130.200 Y101.800 F10800
G1 F4800 E51.8456
G1 X135.600 Y101.800 E52.1509 F1800
G1 F4800 E51.1509
G1 X135.600 Y98.200 F10800
G1 F4800 E52.1509
G1 X130.200 Y98.200 E52.4563 F1800
G1 X130.200 Y100.000 E52.5580
G1 X130.331 Y100.000 E52.5654
G1 X130.331 Y100.000
;segType:SoftSupport
G1 X135.600 Y100.000 E52.7232 F1800
;segType:Support
G1 F4800 E51.7232
G1 X135.600 Y94.600 F10800
G1 F4800 E52.7232
G1 X130.200 Y94.600 E53.0285 F1800
G1 F4800 E52.0285
G1 X130.200 Y91.000 F10800
G1 F4800 E53.0285
G1 X135.600 Y91.000 E53.3338 F1800
G1 F4800 E52.3338
G1 X132.000 Y80.200 F10800
G1 F4800 E53.3338
G1 X123.000 Y80.200 E53.8427 F1800
G1 F4800 E52.8427
G1 X126.600 Y85.600 F10800
G1 F4800 E53.8427
G1 X132.000 Y85.600 E54.1480 F1800
G1 F4800 E53.1480
G1 X121.200 Y85.600 F10800
G1 F4800 E54.1480
G1 X119.400 Y85.600 E54.2498 F1800
G1 F4800 E53.2498
G1 X132.000 Y83.800 F10800
G1 F4800 E54.2498
G1 X126.600 Y83.800 E54.5551 F1800
G1 F4800 E53.5551
G1 X121.200 Y83.800 F10800
G1 F4800 E54.5551
G1 X119.400 Y83.800 E54.6569 F1800
G1 F4800 E53.6569
G1 X135.600 Y96.400 F10800
G1 F4800 E54.6569
G1 X130.200 Y96.400 E54.9622 F1800
G1 F4800 E53.9622
G1 X130.200 Y92.800 F10800
G1 F4800 E54.9622
G1 X135.600 Y92.800 E55.2676 F1800
G1 F4800 E54.2676
G1 X128.400 Y76.600 F10800
G1 F4800 E55.2676
G1 X119.400 Y76.600 E55.7764 F1800
G1 F4800 E54.7764
G1 X124.800 Y73.000 F10800
G1 F4800 E55.7764
G1 X119.400 Y73.000 E56.0818 F1800
G1 X119.400 Y74.800 E56.1836
G1 X124.800 Y74.800 E56.4889
G1 F4800 E55.4889
G1 X114.000 Y69.400 F10800
G1 F4800 E56.4889
G1 X105.614 Y69.400 E56.9631 F1800
G1 X106.143 Y71.200 E57.0692
;segType:SoftSupport
G1 X103.856 Y71.200 E57.1376 F1800
G1 F4800 E56.1376
G1 X115.472 Y92.753 F10800
G1 X116.855 Y95.991
G1 X117.415 Y98.446
G1 X119.400 Y121.600
G1 F4800 E57.1376
;segType:Support
G1 X128.400 Y121.600 E57.6465 F1800
G1 F4800 E56.6465
G1 X114.000 Y128.800 F10800
G1 F4800 E57.6465
G1 X106.145 Y128.800 E58.0907 F1800
G1 F4800 E57.0907
G1 X119.400 Y125.200 F10800
G1 F4800 E58.0907
G1 X124.800 Y125.200 E58.3960 F1800
G1 F4800 E57.3960
G1 X114.000 Y132.400 F10800
G1 F4800 E58.3960
G1 X97.800 Y132.400 E59.3120 F1800
G1 X97.800 Y130.600 E59.4138
G1 X104.386 Y130.600 E59.7862
G1 X106.145 Y128.800 E59.9284
;segType:SoftSupport
G1 X103.857 Y128.800 E59.9969 F1800
G1 F4800 E58.9969
G1 X106.143 Y127.000 F10800
G1 F4800 E59.9969
G1 X103.857 Y127.000 E60.0653 F1800
G1 F4800 E59.0653
G1 X115.277 Y107.753 F10800
G1 X117.064 Y103.317
G1 X117.481 Y100.892
G1 X117.415 Y98.446
G1 X114.000 Y74.800
G1 F4800 E60.0653
;segType:Support
G1 X97.800 Y74.800 E60.9813 F1800
;segType:SoftSupport
G1 F4800 E59.9813
G1 X104.386 Y69.400 F10800
G1 F4800 E60.9813
G1 X105.614 Y69.400 E61.0181 F1800
; ------------------------------------
; Layer #1
; ------------------------------------
G21 ; mm
G90 ; abs
G92 E0 ; reset extr
M106 S255
G1 F4800 E-1.0000
G1 F300 Z0.700
G1 X104.582 Y69.334 F10800
G1 X101.997 Y71.200
G1 F4800 E0.0000
;segType:Support
G1 X97.800 Y71.200 E0.1780 F5400
G1 X97.800 Y69.400 E0.2543
G1 X102.164 Y69.400 E0.4394
G1 X102.164 Y69.400
;segType:SoftSupport
G1 X103.200 Y69.400 E0.4626 F5400
G1 X103.533 Y69.411 E0.4701
G1 X101.997 Y71.200 E0.5230
G1 X103.200 Y71.200 E0.5500
G1 X103.256 Y71.198 E0.5513
;segType:Support
G1 F4800 E-0.4487
G1 X92.400 Y76.600 F10800
G1 F4800 E0.5513
G1 X83.400 Y76.600 E0.9330 F5400
G1 F4800 E-0.0670
G1 X72.600 Y103.600 F10800
G1 F4800 E0.9330
G1 X81.600 Y103.600 E1.3146 F5400
G1 F4800 E0.3146
G1 X83.400 Y125.200 F10800
G1 F4800 E1.3146
G1 X88.800 Y125.200 E1.5436 F5400
G1 F4800 E0.5436
G1 X90.600 Y114.400 F10800
G1 F4800 E1.5436
G1 X92.400 Y114.400 E1.6200 F5400
G1 F4800 E0.6200
G1 X90.600 Y89.200 F10800
G1 F4800 E1.6200
G1 X96.009 Y89.200 E1.8493 F5400
G1 F4800 E0.8493
G1 X94.662 Y91.538 F10800
G1 X92.674 Y96.517
G1 X87.000 Y127.000
G1 F4800 E1.8493
G1 X88.800 Y127.000 E1.9257 F5400
G1 F4800 E0.9257
G1 X119.400 Y121.600 F10800
G1 F4800 E1.9257
G1 X128.400 Y121.600 E2.3073 F5400
G1 F4800 E1.3073
G1 X121.200 Y128.800 F10800
G1 F4800 E2.3073
G1 X119.400 Y128.800 E2.3837 F5400
G1 F4800 E1.3837
G1 X114.000 Y130.600 F10800
G1 F4800 E2.3837
G1 X107.767 Y130.699 E2.6480 F5400
G1 F4800 E1.6480
G1 X121.200 Y127.000 F10800
G1 F4800 E2.6480
G1 X119.400 Y127.000 E2.7244 F5400
G1 F4800 E1.7244
G1 X124.800 Y125.200 F10800
G1 F4800 E2.7244
G1 X119.400 Y125.200 E2.9534 F5400
;segType:SoftSupport
G1 F4800 E1.9534
G1 X106.744 Y127.150 F10800
G1 F4800 E2.9534
G1 X108.008 Y127.124 E2.9818 F5400
G1 X108.004 Y128.676 E3.0166
G1 X106.748 Y128.650 E3.0448
;segType:Support
G1 F4800 E2.0448
G1 X114.000 Y128.800 F10800
G1 F4800 E3.0448
G1 X108.004 Y128.676 E3.2992 F5400
G1 X106.399 Y130.707 E3.4089
;segType:SoftSupport
G1 X106.684 Y130.716 E3.4153 F5400
G1 X107.767 Y130.699 E3.4396
G1 F4800 E2.4396
G1 X103.555 Y130.612 F10800
G1 F4800 E3.4396
G1 X103.200 Y130.600 E3.4476 F5400
G1 X102.160 Y130.600 E3.4709
G1 X101.997 Y128.780 E3.5120
;segType:Support
G1 X97.800 Y128.800 E3.6900 F5400
G1 F4800 E2.6900
G1 X79.263 Y101.738 F10800
G1 X77.837 Y99.656
G1 F4800 E3.6900
;segType:HShell
G1 X78.505 Y100.324 E3.7371 F3600
G1 X78.847 Y100.118 E3.7570
G1 X78.401 Y99.672 E3.7885
;segType:Loop
G1 X79.043 Y100.326 F10800
G1 X79.026 Y100.464 E3.7955 F3600
G1 X78.563 Y100.522 E3.8187
G1 X78.007 Y100.543 E3.8465
G1 X76.724 Y100.555 E3.9105
G1 X76.106 Y100.543 E3.9413
G1 X75.569 Y100.517 E3.9682
G1 X75.186 Y100.461 E3.9875
G1 X74.951 Y100.374 E4.0000
G1 X74.917 Y100.284 E4.0048
G1 X74.893 Y100.000 E4.0190
G1 X74.915 Y99.734 E4.0323
G1 X74.993 Y99.593 E4.0403
G1 X75.169 Y99.541 E4.0495
G1 X75.569 Y99.483 E4.0697
G1 X76.106 Y99.457 E4.0965
G1 X76.724 Y99.445 E4.1273
G1 X78.007 Y99.457 E4.1914
G1 X78.563 Y99.478 E4.2191
G1 X79.026 Y99.536 E4.2424
G1 X79.055 Y99.770 E4.2542
G1 X79.055 Y99.770
;segType:Perimeter
G1 X78.671 Y99.444 F10800
G1 X79.344 Y99.263 E4.2889 F2159
G1 X79.424 Y99.447 E4.2989
G1 X79.455 Y99.749 E4.3141
G1 X79.455 Y100.251 E4.3391
G1 X79.424 Y100.553 E4.3543
G1 X79.321 Y100.790 E4.3672
G1 X79.043 Y100.879 E4.3817
G1 X78.589 Y100.921 E4.4045
G1 X78.017 Y100.943 E4.4331
G1 X76.722 Y100.955 E4.4977
G1 X76.093 Y100.943 E4.5290
G1 X75.530 Y100.916 E4.5571
G1 X75.085 Y100.851 E4.5796
G1 X74.684 Y100.701 E4.6009
G1 X74.606 Y100.589 E4.6077
G1 X74.523 Y100.375 E4.6192
G1 X74.491 Y100.000 E4.6380
G1 X74.523 Y99.625 E4.6568
G1 X74.681 Y99.303 E4.6746
G1 X74.844 Y99.220 E4.6838
G1 X75.083 Y99.149 E4.6962
G1 X75.530 Y99.084 E4.7187
G1 X76.093 Y99.057 E4.7469
G1 X76.722 Y99.045 E4.7782
G1 X78.017 Y99.057 E4.8428
G1 X78.589 Y99.079 E4.8714
G1 X79.043 Y99.121 E4.8942
G1 X79.265 Y99.192 E4.9058
G1 X79.152 Y99.880
G1 F4800 E3.9058
G1 X77.976 Y100.343 F10800
G1 F4800 E4.9058
;segType:HShell
G1 X77.284 Y99.651 E4.9546 F3600
G1 X76.731 Y99.645 E4.9822
G1 X77.433 Y100.348 E5.0318
G1 X76.891 Y100.353 E5.0589
G1 X76.193 Y99.656 E5.1081
G1 X75.668 Y99.678 E5.1343
G1 X76.337 Y100.347 E5.1815
G1 X75.769 Y100.327 E5.2099
G1 X75.193 Y99.751 E5.2505
G1 F4800 E4.2505
G1 X92.895 Y93.491 F10800
G1 X95.424 Y92.597
G1 F4800 E5.2505
G1 X95.259 Y92.432 E5.2621 F3600
G1 X95.113 Y92.835 E5.2835
G1 X95.192 Y92.913 E5.2890
;segType:Loop
G1 X95.445 Y91.364 F10800
G1 X95.453 Y91.354 E5.2897 F3600
G1 X95.951 Y90.833 E5.3256
G1 X96.437 Y90.377 E5.3589
G1 X96.582 Y90.270 E5.3679
G1 X97.373 Y90.073 E5.4085
G1 X97.887 Y89.876 E5.4360
G1 X98.413 Y89.632 E5.4649
G1 X99.666 Y89.014 E5.5346
G1 X100.444 Y88.670 E5.5771
G1 X101.215 Y88.388 E5.6180
G1 X101.993 Y88.160 E5.6585
G1 X102.773 Y87.989 E5.6983
G1 X103.564 Y87.869 E5.7382
G1 X104.360 Y87.801 E5.7781
G1 X105.160 Y87.785 E5.8180
G1 X105.959 Y87.822 E5.8579
G1 X106.753 Y87.910 E5.8978
G1 X107.544 Y88.051 E5.9378
G1 X108.320 Y88.245 E5.9778
G1 X109.089 Y88.493 E6.0181
G1 X109.853 Y88.796 E6.0591
G1 X110.575 Y89.131 E6.0988
G1 X111.848 Y89.755 E6.1695
G1 X112.327 Y89.966 E6.1956
G1 X112.816 Y90.132 E6.2214
G1 X113.417 Y90.268 E6.2521
G1 X113.646 Y90.453 E6.2668
G1 X114.167 Y90.951 E6.3028
G1 X114.623 Y91.437 E6.3360
G1 X114.730 Y91.582 E6.3450
G1 X114.927 Y92.373 E6.3857
G1 X115.124 Y92.887 E6.4131
G1 X115.368 Y93.413 E6.4421
G1 X115.986 Y94.666 E6.5118
G1 X116.330 Y95.444 E6.5542
G1 X116.612 Y96.215 E6.5952
G1 X116.840 Y96.993 E6.6356
G1 X117.011 Y97.773 E6.6755
G1 X117.131 Y98.564 E6.7154
G1 X117.199 Y99.360 E6.7552
G1 X117.215 Y100.160 E6.7952
G1 X117.178 Y100.959 E6.8350
G1 X117.090 Y101.753 E6.8749
G1 X116.949 Y102.544 E6.9150
G1 X116.755 Y103.320 E6.9549
G1 X116.507 Y104.089 E6.9952
G1 X116.204 Y104.853 E7.0362
G1 X115.869 Y105.575 E7.0759
G1 X115.245 Y106.848 E7.1467
G1 X115.034 Y107.327 E7.1728
G1 X114.868 Y107.816 E7.1985
G1 X114.732 Y108.417 E7.2293
G1 X114.546 Y108.646 E7.2440
G1 X114.049 Y109.167 E7.2799
G1 X113.563 Y109.623 E7.3132
G1 X113.418 Y109.730 E7.3221
G1 X112.628 Y109.926 E7.3628
G1 X112.113 Y110.124 E7.3903
G1 X111.587 Y110.368 E7.4192
G1 X110.334 Y110.986 E7.4889
G1 X109.556 Y111.330 E7.5314
G1 X108.785 Y111.612 E7.5723
G1 X108.007 Y111.840 E7.6127
G1 X107.227 Y112.011 E7.6526
G1 X106.436 Y112.131 E7.6925
G1 X105.640 Y112.199 E7.7324
G1 X104.840 Y112.215 E7.7723
G1 X104.041 Y112.178 E7.8122
G1 X103.247 Y112.090 E7.8521
G1 X102.456 Y111.949 E7.8921
G1 X101.680 Y111.755 E7.9321
G1 X100.911 Y111.507 E7.9724
G1 X100.147 Y111.204 E8.0134
G1 X99.425 Y110.869 E8.0531
G1 X98.152 Y110.245 E8.1238
G1 X97.673 Y110.034 E8.1499
G1 X97.184 Y109.868 E8.1757
G1 X96.583 Y109.732 E8.2064
G1 X96.354 Y109.547 E8.2211
G1 X95.833 Y109.049 E8.2570
G1 X95.377 Y108.563 E8.2903
G1 X95.270 Y108.418 E8.2993
G1 X95.074 Y107.628 E8.3399
G1 X94.876 Y107.113 E8.3674
G1 X94.632 Y106.587 E8.3964
G1 X94.014 Y105.334 E8.4661
G1 X93.670 Y104.556 E8.5085
G1 X93.388 Y103.785 E8.5495
G1 X93.160 Y103.007 E8.5899
G1 X92.989 Y102.227 E8.6297
G1 X92.869 Y101.436 E8.6697
G1 X92.801 Y100.640 E8.7095
G1 X92.785 Y99.840 E8.7494
G1 X92.822 Y99.041 E8.7893
G1 X92.910 Y98.247 E8.8292
G1 X93.051 Y97.456 E8.8693
G1 X93.245 Y96.680 E8.9092
G1 X93.493 Y95.911 E8.9495
G1 X93.796 Y95.147 E8.9905
G1 X94.131 Y94.425 E9.0302
G1 X94.755 Y93.152 E9.1010
G1 X94.966 Y92.673 E9.1271
G1 X95.132 Y92.184 E9.1528
G1 X95.268 Y91.583 E9.1836
G1 X95.323 Y91.515 E9.1879
G1 F4800 E8.1879
G1 X95.084 Y92.637 F10800
G1 F4800 E9.1879
;segType:Perimeter
G1 X94.757 Y92.021 E9.2227 F2159
G1 X94.850 Y91.586 E9.2449
G1 X94.908 Y91.393 E9.2550
G1 X95.153 Y91.089 E9.2744
G1 X95.670 Y90.549 E9.3117
G1 X96.181 Y90.070 E9.3467
G1 X96.408 Y89.901 E9.3608
G1 X97.252 Y89.691 E9.4042
G1 X97.731 Y89.507 E9.4298
G1 X98.240 Y89.271 E9.4578
G1 X99.497 Y88.651 E9.5277
G1 X100.294 Y88.299 E9.5712
G1 X101.090 Y88.008 E9.6135
G1 X101.894 Y87.773 E9.6553
G1 X102.700 Y87.595 E9.6965
G1 X103.517 Y87.471 E9.7377
G1 X104.339 Y87.401 E9.7789
G1 X105.165 Y87.385 E9.8201
G1 X105.990 Y87.423 E9.8613
G1 X106.811 Y87.514 E9.9025
G1 X107.627 Y87.660 E9.9439
G1 X108.430 Y87.861 E9.9851
G1 X109.224 Y88.116 E10.0268
G1 X110.011 Y88.428 E10.0690
G1 X110.748 Y88.770 E10.1095
G1 X112.016 Y89.393 E10.1800
G1 X112.472 Y89.593 E10.2049
G1 X112.922 Y89.745 E10.2285
G1 X113.413 Y89.850 E10.2536
G1 X113.607 Y89.908 E10.2637
G1 X113.911 Y90.153 E10.2832
G1 X114.451 Y90.670 E10.3205
G1 X114.930 Y91.181 E10.3554
G1 X115.099 Y91.408 E10.3695
G1 X115.309 Y92.252 E10.4130
G1 X115.493 Y92.731 E10.4385
G1 X115.729 Y93.240 E10.4666
G1 X116.349 Y94.497 E10.5364
G1 X116.701 Y95.294 E10.5799
G1 X116.992 Y96.090 E10.6222
G1 X117.227 Y96.893 E10.6640
G1 X117.405 Y97.700 E10.7052
G1 X117.529 Y98.517 E10.7464
G1 X117.599 Y99.339 E10.7876
G1 X117.615 Y100.165 E10.8288
G1 X117.577 Y100.990 E10.8700
G1 X117.486 Y101.811 E10.9112
G1 X117.340 Y102.627 E10.9526
G1 X117.139 Y103.430 E10.9939
G1 X116.884 Y104.224 E11.0355
G1 X116.572 Y105.011 E11.0777
G1 X116.230 Y105.748 E11.1182
G1 X115.607 Y107.017 E11.1887
G1 X115.408 Y107.472 E11.2136
G1 X115.255 Y107.922 E11.2373
G1 X115.150 Y108.413 E11.2623
G1 X115.092 Y108.607 E11.2724
G1 X114.847 Y108.910 E11.2919
G1 X114.330 Y109.451 E11.3292
G1 X113.819 Y109.930 E11.3641
G1 X113.592 Y110.099 E11.3782
G1 X112.748 Y110.309 E11.4217
G1 X112.269 Y110.492 E11.4472
G1 X111.760 Y110.729 E11.4753
G1 X110.503 Y111.349 E11.5452
G1 X109.706 Y111.701 E11.5887
G1 X108.910 Y111.992 E11.6309
G1 X108.107 Y112.227 E11.6727
G1 X107.300 Y112.405 E11.7139
G1 X106.483 Y112.529 E11.7551
G1 X105.661 Y112.599 E11.7963
G1 X104.835 Y112.615 E11.8375
G1 X104.010 Y112.577 E11.8787
G1 X103.189 Y112.485 E11.9199
G1 X102.373 Y112.340 E11.9613
G1 X101.570 Y112.139 E12.0026
G1 X100.776 Y111.884 E12.0442
G1 X99.989 Y111.572 E12.0864
G1 X99.252 Y111.230 E12.1269
G1 X97.983 Y110.608 E12.1974
G1 X97.528 Y110.408 E12.2223
G1 X97.078 Y110.255 E12.2460
G1 X96.586 Y110.150 E12.2710
G1 X96.393 Y110.092 E12.2811
G1 X96.090 Y109.847 E12.3006
G1 X95.549 Y109.330 E12.3379
G1 X95.070 Y108.819 E12.3729
G1 X94.901 Y108.592 E12.3870
G1 X94.691 Y107.748 E12.4304
G1 X94.508 Y107.269 E12.4560
G1 X94.271 Y106.760 E12.4840
G1 X93.651 Y105.503 E12.5539
G1 X93.299 Y104.706 E12.5974
G1 X93.008 Y103.910 E12.6396
G1 X92.773 Y103.106 E12.6814
G1 X92.595 Y102.300 E12.7226
G1 X92.471 Y101.483 E12.7638
G1 X92.401 Y100.661 E12.8050
G1 X92.385 Y99.835 E12.8462
G1 X92.423 Y99.010 E12.8874
G1 X92.515 Y98.189 E12.9286
G1 X92.660 Y97.373 E12.9700
G1 X92.861 Y96.570 E13.0113
G1 X93.116 Y95.776 E13.0529
G1 X93.428 Y94.989 E13.0952
G1 X93.770 Y94.252 E13.1356
G1 X94.392 Y92.984 E13.2062
G1 X94.592 Y92.528 E13.2310
G1 X94.727 Y92.133 E13.2518
G1 X95.322 Y91.771
G1 X93.686 Y97.015 F10800
G1 X93.322 Y99.280
G1 X93.405 Y101.572
G1 X93.936 Y103.805
G1 X94.890 Y105.890
G1 X96.233 Y107.749
G1 X97.913 Y109.310
G1 X99.866 Y110.514
G1 X103.171 Y111.760
;segType:Loop
G1 X102.722 Y111.687 E13.2745 F3600
G1 X101.963 Y111.513 E13.3133
G1 X101.216 Y111.289 E13.3522
G1 X100.486 Y111.018 E13.3911
G1 X99.775 Y110.699 E13.4299
G1 X99.086 Y110.334 E13.4688
G1 X98.423 Y109.925 E13.5077
G1 X97.788 Y109.474 E13.5466
G1 X97.184 Y108.983 E13.5854
G1 X96.613 Y108.452 E13.6243
G1 X96.078 Y107.885 E13.6632
G1 X95.582 Y107.285 E13.7020
G1 X95.126 Y106.654 E13.7409
G1 X94.711 Y105.994 E13.7798
G1 X94.342 Y105.307 E13.8187
G1 X94.017 Y104.600 E13.8575
G1 X93.740 Y103.872 E13.8964
G1 X93.510 Y103.127 E13.9353
G1 X93.331 Y102.368 E13.9741
G1 X93.201 Y101.600 E14.0130
G1 X93.122 Y100.825 E14.0519
G1 X93.093 Y100.046 E14.0908
G1 X93.116 Y99.268 E14.1296
G1 X93.189 Y98.492 E14.1685
G1 X93.313 Y97.722 E14.2074
G1 X93.487 Y96.963 E14.2463
G1 X93.711 Y96.216 E14.2852
G1 X93.982 Y95.486 E14.3240
G1 X94.301 Y94.775 E14.3629
G1 X94.666 Y94.086 E14.4018
G1 X95.075 Y93.423 E14.4407
G1 X95.526 Y92.788 E14.4795
G1 X96.017 Y92.184 E14.5184
G1 X96.548 Y91.613 E14.5573
G1 X97.115 Y91.078 E14.5961
G1 X97.715 Y90.582 E14.6350
G1 X98.346 Y90.125 E14.6739
G1 X99.006 Y89.711 E14.7127
G1 X99.693 Y89.342 E14.7516
G1 X100.400 Y89.017 E14.7905
G1 X101.128 Y88.740 E14.8293
G1 X101.873 Y88.510 E14.8682
G1 X102.632 Y88.331 E14.9071
G1 X103.400 Y88.201 E14.9460
G1 X104.175 Y88.122 E14.9849
G1 X104.954 Y88.093 E15.0237
G1 X105.732 Y88.115 E15.0626
G1 X106.509 Y88.189 E15.1015
G1 X107.278 Y88.313 E15.1404
G1 X108.037 Y88.487 E15.1792
G1 X108.784 Y88.711 E15.2181
G1 X109.515 Y88.982 E15.2570
G1 X110.225 Y89.301 E15.2958
G1 X110.914 Y89.666 E15.3347
G1 X111.577 Y90.075 E15.3736
G1 X112.212 Y90.525 E15.4124
G1 X112.816 Y91.017 E15.4513
G1 X113.387 Y91.548 E15.4902
G1 X113.922 Y92.115 E15.5291
G1 X114.418 Y92.715 E15.5680
G1 X114.875 Y93.346 E15.6068
G1 X115.289 Y94.006 E15.6457
G1 X115.658 Y94.693 E15.6846
G1 X115.983 Y95.400 E15.7234
G1 X116.260 Y96.128 E15.7623
G1 X116.490 Y96.873 E15.8012
G1 X116.669 Y97.632 E15.8400
G1 X116.799 Y98.400 E15.8789
G1 X116.878 Y99.175 E15.9178
G1 X116.907 Y99.954 E15.9567
G1 X116.885 Y100.732 E15.9955
G1 X116.811 Y101.509 E16.0344
G1 X116.687 Y102.278 E16.0733
G1 X116.513 Y103.037 E16.1122
G1 X116.289 Y103.784 E16.1511
G1 X116.018 Y104.514 E16.1899
G1 X115.699 Y105.225 E16.2288
G1 X115.334 Y105.914 E16.2677
G1 X114.926 Y106.577 E16.3066
G1 X114.475 Y107.212 E16.3454
G1 X113.983 Y107.816 E16.3843
G1 X113.452 Y108.387 E16.4232
G1 X112.885 Y108.922 E16.4620
G1 X112.285 Y109.418 E16.5009
G1 X111.654 Y109.875 E16.5398
G1 X110.994 Y110.289 E16.5786
G1 X110.307 Y110.658 E16.6175
G1 X109.600 Y110.983 E16.6564
G1 X108.872 Y111.260 E16.6952
G1 X108.127 Y111.490 E16.7341
G1 X107.368 Y111.669 E16.7730
G1 X106.600 Y111.799 E16.8119
G1 X105.825 Y111.878 E16.8508
G1 X105.046 Y111.907 E16.8896
G1 X104.268 Y111.884 E16.9285
G1 X103.492 Y111.811 E16.9674
G1 X103.362 Y111.791 E16.9739
;segType:Perimeter
G1 X104.705 Y111.994 F10800
G1 X104.234 Y111.479 E17.0087 F2159
G1 X103.542 Y111.415 E17.0434
G1 X102.799 Y111.294 E17.0810
G1 X102.065 Y111.126 E17.1185
G1 X101.343 Y110.910 E17.1561
G1 X100.638 Y110.648 E17.1937
G1 X99.951 Y110.340 E17.2312
G1 X99.285 Y109.987 E17.2688
G1 X98.644 Y109.592 E17.3064
G1 X98.031 Y109.156 E17.3439
G1 X97.446 Y108.681 E17.3815
G1 X96.895 Y108.168 E17.4191
G1 X96.378 Y107.621 E17.4566
G1 X95.898 Y107.040 E17.4942
G1 X95.457 Y106.430 E17.5317
G1 X95.057 Y105.792 E17.5693
G1 X94.700 Y105.129 E17.6069
G1 X94.386 Y104.445 E17.6444
G1 X94.119 Y103.742 E17.6820
G1 X93.897 Y103.022 E17.7196
G1 X93.723 Y102.289 E17.7571
G1 X93.597 Y101.546 E17.7947
G1 X93.521 Y100.797 E17.8323
G1 X93.494 Y100.045 E17.8699
G1 X93.515 Y99.292 E17.9074
G1 X93.585 Y98.542 E17.9450
G1 X93.706 Y97.799 E17.9826
G1 X93.874 Y97.065 E18.0201
G1 X94.090 Y96.343 E18.0577
G1 X94.352 Y95.638 E18.0953
G1 X94.660 Y94.951 E18.1328
G1 X95.013 Y94.285 E18.1704
G1 X95.408 Y93.644 E18.2080
G1 X95.844 Y93.031 E18.2455
G1 X96.319 Y92.447 E18.2831
G1 X96.832 Y91.895 E18.3207
G1 X97.379 Y91.378 E18.3582
G1 X97.960 Y90.898 E18.3958
G1 X98.570 Y90.457 E18.4333
G1 X99.208 Y90.057 E18.4709
G1 X99.871 Y89.700 E18.5085
G1 X100.555 Y89.386 E18.5460
G1 X101.259 Y89.119 E18.5836
G1 X101.978 Y88.897 E18.6212
G1 X102.711 Y88.723 E18.6587
G1 X103.454 Y88.597 E18.6963
G1 X104.203 Y88.521 E18.7339
G1 X104.955 Y88.494 E18.7715
G1 X105.708 Y88.515 E18.8090
G1 X106.458 Y88.585 E18.8466
G1 X107.201 Y88.706 E18.8842
G1 X107.935 Y88.874 E18.9217
G1 X108.657 Y89.090 E18.9593
G1 X109.363 Y89.352 E18.9969
G1 X110.049 Y89.661 E19.0344
G1 X110.715 Y90.013 E19.0720
G1 X111.356 Y90.408 E19.1096
G1 X111.969 Y90.844 E19.1471
G1 X112.554 Y91.319 E19.1847
G1 X113.105 Y91.832 E19.2223
G1 X113.622 Y92.380 E19.2598
G1 X114.102 Y92.960 E19.2974
G1 X114.543 Y93.570 E19.3349
G1 X114.943 Y94.208 E19.3725
G1 X115.300 Y94.871 E19.4101
G1 X115.614 Y95.555 E19.4476
G1 X115.881 Y96.258 E19.4852
G1 X116.103 Y96.979 E19.5228
G1 X116.277 Y97.711 E19.5603
G1 X116.403 Y98.454 E19.5979
G1 X116.479 Y99.203 E19.6355
G1 X116.506 Y99.955 E19.6730
G1 X116.485 Y100.708 E19.7106
G1 X116.415 Y101.458 E19.7482
G1 X116.294 Y102.201 E19.7858
G1 X116.126 Y102.935 E19.8233
G1 X115.910 Y103.657 E19.8609
G1 X115.648 Y104.362 E19.8985
G1 X115.339 Y105.049 E19.9360
G1 X114.987 Y105.715 E19.9736
G1 X114.592 Y106.356 E20.0112
G1 X114.156 Y106.969 E20.0487
G1 X113.681 Y107.554 E20.0863
G1 X113.168 Y108.105 E20.1239
G1 X112.621 Y108.622 E20.1614
G1 X112.040 Y109.102 E20.1990
G1 X111.430 Y109.543 E20.2365
G1 X110.792 Y109.943 E20.2741
G1 X110.129 Y110.300 E20.3117
G1 X109.445 Y110.614 E20.3492
G1 X108.741 Y110.881 E20.3868
G1 X108.021 Y111.103 E20.4244
G1 X107.289 Y111.277 E20.4619
G1 X106.546 Y111.403 E20.4995
G1 X105.797 Y111.479 E20.5371
G1 X105.045 Y111.506 E20.5746
G1 X104.350 Y111.486 E20.6093
G1 X103.821 Y111.940
G1 F4800 E19.6093
G1 X102.705 Y111.471 F10800
G1 X100.564 Y110.827
G1 X98.537 Y109.753
G1 X96.758 Y108.306
G1 X95.297 Y106.538
G1 X94.208 Y104.520
G1 X93.533 Y102.327
G1 X93.300 Y100.045
G1 X93.516 Y97.762
G1 X94.173 Y95.564
G1 X95.669 Y92.295
G1 F4800 E20.6093
;segType:HShell
G1 X95.378 Y92.004 E20.6299 F3600
G1 X95.516 Y91.594 E20.6514
G1 X95.918 Y91.997 E20.6798
G1 X96.182 Y91.713 E20.6991
G1 X95.776 Y91.306 E20.7278
G1 X96.043 Y91.026 E20.7471
G1 X96.449 Y91.432 E20.7757
G1 X96.730 Y91.166 E20.7950
G1 X96.323 Y90.758 E20.8238
G1 X96.610 Y90.498 E20.8431
G1 X97.014 Y90.902 E20.8716
G1 X97.314 Y90.654 E20.8910
G1 X97.026 Y90.365 E20.9114
G1 X97.461 Y90.254 E20.9338
G1 X97.615 Y90.407 E20.9447
G1 X97.933 Y90.177 E20.9642
G1 X97.857 Y90.102 E20.9696
G1 X94.845 Y94.189 F10800
G1 X93.906 Y96.281
G1 X93.393 Y98.518
G1 X93.328 Y100.810
G1 X93.710 Y103.072
G1 X94.527 Y105.215
G1 X95.745 Y107.159
G1 X97.685 Y109.646
G1 X97.997 Y109.958 E20.9916 F3600
G1 X95.049 Y107.010 F10800
G1 X95.365 Y107.326 E21.0139 F3600
G1 X97.146 Y109.654 F10800
G1 X95.333 Y107.841 E21.1418 F3600
G1 X99.866 Y110.514 F10800
G1 X102.015 Y111.314
G1 X104.280 Y111.678
G1 X106.572 Y111.595
G1 X108.804 Y111.064
G1 X112.167 Y109.889
G1 X112.087 Y109.808 E21.1475 F3600
G1 X112.405 Y109.578 E21.1670
G1 X112.563 Y109.737 E21.1782
G1 X113.002 Y109.628 E21.2008
G1 X112.705 Y109.331 E21.2217
G1 X113.005 Y109.083 E21.2411
G1 X113.409 Y109.488 E21.2697
G1 X113.694 Y109.225 E21.2890
G1 X113.287 Y108.818 E21.3178
G1 X113.569 Y108.552 E21.3371
G1 X113.973 Y108.956 E21.3656
G1 X114.241 Y108.676 E21.3849
G1 X113.834 Y108.270 E21.4136
G1 X114.098 Y107.986 E21.4329
G1 X114.499 Y108.387 E21.4612
G1 X114.629 Y107.968 E21.4831
G1 X114.346 Y107.686 E21.5030
G1 X114.592 Y107.384 E21.5224
G1 X114.750 Y107.542 E21.5335
G1 X114.897 Y107.142 E21.5548
G1 X114.823 Y107.067 E21.5601
G1 X116.314 Y102.985 F10800
G1 X116.678 Y100.720
G1 X116.595 Y98.428
G1 X116.064 Y96.195
G1 X115.110 Y94.110
G1 X112.898 Y90.356
G1 X114.656 Y92.114 E21.6841 F3600
G1 X114.927 Y92.932 E21.7271
G1 X114.525 Y92.530 E21.7555
G1 X112.485 Y90.490 F10800
G1 X112.064 Y90.068 E21.7853 F3600
G1 F4800 E20.7853
G1 X107.313 Y88.136 F10800
G1 X102.596 Y88.154
G1 X98.245 Y89.976
G1 X79.888 Y101.800
G1 F4800 E21.7853
;segType:SoftSupport
G1 X73.979 Y101.800 E21.9179 F5400
;segType:Support
G1 F4800 E20.9179
G1 X72.600 Y94.600 F10800
G1 F4800 E21.9179
G1 X78.000 Y94.600 E22.1469 F5400
G1 F4800 E21.1469
G1 X79.648 Y99.739 F10800
G1 X79.888 Y101.800
G1 F4800 E22.1469
G1 X81.600 Y101.800 E22.2195 F5400
G1 F4800 E21.2195
G1 X96.538 Y110.338 F10800
G1 X101.517 Y112.326
G1 X103.994 Y112.770
G1 X128.400 Y114.400
G1 F4800 E22.2195
G1 X126.600 Y114.400 E22.2959 F5400
G1 F4800 E21.2959
G1 X103.161 Y112.677 F10800
G1 X100.710 Y112.067
G1 X96.303 Y110.264
G1 X94.200 Y109.000
G1 F4800 E22.2959
G1 X94.207 Y109.000 E22.2962 F5400
G1 F4800 E21.2962
G1 X96.538 Y110.338 F10800
G1 X101.517 Y112.326
G1 X103.994 Y112.770
G1 X106.506 Y112.721
G1 X108.971 Y112.176
G1 X113.944 Y110.079
G1 X130.226 Y98.226
G1 F4800 E22.2962
;segType:SoftSupport
G1 X132.082 Y98.258 E22.3378 F5400
G1 X130.200 Y96.400 E22.3972
;segType:Support
G1 X135.600 Y96.400 E22.6262 F5400
G1 X134.698 Y98.303 E22.7155
;segType:SoftSupport
G1 X135.484 Y98.316 E22.7331 F5400
;segType:Support
G1 F4800 E21.7331
G1 X135.600 Y92.800 F10800
G1 F4800 E22.7331
G1 X130.200 Y92.800 E22.9621 F5400
G1 X130.200 Y94.600 E23.0385
G1 X135.600 Y94.600 E23.2675
G1 F4800 E22.2675
G1 X132.627 Y98.090 F10800
G1 X131.141 Y99.835
G1 F4800 E23.2675
;segType:HShell
G1 X131.639 Y100.333 E23.3026 F3600
G1 X132.198 Y100.344 E23.3305
G1 X131.524 Y99.671 E23.3780
G1 X132.060 Y99.658 E23.4048
G1 X132.756 Y100.355 E23.4539
G1 X133.303 Y100.355 E23.4812
G1 X132.597 Y99.648 E23.5311
G1 X133.142 Y99.645 E23.5583
G1 X133.842 Y100.346 E23.6077
G1 X134.363 Y100.319 E23.6337
G1 X133.696 Y99.652 E23.6807
G1 X134.267 Y99.675 E23.7093
G1 X134.839 Y100.247 E23.7496
;segType:Loop
G1 X134.258 Y100.526 F10800
G1 X133.990 Y100.543 E23.7630 F3600
G1 X133.371 Y100.555 E23.7939
G1 X132.722 Y100.555 E23.8263
G1 X131.526 Y100.531 E23.8860
G1 X130.979 Y100.467 E23.9134
G1 X130.950 Y100.341 E23.9199
G1 X130.931 Y100.000 E23.9369
G1 X130.950 Y99.659 E23.9539
G1 X130.979 Y99.532 E23.9604
G1 X131.525 Y99.469 E23.9878
G1 X132.722 Y99.445 E24.0476
G1 X133.370 Y99.445 E24.0799
G1 X133.990 Y99.457 E24.1108
G1 X134.527 Y99.491 E24.1377
G1 X134.910 Y99.558 E24.1571
G1 X135.018 Y99.606 E24.1630
G1 X135.086 Y99.747 E24.1708
G1 X135.107 Y100.000 E24.1834
G1 X135.086 Y100.253 E24.1961
G1 X135.018 Y100.394 E24.2039
G1 X134.910 Y100.442 E24.2098
G1 X134.527 Y100.509 E24.2292
G1 X134.451 Y100.514 E24.2330
G1 F4800 E23.2330
G1 X135.151 Y100.035 F10800
G1 F4800 E24.2330
;segType:Perimeter
G1 X135.261 Y100.724 E24.2678 F2159
G1 X135.027 Y100.827 E24.2805
G1 X134.574 Y100.907 E24.3035
G1 X134.007 Y100.943 E24.3318
G1 X133.374 Y100.955 E24.3634
G1 X132.718 Y100.955 E24.3961
G1 X131.504 Y100.931 E24.4567
G1 X131.038 Y100.890 E24.4800
G1 X130.748 Y100.826 E24.4948
G1 X130.631 Y100.737 E24.5022
G1 X130.553 Y100.397 E24.5196
G1 X130.531 Y100.000 E24.5394
G1 X130.553 Y99.603 E24.5593
G1 X130.631 Y99.263 E24.5767
G1 X130.748 Y99.174 E24.5840
G1 X131.038 Y99.110 E24.5988
G1 X131.504 Y99.069 E24.6222
G1 X132.718 Y99.045 E24.6828
G1 X133.374 Y99.045 E24.7155
G1 X134.007 Y99.057 E24.7470
G1 X134.574 Y99.093 E24.7754
G1 X135.027 Y99.173 E24.7983
G1 X135.314 Y99.300 E24.8140
G1 X135.478 Y99.639 E24.8328
G1 X135.509 Y100.000 E24.8509
G1 X135.478 Y100.361 E24.8689
G1 X135.339 Y100.648 E24.8849
G1 X134.655 Y100.515
;segType:Support
G1 F4800 E23.8849
G1 X135.600 Y91.000 F10800
G1 F4800 E24.8849
G1 X130.200 Y91.000 E25.1139 F5400
G1 F4800 E24.1139
G1 X132.000 Y85.600 F10800
G1 F4800 E25.1139
G1 X126.600 Y85.600 E25.3429 F5400
G1 X126.600 Y83.800 E25.4192
G1 X132.000 Y83.800 E25.6482
G1 F4800 E24.6482
G1 X124.800 Y74.800 F10800
G1 F4800 E25.6482
G1 X119.400 Y74.800 E25.8772 F5400
G1 F4800 E24.8772
G1 X124.800 Y73.000 F10800
G1 F4800 E25.8772
G1 X119.400 Y73.000 E26.1062 F5400
G1 F4800 E25.1062
G1 X114.000 Y69.400 F10800
G1 F4800 E26.1062
G1 X107.881 Y69.497 E26.3657 F5400
G1 X106.508 Y69.510 E26.4239
;segType:SoftSupport
G1 X106.684 Y69.516 E26.4279 F5400
G1 X107.881 Y69.497 E26.4548
G1 F4800 E25.4548
G1 X108.002 Y73.000 F10800
G1 F4800 E26.4548
G1 X106.743 Y73.000 E26.4830 F5400
G1 X106.439 Y74.800 E26.5240
G1 X107.269 Y74.800 E26.5426
;segType:Support
G1 F4800 E25.5426
G1 X114.000 Y74.800 F10800
G1 F4800 E26.5426
G1 X107.269 Y74.800 E26.8281 F5400
G1 F4800 E25.8281
G1 X104.397 Y74.611 F10800
G1 X104.066 Y74.451
G1 X103.257 Y73.000
G1 F4800 E26.8281
;segType:SoftSupport
G1 X101.994 Y73.000 E26.8565 F5400
;segType:Support
G1 F4800 E25.8564
G1 X97.800 Y73.000 F10800
G1 F4800 E26.8565
G1 X101.994 Y73.000 E27.0343 F5400
G1 X102.692 Y74.800 E27.1162
G1 X97.800 Y74.800 E27.3236
;segType:SoftSupport
G1 F4800 E26.3236
G1 X102.692 Y74.800 F10800
G1 F4800 E27.3236
G1 X103.561 Y74.800 E27.3431 F5400
;segType:Support
G1 F4800 E26.3431
G1 X112.200 Y87.400 F10800
G1 F4800 E27.3431
G1 X117.600 Y87.400 E27.5721 F5400
G1 F4800 E26.5721
G1 X117.770 Y101.006 F10800
G1 X117.326 Y103.483
G1 X115.264 Y108.697
G1 X102.743 Y125.197
G1 F4800 E27.5721
;segType:SoftSupport
G1 X103.565 Y125.196 E27.5906 F5400
G1 X103.257 Y127.029 E27.6323
G1 X103.174 Y127.026 E27.6342
G1 X101.992 Y127.020 E27.6607
;segType:Support
G1 F4800 E26.6607
G1 X76.200 Y116.200 F10800
G1 F4800 E27.6607
G1 X88.800 Y116.200 E28.1950 F5400
G1 X88.800 Y118.000 E28.2714
G1 X76.200 Y118.000 E28.8057
G1 F4800 E27.8057
G1 X72.600 Y96.400 F10800
G1 F4800 E28.8057
G1 X78.000 Y96.400 E29.0347 F5400
G1 F4800 E28.0347
G1 X72.600 Y91.000 F10800
G1 F4800 E29.0347
G1 X78.000 Y91.000 E29.2637 F5400
G1 F4800 E28.2637
G1 X72.600 Y98.200 F10800
G1 F4800 E29.2637
G1 X73.979 Y98.200 E29.3221 F5400
G1 F4800 E28.3221
G1 X74.435 Y100.681 F10800
G1 X78.000 Y107.200
G1 F4800 E29.3221
G1 X72.600 Y107.200 E29.5511 F5400
G1 F4800 E28.5511
G1 X78.000 Y105.400 F10800
G1 F4800 E29.5511
G1 X72.600 Y105.400 E29.7801 F5400
G1 F4800 E28.7801
G1 X79.800 Y121.600 F10800
G1 F4800 E29.7801
G1 X88.800 Y121.600 E30.1618 F5400
G1 F4800 E29.1618
G1 X97.800 Y130.600 F10800
G1 F4800 E30.1618
G1 X102.160 Y130.600 E30.3467 F5400
G1 F4800 E29.3467
G1 X105.418 Y130.666 F10800
G1 X119.400 Y123.400
G1 F4800 E30.3467
G1 X124.800 Y123.400 E30.5757 F5400
G1 F4800 E29.5757
G1 X114.000 Y132.400 F10800
G1 F4800 E30.5757
G1 X106.684 Y132.284 E30.8860 F5400
G1 X103.200 Y132.400 E31.0338
G1 X97.800 Y132.400 E31.2628
G1 F4800 E30.2628
G1 X97.800 Y127.000 F10800
G1 F4800 E31.2628
G1 X101.992 Y127.020 E31.4406 F5400
G1 X102.743 Y125.197 E31.5242
G1 X101.400 Y125.200 E31.5812
G1 F4800 E30.5812
G1 X119.400 Y118.000 F10800
G1 F4800 E31.5812
G1 X132.000 Y118.000 E32.1155 F5400
G1 F4800 E31.1155
G1 X114.000 Y127.000 F10800
G1 F4800 E32.1155
G1 X108.008 Y127.124 E32.3696 F5400
G1 F4800 E31.3696
G1 X121.200 Y114.400 F10800
G1 F4800 E32.3696
G1 X115.800 Y114.400 E32.5986 F5400
G1 F4800 E31.5986
G1 X119.400 Y119.800 F10800
G1 F4800 E32.5986
G1 X128.400 Y119.800 E32.9803 F5400
G1 F4800 E31.9803
G1 X117.600 Y110.800 F10800
G1 F4800 E32.9803
G1 X115.800 Y110.800 E33.0566 F5400
G1 F4800 E32.0566
G1 X106.506 Y112.721 F10800
G1 X103.994 Y112.770
G1 X101.517 Y112.326
G1 X95.995 Y110.800
G1 F4800 E33.0566
G1 X94.200 Y110.800 E33.1327 F5400
G1 F4800 E32.1327
G1 X106.790 Y123.410 F10800
G1 F4800 E33.1327
G1 X101.400 Y123.400 E33.3613 F5400
G1 F4800 E32.3613
G1 X94.726 Y108.675 F10800
G1 X92.585 Y103.154
G1 X92.208 Y100.671
G1 X92.323 Y98.162
G1 X92.933 Y95.710
G1 X94.736 Y91.302
G1 X108.002 Y73.000
G1 F4800 E33.3613
G1 X114.000 Y73.000 E33.6156 F5400
G1 F4800 E32.6156
G1 X115.800 Y91.000 F10800
G1 F4800 E33.6156
G1 X117.600 Y91.000 E33.6920 F5400
G1 F4800 E32.6920
G1 X108.483 Y87.674 F10800
G1 X106.006 Y87.230
G1 X103.494 Y87.279
G1 X101.029 Y87.824
G1 X96.056 Y89.921
G1 X81.600 Y100.000
G1 F4800 E33.6920
G1 X80.255 Y100.000 E33.7490 F5400
G1 F4800 E32.7490
G1 X79.800 Y80.200 F10800
G1 F4800 E33.7490
G1 X88.800 Y80.200 E34.1307 F5400
G1 F4800 E33.1307
G1 X92.400 Y78.400 F10800
G1 F4800 E34.1307
G1 X83.400 Y78.400 E34.5123 F5400
G1 F4800 E33.5123
G1 X79.800 Y82.000 F10800
G1 F4800 E34.5123
G1 X88.800 Y82.000 E34.8940 F5400
G1 F4800 E33.8940
G1 X87.000 Y73.000 F10800
G1 F4800 E34.8940
G1 X88.800 Y73.000 E34.9703 F5400
G1 X88.800 Y74.800 E35.0467
G1 X87.000 Y74.800 E35.1230
G1 F4800 E34.1230
G1 X76.200 Y85.600 F10800
G1 F4800 E35.1230
G1 X92.400 Y85.600 E35.8100 F5400
G1 F4800 E34.8100
G1 X75.769 Y98.400 F10800
G1 X73.691 Y100.000
G1 F4800 E35.8100
G1 X72.600 Y100.000 E35.8562 F5400
G1 F4800 E34.8562
G1 X78.000 Y92.800 F10800
G1 F4800 E35.8562
G1 X72.600 Y92.800 E36.0852 F5400
G1 F4800 E35.0852
G1 X76.200 Y83.800 F10800
G1 F4800 E36.0852
G1 X92.400 Y83.800 E36.7722 F5400
G1 F4800 E35.7722
G1 X94.079 Y89.200 F10800
G1 X94.919 Y91.900
G1 X95.758 Y94.600
G1 F4800 E36.7722
G1 X96.000 Y94.600 E36.7825 F5400
G1 F4800 E35.7825
G1 X98.400 Y89.800 F10800
G1 X99.600 Y87.400
G1 F4800 E36.7825
G1 X90.600 Y87.400 E37.1641 F5400
G1 F4800 E36.1641
G1 X94.650 Y94.150 F10800
G1 X96.000 Y96.400
G1 F4800 E37.1641
G1 X94.922 Y96.400 E37.2098 F5400
G1 F4800 E36.2098
G1 X89.593 Y97.120 F10800
G1 X81.600 Y98.200
G1 F4800 E37.2098
G1 X79.888 Y98.200 E37.2824 F5400
G1 X79.888 Y98.200
;segType:SoftSupport
G1 X73.979 Y98.200 E37.4151 F5400
;segType:Support
G1 F4800 E36.4151
G1 X72.600 Y101.800 F10800
G1 F4800 E37.4151
G1 X73.979 Y101.800 E37.4736 F5400
G1 F4800 E36.4736
G1 X88.800 Y123.400 F10800
G1 F4800 E37.4736
G1 X83.400 Y123.400 E37.7026 F5400
G1 F4800 E36.7026
G1 X87.000 Y128.800 F10800
G1 F4800 E37.7026
G1 X88.800 Y128.800 E37.7789 F5400
G1 F4800 E36.7789
G1 X114.467 Y109.589 F10800
G1 X115.338 Y108.461
G1 X117.326 Y103.483
G1 X117.770 Y101.006
G1 X119.400 Y76.600
G1 F4800 E37.7789
G1 X128.400 Y76.600 E38.1605 F5400
G1 F4800 E37.1605
G1 X123.000 Y80.200 F10800
G1 F4800 E38.1605
G1 X132.000 Y80.200 E38.5422 F5400
G1 F4800 E37.5422
G1 X119.400 Y78.400 F10800
G1 F4800 E38.5422
G1 X128.400 Y78.400 E38.9239 F5400
G1 F4800 E37.9239
G1 X132.000 Y82.000 F10800
G1 F4800 E38.9239
G1 X123.000 Y82.000 E39.3055 F5400
G1 F4800 E38.3055
G1 X119.400 Y83.800 F10800
G1 F4800 E39.3055
G1 X121.200 Y83.800 E39.3819 F5400
G1 X121.200 Y85.600 E39.4582
G1 X119.400 Y85.600 E39.5345
G1 F4800 E38.5345
G1 X116.407 Y92.800 F10800
G1 F4800 E39.5345
G1 X117.600 Y92.800 E39.5851 F5400
G1 F4800 E38.5851
G1 X114.004 Y89.200 F10800
G1 F4800 E39.5851
G1 X117.600 Y89.200 E39.7376 F5400
G1 F4800 E38.7376
G1 X117.770 Y101.006 F10800
G1 X117.326 Y103.483
G1 X115.264 Y108.697
G1 X113.675 Y110.274
G1 X108.155 Y112.415
G1 X105.671 Y112.792
G1 X90.600 Y112.600
G1 F4800 E39.7376
G1 X92.400 Y112.600 E39.8139 F5400
G1 F4800 E38.8139
G1 X88.800 Y119.800 F10800
G1 F4800 E39.8139
G1 X79.800 Y119.800 E40.1956 F5400
;segType:HShell
G1 F4800 E39.1956
G1 X105.328 Y126.599 F10800
G1 F4800 E40.1956
G1 X104.882 Y126.153 E40.2271 F3600
;segType:Loop
G1 X105.533 Y126.743 F10800
G1 X105.543 Y126.992 E40.2395 F3600
G1 X105.551 Y128.470 E40.3132
G1 X105.539 Y129.084 E40.3439
G1 X105.494 Y129.636 E40.3715
G1 X105.464 Y129.807 E40.3802
G1 X105.374 Y130.049 E40.3931
G1 X105.000 Y130.107 E40.4119
G1 X104.734 Y130.085 E40.4253
G1 X104.599 Y130.019 E40.4328
G1 X104.541 Y129.831 E40.4426
G1 X104.483 Y129.431 E40.4627
G1 X104.457 Y128.898 E40.4893
G1 X104.449 Y127.621 E40.5530
G1 X104.457 Y126.994 E40.5843
G1 X104.478 Y126.437 E40.6122
G1 X104.536 Y125.974 E40.6354
G1 X104.770 Y125.945 E40.6472
G1 X105.230 Y125.945 E40.6702
G1 X105.464 Y125.974 E40.6819
G1 X105.522 Y126.437 E40.7052
G1 X105.526 Y126.550 E40.7108
G1 F4800 E39.7108
G1 X105.120 Y125.848 F10800
G1 F4800 E40.7108
;segType:Perimeter
G1 X105.808 Y125.735 E40.7456 F2159
G1 X105.879 Y125.957 E40.7572
G1 X105.921 Y126.411 E40.7800
G1 X105.943 Y126.983 E40.8086
G1 X105.951 Y128.473 E40.8829
G1 X105.939 Y129.105 E40.9144
G1 X105.891 Y129.687 E40.9436
G1 X105.852 Y129.912 E40.9550
G1 X105.701 Y130.316 E40.9765
G1 X105.589 Y130.395 E40.9833
G1 X105.375 Y130.477 E40.9948
G1 X105.000 Y130.509 E41.0135
G1 X104.625 Y130.477 E41.0323
G1 X104.304 Y130.319 E41.0502
G1 X104.220 Y130.156 E41.0593
G1 X104.149 Y129.917 E41.0718
G1 X104.084 Y129.470 E41.0943
G1 X104.057 Y128.909 E41.1224
G1 X104.049 Y127.620 E41.1866
G1 X104.057 Y126.984 E41.2184
G1 X104.079 Y126.411 E41.2470
G1 X104.121 Y125.957 E41.2698
G1 X104.210 Y125.679 E41.2843
G1 X104.447 Y125.576 E41.2972
G1 X104.749 Y125.545 E41.3123
G1 X105.251 Y125.545 E41.3374
G1 X105.553 Y125.576 E41.3525
G1 X105.737 Y125.656 E41.3625
G1 X105.556 Y126.329
;segType:HShell
G1 X104.676 Y126.495 F10800
G1 X105.344 Y127.163 E41.4096 F3600
G1 X105.347 Y127.714 E41.4371
G1 X104.657 Y127.024 E41.4858
G1 X104.650 Y127.565 E41.5127
G1 X105.350 Y128.265 E41.5621
G1 X105.345 Y128.807 E41.5892
G1 X104.652 Y128.115 E41.6380
G1 X104.656 Y128.666 E41.6655
G1 X105.314 Y129.324 E41.7119
G1 X105.250 Y129.808 E41.7363
G1 X104.673 Y129.231 E41.7770
;segType:SoftSupport
G1 F4800 E40.7770
G1 X101.997 Y128.780 F10800
G1 F4800 E41.7770
G1 X103.174 Y128.774 E41.8034 F5400
G1 X103.257 Y128.771 E41.8053
G1 F4800 E40.8053
G1 X104.066 Y125.549 F10800
G1 X104.739 Y125.352
G1 X106.790 Y125.190
G1 F4800 E41.8053
G1 X106.430 Y125.190 E41.8133 F5400
;segType:Support
G1 F4800 E40.8133
G1 X117.600 Y109.000 F10800
G1 F4800 E41.8133
G1 X115.804 Y109.000 E41.8895 F5400
G1 F4800 E40.8895
G1 X115.800 Y112.600 F10800
G1 F4800 E41.8895
G1 X121.200 Y112.600 E42.1185 F5400
G1 F4800 E41.1185
G1 X119.400 Y116.200 F10800
G1 F4800 E42.1185
G1 X132.000 Y116.200 E42.6528 F5400
G1 F4800 E41.6528
G1 X128.400 Y112.600 F10800
G1 F4800 E42.6528
G1 X126.600 Y112.600 E42.7292 F5400
G1 F4800 E41.7292
G1 X130.200 Y107.200 F10800
G1 F4800 E42.7292
G1 X135.600 Y107.200 E42.9582 F5400
G1 F4800 E41.9582
G1 X135.600 Y103.600 F10800
G1 F4800 E42.9582
G1 X130.200 Y103.600 E43.1872 F5400
G1 X130.200 Y105.400 E43.2635
G1 X135.600 Y105.400 E43.4925
;segType:SoftSupport
G1 F4800 E42.4925
G1 X135.600 Y101.800 F10800
G1 F4800 E43.4925
G1 X130.200 Y101.800 E43.6137 F5400
;segType:Support
G1 F4800 E42.6137
G1 X117.600 Y105.400 F10800
G1 F4800 E43.6137
G1 X117.273 Y105.400 E43.6276 F5400
G1 X116.408 Y107.200 E43.7123
G1 X117.600 Y107.200 E43.7628
G1 F4800 E42.7628
G1 X115.350 Y107.650 F10800
G1 X113.100 Y108.100
G1 X108.600 Y109.000
G1 F4800 E43.7628
G1 X110.400 Y109.000 E43.8391 F5400
G1 F4800 E42.8391
G1 X112.320 Y88.840 F10800
G1 X114.000 Y71.200
G1 F4800 E43.8391
G1 X108.001 Y71.105 E44.0935 F5400
G1 X108.001 Y71.105
;segType:SoftSupport
G1 X106.743 Y71.085 E44.1218 F5400
;segType:HShell
G1 F4800 E43.1218
G1 X105.325 Y70.733 F10800
G1 F4800 E44.1218
G1 X104.759 Y70.167 E44.1617 F3600
G1 X104.680 Y70.636 E44.1854
G1 X105.344 Y71.300 E44.2323
G1 X105.348 Y71.851 E44.2598
G1 X104.657 Y71.160 E44.3086
G1 X104.649 Y71.701 E44.3355
G1 X105.351 Y72.402 E44.3850
G1 X105.343 Y72.942 E44.4120
G1 X104.653 Y72.252 E44.4607
G1 X104.656 Y72.803 E44.4882
G1 X105.325 Y73.472 E44.5354
;segType:Loop
G1 X104.535 Y74.026 F10800
G1 X104.535 Y74.026 F3600
G1 X104.478 Y73.563 E44.5586
G1 X104.457 Y73.008 E44.5864
G1 X104.449 Y71.725 E44.6504
G1 X104.457 Y71.104 E44.6814
G1 X104.483 Y70.569 E44.7081
G1 X104.539 Y70.186 E44.7274
G1 X104.626 Y69.951 E44.7399
G1 X105.000 Y69.893 E44.7588
G1 X105.267 Y69.915 E44.7721
G1 X105.407 Y69.993 E44.7801
G1 X105.459 Y70.169 E44.7893
G1 X105.517 Y70.569 E44.8095
G1 X105.543 Y71.102 E44.8361
G1 X105.551 Y72.379 E44.8998
G1 X105.543 Y73.006 E44.9311
G1 X105.522 Y73.563 E44.9589
G1 X105.464 Y74.026 E44.9822
G1 X105.230 Y74.055 E44.9940
G1 X104.770 Y74.055 E45.0169
G1 F4800 E44.0169
G1 X105.556 Y73.671 F10800
G1 F4800 E45.0169
;segType:Perimeter
G1 X105.737 Y74.344 E45.0517 F2159
G1 X105.553 Y74.423 E45.0617
G1 X105.251 Y74.455 E45.0768
G1 X104.749 Y74.455 E45.1018
G1 X104.447 Y74.423 E45.1170
G1 X104.210 Y74.321 E45.1299
G1 X104.121 Y74.043 E45.1444
G1 X104.079 Y73.589 E45.1672
G1 X104.057 Y73.017 E45.1958
G1 X104.049 Y71.724 E45.2603
G1 X104.057 Y71.092 E45.2918
G1 X104.084 Y70.530 E45.3198
G1 X104.149 Y70.085 E45.3423
G1 X104.299 Y69.684 E45.3637
G1 X104.411 Y69.605 E45.3705
G1 X104.625 Y69.523 E45.3819
G1 X105.000 Y69.491 E45.4007
G1 X105.375 Y69.523 E45.4195
G1 X105.697 Y69.681 E45.4374
G1 X105.780 Y69.844 E45.4465
G1 X105.851 Y70.083 E45.4589
G1 X105.916 Y70.530 E45.4815
G1 X105.943 Y71.091 E45.5095
G1 X105.951 Y72.380 E45.5738
G1 X105.943 Y73.016 E45.6055
G1 X105.921 Y73.589 E45.6342
G1 X105.879 Y74.043 E45.6569
G1 X105.808 Y74.265 E45.6685
G1 X105.120 Y74.152
G1 F4800 E44.6685
G1 X105.152 Y73.847 F10800
G1 F4800 E45.6685
;segType:HShell
G1 X104.671 Y73.365 E45.7025 F3600
; ------------------------------------
; Layer #2
; ------------------------------------
G21 ; mm
G90 ; abs
G92 E0 ; reset extr
M106 S255
G1 F4800 E-1.0000
G1 F300 Z1.000
G1 X102.803 Y72.190 F10800
G1 X100.935 Y71.015
G1 F4800 E0.0000
;segType:Support
G1 X99.600 Y71.200 E0.0571 F5400
G1 X97.800 Y71.200 E0.1335
G1 F4800 E-0.8665
G1 X76.200 Y83.800 F10800
G1 F4800 E0.1335
G1 X92.400 Y83.800 E0.8205 F5400
G1 F4800 E-0.1795
G1 X88.800 Y74.800 F10800
G1 F4800 E0.8205
G1 X87.000 Y74.800 E0.8968 F5400
G1 F4800 E-0.1032
G1 X83.400 Y76.600 F10800
G1 F4800 E0.8968
G1 X92.400 Y76.600 E1.2785 F5400
G1 F4800 E0.2785
G1 X99.600 Y87.400 F10800
G1 F4800 E1.2785
G1 X90.600 Y87.400 E1.6601 F5400
G1 F4800 E0.6601
G1 X83.400 Y78.400 F10800
G1 F4800 E1.6601
G1 X92.400 Y78.400 E2.0418 F5400
;segType:SoftSupport
G1 F4800 E1.0418
G1 X101.502 Y74.640 F10800
G1 F4800 E2.0418
G1 X101.090 Y74.657 E2.0510 F5400
;segType:Support
G1 F4800 E1.0510
G1 X88.800 Y73.000 F10800
G1 F4800 E2.0510
G1 X87.000 Y73.000 E2.1274 F5400
;segType:SoftSupport
G1 F4800 E1.1274
G1 X101.397 Y73.156 F10800
G1 F4800 E2.1274
G1 X100.934 Y73.136 E2.1378 F5400
;segType:Support
G1 F4800 E1.1378
G1 X81.416 Y98.384 F10800
G1 F4800 E2.1378
G1 X80.523 Y98.418 E2.1757 F5400
G1 X80.617 Y99.786 E2.2338
G1 X81.416 Y99.816 E2.2677
G1 F4800 E1.2677
G1 X95.303 Y110.800 F10800
G1 F4800 E2.2677
G1 X94.200 Y110.800 E2.3145 F5400
G1 F4800 E1.3145
G1 X88.800 Y118.000 F10800
G1 F4800 E2.3145
G1 X76.200 Y118.000 E2.8489 F5400
G1 F4800 E1.8489
G1 X92.400 Y112.600 F10800
G1 F4800 E2.8489
G1 X90.600 Y112.600 E2.9252 F5400
G1 X90.600 Y114.400 E3.0015
G1 X92.400 Y114.400 E3.0779
G1 F4800 E2.0779
G1 X87.000 Y128.800 F10800
G1 F4800 E3.0779
G1 X88.800 Y128.800 E3.1542 F5400
G1 F4800 E2.1542
G1 X97.800 Y130.600 F10800
G1 F4800 E3.1542
G1 X101.055 Y130.600 E3.2922 F5400
G1 F4800 E2.2922
G1 X104.584 Y131.152 F10800
G1 X107.225 Y130.939
G1 X107.850 Y130.568
G1 X109.066 Y128.800
G1 F4800 E3.2922
G1 X114.000 Y128.800 E3.5015 F5400
G1 F4800 E2.5015
G1 X107.537 Y125.255 F10800
G1 X88.800 Y119.800
G1 F4800 E3.5015
G1 X79.800 Y119.800 E3.8831 F5400
G1 F4800 E2.8831
G1 X76.200 Y116.200 F10800
G1 F4800 E3.8831
G1 X88.800 Y116.200 E4.4174 F5400
G1 F4800 E3.4174
G1 X88.800 Y125.200 F10800
G1 F4800 E4.4174
G1 X83.400 Y125.200 E4.6464 F5400
G1 F4800 E3.6464
G1 X88.800 Y123.400 F10800
G1 F4800 E4.6464
G1 X83.400 Y123.400 E4.8754 F5400
G1 F4800 E3.8754
G1 X87.000 Y127.000 F10800
G1 F4800 E4.8754
G1 X88.800 Y127.000 E4.9518 F5400
G1 F4800 E3.9518
G1 X97.800 Y127.000 F10800
G1 F4800 E4.9518
G1 X99.600 Y127.000 E5.0281 F5400
G1 X100.931 Y127.204 E5.0852
G1 F4800 E4.0852
G1 X101.584 Y123.584 F10800
G1 F4800 E5.0852
G1 X106.490 Y123.710 E5.2933 F5400
;segType:HShell
G1 F4800 E4.2933
G1 X106.981 Y125.951 F10800
G1 F4800 E5.2933
G1 X102.852 Y130.080 E5.5846 F3600
G1 X102.809 Y129.575 E5.6099
G1 X106.507 Y125.877 E5.8708
;segType:Perimeter
G1 X107.047 Y125.700 F10800
G1 X107.739 Y125.617 E5.9056 F2159
G1 X107.764 Y125.700 E5.9099
G1 X107.788 Y126.031 E5.9264
G1 X107.808 Y127.111 E5.9803
G1 X107.809 Y128.340 E6.0417
G1 X107.792 Y129.571 E6.1031
G1 X107.767 Y130.057 E6.1274
G1 X107.674 Y130.489 E6.1494
G1 X107.591 Y130.601 E6.1563
G1 X107.425 Y130.687 E6.1657
G1 X107.183 Y130.750 E6.1782
G1 X106.689 Y130.841 E6.2032
G1 X106.219 Y130.902 E6.2269
G1 X105.410 Y130.958 E6.2673
G1 X104.590 Y130.958 E6.3082
G1 X103.781 Y130.902 E6.3487
G1 X103.311 Y130.841 E6.3723
G1 X102.817 Y130.750 E6.3974
G1 X102.575 Y130.687 E6.4099
G1 X102.409 Y130.601 E6.4192
G1 X102.326 Y130.489 E6.4261
G1 X102.233 Y130.057 E6.4482
G1 X102.208 Y129.571 E6.4724
G1 X102.191 Y128.340 E6.5339
G1 X102.192 Y127.046 E6.5984
G1 X102.213 Y126.010 E6.6501
G1 X102.257 Y125.607 E6.6704
G1 X102.425 Y125.467 E6.6813
G1 X103.090 Y125.330 E6.7151
G1 X103.769 Y125.240 E6.7493
G1 X104.496 Y125.190 E6.7857
G1 X105.272 Y125.183 E6.8244
G1 X105.818 Y125.205 E6.8516
G1 X106.575 Y125.281 E6.8896
G1 X107.062 Y125.354 E6.9142
G1 X107.474 Y125.438 E6.9352
G1 X107.671 Y125.536 E6.9461
G1 X107.470 Y126.203
;segType:Loop
G1 X107.399 Y126.627 F10800
G1 X107.408 Y127.115 E6.9705 F3600
G1 X107.409 Y128.338 E7.0314
G1 X107.392 Y129.558 E7.0923
G1 X107.369 Y130.004 E7.1146
G1 X107.280 Y130.311 E7.1306
G1 X106.627 Y130.446 E7.1639
G1 X106.179 Y130.504 E7.1864
G1 X105.396 Y130.558 E7.2256
G1 X104.604 Y130.558 E7.2651
G1 X103.821 Y130.504 E7.3042
G1 X103.373 Y130.446 E7.3267
G1 X102.694 Y130.298 E7.3614
G1 X102.631 Y130.004 E7.3764
G1 X102.608 Y129.558 E7.3987
G1 X102.591 Y128.338 E7.4596
G1 X102.592 Y127.050 E7.5238
G1 X102.612 Y126.036 E7.5744
G1 X102.635 Y125.833 E7.5846
G1 X103.157 Y125.725 E7.6113
G1 X103.809 Y125.638 E7.6441
G1 X104.512 Y125.590 E7.6792
G1 X105.266 Y125.583 E7.7169
G1 X105.790 Y125.604 E7.7430
G1 X106.525 Y125.677 E7.7799
G1 X106.992 Y125.748 E7.8034
G1 X107.373 Y125.834 E7.8229
G1 X107.389 Y126.049 E7.8336
G1 X107.396 Y126.434 E7.8528
;segType:HShell
G1 X107.191 Y126.289 F10800
G1 X103.262 Y130.217 E8.1300 F3600
G1 X103.736 Y130.291 E8.1539
G1 X107.202 Y126.825 E8.3985
G1 X107.208 Y127.366 E8.4255
G1 X104.242 Y130.333 E8.6348
G1 X104.764 Y130.358 E8.6609
G1 X107.209 Y127.914 E8.8333
G1 X107.207 Y128.463 E8.8607
G1 X105.312 Y130.358 E8.9944
G1 X105.895 Y130.323 E9.0236
G1 X107.200 Y129.018 E9.1156
G1 X107.191 Y129.574 E9.1434
G1 X106.505 Y130.260 E9.1917
G1 X103.172 Y125.926 F10800
G1 X102.810 Y126.288 E9.2173 F3600
G1 X102.797 Y126.849 E9.2453
G1 X103.805 Y125.841 E9.3165
G1 X104.395 Y125.798 E9.3460
G1 X102.791 Y127.402 E9.4591
G1 X102.791 Y127.950 E9.4864
G1 X104.955 Y125.786 E9.6391
G1 X105.496 Y125.792 E9.6661
G1 X102.793 Y128.495 E9.8568
G1 X102.801 Y129.036 E9.8838
G1 X106.009 Y125.827 E10.1102
;segType:Support
G1 F4800 E9.1102
G1 X101.679 Y125.014 F10800
G1 F4800 E10.1102
G1 X101.584 Y125.016 E10.1142 F5400
G1 F4800 E9.1142
G1 X106.599 Y125.088 F10800
G1 X107.871 Y125.437
G1 X119.400 Y128.800
G1 F4800 E10.1142
G1 X121.200 Y128.800 E10.1905 F5400
G1 X121.200 Y127.000 E10.2668
G1 X119.400 Y127.000 E10.3432
G1 F4800 E9.3432
G1 X114.000 Y127.000 F10800
G1 F4800 E10.3432
G1 X109.067 Y127.000 E10.5524 F5400
G1 X109.067 Y127.000
;segType:SoftSupport
G1 X108.606 Y127.000 E10.5627 F5400
G1 F4800 E9.5627
G1 X107.871 Y125.437 F10800
G1 X106.599 Y125.088
G1 X103.749 Y125.048
G1 X102.342 Y125.293
G1 X100.931 Y127.204
G1 F4800 E10.5627
G1 X101.392 Y127.275 E10.5732 F5400
G1 X100.932 Y128.596 E10.6046
;segType:Support
G1 X99.600 Y128.800 E10.6617 F5400
G1 X97.800 Y128.800 E10.7380
G1 F4800 E9.7380
G1 X97.800 Y132.400 F10800
G1 F4800 E10.7380
G1 X103.200 Y132.400 E10.9670 F5400
G1 X105.416 Y131.984 E11.0627
G1 X106.384 Y131.984 E11.1037
G1 X108.600 Y132.400 E11.1993
G1 X114.000 Y132.400 E11.4283
G1 X114.000 Y130.600 E11.5047
G1 X108.948 Y130.600 E11.7189
G1 X108.948 Y130.600
;segType:SoftSupport
G1 X108.600 Y130.600 E11.7267 F5400
G1 X108.462 Y130.626 E11.7298
G1 X109.066 Y128.800 E11.7730
G1 X108.603 Y128.800 E11.7834
G1 F4800 E10.7834
G1 X107.717 Y130.748 F10800
G1 X106.238 Y131.095
G1 X103.281 Y131.033
G1 X101.532 Y130.600
G1 F4800 E11.7834
G1 X101.055 Y130.600 E11.7941 F5400
G1 X101.394 Y128.525 E11.8413
G1 X100.932 Y128.596 E11.8518
G1 F4800 E10.8518
G1 X98.276 Y111.260 F10800
G1 X97.897 Y108.783
G1 X96.000 Y96.400
G1 F4800 E11.8518
;segType:Support
G1 X95.164 Y96.400 E11.8873 F5400
G1 F4800 E10.8873
G1 X113.582 Y106.300 F10800
G1 X115.884 Y107.537
G1 X132.000 Y116.200
G1 F4800 E11.8873
G1 X119.400 Y116.200 E12.4216 F5400
G1 F4800 E11.4216
G1 X119.400 Y119.800 F10800
G1 F4800 E12.4216
G1 X128.400 Y119.800 E12.8033 F5400
G1 F4800 E11.8033
G1 X124.800 Y123.400 F10800
G1 F4800 E12.8033
G1 X119.400 Y123.400 E13.0323 F5400
G1 F4800 E12.0323
G1 X121.200 Y112.600 F10800
G1 F4800 E13.0323
G1 X115.800 Y112.600 E13.2612 F5400
G1 F4800 E12.2612
G1 X119.400 Y118.000 F10800
G1 F4800 E13.2612
G1 X132.000 Y118.000 E13.7956 F5400
G1 F4800 E12.7956
G1 X128.400 Y121.600 F10800
G1 F4800 E13.7956
G1 X119.400 Y121.600 E14.1772 F5400
G1 F4800 E13.1772
G1 X124.800 Y125.200 F10800
G1 F4800 E14.1772
G1 X119.400 Y125.200 E14.4062 F5400
G1 F4800 E13.4062
G1 X121.200 Y114.400 F10800
G1 F4800 E14.4062
G1 X115.800 Y114.400 E14.6352 F5400
G1 F4800 E13.6352
G1 X117.600 Y110.800 F10800
G1 F4800 E14.6352
G1 X115.800 Y110.800 E14.7116 F5400
G1 F4800 E13.7116
G1 X126.600 Y114.400 F10800
G1 F4800 E14.7116
G1 X128.400 Y114.400 E14.7879 F5400
G1 X128.400 Y112.600 E14.8642
G1 X126.600 Y112.600 E14.9405
G1 F4800 E13.9405
G1 X117.600 Y107.200 F10800
G1 F4800 E14.9405
G1 X116.627 Y107.200 E14.9818 F5400
G1 F4800 E13.9818
G1 X115.319 Y105.846 F10800
G1 X116.765 Y101.508
G1 X116.446 Y96.890
G1 X114.385 Y92.747
G1 X110.895 Y89.708
G1 X106.508 Y88.235
G1 X101.890 Y88.554
G1 X97.423 Y90.051
G1 F4800 E14.9818
;segType:HShell
G1 X95.052 Y92.423 E15.1491 F3600
;segType:Loop
G1 X95.138 Y91.054 F10800
G1 X95.243 Y90.933 E15.1571 F3600
G1 X95.707 Y90.460 E15.1901
G1 X96.079 Y90.109 E15.2157
G1 X96.147 Y90.066 E15.2197
G1 X96.801 Y90.004 E15.2525
G1 X97.039 Y89.959 E15.2645
G1 X97.492 Y89.821 E15.2881
G1 X98.250 Y89.488 E15.3295
G1 X99.506 Y88.876 E15.3992
G1 X100.213 Y88.549 E15.4380
G1 X100.937 Y88.266 E15.4768
G1 X101.698 Y88.028 E15.5166
G1 X102.482 Y87.838 E15.5568
G1 X103.282 Y87.699 E15.5974
G1 X104.091 Y87.613 E15.6379
G1 X104.903 Y87.580 E15.6785
G1 X105.715 Y87.600 E15.7190
G1 X106.525 Y87.673 E15.7596
G1 X107.328 Y87.800 E15.8001
G1 X108.125 Y87.980 E15.8409
G1 X108.914 Y88.215 E15.8820
G1 X109.706 Y88.514 E15.9242
G1 X110.303 Y88.784 E15.9569
G1 X111.478 Y89.359 E16.0222
G1 X112.268 Y89.726 E16.0656
G1 X112.699 Y89.887 E16.0886
G1 X113.342 Y90.028 E16.1214
G1 X113.873 Y90.080 E16.1480
G1 X113.979 Y90.162 E16.1547
G1 X114.417 Y90.583 E16.1850
G1 X114.838 Y91.021 E16.2153
G1 X114.920 Y91.127 E16.2220
G1 X114.972 Y91.658 E16.2487
G1 X115.113 Y92.301 E16.2815
G1 X115.274 Y92.732 E16.3044
G1 X115.641 Y93.522 E16.3479
G1 X116.216 Y94.697 E16.4131
G1 X116.486 Y95.294 E16.4459
G1 X116.785 Y96.086 E16.4881
G1 X117.020 Y96.875 E16.5292
G1 X117.200 Y97.672 E16.5699
G1 X117.327 Y98.475 E16.6105
G1 X117.400 Y99.285 E16.6511
G1 X117.420 Y100.097 E16.6916
G1 X117.387 Y100.909 E16.7321
G1 X117.301 Y101.718 E16.7727
G1 X117.162 Y102.518 E16.8133
G1 X116.972 Y103.302 E16.8535
G1 X116.734 Y104.063 E16.8933
G1 X116.451 Y104.787 E16.9320
G1 X116.124 Y105.494 E16.9709
G1 X115.512 Y106.750 E17.0406
G1 X115.179 Y107.508 E17.0820
G1 X115.039 Y107.969 E17.1060
G1 X114.958 Y108.480 E17.1318
G1 X114.925 Y108.873 E17.1514
G1 X114.757 Y109.067 E17.1643
G1 X114.293 Y109.540 E17.1973
G1 X113.921 Y109.891 E17.2228
G1 X113.852 Y109.934 E17.2269
G1 X113.199 Y109.996 E17.2596
G1 X112.961 Y110.041 E17.2717
G1 X112.515 Y110.176 E17.2949
G1 X112.111 Y110.342 E17.3167
G1 X111.218 Y110.768 E17.3661
G1 X110.493 Y111.125 E17.4064
G1 X109.787 Y111.451 E17.4452
G1 X109.063 Y111.734 E17.4840
G1 X108.302 Y111.972 E17.5238
G1 X107.518 Y112.162 E17.5640
G1 X106.718 Y112.301 E17.6046
G1 X105.909 Y112.387 E17.6451
G1 X105.097 Y112.420 E17.6857
G1 X104.285 Y112.400 E17.7262
G1 X103.475 Y112.327 E17.7668
G1 X102.672 Y112.200 E17.8073
G1 X101.875 Y112.020 E17.8481
G1 X101.086 Y111.785 E17.8891
G1 X100.294 Y111.486 E17.9314
G1 X99.696 Y111.216 E17.9641
G1 X98.522 Y110.641 E18.0293
G1 X97.732 Y110.274 E18.0728
G1 X97.316 Y110.119 E18.0950
G1 X97.018 Y110.037 E18.1104
G1 X96.647 Y109.970 E18.1292
G1 X96.127 Y109.920 E18.1552
G1 X96.021 Y109.838 E18.1619
G1 X95.583 Y109.417 E18.1922
G1 X95.162 Y108.979 E18.2225
G1 X95.080 Y108.873 E18.2292
G1 X95.030 Y108.353 E18.2553
G1 X94.963 Y107.982 E18.2741
G1 X94.881 Y107.684 E18.2895
G1 X94.726 Y107.268 E18.3117
G1 X94.359 Y106.478 E18.3551
G1 X93.784 Y105.304 E18.4204
G1 X93.514 Y104.706 E18.4531
G1 X93.215 Y103.914 E18.4953
G1 X92.980 Y103.125 E18.5364
G1 X92.800 Y102.328 E18.5772
G1 X92.673 Y101.525 E18.6177
G1 X92.600 Y100.715 E18.6583
G1 X92.580 Y99.903 E18.6988
G1 X92.613 Y99.091 E18.7394
G1 X92.699 Y98.282 E18.7799
G1 X92.838 Y97.482 E18.8205
G1 X93.028 Y96.698 E18.8607
G1 X93.266 Y95.937 E18.9005
G1 X93.549 Y95.213 E18.9393
G1 X93.876 Y94.506 E18.9781
G1 X94.485 Y93.257 E19.0474
G1 X94.658 Y92.887 E19.0679
G1 X94.824 Y92.485 E19.0895
G1 X94.961 Y92.031 E19.1132
G1 X95.042 Y91.520 E19.1390
G1 X95.067 Y91.224 E19.1538
G1 F4800 E18.1538
G1 X94.929 Y92.487 F10800
G1 F4800 E19.1538
;segType:Perimeter
G1 X94.580 Y91.883 E19.1886 F2159
G1 X94.644 Y91.478 E19.2091
G1 X94.664 Y91.113 E19.2273
G1 X94.713 Y90.934 E19.2366
G1 X94.949 Y90.662 E19.2546
G1 X95.426 Y90.174 E19.2886
G1 X95.833 Y89.791 E19.3165
G1 X96.015 Y89.676 E19.3272
G1 X96.745 Y89.607 E19.3638
G1 X96.943 Y89.570 E19.3739
G1 X97.353 Y89.446 E19.3952
G1 X98.082 Y89.125 E19.4350
G1 X99.334 Y88.514 E19.5044
G1 X100.056 Y88.180 E19.5441
G1 X100.804 Y87.889 E19.5842
G1 X101.591 Y87.642 E19.6253
G1 X102.400 Y87.446 E19.6669
G1 X103.227 Y87.302 E19.7087
G1 X104.062 Y87.214 E19.7506
G1 X104.900 Y87.180 E19.7925
G1 X105.738 Y87.201 E19.8343
G1 X106.574 Y87.276 E19.8762
G1 X107.404 Y87.407 E19.9181
G1 X108.227 Y87.593 E19.9602
G1 X109.042 Y87.836 E20.0026
G1 X109.859 Y88.144 E20.0462
G1 X110.474 Y88.423 E20.0798
G1 X111.650 Y88.998 E20.1452
G1 X112.423 Y89.357 E20.1877
G1 X112.813 Y89.502 E20.2084
G1 X113.404 Y89.633 E20.2387
G1 X114.026 Y89.693 E20.2699
G1 X114.241 Y89.859 E20.2834
G1 X114.700 Y90.300 E20.3152
G1 X115.141 Y90.759 E20.3469
G1 X115.307 Y90.974 E20.3604
G1 X115.367 Y91.596 E20.3916
G1 X115.498 Y92.187 E20.4219
G1 X115.643 Y92.577 E20.4426
G1 X116.002 Y93.350 E20.4851
G1 X116.577 Y94.526 E20.5505
G1 X116.856 Y95.141 E20.5841
G1 X117.164 Y95.958 E20.6277
G1 X117.407 Y96.773 E20.6701
G1 X117.593 Y97.596 E20.7122
G1 X117.724 Y98.426 E20.7541
G1 X117.799 Y99.262 E20.7960
G1 X117.820 Y100.100 E20.8378
G1 X117.786 Y100.938 E20.8797
G1 X117.698 Y101.773 E20.9216
G1 X117.554 Y102.600 E20.9634
G1 X117.358 Y103.409 E21.0050
G1 X117.111 Y104.196 E21.0461
G1 X116.820 Y104.944 E21.0861
G1 X116.486 Y105.666 E21.1258
G1 X115.875 Y106.918 E21.1953
G1 X115.554 Y107.647 E21.2351
G1 X115.429 Y108.059 E21.2566
G1 X115.356 Y108.522 E21.2800
G1 X115.336 Y108.887 E21.2982
G1 X115.287 Y109.066 E21.3074
G1 X115.051 Y109.338 E21.3254
G1 X114.574 Y109.826 E21.3595
G1 X114.167 Y110.209 E21.3873
G1 X113.985 Y110.324 E21.3981
G1 X113.255 Y110.393 E21.4347
G1 X113.056 Y110.430 E21.4447
G1 X112.650 Y110.554 E21.4659
G1 X112.273 Y110.708 E21.4862
G1 X111.392 Y111.128 E21.5349
G1 X110.666 Y111.486 E21.5753
G1 X109.944 Y111.820 E21.6150
G1 X109.196 Y112.111 E21.6551
G1 X108.409 Y112.358 E21.6962
G1 X107.600 Y112.554 E21.7377
G1 X106.773 Y112.698 E21.7796
G1 X105.938 Y112.786 E21.8215
G1 X105.100 Y112.820 E21.8633
G1 X104.262 Y112.799 E21.9052
G1 X103.426 Y112.724 E21.9470
G1 X102.597 Y112.593 E21.9889
G1 X101.773 Y112.407 E22.0310
G1 X100.958 Y112.164 E22.0735
G1 X100.141 Y111.856 E22.1170
G1 X99.526 Y111.577 E22.1507
G1 X98.350 Y111.002 E22.2160
G1 X97.577 Y110.643 E22.2586
G1 X97.193 Y110.500 E22.2790
G1 X96.929 Y110.427 E22.2927
G1 X96.592 Y110.367 E22.3097
G1 X95.974 Y110.307 E22.3408
G1 X95.759 Y110.141 E22.3543
G1 X95.300 Y109.700 E22.3860
G1 X94.859 Y109.241 E22.4178
G1 X94.693 Y109.026 E22.4313
G1 X94.633 Y108.408 E22.4624
G1 X94.573 Y108.071 E22.4794
G1 X94.500 Y107.807 E22.4931
G1 X94.357 Y107.423 E22.5135
G1 X93.998 Y106.650 E22.5560
G1 X93.423 Y105.474 E22.6214
G1 X93.144 Y104.859 E22.6551
G1 X92.836 Y104.042 E22.6986
G1 X92.593 Y103.227 E22.7411
G1 X92.407 Y102.403 E22.7832
G1 X92.276 Y101.574 E22.8251
G1 X92.201 Y100.738 E22.8669
G1 X92.180 Y99.900 E22.9088
G1 X92.214 Y99.062 E22.9506
G1 X92.302 Y98.227 E22.9925
G1 X92.446 Y97.400 E23.0344
G1 X92.642 Y96.591 E23.0759
G1 X92.889 Y95.804 E23.1170
G1 X93.180 Y95.056 E23.1571
G1 X93.514 Y94.334 E23.1968
G1 X94.124 Y93.085 E23.2661
G1 X94.292 Y92.726 E23.2859
G1 X94.446 Y92.350 E23.3062
G1 X94.554 Y91.996 E23.3246
G1 X95.132 Y91.606
G1 X102.723 Y88.755 F10800
G1 X104.961 Y88.527
G1 X107.199 Y88.739
G1 X109.355 Y89.385
G1 X111.342 Y90.438
G1 X113.085 Y91.859
G1 X114.518 Y93.592
G1 X115.585 Y95.572
G1 X116.245 Y97.723
G1 X116.473 Y99.961
G1 X116.261 Y102.200
G1 X115.347 Y106.631
;segType:HShell
G1 X111.626 Y110.352 E23.5871 F3600
G1 X111.474 Y109.956 E23.6083
G1 X110.563 Y110.868 E23.6726
G1 X110.207 Y110.675 E23.6927
G1 X109.556 Y111.327 E23.7387
G1 X109.246 Y111.089 E23.7582
G1 X108.696 Y111.639 E23.7970
G1 X108.415 Y111.373 E23.8163
G1 X107.932 Y111.856 E23.8504
G1 X107.670 Y111.570 E23.8698
G1 X107.231 Y112.009 E23.9007
G1 X106.577 Y112.115 E23.9338
G1 X106.985 Y111.707 E23.9626
G1 X106.346 Y111.798 E23.9948
G1 X105.964 Y112.180 E24.0217
G1 X105.389 Y112.208 E24.0505
G1 X105.742 Y111.855 E24.0754
G1 X105.174 Y111.875 E24.1037
G1 X104.836 Y112.213 E24.1276
G1 X104.301 Y112.200 E24.1543
G1 X104.633 Y111.868 E24.1777
;segType:Perimeter
G1 X104.713 Y111.767 F10800
G1 X104.243 Y111.253 E24.2125 F2159
G1 X103.566 Y111.189 E24.2464
G1 X102.838 Y111.071 E24.2832
G1 X102.118 Y110.905 E24.3201
G1 X101.411 Y110.694 E24.3569
G1 X100.719 Y110.436 E24.3937
G1 X100.046 Y110.134 E24.4305
G1 X99.394 Y109.788 E24.4674
G1 X98.765 Y109.401 E24.5042
G1 X98.164 Y108.973 E24.5410
G1 X97.592 Y108.506 E24.5778
G1 X97.052 Y108.003 E24.6147
G1 X96.545 Y107.466 E24.6515
G1 X96.075 Y106.897 E24.6883
G1 X95.643 Y106.300 E24.7251
G1 X95.250 Y105.673 E24.7620
G1 X94.900 Y105.023 E24.7988
G1 X94.594 Y104.353 E24.8356
G1 X94.331 Y103.663 E24.8724
G1 X94.114 Y102.957 E24.9093
G1 X93.945 Y102.238 E24.9461
G1 X93.822 Y101.511 E24.9829
G1 X93.747 Y100.776 E25.0198
G1 X93.721 Y100.039 E25.0566
G1 X93.742 Y99.301 E25.0934
G1 X93.811 Y98.566 E25.1303
G1 X93.929 Y97.838 E25.1671
G1 X94.095 Y97.118 E25.2039
G1 X94.306 Y96.411 E25.2407
G1 X94.564 Y95.719 E25.2776
G1 X94.866 Y95.046 E25.3143
G1 X95.212 Y94.394 E25.3512
G1 X95.599 Y93.765 E25.3880
G1 X96.027 Y93.164 E25.4248
G1 X96.494 Y92.592 E25.4617
G1 X96.997 Y92.052 E25.4985
G1 X97.534 Y91.545 E25.5353
G1 X98.103 Y91.075 E25.5722
G1 X98.700 Y90.643 E25.6089
G1 X99.327 Y90.250 E25.6458
G1 X99.977 Y89.900 E25.6826
G1 X100.647 Y89.594 E25.7194
G1 X101.337 Y89.331 E25.7563
G1 X102.043 Y89.114 E25.7931
G1 X102.762 Y88.944 E25.8299
G1 X103.489 Y88.822 E25.8667
G1 X104.224 Y88.746 E25.9036
G1 X104.961 Y88.721 E25.9404
G1 X105.699 Y88.742 E25.9772
G1 X106.434 Y88.811 E26.0141
G1 X107.162 Y88.929 E26.0509
G1 X107.882 Y89.095 E26.0877
G1 X108.589 Y89.306 E26.1245
G1 X109.281 Y89.564 E26.1614
G1 X109.954 Y89.866 E26.1982
G1 X110.606 Y90.212 E26.2350
G1 X111.235 Y90.599 E26.2719
G1 X111.836 Y91.027 E26.3087
G1 X112.408 Y91.494 E26.3455
G1 X112.948 Y91.997 E26.3823
G1 X113.455 Y92.534 E26.4192
G1 X113.925 Y93.103 E26.4560
G1 X114.357 Y93.700 E26.4928
G1 X114.750 Y94.327 E26.5297
G1 X115.100 Y94.977 E26.5665
G1 X115.406 Y95.647 E26.6033
G1 X115.669 Y96.337 E26.6401
G1 X115.886 Y97.043 E26.6769
G1 X116.056 Y97.762 E26.7138
G1 X116.178 Y98.489 E26.7506
G1 X116.254 Y99.224 E26.7874
G1 X116.279 Y99.961 E26.8242
G1 X116.258 Y100.699 E26.8611
G1 X116.189 Y101.434 E26.8979
G1 X116.071 Y102.162 E26.9347
G1 X115.905 Y102.882 E26.9716
G1 X115.694 Y103.589 E27.0084
G1 X115.436 Y104.281 E27.0452
G1 X115.134 Y104.954 E27.0820
G1 X114.788 Y105.606 E27.1188
G1 X114.401 Y106.235 E27.1557
G1 X113.973 Y106.836 E27.1925
G1 X113.506 Y107.408 E27.2293
G1 X113.003 Y107.948 E27.2661
G1 X112.466 Y108.455 E27.3030
G1 X111.897 Y108.925 E27.3398
G1 X111.300 Y109.357 E27.3766
G1 X110.673 Y109.750 E27.4135
G1 X110.023 Y110.100 E27.4503
G1 X109.353 Y110.406 E27.4871
G1 X108.663 Y110.669 E27.5239
G1 X107.957 Y110.886 E27.5607
G1 X107.238 Y111.055 E27.5976
G1 X106.511 Y111.178 E27.6344
G1 X105.776 Y111.253 E27.6712
G1 X105.039 Y111.279 E27.7081
G1 X104.359 Y111.260 E27.7420
G1 X103.829 Y111.713
;segType:Loop
G1 X103.180 Y111.531 F10800
G1 X102.761 Y111.463 E27.7631 F3600
G1 X102.016 Y111.292 E27.8013
G1 X101.283 Y111.073 E27.8394
G1 X100.567 Y110.806 E27.8776
G1 X99.870 Y110.494 E27.9157
G1 X99.195 Y110.135 E27.9538
G1 X98.544 Y109.734 E27.9920
G1 X97.922 Y109.291 E28.0301
G1 X97.329 Y108.808 E28.0682
G1 X96.769 Y108.287 E28.1063
G1 X96.245 Y107.731 E28.1445
G1 X95.758 Y107.142 E28.1826
G1 X95.311 Y106.523 E28.2207
G1 X94.904 Y105.875 E28.2589
G1 X94.542 Y105.202 E28.2970
G1 X94.224 Y104.507 E28.3351
G1 X93.953 Y103.793 E28.3733
G1 X93.728 Y103.062 E28.4114
G1 X93.552 Y102.318 E28.4495
G1 X93.425 Y101.565 E28.4876
G1 X93.347 Y100.804 E28.5258
G1 X93.321 Y100.040 E28.5639
G1 X93.342 Y99.276 E28.6021
G1 X93.414 Y98.515 E28.6402
G1 X93.537 Y97.761 E28.6783
G1 X93.708 Y97.016 E28.7165
G1 X93.927 Y96.284 E28.7546
G1 X94.194 Y95.567 E28.7928
G1 X94.506 Y94.870 E28.8308
G1 X94.865 Y94.195 E28.8690
G1 X95.266 Y93.544 E28.9071
G1 X95.709 Y92.922 E28.9452
G1 X96.192 Y92.329 E28.9834
G1 X96.713 Y91.769 E29.0215
G1 X97.269 Y91.245 E29.0597
G1 X97.858 Y90.758 E29.0978
G1 X98.477 Y90.311 E29.1359
G1 X99.125 Y89.904 E29.1741
G1 X99.798 Y89.542 E29.2122
G1 X100.493 Y89.225 E29.2503
G1 X101.207 Y88.953 E29.2884
G1 X101.938 Y88.728 E29.3266
G1 X102.682 Y88.552 E29.3647
G1 X103.435 Y88.425 E29.4028
G1 X104.196 Y88.347 E29.4410
G1 X104.960 Y88.321 E29.4791
G1 X105.724 Y88.342 E29.5172
G1 X106.485 Y88.414 E29.5554
G1 X107.239 Y88.537 E29.5935
G1 X107.984 Y88.708 E29.6317
G1 X108.717 Y88.927 E29.6698
G1 X109.433 Y89.194 E29.7079
G1 X110.130 Y89.506 E29.7460
G1 X110.805 Y89.865 E29.7842
G1 X111.456 Y90.266 E29.8223
G1 X112.078 Y90.709 E29.8604
G1 X112.671 Y91.192 E29.8986
G1 X113.231 Y91.713 E29.9367
G1 X113.755 Y92.269 E29.9748
G1 X114.242 Y92.858 E30.0130
G1 X114.689 Y93.477 E30.0511
G1 X115.096 Y94.126 E30.0893
G1 X115.458 Y94.798 E30.1274
G1 X115.775 Y95.493 E30.1655
G1 X116.047 Y96.207 E30.2036
G1 X116.272 Y96.938 E30.2418
G1 X116.448 Y97.682 E30.2799
G1 X116.575 Y98.435 E30.3180
G1 X116.653 Y99.196 E30.3562
G1 X116.679 Y99.960 E30.3943
G1 X116.658 Y100.724 E30.4324
G1 X116.586 Y101.485 E30.4706
G1 X116.463 Y102.239 E30.5087
G1 X116.292 Y102.984 E30.5468
G1 X116.073 Y103.717 E30.5850
G1 X115.806 Y104.433 E30.6231
G1 X115.494 Y105.130 E30.6612
G1 X115.135 Y105.805 E30.6993
G1 X114.734 Y106.456 E30.7375
G1 X114.291 Y107.078 E30.7756
G1 X113.808 Y107.671 E30.8137
G1 X113.287 Y108.231 E30.8519
G1 X112.731 Y108.755 E30.8900
G1 X112.142 Y109.242 E30.9282
G1 X111.523 Y109.689 E30.9663
G1 X110.875 Y110.096 E31.0044
G1 X110.201 Y110.458 E31.0426
G1 X109.507 Y110.776 E31.0807
G1 X108.793 Y111.047 E31.1188
G1 X108.062 Y111.272 E31.1569
G1 X107.318 Y111.448 E31.1951
G1 X106.565 Y111.575 E31.2332
G1 X105.804 Y111.653 E31.2714
G1 X105.040 Y111.679 E31.3095
G1 X104.276 Y111.658 E31.3476
G1 X103.515 Y111.586 E31.3858
G1 X103.371 Y111.562 E31.3930
;segType:HShell
G1 X104.111 Y111.843 F10800
G1 X103.799 Y112.155 E31.4151 F3600
G1 X103.308 Y112.098 E31.4397
G1 X103.610 Y111.796 E31.4610
G1 X103.132 Y111.726 E31.4851
G1 X102.835 Y112.023 E31.5061
G1 X102.381 Y111.929 E31.5292
G1 X102.664 Y111.646 E31.5492
G1 X102.219 Y111.544 E31.5720
G1 X101.935 Y111.828 E31.5920
G1 X101.512 Y111.703 E31.6140
G1 X101.784 Y111.432 E31.6331
G1 X101.362 Y111.305 E31.6551
G1 X101.094 Y111.574 E31.6740
G1 X100.696 Y111.424 E31.6952
G1 X100.956 Y111.164 E31.7135
G1 X100.556 Y111.016 E31.7348
G1 X100.302 Y111.270 E31.7527
G1 X99.925 Y111.099 E31.7733
G1 X100.175 Y110.850 E31.7910
G1 X99.797 Y110.680 E31.8116
G1 X99.554 Y110.923 E31.8288
G1 X99.186 Y110.743 E31.8492
G1 X99.438 Y110.491 E31.8670
G1 X99.081 Y110.300 E31.8872
G1 X98.818 Y110.563 E31.9058
G1 X98.448 Y110.386 E31.9263
G1 X98.742 Y110.091 E31.9470
G1 X98.405 Y109.881 E31.9669
G1 X98.074 Y110.212 E31.9903
G1 X97.693 Y110.046 E32.0110
G1 X98.085 Y109.653 E32.0387
G1 X97.767 Y109.424 E32.0583
G1 X97.287 Y109.903 E32.0922
G1 X96.841 Y109.802 E32.1150
G1 X97.466 Y109.177 E32.1590
G1 X97.166 Y108.929 E32.1785
G1 X96.354 Y109.741 E32.2357
G1 X96.007 Y109.541 E32.2557
G1 X96.882 Y108.665 E32.3175
G1 X96.600 Y108.400 E32.3368
G1 X95.724 Y109.276 E32.3986
G1 X95.459 Y108.993 E32.4180
G1 X96.335 Y108.118 E32.4798
G1 X96.071 Y107.834 E32.4991
G1 X95.259 Y108.646 E32.5564
G1 X95.198 Y108.159 E32.5809
G1 X95.823 Y107.534 E32.6249
G1 X95.577 Y107.233 E32.6443
G1 X95.097 Y107.713 E32.6782
G1 X94.954 Y107.307 E32.6997
G1 X95.347 Y106.915 E32.7274
G1 X95.119 Y106.595 E32.7470
G1 X94.788 Y106.926 E32.7703
G1 X94.614 Y106.552 E32.7909
G1 X94.908 Y106.258 E32.8117
G1 X94.700 Y105.918 E32.8316
G1 X94.437 Y106.182 E32.8502
G1 X94.257 Y105.814 E32.8706
G1 X94.509 Y105.562 E32.8884
G1 X94.322 Y105.201 E32.9087
G1 X94.077 Y105.446 E32.9259
G1 X93.901 Y105.075 E32.9464
G1 X94.150 Y104.826 E32.9640
G1 X93.986 Y104.442 E32.9848
G1 X93.730 Y104.698 E33.0029
G1 X93.576 Y104.304 E33.0240
G1 X93.835 Y104.045 E33.0422
G1 X93.696 Y103.637 E33.0637
G1 X93.426 Y103.906 E33.0828
G1 X93.297 Y103.488 E33.1046
G1 X93.567 Y103.218 E33.1236
G1 X93.456 Y102.781 E33.1461
G1 X93.172 Y103.065 E33.1662
G1 X93.071 Y102.619 E33.1890
G1 X93.353 Y102.337 E33.2089
G1 X93.274 Y101.868 E33.2326
G1 X92.977 Y102.165 E33.2536
G1 X92.902 Y101.692 E33.2775
G1 X93.206 Y101.388 E33.2989
G1 X93.155 Y100.891 E33.3238
G1 X92.845 Y101.201 E33.3457
G1 X92.800 Y100.699 E33.3709
G1 X93.132 Y100.367 E33.3943
G1 X93.127 Y99.824 E33.4214
G1 X92.787 Y100.164 E33.4454
G1 X92.792 Y99.611 E33.4730
G1 X93.143 Y99.261 E33.4977
G1 X93.200 Y98.655 E33.5281
G1 X92.820 Y99.036 E33.5549
G1 X92.885 Y98.423 E33.5856
G1 X93.293 Y98.015 E33.6144
G1 X92.991 Y97.769 E33.6338
G1 X93.430 Y97.330 E33.6648
G1 X93.144 Y97.068 E33.6841
G1 X93.628 Y96.585 E33.7183
G1 X93.361 Y96.304 E33.7376
G1 X93.911 Y95.754 E33.7764
G1 X93.673 Y95.444 E33.7959
G1 X94.320 Y94.798 E33.8415
G1 X94.131 Y94.439 E33.8617
G1 X95.040 Y93.530 E33.9258
G1 X100.444 Y88.673 F10800
G1 X99.793 Y89.325 E33.9718 F3600
G1 X96.714 Y90.213 F10800
G1 X95.214 Y91.712 E34.0776 F3600
G1 X98.526 Y90.044 F10800
G1 X99.439 Y89.131 E34.1420 F3600
G1 X94.653 Y93.369 F10800
G1 X98.369 Y89.653 E34.4042 F3600
G1 X100.754 Y88.911 F10800
G1 X101.304 Y88.361 E34.4430 F3600
G1 X101.585 Y88.627 E34.4623
G1 X102.068 Y88.144 E34.4964
G1 X102.330 Y88.430 E34.5157
G1 X102.769 Y87.991 E34.5467
G1 X103.423 Y87.885 E34.5797
G1 X103.015 Y88.293 E34.6085
G1 X103.654 Y88.202 E34.6407
G1 X104.036 Y87.820 E34.6677
G1 X104.611 Y87.792 E34.6964
G1 X104.259 Y88.145 E34.7213
G1 X104.826 Y88.125 E34.7497
G1 X105.164 Y87.787 E34.7735
G1 X105.699 Y87.800 E34.8002
G1 X105.367 Y88.132 E34.8236
G1 X105.889 Y88.157 E34.8497
G1 X106.202 Y87.845 E34.8718
G1 X106.692 Y87.902 E34.8964
G1 X106.390 Y88.205 E34.9178
G1 X106.868 Y88.274 E34.9419
G1 X107.165 Y87.976 E34.9629
G1 X107.619 Y88.071 E34.9860
G1 X107.336 Y88.354 E35.0059
G1 X107.781 Y88.456 E35.0287
G1 X108.065 Y88.172 E35.0488
G1 X108.488 Y88.297 E35.0707
G1 X108.216 Y88.568 E35.0899
G1 X108.638 Y88.695 E35.1118
G1 X108.906 Y88.426 E35.1308
G1 X109.304 Y88.576 E35.1520
G1 X109.044 Y88.836 E35.1703
G1 X109.444 Y88.984 E35.1915
G1 X109.698 Y88.730 E35.2094
G1 X110.075 Y88.901 E35.2301
G1 X109.825 Y89.150 E35.2477
G1 X110.203 Y89.320 E35.2684
G1 X110.446 Y89.077 E35.2856
G1 X110.814 Y89.257 E35.3060
G1 X110.562 Y89.509 E35.3238
G1 X110.919 Y89.700 E35.3440
G1 X111.182 Y89.437 E35.3626
G1 X111.552 Y89.614 E35.3830
G1 X111.258 Y89.909 E35.4038
G1 X111.595 Y90.119 E35.4237
G1 X111.926 Y89.788 E35.4471
G1 X112.307 Y89.954 E35.4678
G1 X111.915 Y90.347 E35.4955
G1 X112.233 Y90.576 E35.5151
G1 X112.715 Y90.095 E35.5491
G1 X113.163 Y90.194 E35.5720
G1 X112.534 Y90.823 E35.6164
G1 X112.834 Y91.071 E35.6358
G1 X113.646 Y90.259 E35.6930
G1 X113.994 Y90.459 E35.7130
G1 X113.118 Y91.335 E35.7748
G1 X113.400 Y91.600 E35.7942
G1 X114.276 Y90.724 E35.8560
G1 X114.541 Y91.006 E35.8753
G1 X113.665 Y91.882 E35.9371
G1 X113.929 Y92.166 E35.9564
G1 X114.741 Y91.354 E36.0137
G1 X114.806 Y91.837 E36.0380
G1 X114.177 Y92.466 E36.0824
G1 X114.423 Y92.767 E36.1018
G1 X114.905 Y92.285 E36.1358
G1 X115.046 Y92.693 E36.1573
G1 X114.653 Y93.085 E36.1850
G1 X114.881 Y93.405 E36.2046
G1 X115.212 Y93.074 E36.2280
G1 X115.386 Y93.448 E36.2485
G1 X115.092 Y93.742 E36.2693
G1 X115.299 Y94.082 E36.2892
G1 X115.563 Y93.818 E36.3078
G1 X115.743 Y94.186 E36.3283
G1 X115.491 Y94.438 E36.3460
G1 X115.678 Y94.799 E36.3663
G1 X115.923 Y94.554 E36.3836
G1 X116.099 Y94.925 E36.4041
G1 X115.850 Y95.174 E36.4217
G1 X116.014 Y95.558 E36.4425
G1 X116.270 Y95.302 E36.4606
G1 X116.424 Y95.696 E36.4817
G1 X116.165 Y95.955 E36.4999
G1 X116.304 Y96.363 E36.5214
G1 X116.574 Y96.094 E36.5404
G1 X116.703 Y96.512 E36.5623
G1 X116.433 Y96.782 E36.5813
G1 X116.544 Y97.219 E36.6038
G1 X116.828 Y96.935 E36.6239
G1 X116.929 Y97.381 E36.6467
G1 X116.647 Y97.663 E36.6666
G1 X116.727 Y98.132 E36.6903
G1 X117.024 Y97.835 E36.7113
G1 X117.098 Y98.308 E36.7351
G1 X116.794 Y98.612 E36.7566
G1 X116.845 Y99.109 E36.7815
G1 X117.155 Y98.798 E36.8034
G1 X117.200 Y99.301 E36.8286
G1 X116.868 Y99.633 E36.8520
G1 X116.873 Y100.176 E36.8791
G1 X117.213 Y99.836 E36.9031
G1 X117.208 Y100.389 E36.9307
G1 X116.857 Y100.739 E36.9554
G1 X116.800 Y101.345 E36.9857
G1 X117.180 Y100.964 E37.0126
G1 X117.115 Y101.577 E37.0433
G1 X116.707 Y101.985 E37.0721
G1 X117.009 Y102.231 E37.0915
G1 X116.570 Y102.670 E37.1225
G1 X116.856 Y102.932 E37.1418
G1 X116.372 Y103.415 E37.1759
G1 X116.089 Y104.246 E37.2197
G1 X116.639 Y103.696 E37.2585
G1 X116.327 Y104.556 E37.3041
G1 X115.681 Y105.202 E37.3497
G1 X115.869 Y105.561 E37.3699
G1 X114.960 Y106.470 E37.4341
G1 X114.785 Y108.288 F10800
G1 X113.286 Y109.787 E37.5398 F3600
G1 X114.949 Y107.577 F10800
G1 X112.577 Y109.949 E37.7072 F3600
G1 F4800 E36.7072
G1 X116.244 Y103.774 F10800
G1 X116.833 Y99.184
G1 X116.629 Y92.800
G1 F4800 E37.7072
;segType:Support
G1 X117.600 Y92.800 E37.7483 F5400
G1 F4800 E36.7483
G1 X119.400 Y76.600 F10800
G1 F4800 E37.7483
G1 X128.400 Y76.600 E38.1300 F5400
G1 F4800 E37.1300
G1 X132.000 Y80.200 F10800
G1 F4800 E38.1300
G1 X123.000 Y80.200 E38.5117 F5400
G1 F4800 E37.5117
G1 X108.581 Y74.797 F10800
G1 F4800 E38.5117
G1 X108.600 Y74.800 E38.5125 F5400
G1 X114.000 Y74.800 E38.7415
G1 F4800 E37.7415
G1 X119.400 Y78.400 F10800
G1 F4800 E38.7415
G1 X128.400 Y78.400 E39.1231 F5400
;segType:SoftSupport
G1 F4800 E38.1231
G1 X108.446 Y74.776 F10800
G1 F4800 E39.1231
G1 X108.581 Y74.797 E39.1262 F5400
G1 F4800 E38.1262
G1 X104.168 Y74.988 F10800
G1 X102.463 Y74.745
G1 X97.800 Y73.000
G1 F4800 E39.1262
;segType:Support
G1 X100.934 Y73.136 E39.2592 F5400
G1 X101.401 Y70.950 E39.3540
;segType:SoftSupport
G1 X100.935 Y71.015 E39.3646 F5400
G1 X101.468 Y69.659 E39.3973
G1 X101.007 Y69.595 E39.4077
G1 X101.007 Y69.595
;segType:Support
G1 X99.600 Y69.400 E39.4680 F5400
G1 X97.800 Y69.400 E39.5443
G1 F4800 E38.5443
G1 X79.800 Y80.200 F10800
G1 F4800 E39.5443
G1 X88.800 Y80.200 E39.9259 F5400
G1 F4800 E38.9259
G1 X80.463 Y102.012 F10800
G1 F4800 E39.9259
G1 X81.416 Y101.984 E39.9664 F5400
G1 F4800 E38.9664
G1 X92.400 Y85.600 F10800
G1 F4800 E39.9664
G1 X76.200 Y85.600 E40.6534 F5400
G1 F4800 E39.6534
G1 X88.800 Y82.000 F10800
G1 F4800 E40.6534
G1 X79.800 Y82.000 E41.0351 F5400
G1 F4800 E40.0351
G1 X79.256 Y96.871 F10800
G1 X79.075 Y101.827
G1 F4800 E41.0351
;segType:HShell
G1 X78.711 Y102.191 E41.0607 F3600
;segType:Loop
G1 X78.373 Y102.399 F10800
G1 X77.885 Y102.409 E41.0850 F3600
G1 X76.594 Y102.408 E41.1494
G1 X75.406 Y102.391 E41.2087
G1 X74.977 Y102.368 E41.2302
G1 X74.729 Y102.327 E41.2427
G1 X74.679 Y102.244 E41.2475
G1 X74.608 Y101.940 E41.2631
G1 X74.523 Y101.398 E41.2904
G1 X74.462 Y100.793 E41.3208
G1 X74.435 Y100.000 E41.3604
G1 X74.462 Y99.207 E41.4000
G1 X74.523 Y98.602 E41.4303
G1 X74.607 Y98.067 E41.4573
G1 X74.732 Y97.672 E41.4780
G1 X74.977 Y97.632 E41.4904
G1 X75.406 Y97.609 E41.5118
G1 X76.594 Y97.592 E41.5711
G1 X77.885 Y97.591 E41.6355
G1 X78.950 Y97.611 E41.6887
G1 X79.175 Y97.631 E41.6999
G1 X79.252 Y98.008 E41.7191
G1 X79.323 Y98.475 E41.7427
G1 X79.396 Y99.210 E41.7795
G1 X79.417 Y99.737 E41.8058
G1 X79.417 Y100.263 E41.8321
G1 X79.396 Y100.790 E41.8584
G1 X79.323 Y101.525 E41.8953
G1 X79.252 Y101.992 E41.9188
G1 X79.166 Y102.373 E41.9383
G1 X78.951 Y102.389 E41.9490
G1 X78.567 Y102.396 E41.9682
;segType:Perimeter
G1 X79.300 Y102.047 F10800
G1 X79.383 Y102.739 E42.0030 F2159
G1 X79.300 Y102.764 E42.0073
G1 X78.969 Y102.788 E42.0239
G1 X77.889 Y102.809 E42.0778
G1 X76.591 Y102.808 E42.1425
G1 X75.392 Y102.791 E42.2023
G1 X74.934 Y102.766 E42.2252
G1 X74.615 Y102.715 E42.2413
G1 X74.450 Y102.639 E42.2504
G1 X74.304 Y102.396 E42.2646
G1 X74.215 Y102.017 E42.2839
G1 X74.126 Y101.450 E42.3126
G1 X74.063 Y100.820 E42.3442
G1 X74.035 Y100.000 E42.3851
G1 X74.063 Y99.180 E42.4260
G1 X74.126 Y98.550 E42.4576
G1 X74.215 Y97.983 E42.4863
G1 X74.353 Y97.479 E42.5123
G1 X74.450 Y97.361 E42.5200
G1 X74.615 Y97.285 E42.5290
G1 X74.934 Y97.234 E42.5451
G1 X75.392 Y97.209 E42.5681
G1 X76.591 Y97.192 E42.6278
G1 X77.889 Y97.191 E42.6926
G1 X78.969 Y97.211 E42.7465
G1 X79.300 Y97.236 E42.7630
G1 X79.501 Y97.347 E42.7745
G1 X79.562 Y97.526 E42.7839
G1 X79.646 Y97.938 E42.8049
G1 X79.719 Y98.425 E42.8295
G1 X79.795 Y99.182 E42.8674
G1 X79.817 Y99.728 E42.8947
G1 X79.817 Y100.271 E42.9218
G1 X79.795 Y100.818 E42.9491
G1 X79.719 Y101.575 E42.9871
G1 X79.646 Y102.062 E43.0116
G1 X79.562 Y102.474 E43.0326
G1 X79.465 Y102.671 E43.0436
G1 X78.797 Y102.470
;segType:HShell
G1 X75.426 Y97.809 F10800
G1 X74.743 Y98.492 E43.0918 F3600
G1 X74.673 Y99.109 E43.1227
G1 X75.982 Y97.801 E43.2151
G1 X76.537 Y97.792 E43.2428
G1 X74.646 Y99.684 E43.3762
G1 X74.643 Y100.234 E43.4037
G1 X77.086 Y97.791 E43.5761
G1 X77.634 Y97.791 E43.6034
G1 X74.662 Y100.764 E43.8131
G1 X74.710 Y101.263 E43.8381
G1 X78.175 Y97.798 E44.0825
G1 X78.710 Y97.810 E44.1093
G1 X74.780 Y101.741 E44.3866
G1 X74.918 Y102.151 E44.4082
G1 X79.044 Y98.024 E44.6993
G1 X79.123 Y98.493 E44.7230
G1 X75.425 Y102.191 E44.9839
G1 X75.964 Y102.199 E45.0109
G1 X79.173 Y98.991 E45.2373
G1 X79.208 Y99.504 E45.2629
G1 X76.504 Y102.207 E45.4536
G1 X77.050 Y102.209 E45.4809
G1 X79.217 Y100.042 E45.6338
G1 X79.203 Y100.603 E45.6618
G1 X77.598 Y102.209 E45.7751
G1 X78.152 Y102.203 E45.8027
G1 X79.154 Y101.200 E45.8734
;segType:Support
G1 F4800 E44.8734
G1 X72.890 Y99.710 F10800
G1 F4800 E45.8734
G1 X73.245 Y99.707 E45.8884 F5400
G1 X72.890 Y98.490 E45.9422
G1 X73.328 Y98.493 E45.9608
G1 F4800 E44.9608
G1 X74.125 Y102.468 F10800
G1 X79.800 Y121.600
G1 F4800 E45.9608
G1 X88.800 Y121.600 E46.3424 F5400
G1 F4800 E45.3424
G1 X78.000 Y91.000 F10800
G1 F4800 E46.3424
G1 X72.600 Y91.000 E46.5714 F5400
G1 F4800 E45.5714
G1 X78.000 Y92.800 F10800
G1 F4800 E46.5714
G1 X72.600 Y92.800 E46.8004 F5400
;segType:SoftSupport
G1 F4800 E45.8004
G1 X74.081 Y96.400 F10800
G1 F4800 E46.8004
G1 X76.014 Y96.400 E46.8438 F5400
;segType:Support
G1 F4800 E45.8438
G1 X72.600 Y94.600 F10800
G1 F4800 E46.8438
G1 X78.000 Y94.600 E47.0728 F5400
G1 F4800 E46.0728
G1 X72.600 Y96.400 F10800
G1 F4800 E47.0728
G1 X74.081 Y96.400 E47.1356 F5400
G1 F4800 E46.1356
G1 X73.371 Y101.800 F10800
G1 F4800 E47.1356
G1 X72.600 Y101.800 E47.1683 F5400
G1 X74.087 Y103.600 E47.2673
G1 X72.600 Y103.600 E47.3304
G1 X74.087 Y103.600 E47.3935
;segType:SoftSupport
G1 X74.400 Y103.600 E47.4005 F5400
G1 X74.748 Y103.547 E47.4084
;segType:Support
G1 F4800 E46.4084
G1 X78.000 Y107.200 F10800
G1 F4800 E47.4084
G1 X72.600 Y107.200 E47.6374 F5400
G1 X72.600 Y105.400 E47.7137
G1 X78.000 Y105.400 E47.9427
G1 F4800 E46.9427
G1 X79.932 Y103.373 F10800
G1 F4800 E47.9427
G1 X81.416 Y103.416 E48.0057 F5400
G1 F4800 E47.0057
G1 X90.600 Y89.200 F10800
G1 F4800 E48.0057
G1 X95.293 Y89.200 E48.2047 F5400
G1 F4800 E47.2047
G1 X103.200 Y87.111 F10800
G1 X105.749 Y87.008
G1 X108.276 Y87.406
G1 X114.697 Y89.200
G1 F4800 E48.2047
G1 X117.600 Y89.200 E48.3278 F5400
G1 F4800 E47.3278
G1 X119.400 Y83.800 F10800
G1 F4800 E48.3278
G1 X121.200 Y83.800 E48.4042 F5400
G1 F4800 E47.4042
G1 X124.800 Y74.800 F10800
G1 F4800 E48.4042
G1 X119.400 Y74.800 E48.6332 F5400
G1 F4800 E47.6332
G1 X108.942 Y69.400 F10800
G1 F4800 E48.6332
G1 X114.000 Y69.400 E48.8476 F5400
G1 X114.000 Y71.200 E48.9240
G1 X109.067 Y71.200 E49.1332
G1 X109.067 Y71.200
;segType:SoftSupport
G1 X108.603 Y71.200 E49.1436 F5400
G1 X108.602 Y73.000 E49.1840
G1 X109.066 Y73.000 E49.1944
G1 X109.066 Y73.000
;segType:Support
G1 X114.000 Y73.000 E49.4036 F5400
G1 F4800 E48.4036
G1 X119.400 Y73.000 F10800
