; GCode generated by CraftWare

M140 S[first_layer_bed_temperature] ; Bed (no wait)
M104 S[first_layer_temperature] ; Extruder (no wait)
M106 S255 ; Start fan
G90 ; set absolute coordinates
G28 ; home all axis
M190 S[first_layer_bed_temperature] ; Bed (wait)
M109 S[first_layer_temperature] ; Extruder (wait)
M117 Start
M300 s1000 p400 ; Beep
M300 s1500 p400
M300 s2000 p400
M300 s2500 p400
M117 Cleaning
M100 ; Cleaning
G1 Z5 F1500
G1 X0 Y15 F1000
G1 X5 Y35 F1000
G92 E0 ; reset extrusion distance
G1 Z[first_layer_height] F4800.000
G1 X5 Y175 E14 F1000
G1 X5 Y190 F1000
M117 Printing
M190 S45 ;set bed temp (wait)
M109 S190 ;set head temp (wait)
; ------------------------------------
; Layer #0
; ------------------------------------
G21 ; mm
G90 ; abs
G92 E0 ; reset extr
M106 S0
;segType:Skirt
G1 F4800 E-1.0000
G1 F300 Z0.100
G1 X82.239 Y123.470 F10800
G1 F4800 E0.0000
G1 X82.562 Y123.663 E0.0062 F600
G1 X84.625 Y123.663 E0.0406
G1 X85.077 Y123.728 E0.0481
G1 X85.077 Y126.307 E0.0910
G1 X85.850 Y127.081 E0.1092
G1 X86.044 Y127.274 E0.1138
G1 X89.526 Y127.274 E0.1717
G1 X89.848 Y127.081 E0.1779
G1 X90.750 Y126.178 E0.1992
G1 X90.750 Y118.956 E0.3193
G1 X89.719 Y117.925 E0.3435
G1 X89.268 Y117.861 E0.3511
G1 X87.204 Y117.861 E0.3854
G1 X87.139 Y117.409 E0.3930
G1 X87.139 Y115.346 E0.4273
G1 X86.366 Y114.572 E0.4455
G1 X86.044 Y114.379 E0.4518
G1 X78.822 Y114.379 E0.5719
G1 X78.048 Y115.152 E0.5901
G1 X77.855 Y115.474 E0.5963
G1 X77.855 Y119.085 E0.6564
G1 X78.629 Y119.859 E0.6746
G1 X78.951 Y120.052 E0.6808
G1 X81.014 Y120.052 E0.7151
G1 X81.466 Y120.117 E0.7227
G1 X81.466 Y122.696 E0.7656
G1 X82.239 Y123.470 E0.7838
G1 F4800 E-0.2162
G1 X95.264 Y113.669 F10800
G1 F4800 E0.7838
G1 X95.587 Y113.862 E0.7900 F600
G1 X95.845 Y114.120 E0.7961
G1 X97.005 Y114.507 E0.8164
G1 X97.650 Y114.894 E0.8290
G1 X98.037 Y115.023 E0.8357
G1 X98.295 Y115.152 E0.8405
G1 X98.940 Y115.410 E0.8521
G1 X99.069 Y115.539 E0.8551
G1 X99.326 Y115.539 E0.8594
G1 X99.455 Y115.668 E0.8624
G1 X99.713 Y115.668 E0.8667
G1 X99.842 Y115.797 E0.8698
G1 X100.100 Y115.797 E0.8740
G1 X100.229 Y115.926 E0.8771
G1 X100.487 Y115.926 E0.8814
G1 X100.616 Y116.055 E0.8844
G1 X101.519 Y116.184 E0.8996
G1 X101.906 Y116.312 E0.9064
G1 X102.679 Y116.312 E0.9192
G1 X102.808 Y116.441 E0.9223
G1 X106.935 Y116.441 E0.9909
G1 X107.322 Y116.312 E0.9977
G1 X108.096 Y116.312 E1.0105
G1 X108.225 Y116.184 E1.0136
G1 X108.741 Y116.184 E1.0221
G1 X108.870 Y116.055 E1.0252
G1 X109.321 Y115.990 E1.0327
G1 X110.868 Y115.474 E1.0599
G1 X111.191 Y115.281 E1.0661
G1 X111.578 Y115.152 E1.0729
G1 X111.707 Y115.023 E1.0760
G1 X111.965 Y115.023 E1.0802
G1 X112.609 Y114.636 E1.0927
G1 X112.996 Y114.507 E1.0995
G1 X113.125 Y114.378 E1.1026
G1 X113.383 Y114.378 E1.1068
G1 X113.512 Y114.249 E1.1099
G1 X113.770 Y114.249 E1.1142
G1 X114.092 Y114.056 E1.1204
G1 X114.350 Y113.798 E1.1265
G1 X114.673 Y113.604 E1.1327
G1 X118.542 Y109.736 E1.2237
G1 X118.735 Y109.413 E1.2300
G1 X118.993 Y109.155 E1.2360
G1 X119.122 Y108.769 E1.2428
G1 X119.509 Y108.124 E1.2553
G1 X119.573 Y107.672 E1.2629
G1 X119.766 Y107.350 E1.2692
G1 X119.895 Y106.963 E1.2759
G1 X120.089 Y106.640 E1.2822
G1 X120.218 Y106.254 E1.2890
G1 X120.411 Y105.931 E1.2952
G1 X120.411 Y105.674 E1.2995
G1 X120.540 Y105.545 E1.3026
G1 X120.540 Y105.287 E1.3068
G1 X120.669 Y105.158 E1.3099
G1 X120.669 Y104.900 E1.3142
G1 X120.798 Y104.771 E1.3172
G1 X120.798 Y104.513 E1.3215
G1 X120.927 Y104.384 E1.3245
G1 X121.056 Y103.481 E1.3397
G1 X121.185 Y103.094 E1.3465
G1 X121.185 Y102.578 E1.3550
G1 X121.314 Y102.192 E1.3618
G1 X121.314 Y97.807 E1.4347
G1 X121.185 Y97.678 E1.4378
G1 X121.185 Y96.904 E1.4506
G1 X121.056 Y96.775 E1.4537
G1 X121.056 Y96.259 E1.4623
G1 X120.927 Y96.130 E1.4653
G1 X120.863 Y95.679 E1.4729
G1 X120.734 Y95.292 E1.4797
G1 X120.669 Y94.841 E1.4872
G1 X120.476 Y94.519 E1.4935
G1 X120.218 Y93.745 E1.5070
G1 X120.024 Y93.422 E1.5133
G1 X119.895 Y93.035 E1.5201
G1 X119.509 Y92.391 E1.5326
G1 X119.251 Y91.617 E1.5462
G1 X119.122 Y91.488 E1.5492
G1 X119.122 Y91.230 E1.5535
G1 X118.735 Y90.585 E1.5660
G1 X114.608 Y86.458 E1.6630
G1 X114.350 Y86.200 E1.6691
G1 X114.028 Y86.007 E1.6754
G1 X113.254 Y85.749 E1.6889
G1 X112.932 Y85.556 E1.6952
G1 X112.545 Y85.427 E1.7020
G1 X112.223 Y85.234 E1.7082
G1 X111.836 Y85.105 E1.7150
G1 X111.191 Y84.718 E1.7275
G1 X110.933 Y84.718 E1.7318
G1 X110.610 Y84.524 E1.7380
G1 X109.837 Y84.266 E1.7516
G1 X109.385 Y84.202 E1.7592
G1 X109.256 Y84.073 E1.7622
G1 X108.999 Y84.073 E1.7665
G1 X108.870 Y83.944 E1.7695
G1 X107.967 Y83.815 E1.7847
G1 X107.709 Y83.815 E1.7890
G1 X107.580 Y83.686 E1.7920
G1 X102.422 Y83.686 E1.8778
G1 X102.035 Y83.815 E1.8846
G1 X101.519 Y83.815 E1.8932
G1 X101.390 Y83.944 E1.8962
G1 X100.939 Y84.008 E1.9038
G1 X100.552 Y84.137 E1.9106
G1 X100.100 Y84.202 E1.9181
G1 X99.971 Y84.331 E1.9212
G1 X99.713 Y84.331 E1.9255
G1 X99.584 Y84.460 E1.9285
G1 X99.326 Y84.460 E1.9328
G1 X99.004 Y84.653 E1.9390
G1 X98.617 Y84.782 E1.9458
G1 X98.295 Y84.976 E1.9521
G1 X97.908 Y85.105 E1.9589
G1 X97.263 Y85.491 E1.9714
G1 X96.812 Y85.556 E1.9789
G1 X96.360 Y85.878 E1.9882
G1 X96.102 Y85.878 E1.9925
G1 X95.458 Y86.265 E2.0050
G1 X91.331 Y90.392 E2.1020
G1 X91.073 Y90.650 E2.1081
G1 X90.880 Y90.972 E2.1143
G1 X90.622 Y91.746 E2.1279
G1 X90.493 Y91.875 E2.1309
G1 X90.493 Y92.133 E2.1352
G1 X90.106 Y92.777 E2.1477
G1 X89.977 Y93.164 E2.1545
G1 X89.590 Y93.809 E2.1670
G1 X89.590 Y94.067 E2.1713
G1 X89.461 Y94.196 E2.1743
G1 X89.461 Y94.454 E2.1786
G1 X89.268 Y94.777 E2.1849
G1 X89.203 Y95.228 E2.1925
G1 X89.074 Y95.357 E2.1955
G1 X89.074 Y95.615 E2.1998
G1 X88.945 Y95.744 E2.2028
G1 X88.816 Y96.646 E2.2180
G1 X88.688 Y97.033 E2.2248
G1 X88.688 Y97.549 E2.2333
G1 X88.559 Y97.678 E2.2364
G1 X88.559 Y102.321 E2.3136
G1 X88.688 Y102.449 E2.3166
G1 X88.688 Y103.223 E2.3295
G1 X88.816 Y103.352 E2.3325
G1 X88.816 Y103.868 E2.3411
G1 X88.945 Y103.997 E2.3441
G1 X89.010 Y104.448 E2.3517
G1 X89.526 Y105.996 E2.3788
G1 X89.719 Y106.318 E2.3851
G1 X89.719 Y106.576 E2.3894
G1 X90.106 Y107.221 E2.4019
G1 X90.235 Y107.608 E2.4087
G1 X90.428 Y107.930 E2.4149
G1 X90.557 Y108.317 E2.4217
G1 X90.751 Y108.640 E2.4280
G1 X90.751 Y108.898 E2.4322
G1 X90.944 Y109.220 E2.4385
G1 X91.202 Y109.478 E2.4446
G1 X91.396 Y109.800 E2.4508
G1 X95.264 Y113.669 E2.5418
G1 F4800 E1.5418
G1 X99.326 Y105.738 F10800
G1 F4800 E2.5418
G1 X98.359 Y104.126 E2.5731 F600
G1 X98.230 Y103.739 E2.5799
G1 X98.101 Y103.610 E2.5829
G1 X98.101 Y103.352 E2.5872
G1 X97.908 Y103.030 E2.5934
G1 X97.779 Y102.643 E2.6002
G1 X97.714 Y102.192 E2.6078
G1 X97.585 Y102.063 E2.6108
G1 X97.585 Y101.805 E2.6151
G1 X97.456 Y101.676 E2.6181
G1 X97.456 Y101.160 E2.6267
G1 X97.327 Y101.031 E2.6298
G1 X97.327 Y99.483 E2.6555
G1 X97.456 Y98.581 E2.6707
G1 X97.585 Y98.194 E2.6774
G1 X97.585 Y97.936 E2.6817
G1 X97.972 Y97.291 E2.6942
G1 X98.037 Y96.839 E2.7018
G1 X98.166 Y96.453 E2.7086
G1 X98.359 Y96.130 E2.7148
G1 X98.488 Y95.744 E2.7216
G1 X99.262 Y94.454 E2.7466
G1 X99.584 Y94.260 E2.7529
G1 X99.842 Y94.002 E2.7590
G1 X100.229 Y93.873 E2.7657
G1 X100.874 Y93.486 E2.7783
G1 X101.261 Y93.358 E2.7850
G1 X101.583 Y93.164 E2.7913
G1 X103.131 Y92.649 E2.8184
G1 X103.840 Y92.584 E2.8303
G1 X103.969 Y92.455 E2.8333
G1 X104.743 Y92.455 E2.8462
G1 X104.872 Y92.326 E2.8492
G1 X105.259 Y92.455 E2.8560
G1 X105.775 Y92.455 E2.8645
G1 X106.161 Y92.584 E2.8713
G1 X106.677 Y92.584 E2.8799
G1 X106.806 Y92.713 E2.8829
G1 X107.064 Y92.713 E2.8872
G1 X107.193 Y92.842 E2.8903
G1 X107.451 Y92.842 E2.8946
G1 X107.580 Y92.971 E2.8976
G1 X107.838 Y92.971 E2.9019
G1 X107.967 Y93.100 E2.9049
G1 X108.225 Y93.100 E2.9092
G1 X108.870 Y93.486 E2.9217
G1 X109.256 Y93.615 E2.9285
G1 X110.546 Y94.389 E2.9535
G1 X110.740 Y94.712 E2.9598
G1 X110.998 Y94.970 E2.9658
G1 X111.127 Y95.357 E2.9726
G1 X111.514 Y96.001 E2.9851
G1 X111.642 Y96.388 E2.9919
G1 X111.771 Y96.517 E2.9949
G1 X111.771 Y96.775 E2.9992
G1 X111.965 Y97.097 E3.0055
G1 X112.223 Y97.871 E3.0190
G1 X112.287 Y98.323 E3.0266
G1 X112.416 Y98.452 E3.0296
G1 X112.416 Y98.968 E3.0382
G1 X112.545 Y99.097 E3.0413
G1 X112.545 Y100.644 E3.0670
G1 X112.416 Y101.547 E3.0822
G1 X112.158 Y102.321 E3.0957
G1 X112.158 Y102.578 E3.1000
G1 X112.029 Y102.707 E3.1030
G1 X112.029 Y102.965 E3.1073
G1 X111.836 Y103.288 E3.1136
G1 X111.707 Y103.675 E3.1204
G1 X111.514 Y103.997 E3.1266
G1 X111.385 Y104.384 E3.1334
G1 X110.611 Y105.674 E3.1584
G1 X108.999 Y106.641 E3.1897
G1 X108.612 Y106.770 E3.1965
G1 X108.483 Y106.899 E3.1995
G1 X108.225 Y106.899 E3.2038
G1 X108.096 Y107.028 E3.2068
G1 X107.838 Y107.028 E3.2111
G1 X107.709 Y107.157 E3.2141
G1 X107.451 Y107.157 E3.2184
G1 X107.322 Y107.286 E3.2215
G1 X107.064 Y107.286 E3.2257
G1 X106.935 Y107.415 E3.2288
G1 X106.677 Y107.415 E3.2331
G1 X106.548 Y107.544 E3.2361
G1 X106.032 Y107.544 E3.2447
G1 X105.646 Y107.673 E3.2515
G1 X104.098 Y107.673 E3.2772
G1 X103.969 Y107.544 E3.2802
G1 X103.453 Y107.544 E3.2888
G1 X102.679 Y107.286 E3.3024
G1 X102.551 Y107.286 E3.3045
G1 X102.293 Y107.157 E3.3093
G1 X101.132 Y106.770 E3.3297
G1 X99.842 Y105.996 E3.3547
G1 X99.326 Y105.738 E3.3643
G1 F4800 E2.3643
G1 X100.358 Y125.082 F10800
G1 F4800 E3.3643
G1 X99.584 Y125.856 E3.3825 F600
G1 X99.391 Y126.178 E3.3887
G1 X99.391 Y133.400 E3.5088
G1 X100.165 Y134.174 E3.5270
G1 X100.358 Y134.367 E3.5315
G1 X111.320 Y134.367 E3.7138
G1 X112.094 Y133.593 E3.7320
G1 X112.287 Y133.271 E3.7383
G1 X112.287 Y126.049 E3.8584
G1 X111.513 Y125.275 E3.8766
G1 X111.191 Y125.082 E3.8828
G1 X100.358 Y125.082 E4.0630
;segType:SoftSupport
G1 F4800 E3.0630
G1 X103.857 Y127.000 F10800
G1 F4800 E4.0630
G1 X106.143 Y127.000 E4.0801 F900
G1 X103.857 Y127.000 E4.0972
;segType:Support
G1 X101.400 Y127.000 E4.1319 F900
;segType:SoftSupport
G1 F4800 E3.1319
G1 X104.386 Y130.600 F10800
G1 F4800 E4.1319
G1 X105.614 Y130.600 E4.1411 F900
;segType:Support
G1 F4800 E3.1411
G1 X119.400 Y119.800 F10800
G1 F4800 E4.1411
G1 X128.400 Y119.800 E4.2683 F900
G1 F4800 E3.2683
G1 X101.400 Y132.400 F10800
G1 F4800 E4.2683
G1 X110.400 Y132.400 E4.3955 F900
G1 F4800 E3.3955
G1 X128.400 Y121.600 F10800
G1 F4800 E4.3955
G1 X119.400 Y121.600 E4.5228 F900
G1 F4800 E3.5228
G1 X116.154 Y107.200 F10800
G1 F4800 E4.5228
G1 X117.600 Y107.200 E4.5432 F900
G1 F4800 E3.5432
G1 X124.800 Y76.600 F10800
G1 F4800 E4.5432
G1 X119.400 Y76.600 E4.6195 F900
G1 F4800 E3.6195
G1 X123.000 Y80.200 F10800
G1 F4800 E4.6195
G1 X128.400 Y80.200 E4.6959 F900
G1 F4800 E3.6959
G1 X106.143 Y73.000 F10800
G1 F4800 E4.6959
G1 X110.400 Y73.000 E4.7560 F900
G1 F4800 E3.7560
G1 X103.856 Y71.200 F10800
G1 F4800 E4.7560
G1 X101.400 Y71.200 E4.7908 F900
G1 F4800 E3.7908
G1 X96.644 Y88.840 F10800
G1 X95.964 Y91.360
G1 X94.605 Y96.400
G1 F4800 E4.7908
G1 X96.000 Y96.400 E4.8105 F900
G1 X96.000 Y94.600 E4.8359
G1 X95.415 Y94.600 E4.8442
G1 F4800 E3.8442
G1 X96.210 Y92.200 F10800
G1 X97.005 Y89.800
G1 X97.800 Y87.400
G1 F4800 E4.8442
G1 X99.600 Y87.400 E4.8696 F900
;segType:SoftSupport
G1 F4800 E3.8696
G1 X106.143 Y71.200 F10800
G1 F4800 E4.8696
G1 X103.856 Y71.200 E4.8867 F900
;segType:Support
G1 F4800 E3.8867
G1 X110.400 Y71.200 F10800
G1 F4800 E4.8867
G1 X106.143 Y71.200 E4.9469 F900
G1 F4800 E3.9469
G1 X103.857 Y73.000 F10800
G1 F4800 E4.9469
G1 X101.400 Y73.000 E4.9817 F900
;segType:SoftSupport
G1 F4800 E3.9817
G1 X104.386 Y69.400 F10800
G1 F4800 E4.9817
G1 X105.614 Y69.400 E4.9908 F900
;segType:Support
G1 F4800 E3.9908
G1 X110.400 Y69.400 F10800
G1 F4800 E4.9908
G1 X105.614 Y69.400 E5.0585 F900
G1 F4800 E4.0585
G1 X107.847 Y87.880 F10800
G1 X110.400 Y109.000
G1 F4800 E5.0585
G1 X108.600 Y109.000 E5.0839 F900
G1 F4800 E4.0839
G1 X110.400 Y110.800 F10800
G1 X112.200 Y112.600
G1 X123.000 Y123.400
G1 F4800 E5.0839
G1 X124.800 Y123.400 E5.1094 F900
G1 F4800 E4.1094
G1 X132.000 Y118.000 F10800
G1 F4800 E5.1094
G1 X126.600 Y118.000 E5.1857 F900
G1 F4800 E4.1857
G1 X130.200 Y100.000 F10800
G1 F4800 E5.1857
G1 X130.331 Y100.000 E5.1876 F900
G1 X130.200 Y101.800 E5.2131
G1 X135.600 Y101.800 E5.2894
G1 F4800 E4.2894
G1 X126.600 Y116.200 F10800
G1 F4800 E5.2894
G1 X132.000 Y116.200 E5.3657 F900
G1 F4800 E4.3657
G1 X114.528 Y91.167 F10800
G1 X101.400 Y74.800
G1 F4800 E5.3657
G1 X110.400 Y74.800 E5.4930 F900
G1 F4800 E4.4930
G1 X117.287 Y97.637 F10800
G1 X117.513 Y100.074
G1 X116.971 Y105.400
G1 F4800 E5.4930
G1 X117.600 Y105.400 E5.5019 F900
G1 F4800 E4.5019
G1 X130.200 Y103.600 F10800
G1 F4800 E5.5019
G1 X135.600 Y103.600 E5.5782 F900
G1 F4800 E4.5782
G1 X135.600 Y98.200 F10800
G1 F4800 E5.5782
G1 X130.200 Y98.200 E5.6545 F900
G1 X130.331 Y100.000 E5.6800
;segType:SoftSupport
G1 X135.600 Y100.000 E5.7195 F900
;segType:Support
G1 F4800 E4.7195
G1 X128.400 Y85.600 F10800
G1 F4800 E5.7195
G1 X126.600 Y85.600 E5.7449 F900
G1 X126.600 Y83.800 E5.7704
G1 X128.400 Y83.800 E5.7958
G1 F4800 E4.7958
G1 X135.600 Y94.600 F10800
G1 F4800 E5.7958
G1 X130.200 Y94.600 E5.8721 F900
G1 F4800 E4.8721
G1 X123.000 Y82.000 F10800
G1 F4800 E5.8721
G1 X128.400 Y82.000 E5.9485 F900
G1 F4800 E4.9485
G1 X130.200 Y96.400 F10800
G1 F4800 E5.9485
G1 X135.600 Y96.400 E6.0248 F900
G1 F4800 E5.0248
G1 X119.400 Y78.400 F10800
G1 F4800 E6.0248
G1 X124.800 Y78.400 E6.1011 F900
;segType:SoftSupport
G1 F4800 E5.1011
G1 X106.143 Y73.000 F10800
G1 F4800 E6.1011
G1 X103.857 Y73.000 E6.1182 F900
;segType:Support
G1 F4800 E5.1182
G1 X101.400 Y69.400 F10800
G1 F4800 E6.1182
G1 X104.386 Y69.400 E6.1604 F900
G1 F4800 E5.1604
G1 X96.978 Y88.970 F10800
G1 X96.052 Y91.416
G1 F4800 E6.1604
;segType:Loop
G1 X96.068 Y91.398 E6.1608 F600
G1 X96.395 Y91.072 E6.1685
G1 X97.014 Y90.520 E6.1823
G1 X97.274 Y90.349 E6.1875
G1 X97.747 Y90.170 E6.1959
G1 X97.823 Y90.138 E6.1973
G1 X97.533 Y90.347 E6.2032
G1 X96.918 Y90.856 E6.2165
G1 X96.336 Y91.404 E6.2298
G1 X95.793 Y91.990 E6.2431
G1 X95.289 Y92.609 E6.2563
G1 X95.123 Y92.843 E6.2611
G1 X95.270 Y92.478 E6.2677
G1 X95.409 Y92.164 E6.2734
G1 X95.757 Y91.737 E6.2825
G1 X95.921 Y91.559 E6.2866
G1 F4800 E5.2866
G1 X95.949 Y92.125 F10800
G1 X94.586 Y94.042
G1 X93.623 Y96.193
G1 X93.098 Y98.485
G1 X93.031 Y100.836
G1 X93.425 Y103.156
G1 X94.261 Y105.349
G1 X95.511 Y107.341
G1 X97.125 Y109.051
G1 X99.042 Y110.414
G1 X101.193 Y111.377
G1 X103.485 Y111.902
G1 X104.493 Y111.982
G1 X104.693 Y112.292
G1 F4800 E6.2866
;segType:Perimeter
G1 X104.222 Y111.778 E6.2982 F359
G1 X103.510 Y111.710 E6.3101
G1 X102.748 Y111.588 E6.3229
G1 X101.994 Y111.415 E6.3358
G1 X101.254 Y111.194 E6.3486
G1 X100.526 Y110.923 E6.3615
G1 X99.820 Y110.606 E6.3744
G1 X99.138 Y110.246 E6.3872
G1 X98.480 Y109.840 E6.4001
G1 X97.851 Y109.392 E6.4129
G1 X97.252 Y108.905 E6.4257
G1 X96.686 Y108.379 E6.4386
G1 X96.156 Y107.817 E6.4514
G1 X95.664 Y107.222 E6.4643
G1 X95.211 Y106.596 E6.4771
G1 X94.801 Y105.942 E6.4900
G1 X94.435 Y105.262 E6.5028
G1 X94.112 Y104.559 E6.5157
G1 X93.839 Y103.843 E6.5284
G1 X93.611 Y103.105 E6.5413
G1 X93.432 Y102.353 E6.5541
G1 X93.304 Y101.592 E6.5670
G1 X93.224 Y100.823 E6.5798
G1 X93.196 Y100.052 E6.5927
G1 X93.217 Y99.280 E6.6055
G1 X93.290 Y98.510 E6.6184
G1 X93.412 Y97.748 E6.6312
G1 X93.585 Y96.994 E6.6440
G1 X93.806 Y96.254 E6.6569
G1 X94.077 Y95.525 E6.6698
G1 X94.394 Y94.821 E6.6827
G1 X94.754 Y94.138 E6.6955
G1 X95.160 Y93.480 E6.7084
G1 X95.608 Y92.851 E6.7212
G1 X96.095 Y92.252 E6.7340
G1 X96.621 Y91.686 E6.7469
G1 X97.183 Y91.156 E6.7597
G1 X97.778 Y90.664 E6.7726
G1 X98.404 Y90.211 E6.7854
G1 X99.058 Y89.801 E6.7983
G1 X99.738 Y89.434 E6.8111
G1 X100.441 Y89.112 E6.8240
G1 X101.157 Y88.839 E6.8367
G1 X101.895 Y88.611 E6.8496
G1 X102.647 Y88.432 E6.8624
G1 X103.408 Y88.304 E6.8753
G1 X104.177 Y88.224 E6.8881
G1 X104.948 Y88.196 E6.9009
G1 X105.720 Y88.217 E6.9138
G1 X106.490 Y88.290 E6.9267
G1 X107.252 Y88.412 E6.9395
G1 X108.006 Y88.585 E6.9523
G1 X108.746 Y88.806 E6.9652
G1 X109.474 Y89.077 E6.9781
G1 X110.180 Y89.394 E6.9910
G1 X110.862 Y89.754 E7.0038
G1 X111.520 Y90.160 E7.0167
G1 X112.149 Y90.608 E7.0295
G1 X112.748 Y91.095 E7.0423
G1 X113.314 Y91.621 E7.0552
G1 X113.844 Y92.183 E7.0680
G1 X114.336 Y92.778 E7.0809
G1 X114.789 Y93.404 E7.0937
G1 X115.199 Y94.059 E7.1066
G1 X115.565 Y94.738 E7.1194
G1 X115.888 Y95.441 E7.1323
G1 X116.161 Y96.157 E7.1450
G1 X116.389 Y96.895 E7.1579
G1 X116.568 Y97.647 E7.1707
G1 X116.696 Y98.408 E7.1836
G1 X116.776 Y99.177 E7.1964
G1 X116.804 Y99.948 E7.2092
G1 X116.783 Y100.720 E7.2221
G1 X116.710 Y101.490 E7.2349
G1 X116.588 Y102.252 E7.2478
G1 X116.415 Y103.006 E7.2606
G1 X116.194 Y103.746 E7.2735
G1 X115.923 Y104.474 E7.2864
G1 X115.606 Y105.180 E7.2993
G1 X115.246 Y105.862 E7.3121
G1 X114.840 Y106.520 E7.3249
G1 X114.392 Y107.149 E7.3378
G1 X113.905 Y107.748 E7.3506
G1 X113.379 Y108.314 E7.3635
G1 X112.817 Y108.844 E7.3763
G1 X112.222 Y109.336 E7.3892
G1 X111.596 Y109.789 E7.4020
G1 X110.941 Y110.199 E7.4149
G1 X110.262 Y110.565 E7.4277
G1 X109.559 Y110.888 E7.4406
G1 X108.843 Y111.161 E7.4533
G1 X108.105 Y111.389 E7.4661
G1 X107.353 Y111.568 E7.4790
G1 X106.592 Y111.696 E7.4918
G1 X105.823 Y111.776 E7.5047
G1 X105.052 Y111.804 E7.5175
G1 X104.338 Y111.785 E7.5294
G1 X103.808 Y112.238
G1 F4800 E6.5294
G1 X103.857 Y111.937 F10800
G1 X106.618 Y111.888
G1 X108.906 Y111.344
G1 X111.039 Y110.367
G1 X114.547 Y107.266
G1 X116.602 Y103.055
G1 X116.976 Y100.732
G1 X116.888 Y98.382
G1 X116.344 Y96.094
G1 X115.367 Y93.961
G1 X113.989 Y92.055
G1 X112.268 Y90.172
G1 F4800 E7.5294
;segType:Loop
G1 X112.637 Y90.313 E7.5360 F600
G1 X112.902 Y90.454 E7.5410
G1 X113.434 Y90.912 E7.5526
G1 X113.768 Y91.232 E7.5603
G1 X114.088 Y91.566 E7.5680
G1 X114.546 Y92.098 E7.5797
G1 X114.687 Y92.363 E7.5847
G1 X114.864 Y92.825 E7.5929
G1 X114.653 Y92.533 E7.5989
G1 X114.144 Y91.918 E7.6122
G1 X113.596 Y91.336 E7.6255
G1 X113.010 Y90.793 E7.6388
G1 X112.391 Y90.289 E7.6520
G1 X112.256 Y90.193 E7.6548
G1 X110.958 Y89.586 F10800
G1 X108.807 Y88.623
G1 X106.515 Y88.098
G1 X104.164 Y88.031
G1 X101.844 Y88.425
G1 X99.651 Y89.260
G1 X97.659 Y90.511
G1 X95.309 Y92.574
;segType:Perimeter
G1 X95.101 Y91.908 E7.6664 F359
G1 X95.454 Y91.475 E7.6757
G1 X95.780 Y91.121 E7.6837
G1 X96.120 Y90.781 E7.6917
G1 X96.770 Y90.202 E7.7061
G1 X97.091 Y89.991 E7.7125
G1 X97.599 Y89.798 E7.7216
G1 X98.115 Y89.582 E7.7309
G1 X99.392 Y88.992 E7.7543
G1 X100.203 Y88.640 E7.7690
G1 X100.965 Y88.358 E7.7825
G1 X101.734 Y88.123 E7.7959
G1 X102.519 Y87.933 E7.8093
G1 X103.315 Y87.797 E7.8227
G1 X104.122 Y87.712 E7.8362
G1 X104.927 Y87.680 E7.8496
G1 X105.733 Y87.702 E7.8630
G1 X106.530 Y87.777 E7.8763
G1 X107.327 Y87.903 E7.8897
G1 X108.126 Y88.085 E7.9034
G1 X108.948 Y88.329 E7.9176
G1 X109.747 Y88.621 E7.9318
G1 X110.201 Y88.810 E7.9400
G1 X111.508 Y89.409 E7.9639
G1 X112.173 Y89.707 E7.9760
G1 X112.804 Y89.948 E7.9872
G1 X113.129 Y90.122 E7.9934
G1 X113.703 Y90.615 E8.0059
G1 X114.051 Y90.949 E8.0140
G1 X114.385 Y91.297 E8.0220
G1 X114.878 Y91.871 E8.0346
G1 X115.052 Y92.196 E8.0407
G1 X115.293 Y92.828 E8.0519
G1 X116.190 Y94.798 E8.0879
G1 X116.379 Y95.253 E8.0961
G1 X116.671 Y96.052 E8.1103
G1 X116.915 Y96.874 E8.1245
G1 X117.097 Y97.673 E8.1382
G1 X117.223 Y98.470 E8.1516
G1 X117.298 Y99.267 E8.1649
G1 X117.320 Y100.073 E8.1783
G1 X117.288 Y100.878 E8.1917
G1 X117.203 Y101.685 E8.2052
G1 X117.067 Y102.481 E8.2186
G1 X116.877 Y103.266 E8.2321
G1 X116.642 Y104.035 E8.2454
G1 X116.360 Y104.797 E8.2589
G1 X116.008 Y105.608 E8.2736
G1 X115.418 Y106.886 E8.2971
G1 X115.099 Y107.677 E8.3112
G1 X114.935 Y108.047 E8.3180
G1 X114.546 Y108.525 E8.3282
G1 X114.220 Y108.879 E8.3362
G1 X113.880 Y109.219 E8.3442
G1 X113.230 Y109.798 E8.3587
G1 X112.909 Y110.009 E8.3651
G1 X112.401 Y110.202 E8.3741
G1 X111.885 Y110.418 E8.3834
G1 X110.608 Y111.008 E8.4068
G1 X109.797 Y111.360 E8.4215
G1 X109.035 Y111.642 E8.4350
G1 X108.266 Y111.877 E8.4484
G1 X107.481 Y112.067 E8.4618
G1 X106.685 Y112.203 E8.4753
G1 X105.878 Y112.288 E8.4888
G1 X105.073 Y112.320 E8.5022
G1 X104.267 Y112.298 E8.5156
G1 X103.470 Y112.223 E8.5289
G1 X102.673 Y112.097 E8.5423
G1 X101.874 Y111.915 E8.5559
G1 X101.052 Y111.671 E8.5702
G1 X100.253 Y111.380 E8.5843
G1 X99.798 Y111.190 E8.5925
G1 X98.492 Y110.591 E8.6164
G1 X97.827 Y110.292 E8.6285
G1 X97.196 Y110.052 E8.6398
G1 X96.870 Y109.878 E8.6459
G1 X96.297 Y109.385 E8.6585
G1 X95.949 Y109.051 E8.6665
G1 X95.615 Y108.703 E8.6745
G1 X95.122 Y108.130 E8.6871
G1 X94.948 Y107.804 E8.6933
G1 X94.707 Y107.172 E8.7045
G1 X93.810 Y105.202 E8.7405
G1 X93.620 Y104.747 E8.7487
G1 X93.329 Y103.948 E8.7628
G1 X93.085 Y103.126 E8.7771
G1 X92.903 Y102.327 E8.7907
G1 X92.777 Y101.530 E8.8041
G1 X92.702 Y100.733 E8.8175
G1 X92.680 Y99.927 E8.8309
G1 X92.712 Y99.122 E8.8442
G1 X92.797 Y98.315 E8.8577
G1 X92.933 Y97.519 E8.8712
G1 X93.123 Y96.734 E8.8846
G1 X93.358 Y95.965 E8.8980
G1 X93.640 Y95.203 E8.9115
G1 X93.992 Y94.392 E8.9262
G1 X94.582 Y93.114 E8.9496
G1 X94.901 Y92.323 E8.9638
G1 X95.041 Y92.006 E8.9696
G1 X95.728 Y91.890
G1 X94.586 Y94.042 F10800
G1 X93.623 Y96.193
G1 X93.098 Y98.485
G1 X93.031 Y100.836
G1 X93.425 Y103.156
G1 X94.261 Y105.349
G1 X95.511 Y107.341
G1 X97.731 Y109.828
;segType:Loop
G1 X97.363 Y109.687 E8.9761 F600
G1 X97.098 Y109.546 E8.9811
G1 X96.566 Y109.088 E8.9928
G1 X96.232 Y108.768 E9.0005
G1 X95.912 Y108.434 E9.0082
G1 X95.454 Y107.902 E9.0198
G1 X95.313 Y107.637 E9.0248
G1 X95.137 Y107.175 E9.0330
G1 X95.348 Y107.467 E9.0390
G1 X95.856 Y108.082 E9.0523
G1 X96.404 Y108.664 E9.0656
G1 X96.990 Y109.207 E9.0789
G1 X97.609 Y109.711 E9.0921
G1 X97.743 Y109.806 E9.0949
G1 X101.945 Y111.603 F10800
G1 X104.268 Y111.976
G1 X106.618 Y111.888
G1 X108.906 Y111.344
G1 X112.255 Y109.806
G1 X112.467 Y109.652 E9.0992 F600
G1 X113.082 Y109.144 E9.1125
G1 X113.664 Y108.596 E9.1258
G1 X114.207 Y108.010 E9.1391
G1 X114.711 Y107.391 E9.1523
G1 X114.877 Y107.157 E9.1571
G1 X114.730 Y107.522 E9.1637
G1 X114.591 Y107.836 E9.1694
G1 X114.243 Y108.263 E9.1785
G1 X113.932 Y108.602 E9.1862
G1 X113.605 Y108.928 E9.1939
G1 X112.986 Y109.480 E9.2077
G1 X112.726 Y109.651 E9.2128
G1 X112.266 Y109.825 E9.2210
G1 F4800 E8.2210
G1 X109.033 Y111.710 F10800
G1 X85.200 Y116.200
G1 F4800 E9.2210
;segType:Support
G1 X79.800 Y116.200 E9.2973 F900
G1 F4800 E8.2973
G1 X85.200 Y85.600 F10800
G1 F4800 E9.2973
G1 X83.400 Y85.600 E9.3228 F900
G1 X83.400 Y83.800 E9.3482
G1 X85.200 Y83.800 E9.3737
G1 F4800 E8.3737
G1 X78.000 Y94.600 F10800
G1 F4800 E9.3737
G1 X72.600 Y94.600 E9.4500 F900
G1 F4800 E8.4500
G1 X79.800 Y80.200 F10800
G1 F4800 E9.4500
G1 X85.200 Y80.200 E9.5263 F900
G1 F4800 E8.5263
G1 X83.400 Y76.600 F10800
G1 F4800 E9.5263
G1 X88.800 Y76.600 E9.6027 F900
G1 F4800 E8.6027
G1 X88.800 Y73.000 F10800
G1 F4800 E9.6027
G1 X87.000 Y73.000 E9.6281 F900
G1 X87.000 Y74.800 E9.6536
G1 X88.800 Y74.800 E9.6790
G1 F4800 E8.6790
G1 X79.800 Y82.000 F10800
G1 F4800 E9.6790
G1 X85.200 Y82.000 E9.7553 F900
G1 F4800 E8.7553
G1 X88.800 Y78.400 F10800
G1 F4800 E9.7553
G1 X83.400 Y78.400 E9.8317 F900
G1 F4800 E8.8317
G1 X87.000 Y123.400 F10800
G1 F4800 E9.8317
G1 X88.800 Y123.400 E9.8571 F900
G1 F4800 E8.8571
G1 X124.800 Y125.200 F10800
G1 F4800 E9.8571
G1 X123.000 Y125.200 E9.8825 F900
G1 F4800 E8.8825
G1 X110.400 Y128.800 F10800
G1 F4800 E9.8825
G1 X106.145 Y128.800 E9.9427 F900
G1 F4800 E8.9427
G1 X87.000 Y125.200 F10800
G1 F4800 E9.9427
G1 X88.800 Y125.200 E9.9681 F900
G1 F4800 E8.9681
G1 X103.857 Y128.800 F10800
G1 F4800 E9.9681
G1 X101.400 Y128.800 E10.0029 F900
G1 F4800 E9.0029
G1 X110.400 Y127.000 F10800
G1 F4800 E10.0029
G1 X106.143 Y127.000 E10.0631 F900
G1 X106.145 Y128.800 E10.0885
;segType:SoftSupport
G1 X103.857 Y128.800 E10.1056 F900
;segType:Support
G1 F4800 E9.1056
G1 X83.400 Y121.600 F10800
G1 F4800 E10.1056
G1 X88.800 Y121.600 E10.1820 F900
G1 X88.800 Y119.800 E10.2074
G1 X83.400 Y119.800 E10.2837
G1 F4800 E9.2837
G1 X78.000 Y103.600 F10800
G1 F4800 E10.2837
G1 X72.600 Y103.600 E10.3601 F900
G1 F4800 E9.3601
G1 X79.800 Y118.000 F10800
G1 F4800 E10.3601
G1 X85.200 Y118.000 E10.4364 F900
G1 F4800 E9.4364
G1 X72.600 Y96.400 F10800
G1 F4800 E10.4364
G1 X78.000 Y96.400 E10.5127 F900
;segType:SoftSupport
G1 F4800 E9.5127
G1 X78.000 Y100.000 F10800
G1 F4800 E10.5127
G1 X74.291 Y100.000 E10.5405 F900
;segType:Support
G1 F4800 E9.5405
G1 X78.000 Y101.800 F10800
G1 F4800 E10.5405
G1 X72.600 Y101.800 E10.6168 F900
G1 X72.600 Y100.000 E10.6423
G1 X74.291 Y100.000 E10.6662
G1 X72.600 Y98.200 E10.7011
G1 X78.000 Y98.200 E10.7774
G1 F4800 E9.7774
G1 X110.400 Y130.600 F10800
G1 F4800 E10.7774
G1 X105.614 Y130.600 E10.8451 F900
G1 X104.386 Y130.600 E10.8624
G1 X101.400 Y130.600 E10.9046
; ------------------------------------
; Layer #1
; ------------------------------------
G21 ; mm
G90 ; abs
G92 E0 ; reset extr
M106 S0
;segType:SoftSupport
G1 F4800 E-1.0000
G1 F300 Z0.400
G1 X101.997 Y128.760 F10800
G1 F4800 E0.0000
G1 X103.256 Y128.730 E0.0283 F5400
G1 X103.573 Y130.648 E0.0719
G1 X102.173 Y130.617 E0.1034
G1 X102.173 Y130.617
;segType:Support
G1 X101.400 Y130.600 E0.1361 F5400
G1 X101.400 Y132.400 E0.2125
G1 X106.684 Y132.284 E0.4366
G1 X110.400 Y132.400 E0.5943
G1 X110.400 Y130.600 E0.6706
G1 X107.779 Y130.682 E0.7818
G1 X107.779 Y130.682
;segType:SoftSupport
G1 X106.684 Y130.716 E0.8064 F5400
G1 X106.397 Y130.710 E0.8128
G1 F4800 E-0.1872
G1 X106.744 Y127.148 F10800
G1 F4800 E0.8128
G1 X108.008 Y127.097 E0.8412 F5400
G1 X108.008 Y127.097
;segType:Support
G1 X110.400 Y127.000 E0.9428 F5400
G1 F4800 E-0.0572
G1 X123.000 Y125.200 F10800
G1 F4800 E0.9428
G1 X124.800 Y125.200 E1.0191 F5400
G1 F4800 E0.0191
G1 X119.400 Y119.800 F10800
G1 F4800 E1.0191
G1 X128.400 Y119.800 E1.4008 F5400
G1 X128.400 Y121.600 E1.4771
G1 X119.400 Y121.600 E1.8587
G1 F4800 E0.8587
G1 X124.800 Y123.400 F10800
G1 F4800 E1.8587
G1 X123.000 Y123.400 E1.9351 F5400
G1 F4800 E0.9351
G1 X126.600 Y118.000 F10800
G1 F4800 E1.9351
G1 X132.000 Y118.000 E2.1641 F5400
G1 X132.000 Y116.200 E2.2404
G1 X126.600 Y116.200 E2.4694
G1 F4800 E1.4694
G1 X113.100 Y110.800 F10800
G1 X110.850 Y109.900
G1 X108.600 Y109.000
G1 F4800 E2.4694
G1 X110.400 Y109.000 E2.5457 F5400
G1 F4800 E1.5457
G1 X113.404 Y108.100 F10800
G1 X116.408 Y107.200
G1 F4800 E2.5457
G1 X117.600 Y107.200 E2.5963 F5400
G1 F4800 E1.5963
G1 X130.226 Y103.574 F10800
G1 F4800 E2.5963
G1 X135.600 Y103.600 E2.8242 F5400
G1 F4800 E1.8242
G1 X117.273 Y105.400 F10800
G1 F4800 E2.8242
G1 X117.600 Y105.400 E2.8380 F5400
G1 F4800 E1.8380
G1 X135.600 Y94.600 F10800
G1 F4800 E2.8380
G1 X130.200 Y94.600 E3.0670 F5400
;segType:SoftSupport
G1 F4800 E2.0670
G1 X130.226 Y98.226 F10800
G1 F4800 E3.0670
G1 X132.082 Y98.258 E3.1087 F5400
G1 X134.698 Y98.303 E3.1674
G1 X135.484 Y98.316 E3.1851
G1 X135.600 Y96.400 E3.2282
;segType:Support
G1 X130.200 Y96.400 E3.4572 F5400
;segType:HShell
G1 F4800 E2.4572
G1 X131.141 Y99.835 F10800
G1 F4800 E3.4572
G1 X131.639 Y100.333 E3.4923 F3600
G1 X132.198 Y100.344 E3.5202
G1 X131.524 Y99.671 E3.5677
G1 X132.060 Y99.658 E3.5945
G1 X132.756 Y100.355 E3.6436
G1 X133.303 Y100.355 E3.6709
G1 X132.597 Y99.648 E3.7208
G1 X133.142 Y99.645 E3.7480
G1 X133.842 Y100.346 E3.7974
G1 X134.363 Y100.319 E3.8234
G1 X133.696 Y99.652 E3.8704
G1 X134.267 Y99.675 E3.8990
G1 X134.839 Y100.247 E3.9393
;segType:Loop
G1 X134.258 Y100.526 F10800
G1 X133.990 Y100.543 E3.9527 F3600
G1 X133.371 Y100.555 E3.9836
G1 X132.722 Y100.555 E4.0159
G1 X131.526 Y100.531 E4.0757
G1 X130.979 Y100.467 E4.1031
G1 X130.950 Y100.341 E4.1096
G1 X130.931 Y100.000 E4.1266
G1 X130.950 Y99.659 E4.1436
G1 X130.979 Y99.532 E4.1501
G1 X131.525 Y99.469 E4.1775
G1 X132.722 Y99.445 E4.2373
G1 X133.370 Y99.445 E4.2696
G1 X133.990 Y99.457 E4.3005
G1 X134.527 Y99.491 E4.3273
G1 X134.910 Y99.558 E4.3468
G1 X135.018 Y99.606 E4.3527
G1 X135.086 Y99.747 E4.3604
G1 X135.107 Y100.000 E4.3731
G1 X135.086 Y100.253 E4.3858
G1 X135.018 Y100.394 E4.3936
G1 X134.910 Y100.442 E4.3995
G1 X134.527 Y100.509 E4.4189
G1 X134.451 Y100.514 E4.4227
G1 F4800 E3.4227
G1 X135.151 Y100.035 F10800
G1 F4800 E4.4227
;segType:Perimeter
G1 X135.261 Y100.724 E4.4575 F2159
G1 X135.027 Y100.827 E4.4702
G1 X134.574 Y100.907 E4.4932
G1 X134.007 Y100.943 E4.5215
G1 X133.374 Y100.955 E4.5531
G1 X132.718 Y100.955 E4.5858
G1 X131.504 Y100.931 E4.6464
G1 X131.038 Y100.890 E4.6697
G1 X130.748 Y100.826 E4.6845
G1 X130.631 Y100.737 E4.6919
G1 X130.553 Y100.397 E4.7093
G1 X130.531 Y100.000 E4.7291
G1 X130.553 Y99.603 E4.7490
G1 X130.631 Y99.263 E4.7664
G1 X130.748 Y99.174 E4.7737
G1 X131.038 Y99.110 E4.7885
G1 X131.504 Y99.069 E4.8118
G1 X132.718 Y99.045 E4.8725
G1 X133.374 Y99.045 E4.9052
G1 X134.007 Y99.057 E4.9367
G1 X134.574 Y99.093 E4.9651
G1 X135.027 Y99.173 E4.9880
G1 X135.314 Y99.300 E5.0037
G1 X135.478 Y99.639 E5.0225
G1 X135.509 Y100.000 E5.0406
G1 X135.478 Y100.361 E5.0586
G1 X135.339 Y100.648 E5.0746
G1 X134.655 Y100.515
;segType:SoftSupport
G1 F4800 E4.0746
G1 X130.226 Y101.826 F10800
G1 F4800 E5.0746
G1 X135.600 Y101.800 E5.1952 F5400
G1 F4800 E4.1952
G1 X135.665 Y99.588 F10800
G1 X126.600 Y85.600
G1 F4800 E5.1952
;segType:Support
G1 X128.400 Y85.600 E5.2715 F5400
G1 X128.400 Y83.800 E5.3479
G1 X126.600 Y83.800 E5.4242
G1 X128.400 Y82.000 E5.5322
G1 X123.000 Y82.000 E5.7611
G1 X123.000 Y80.200 E5.8375
G1 X128.400 Y80.200 E6.0665
G1 F4800 E5.0665
G1 X124.800 Y76.600 F10800
G1 F4800 E6.0665
G1 X119.400 Y76.600 E6.2955 F5400
G1 X119.400 Y78.400 E6.3718
G1 X124.800 Y78.400 E6.6008
G1 F4800 E5.6008
G1 X110.400 Y74.800 F10800
G1 F4800 E6.6008
G1 X107.312 Y74.791 E6.7318 F5400
G1 X107.312 Y74.791
;segType:SoftSupport
G1 X106.450 Y74.789 E6.7511 F5400
;segType:Support
G1 F4800 E5.7511
G1 X108.002 Y71.125 F10800
G1 F4800 E6.7511
G1 X110.400 Y71.200 E6.8529 F5400
G1 X110.400 Y73.000 E6.9292
G1 X108.002 Y73.007 E7.0309
G1 X108.002 Y73.007
;segType:SoftSupport
G1 X106.743 Y73.011 E7.0591 F5400
G1 X106.743 Y71.086 E7.1024
G1 X108.002 Y71.125 E7.1306
;segType:Support
G1 F4800 E6.1306
G1 X110.400 Y69.400 F10800
G1 F4800 E7.1306
G1 X107.873 Y69.479 E7.2379 F5400
G1 X107.873 Y69.479
;segType:SoftSupport
G1 X106.684 Y69.516 E7.2646 F5400
G1 X106.509 Y69.512 E7.2685
G1 F4800 E6.2685
G1 X103.514 Y69.447 F10800
G1 F4800 E7.2685
G1 X102.156 Y69.417 E7.2990 F5400
G1 X102.156 Y69.417
;segType:Support
G1 X101.400 Y69.400 E7.3311 F5400
G1 X101.997 Y71.187 E7.4110
;segType:SoftSupport
G1 X103.257 Y71.159 E7.4392 F5400
;segType:HShell
G1 F4800 E6.4392
G1 X105.325 Y70.733 F10800
G1 F4800 E7.4392
G1 X104.759 Y70.167 E7.4792 F3600
G1 X104.680 Y70.636 E7.5029
G1 X105.344 Y71.300 E7.5497
G1 X105.348 Y71.851 E7.5772
G1 X104.657 Y71.160 E7.6260
G1 X104.649 Y71.701 E7.6529
G1 X105.351 Y72.402 E7.7024
G1 X105.343 Y72.942 E7.7294
G1 X104.653 Y72.252 E7.7781
G1 X104.656 Y72.803 E7.8056
G1 X105.325 Y73.472 E7.8528
;segType:Loop
G1 X104.535 Y74.026 F10800
G1 X104.535 Y74.026 F3600
G1 X104.478 Y73.563 E7.8761
G1 X104.457 Y73.008 E7.9038
G1 X104.449 Y71.725 E7.9678
G1 X104.457 Y71.104 E7.9988
G1 X104.483 Y70.569 E8.0255
G1 X104.539 Y70.186 E8.0448
G1 X104.626 Y69.951 E8.0574
G1 X105.000 Y69.893 E8.0762
G1 X105.267 Y69.915 E8.0896
G1 X105.407 Y69.993 E8.0976
G1 X105.459 Y70.169 E8.1067
G1 X105.517 Y70.569 E8.1269
G1 X105.543 Y71.102 E8.1535
G1 X105.551 Y72.379 E8.2172
G1 X105.543 Y73.006 E8.2485
G1 X105.522 Y73.563 E8.2763
G1 X105.464 Y74.026 E8.2996
G1 X105.230 Y74.055 E8.3114
G1 X104.770 Y74.055 E8.3343
G1 F4800 E7.3343
G1 X105.556 Y73.671 F10800
G1 F4800 E8.3343
;segType:Perimeter
G1 X105.737 Y74.344 E8.3691 F2159
G1 X105.553 Y74.423 E8.3791
G1 X105.251 Y74.455 E8.3943
G1 X104.749 Y74.455 E8.4193
G1 X104.447 Y74.423 E8.4345
G1 X104.210 Y74.321 E8.4473
G1 X104.121 Y74.043 E8.4618
G1 X104.079 Y73.589 E8.4846
G1 X104.057 Y73.017 E8.5132
G1 X104.049 Y71.724 E8.5777
G1 X104.057 Y71.092 E8.6092
G1 X104.084 Y70.530 E8.6373
G1 X104.149 Y70.085 E8.6597
G1 X104.299 Y69.684 E8.6811
G1 X104.411 Y69.605 E8.6879
G1 X104.625 Y69.523 E8.6993
G1 X105.000 Y69.491 E8.7181
G1 X105.375 Y69.523 E8.7369
G1 X105.697 Y69.681 E8.7548
G1 X105.780 Y69.844 E8.7639
G1 X105.851 Y70.083 E8.7764
G1 X105.916 Y70.530 E8.7989
G1 X105.943 Y71.091 E8.8269
G1 X105.951 Y72.380 E8.8912
G1 X105.943 Y73.016 E8.9230
G1 X105.921 Y73.589 E8.9516
G1 X105.879 Y74.043 E8.9743
G1 X105.808 Y74.265 E8.9860
G1 X105.120 Y74.152
G1 F4800 E7.9860
G1 X105.152 Y73.847 F10800
G1 F4800 E8.9860
;segType:HShell
G1 X104.671 Y73.365 E9.0199 F3600
;segType:SoftSupport
G1 F4800 E8.0199
G1 X103.542 Y74.780 F10800
G1 F4800 E9.0199
G1 X102.581 Y74.777 E9.0415 F5400
G1 X102.581 Y74.777
;segType:Support
G1 X101.426 Y74.774 E9.0905 F5400
G1 X101.426 Y73.026 E9.1646
G1 X101.994 Y73.024 E9.1887
G1 X101.994 Y73.024
;segType:SoftSupport
G1 X103.257 Y73.021 E9.2171 F5400
G1 X101.997 Y71.187 E9.2670
;segType:Support
G1 X101.400 Y71.200 E9.2924 F5400
G1 F4800 E8.2924
G1 X88.800 Y73.000 F10800
G1 F4800 E9.2924
G1 X87.000 Y73.000 E9.3687 F5400
G1 X87.000 Y74.800 E9.4450
G1 X88.800 Y74.800 E9.5214
G1 F4800 E8.5214
G1 X83.400 Y78.400 F10800
G1 F4800 E9.5214
G1 X88.800 Y78.400 E9.7504 F5400
G1 X88.800 Y76.600 E9.8267
G1 X83.400 Y76.600 E10.0557
G1 F4800 E9.0557
G1 X85.200 Y80.200 F10800
G1 F4800 E10.0557
G1 X79.800 Y80.200 E10.2847 F5400
G1 X79.800 Y82.000 E10.3610
G1 X85.200 Y82.000 E10.5900
G1 X85.200 Y83.800 E10.6663
G1 X83.400 Y83.800 E10.7427
;segType:HShell
G1 F4800 E9.7427
G1 X77.837 Y99.656 F10800
G1 F4800 E10.7427
G1 X78.505 Y100.324 E10.7898 F3600
G1 X78.847 Y100.118 E10.8097
G1 X78.401 Y99.672 E10.8412
;segType:Loop
G1 X79.043 Y100.326 F10800
G1 X79.026 Y100.464 E10.8481 F3600
G1 X78.563 Y100.522 E10.8714
G1 X78.007 Y100.543 E10.8992
G1 X76.724 Y100.555 E10.9632
G1 X76.106 Y100.543 E10.9940
G1 X75.569 Y100.517 E11.0209
G1 X75.186 Y100.461 E11.0402
G1 X74.951 Y100.374 E11.0527
G1 X74.917 Y100.284 E11.0575
G1 X74.893 Y100.000 E11.0717
G1 X74.915 Y99.734 E11.0850
G1 X74.993 Y99.593 E11.0930
G1 X75.169 Y99.541 E11.1022
G1 X75.569 Y99.483 E11.1224
G1 X76.106 Y99.457 E11.1492
G1 X76.724 Y99.445 E11.1800
G1 X78.007 Y99.457 E11.2440
G1 X78.563 Y99.478 E11.2718
G1 X79.026 Y99.536 E11.2951
G1 X79.055 Y99.770 E11.3069
G1 X79.055 Y99.770
;segType:Perimeter
G1 X78.671 Y99.444 F10800
G1 X79.344 Y99.263 E11.3416 F2159
G1 X79.424 Y99.447 E11.3516
G1 X79.455 Y99.749 E11.3668
G1 X79.455 Y100.251 E11.3918
G1 X79.424 Y100.553 E11.4070
G1 X79.321 Y100.790 E11.4199
G1 X79.043 Y100.879 E11.4344
G1 X78.589 Y100.921 E11.4572
G1 X78.017 Y100.943 E11.4858
G1 X76.722 Y100.955 E11.5504
G1 X76.093 Y100.943 E11.5817
G1 X75.530 Y100.916 E11.6098
G1 X75.085 Y100.851 E11.6323
G1 X74.684 Y100.701 E11.6536
G1 X74.606 Y100.589 E11.6604
G1 X74.523 Y100.375 E11.6719
G1 X74.491 Y100.000 E11.6907
G1 X74.523 Y99.625 E11.7095
G1 X74.681 Y99.303 E11.7273
G1 X74.844 Y99.220 E11.7365
G1 X75.083 Y99.149 E11.7489
G1 X75.530 Y99.084 E11.7714
G1 X76.093 Y99.057 E11.7996
G1 X76.722 Y99.045 E11.8309
G1 X78.017 Y99.057 E11.8955
G1 X78.589 Y99.079 E11.9241
G1 X79.043 Y99.121 E11.9469
G1 X79.265 Y99.192 E11.9585
G1 X79.152 Y99.880
G1 F4800 E10.9585
G1 X77.976 Y100.343 F10800
G1 F4800 E11.9585
;segType:HShell
G1 X77.284 Y99.651 E12.0073 F3600
G1 X76.731 Y99.645 E12.0349
G1 X77.433 Y100.348 E12.0845
G1 X76.891 Y100.353 E12.1116
G1 X76.193 Y99.656 E12.1608
G1 X75.668 Y99.678 E12.1870
G1 X76.337 Y100.347 E12.2342
G1 X75.769 Y100.327 E12.2626
G1 X75.193 Y99.751 E12.3032
;segType:Support
G1 F4800 E11.3032
G1 X72.600 Y94.600 F10800
G1 F4800 E12.3032
G1 X78.000 Y94.600 E12.5322 F5400
G1 F4800 E11.5322
G1 X83.400 Y85.600 F10800
G1 F4800 E12.5322
G1 X85.200 Y85.600 E12.6085 F5400
G1 F4800 E11.6085
G1 X78.000 Y96.400 F10800
G1 F4800 E12.6085
G1 X72.600 Y96.400 E12.8375 F5400
G1 F4800 E11.8375
G1 X72.600 Y101.800 F10800
G1 F4800 E12.8375
G1 X73.980 Y101.807 E12.8960 F5400
G1 F4800 E11.8960
G1 X77.974 Y103.574 F10800
G1 F4800 E12.8960
G1 X72.600 Y103.600 E13.1239 F5400
G1 X73.980 Y101.807 E13.2199
;segType:SoftSupport
G1 X77.974 Y101.826 E13.3096 F5400
G1 F4800 E12.3096
G1 X74.566 Y100.854 F10800
G1 X73.691 Y99.995
G1 F4800 E13.3096
;segType:Support
G1 X72.600 Y100.000 E13.3558 F5400
G1 X72.600 Y98.200 E13.4321
G1 X73.978 Y98.207 E13.4906
G1 X73.978 Y98.207
;segType:SoftSupport
G1 X77.974 Y98.226 E13.5803 F5400
G1 F4800 E12.5803
G1 X92.931 Y93.401 F10800
G1 X95.424 Y92.597
G1 F4800 E13.5803
;segType:HShell
G1 X95.259 Y92.432 E13.5919 F3600
G1 X95.113 Y92.835 E13.6133
G1 X95.192 Y92.913 E13.6188
;segType:Loop
G1 X95.445 Y91.364 F10800
G1 X95.453 Y91.354 E13.6195 F3600
G1 X95.951 Y90.833 E13.6554
G1 X96.437 Y90.377 E13.6887
G1 X96.582 Y90.270 E13.6976
G1 X97.373 Y90.073 E13.7383
G1 X97.887 Y89.876 E13.7658
G1 X98.413 Y89.632 E13.7947
G1 X99.666 Y89.014 E13.8644
G1 X100.444 Y88.670 E13.9069
G1 X101.215 Y88.388 E13.9478
G1 X101.993 Y88.160 E13.9882
G1 X102.773 Y87.989 E14.0281
G1 X103.564 Y87.869 E14.0680
G1 X104.360 Y87.801 E14.1079
G1 X105.160 Y87.785 E14.1478
G1 X105.959 Y87.822 E14.1877
G1 X106.753 Y87.910 E14.2276
G1 X107.544 Y88.051 E14.2676
G1 X108.320 Y88.245 E14.3075
G1 X109.089 Y88.493 E14.3479
G1 X109.853 Y88.796 E14.3888
G1 X110.575 Y89.131 E14.4286
G1 X111.848 Y89.755 E14.4993
G1 X112.327 Y89.966 E14.5254
G1 X112.816 Y90.132 E14.5511
G1 X113.417 Y90.268 E14.5819
G1 X113.646 Y90.453 E14.5966
G1 X114.167 Y90.951 E14.6325
G1 X114.623 Y91.437 E14.6658
G1 X114.730 Y91.582 E14.6748
G1 X114.927 Y92.373 E14.7154
G1 X115.124 Y92.887 E14.7429
G1 X115.368 Y93.413 E14.7719
G1 X115.986 Y94.666 E14.8416
G1 X116.330 Y95.444 E14.8840
G1 X116.612 Y96.215 E14.9250
G1 X116.840 Y96.993 E14.9654
G1 X117.011 Y97.773 E15.0052
G1 X117.131 Y98.564 E15.0451
G1 X117.199 Y99.360 E15.0850
G1 X117.215 Y100.160 E15.1249
G1 X117.178 Y100.959 E15.1648
G1 X117.090 Y101.753 E15.2047
G1 X116.949 Y102.544 E15.2448
G1 X116.755 Y103.320 E15.2847
G1 X116.507 Y104.089 E15.3250
G1 X116.204 Y104.853 E15.3660
G1 X115.869 Y105.575 E15.4057
G1 X115.245 Y106.848 E15.4764
G1 X115.034 Y107.327 E15.5026
G1 X114.868 Y107.816 E15.5283
G1 X114.732 Y108.417 E15.5591
G1 X114.546 Y108.646 E15.5737
G1 X114.049 Y109.167 E15.6097
G1 X113.563 Y109.623 E15.6430
G1 X113.418 Y109.730 E15.6519
G1 X112.628 Y109.926 E15.6926
G1 X112.113 Y110.124 E15.7201
G1 X111.587 Y110.368 E15.7490
G1 X110.334 Y110.986 E15.8187
G1 X109.556 Y111.330 E15.8611
G1 X108.785 Y111.612 E15.9021
G1 X108.007 Y111.840 E15.9425
G1 X107.227 Y112.011 E15.9824
G1 X106.436 Y112.131 E16.0223
G1 X105.640 Y112.199 E16.0621
G1 X104.840 Y112.215 E16.1021
G1 X104.041 Y112.178 E16.1420
G1 X103.247 Y112.090 E16.1818
G1 X102.456 Y111.949 E16.2219
G1 X101.680 Y111.755 E16.2618
G1 X100.911 Y111.507 E16.3021
G1 X100.147 Y111.204 E16.3431
G1 X99.425 Y110.869 E16.3829
G1 X98.152 Y110.245 E16.4536
G1 X97.673 Y110.034 E16.4797
G1 X97.184 Y109.868 E16.5054
G1 X96.583 Y109.732 E16.5362
G1 X96.354 Y109.547 E16.5509
G1 X95.833 Y109.049 E16.5868
G1 X95.377 Y108.563 E16.6201
G1 X95.270 Y108.418 E16.6291
G1 X95.074 Y107.628 E16.6697
G1 X94.876 Y107.113 E16.6972
G1 X94.632 Y106.587 E16.7261
G1 X94.014 Y105.334 E16.7958
G1 X93.670 Y104.556 E16.8383
G1 X93.388 Y103.785 E16.8792
G1 X93.160 Y103.007 E16.9197
G1 X92.989 Y102.227 E16.9595
G1 X92.869 Y101.436 E16.9994
G1 X92.801 Y100.640 E17.0393
G1 X92.785 Y99.840 E17.0792
G1 X92.822 Y99.041 E17.1191
G1 X92.910 Y98.247 E17.1590
G1 X93.051 Y97.456 E17.1990
G1 X93.245 Y96.680 E17.2390
G1 X93.493 Y95.911 E17.2793
G1 X93.796 Y95.147 E17.3203
G1 X94.131 Y94.425 E17.3600
G1 X94.755 Y93.152 E17.4307
G1 X94.966 Y92.673 E17.4568
G1 X95.132 Y92.184 E17.4826
G1 X95.268 Y91.583 E17.5133
G1 X95.323 Y91.515 E17.5177
G1 F4800 E16.5177
G1 X95.084 Y92.637 F10800
G1 F4800 E17.5177
;segType:Perimeter
G1 X94.757 Y92.021 E17.5525 F2159
G1 X94.850 Y91.586 E17.5747
G1 X94.908 Y91.393 E17.5848
G1 X95.153 Y91.089 E17.6042
G1 X95.670 Y90.549 E17.6415
G1 X96.181 Y90.070 E17.6765
G1 X96.408 Y89.901 E17.6906
G1 X97.252 Y89.691 E17.7340
G1 X97.731 Y89.507 E17.7596
G1 X98.240 Y89.271 E17.7876
G1 X99.497 Y88.651 E17.8575
G1 X100.294 Y88.299 E17.9010
G1 X101.090 Y88.008 E17.9433
G1 X101.894 Y87.773 E17.9850
G1 X102.700 Y87.595 E18.0262
G1 X103.517 Y87.471 E18.0674
G1 X104.339 Y87.401 E18.1086
G1 X105.165 Y87.385 E18.1499
G1 X105.990 Y87.423 E18.1911
G1 X106.811 Y87.514 E18.2322
G1 X107.627 Y87.660 E18.2736
G1 X108.430 Y87.861 E18.3149
G1 X109.224 Y88.116 E18.3565
G1 X110.011 Y88.428 E18.3988
G1 X110.748 Y88.770 E18.4393
G1 X112.016 Y89.393 E18.5098
G1 X112.472 Y89.593 E18.5346
G1 X112.922 Y89.745 E18.5583
G1 X113.413 Y89.850 E18.5834
G1 X113.607 Y89.908 E18.5935
G1 X113.911 Y90.153 E18.6129
G1 X114.451 Y90.670 E18.6502
G1 X114.930 Y91.181 E18.6852
G1 X115.099 Y91.408 E18.6993
G1 X115.309 Y92.252 E18.7427
G1 X115.493 Y92.731 E18.7683
G1 X115.729 Y93.240 E18.7963
G1 X116.349 Y94.497 E18.8662
G1 X116.701 Y95.294 E18.9097
G1 X116.992 Y96.090 E18.9520
G1 X117.227 Y96.893 E18.9937
G1 X117.405 Y97.700 E19.0349
G1 X117.529 Y98.517 E19.0762
G1 X117.599 Y99.339 E19.1173
G1 X117.615 Y100.165 E19.1586
G1 X117.577 Y100.990 E19.1998
G1 X117.486 Y101.811 E19.2410
G1 X117.340 Y102.627 E19.2823
G1 X117.139 Y103.430 E19.3236
G1 X116.884 Y104.224 E19.3652
G1 X116.572 Y105.011 E19.4075
G1 X116.230 Y105.748 E19.4480
G1 X115.607 Y107.017 E19.5185
G1 X115.408 Y107.472 E19.5433
G1 X115.255 Y107.922 E19.5670
G1 X115.150 Y108.413 E19.5921
G1 X115.092 Y108.607 E19.6022
G1 X114.847 Y108.910 E19.6216
G1 X114.330 Y109.451 E19.6589
G1 X113.819 Y109.930 E19.6939
G1 X113.592 Y110.099 E19.7080
G1 X112.748 Y110.309 E19.7514
G1 X112.269 Y110.492 E19.7770
G1 X111.760 Y110.729 E19.8050
G1 X110.503 Y111.349 E19.8749
G1 X109.706 Y111.701 E19.9184
G1 X108.910 Y111.992 E19.9607
G1 X108.107 Y112.227 E20.0025
G1 X107.300 Y112.405 E20.0437
G1 X106.483 Y112.529 E20.0849
G1 X105.661 Y112.599 E20.1261
G1 X104.835 Y112.615 E20.1673
G1 X104.010 Y112.577 E20.2085
G1 X103.189 Y112.485 E20.2497
G1 X102.373 Y112.340 E20.2910
G1 X101.570 Y112.139 E20.3323
G1 X100.776 Y111.884 E20.3740
G1 X99.989 Y111.572 E20.4162
G1 X99.252 Y111.230 E20.4567
G1 X97.983 Y110.608 E20.5272
G1 X97.528 Y110.408 E20.5520
G1 X97.078 Y110.255 E20.5757
G1 X96.586 Y110.150 E20.6008
G1 X96.393 Y110.092 E20.6109
G1 X96.090 Y109.847 E20.6303
G1 X95.549 Y109.330 E20.6677
G1 X95.070 Y108.819 E20.7026
G1 X94.901 Y108.592 E20.7167
G1 X94.691 Y107.748 E20.7601
G1 X94.508 Y107.269 E20.7857
G1 X94.271 Y106.760 E20.8138
G1 X93.651 Y105.503 E20.8836
G1 X93.299 Y104.706 E20.9271
G1 X93.008 Y103.910 E20.9694
G1 X92.773 Y103.106 E21.0112
G1 X92.595 Y102.300 E21.0524
G1 X92.471 Y101.483 E21.0936
G1 X92.401 Y100.661 E21.1348
G1 X92.385 Y99.835 E21.1760
G1 X92.423 Y99.010 E21.2172
G1 X92.515 Y98.189 E21.2584
G1 X92.660 Y97.373 E21.2998
G1 X92.861 Y96.570 E21.3410
G1 X93.116 Y95.776 E21.3827
G1 X93.428 Y94.989 E21.4249
G1 X93.770 Y94.252 E21.4654
G1 X94.392 Y92.984 E21.5359
G1 X94.592 Y92.528 E21.5608
G1 X94.727 Y92.133 E21.5816
G1 X95.322 Y91.771
G1 X93.686 Y97.015 F10800
G1 X93.322 Y99.280
G1 X93.405 Y101.572
G1 X93.936 Y103.805
G1 X94.890 Y105.890
G1 X96.233 Y107.749
G1 X97.913 Y109.310
G1 X99.866 Y110.514
G1 X103.171 Y111.760
;segType:Loop
G1 X102.722 Y111.687 E21.6042 F3600
G1 X101.963 Y111.513 E21.6431
G1 X101.216 Y111.289 E21.6820
G1 X100.486 Y111.018 E21.7209
G1 X99.775 Y110.699 E21.7597
G1 X99.086 Y110.334 E21.7986
G1 X98.423 Y109.925 E21.8375
G1 X97.788 Y109.474 E21.8763
G1 X97.184 Y108.983 E21.9152
G1 X96.613 Y108.452 E21.9541
G1 X96.078 Y107.885 E21.9929
G1 X95.582 Y107.285 E22.0318
G1 X95.126 Y106.654 E22.0707
G1 X94.711 Y105.994 E22.1095
G1 X94.342 Y105.307 E22.1484
G1 X94.017 Y104.600 E22.1873
G1 X93.740 Y103.872 E22.2261
G1 X93.510 Y103.127 E22.2650
G1 X93.331 Y102.368 E22.3039
G1 X93.201 Y101.600 E22.3428
G1 X93.122 Y100.825 E22.3817
G1 X93.093 Y100.046 E22.4205
G1 X93.116 Y99.268 E22.4594
G1 X93.189 Y98.492 E22.4983
G1 X93.313 Y97.722 E22.5372
G1 X93.487 Y96.963 E22.5760
G1 X93.711 Y96.216 E22.6150
G1 X93.982 Y95.486 E22.6538
G1 X94.301 Y94.775 E22.6926
G1 X94.666 Y94.086 E22.7315
G1 X95.075 Y93.423 E22.7704
G1 X95.526 Y92.788 E22.8093
G1 X96.017 Y92.184 E22.8481
G1 X96.548 Y91.613 E22.8870
G1 X97.115 Y91.078 E22.9259
G1 X97.715 Y90.582 E22.9648
G1 X98.346 Y90.125 E23.0036
G1 X99.006 Y89.711 E23.0425
G1 X99.693 Y89.342 E23.0814
G1 X100.400 Y89.017 E23.1202
G1 X101.128 Y88.740 E23.1591
G1 X101.873 Y88.510 E23.1980
G1 X102.632 Y88.331 E23.2369
G1 X103.400 Y88.201 E23.2757
G1 X104.175 Y88.122 E23.3146
G1 X104.954 Y88.093 E23.3535
G1 X105.732 Y88.115 E23.3924
G1 X106.509 Y88.189 E23.4313
G1 X107.278 Y88.313 E23.4701
G1 X108.037 Y88.487 E23.5090
G1 X108.784 Y88.711 E23.5479
G1 X109.515 Y88.982 E23.5868
G1 X110.225 Y89.301 E23.6256
G1 X110.914 Y89.666 E23.6645
G1 X111.577 Y90.075 E23.7034
G1 X112.212 Y90.525 E23.7422
G1 X112.816 Y91.017 E23.7811
G1 X113.387 Y91.548 E23.8200
G1 X113.922 Y92.115 E23.8589
G1 X114.418 Y92.715 E23.8977
G1 X114.875 Y93.346 E23.9366
G1 X115.289 Y94.006 E23.9755
G1 X115.658 Y94.693 E24.0143
G1 X115.983 Y95.400 E24.0532
G1 X116.260 Y96.128 E24.0920
G1 X116.490 Y96.873 E24.1309
G1 X116.669 Y97.632 E24.1698
G1 X116.799 Y98.400 E24.2087
G1 X116.878 Y99.175 E24.2476
G1 X116.907 Y99.954 E24.2865
G1 X116.885 Y100.732 E24.3253
G1 X116.811 Y101.509 E24.3642
G1 X116.687 Y102.278 E24.4031
G1 X116.513 Y103.037 E24.4419
G1 X116.289 Y103.784 E24.4809
G1 X116.018 Y104.514 E24.5197
G1 X115.699 Y105.225 E24.5586
G1 X115.334 Y105.914 E24.5975
G1 X114.926 Y106.577 E24.6363
G1 X114.475 Y107.212 E24.6752
G1 X113.983 Y107.816 E24.7140
G1 X113.452 Y108.387 E24.7529
G1 X112.885 Y108.922 E24.7918
G1 X112.285 Y109.418 E24.8307
G1 X111.654 Y109.875 E24.8695
G1 X110.994 Y110.289 E24.9084
G1 X110.307 Y110.658 E24.9473
G1 X109.600 Y110.983 E24.9861
G1 X108.872 Y111.260 E25.0250
G1 X108.127 Y111.490 E25.0639
G1 X107.368 Y111.669 E25.1028
G1 X106.600 Y111.799 E25.1416
G1 X105.825 Y111.878 E25.1805
G1 X105.046 Y111.907 E25.2194
G1 X104.268 Y111.884 E25.2583
G1 X103.492 Y111.811 E25.2972
G1 X103.362 Y111.791 E25.3037
;segType:Perimeter
G1 X104.705 Y111.994 F10800
G1 X104.234 Y111.479 E25.3385 F2159
G1 X103.542 Y111.415 E25.3732
G1 X102.799 Y111.294 E25.4107
G1 X102.065 Y111.126 E25.4483
G1 X101.343 Y110.910 E25.4859
G1 X100.638 Y110.648 E25.5234
G1 X99.951 Y110.340 E25.5610
G1 X99.285 Y109.987 E25.5986
G1 X98.644 Y109.592 E25.6362
G1 X98.031 Y109.156 E25.6737
G1 X97.446 Y108.681 E25.7113
G1 X96.895 Y108.168 E25.7488
G1 X96.378 Y107.621 E25.7864
G1 X95.898 Y107.040 E25.8240
G1 X95.457 Y106.430 E25.8615
G1 X95.057 Y105.792 E25.8991
G1 X94.700 Y105.129 E25.9367
G1 X94.386 Y104.445 E25.9742
G1 X94.119 Y103.742 E26.0118
G1 X93.897 Y103.022 E26.0494
G1 X93.723 Y102.289 E26.0869
G1 X93.597 Y101.546 E26.1245
G1 X93.521 Y100.797 E26.1621
G1 X93.494 Y100.045 E26.1996
G1 X93.515 Y99.292 E26.2372
G1 X93.585 Y98.542 E26.2748
G1 X93.706 Y97.799 E26.3123
G1 X93.874 Y97.065 E26.3499
G1 X94.090 Y96.343 E26.3875
G1 X94.352 Y95.638 E26.4250
G1 X94.660 Y94.951 E26.4626
G1 X95.013 Y94.285 E26.5002
G1 X95.408 Y93.644 E26.5377
G1 X95.844 Y93.031 E26.5753
G1 X96.319 Y92.447 E26.6129
G1 X96.832 Y91.895 E26.6504
G1 X97.379 Y91.378 E26.6880
G1 X97.960 Y90.898 E26.7256
G1 X98.570 Y90.457 E26.7631
G1 X99.208 Y90.057 E26.8007
G1 X99.871 Y89.700 E26.8383
G1 X100.555 Y89.386 E26.8758
G1 X101.259 Y89.119 E26.9134
G1 X101.978 Y88.897 E26.9509
G1 X102.711 Y88.723 E26.9885
G1 X103.454 Y88.597 E27.0261
G1 X104.203 Y88.521 E27.0637
G1 X104.955 Y88.494 E27.1012
G1 X105.708 Y88.515 E27.1388
G1 X106.458 Y88.585 E27.1764
G1 X107.201 Y88.706 E27.2139
G1 X107.935 Y88.874 E27.2515
G1 X108.657 Y89.090 E27.2891
G1 X109.363 Y89.352 E27.3266
G1 X110.049 Y89.661 E27.3642
G1 X110.715 Y90.013 E27.4018
G1 X111.356 Y90.408 E27.4393
G1 X111.969 Y90.844 E27.4769
G1 X112.554 Y91.319 E27.5144
G1 X113.105 Y91.832 E27.5520
G1 X113.622 Y92.380 E27.5896
G1 X114.102 Y92.960 E27.6272
G1 X114.543 Y93.570 E27.6647
G1 X114.943 Y94.208 E27.7023
G1 X115.300 Y94.871 E27.7399
G1 X115.614 Y95.555 E27.7774
G1 X115.881 Y96.258 E27.8149
G1 X116.103 Y96.979 E27.8525
G1 X116.277 Y97.711 E27.8901
G1 X116.403 Y98.454 E27.9277
G1 X116.479 Y99.203 E27.9653
G1 X116.506 Y99.955 E28.0028
G1 X116.485 Y100.708 E28.0404
G1 X116.415 Y101.458 E28.0780
G1 X116.294 Y102.201 E28.1155
G1 X116.126 Y102.935 E28.1531
G1 X115.910 Y103.657 E28.1907
G1 X115.648 Y104.362 E28.2282
G1 X115.339 Y105.049 E28.2658
G1 X114.987 Y105.715 E28.3034
G1 X114.592 Y106.356 E28.3409
G1 X114.156 Y106.969 E28.3785
G1 X113.681 Y107.554 E28.4160
G1 X113.168 Y108.105 E28.4536
G1 X112.621 Y108.622 E28.4912
G1 X112.040 Y109.102 E28.5288
G1 X111.430 Y109.543 E28.5663
G1 X110.792 Y109.943 E28.6039
G1 X110.129 Y110.300 E28.6415
G1 X109.445 Y110.614 E28.6790
G1 X108.741 Y110.881 E28.7166
G1 X108.021 Y111.103 E28.7541
G1 X107.289 Y111.277 E28.7917
G1 X106.546 Y111.403 E28.8293
G1 X105.797 Y111.479 E28.8669
G1 X105.045 Y111.506 E28.9044
G1 X104.350 Y111.486 E28.9391
G1 X103.821 Y111.940
G1 F4800 E27.9391
G1 X102.705 Y111.471 F10800
G1 X100.564 Y110.827
G1 X98.537 Y109.753
G1 X96.758 Y108.306
G1 X95.297 Y106.538
G1 X94.208 Y104.520
G1 X93.533 Y102.327
G1 X93.300 Y100.045
G1 X93.516 Y97.762
G1 X94.173 Y95.564
G1 X95.669 Y92.295
G1 F4800 E28.9391
;segType:HShell
G1 X95.378 Y92.004 E28.9596 F3600
G1 X95.516 Y91.594 E28.9812
G1 X95.918 Y91.997 E29.0096
G1 X96.182 Y91.713 E29.0289
G1 X95.776 Y91.306 E29.0576
G1 X96.043 Y91.026 E29.0769
G1 X96.449 Y91.432 E29.1055
G1 X96.730 Y91.166 E29.1248
G1 X96.323 Y90.758 E29.1536
G1 X96.610 Y90.498 E29.1729
G1 X97.014 Y90.902 E29.2014
G1 X97.314 Y90.654 E29.2208
G1 X97.026 Y90.365 E29.2411
G1 X97.461 Y90.254 E29.2636
G1 X97.615 Y90.407 E29.2744
G1 X97.933 Y90.177 E29.2940
G1 X97.857 Y90.102 E29.2993
G1 X94.845 Y94.189 F10800
G1 X93.906 Y96.281
G1 X93.393 Y98.518
G1 X93.328 Y100.810
G1 X93.710 Y103.072
G1 X94.527 Y105.215
G1 X95.745 Y107.159
G1 X97.685 Y109.646
G1 X97.997 Y109.958 E29.3214 F3600
G1 X95.049 Y107.010 F10800
G1 X95.365 Y107.326 E29.3437 F3600
G1 X97.146 Y109.654 F10800
G1 X95.333 Y107.841 E29.4716 F3600
G1 X99.866 Y110.514 F10800
G1 X102.015 Y111.314
G1 X104.280 Y111.678
G1 X106.572 Y111.595
G1 X108.804 Y111.064
G1 X112.167 Y109.889
G1 X112.087 Y109.808 E29.4772 F3600
G1 X112.405 Y109.578 E29.4968
G1 X112.563 Y109.737 E29.5080
G1 X113.002 Y109.628 E29.5305
G1 X112.705 Y109.331 E29.5515
G1 X113.005 Y109.083 E29.5709
G1 X113.409 Y109.488 E29.5994
G1 X113.694 Y109.225 E29.6188
G1 X113.287 Y108.818 E29.6475
G1 X113.569 Y108.552 E29.6669
G1 X113.973 Y108.956 E29.6954
G1 X114.241 Y108.676 E29.7147
G1 X113.834 Y108.270 E29.7434
G1 X114.098 Y107.986 E29.7627
G1 X114.499 Y108.387 E29.7910
G1 X114.629 Y107.968 E29.8128
G1 X114.346 Y107.686 E29.8327
G1 X114.592 Y107.384 E29.8522
G1 X114.750 Y107.542 E29.8633
G1 X114.897 Y107.142 E29.8846
G1 X114.823 Y107.067 E29.8899
G1 X116.314 Y102.985 F10800
G1 X116.678 Y100.720
G1 X116.595 Y98.428
G1 X116.064 Y96.195
G1 X115.110 Y94.110
G1 X112.898 Y90.356
G1 X114.656 Y92.114 E30.0139 F3600
G1 X114.927 Y92.932 E30.0569
G1 X114.525 Y92.530 E30.0853
G1 X112.485 Y90.490 F10800
G1 X112.064 Y90.068 E30.1151 F3600
G1 F4800 E29.1151
G1 X107.313 Y88.136 F10800
G1 X97.800 Y87.400
G1 F4800 E30.1151
;segType:Support
G1 X99.600 Y87.400 E30.1914 F5400
G1 F4800 E29.1914
G1 X98.319 Y89.800 F10800
G1 X95.758 Y94.600
G1 F4800 E30.1914
G1 X96.000 Y94.600 E30.2016 F5400
G1 X96.000 Y96.400 E30.2780
G1 X94.922 Y96.400 E30.3237
G1 F4800 E29.3237
G1 X93.698 Y101.440 F10800
G1 X93.086 Y103.960
G1 X88.800 Y121.600
G1 F4800 E30.3237
G1 X83.400 Y121.600 E30.5527 F5400
G1 F4800 E29.5527
G1 X88.800 Y119.800 F10800
G1 F4800 E30.5527
G1 X83.400 Y119.800 E30.7817 F5400
G1 F4800 E29.7817
G1 X79.800 Y116.200 F10800
G1 F4800 E30.7817
G1 X85.200 Y116.200 E31.0107 F5400
G1 X85.200 Y118.000 E31.0870
G1 X79.800 Y118.000 E31.3160
G1 F4800 E30.3160
G1 X87.000 Y123.400 F10800
G1 F4800 E31.3160
G1 X88.800 Y123.400 E31.3923 F5400
G1 X87.000 Y125.200 E31.5003
G1 X88.800 Y125.200 E31.5766
G1 F4800 E30.5766
G1 X101.426 Y128.774 F10800
G1 F4800 E31.5766
G1 X101.997 Y128.760 E31.6008 F5400
G1 X103.256 Y127.070 E31.6902
;segType:SoftSupport
G1 X101.992 Y127.040 E31.7186 F5400
;segType:HShell
G1 F4800 E30.7186
G1 X105.328 Y126.599 F10800
G1 F4800 E31.7186
G1 X104.882 Y126.153 E31.7501 F3600
;segType:Loop
G1 X105.533 Y126.743 F10800
G1 X105.543 Y126.992 E31.7625 F3600
G1 X105.551 Y128.470 E31.8362
G1 X105.539 Y129.084 E31.8669
G1 X105.494 Y129.636 E31.8945
G1 X105.464 Y129.807 E31.9031
G1 X105.374 Y130.049 E31.9161
G1 X105.000 Y130.107 E31.9349
G1 X104.734 Y130.085 E31.9483
G1 X104.599 Y130.019 E31.9557
G1 X104.541 Y129.831 E31.9655
G1 X104.483 Y129.431 E31.9857
G1 X104.457 Y128.898 E32.0123
G1 X104.449 Y127.621 E32.0760
G1 X104.457 Y126.994 E32.1073
G1 X104.478 Y126.437 E32.1351
G1 X104.536 Y125.974 E32.1584
G1 X104.770 Y125.945 E32.1702
G1 X105.230 Y125.945 E32.1931
G1 X105.464 Y125.974 E32.2049
G1 X105.522 Y126.437 E32.2282
G1 X105.526 Y126.550 E32.2338
G1 F4800 E31.2338
G1 X105.120 Y125.848 F10800
G1 F4800 E32.2338
;segType:Perimeter
G1 X105.808 Y125.735 E32.2686 F2159
G1 X105.879 Y125.957 E32.2802
G1 X105.921 Y126.411 E32.3030
G1 X105.943 Y126.983 E32.3316
G1 X105.951 Y128.473 E32.4059
G1 X105.939 Y129.105 E32.4374
G1 X105.891 Y129.687 E32.4666
G1 X105.852 Y129.912 E32.4780
G1 X105.701 Y130.316 E32.4995
G1 X105.589 Y130.395 E32.5063
G1 X105.375 Y130.477 E32.5177
G1 X105.000 Y130.509 E32.5365
G1 X104.625 Y130.477 E32.5553
G1 X104.304 Y130.319 E32.5732
G1 X104.220 Y130.156 E32.5823
G1 X104.149 Y129.917 E32.5948
G1 X104.084 Y129.470 E32.6173
G1 X104.057 Y128.909 E32.6453
G1 X104.049 Y127.620 E32.7096
G1 X104.057 Y126.984 E32.7414
G1 X104.079 Y126.411 E32.7700
G1 X104.121 Y125.957 E32.7927
G1 X104.210 Y125.679 E32.8073
G1 X104.447 Y125.576 E32.8201
G1 X104.749 Y125.545 E32.8353
G1 X105.251 Y125.545 E32.8603
G1 X105.553 Y125.576 E32.8755
G1 X105.737 Y125.656 E32.8855
G1 X105.556 Y126.329
;segType:HShell
G1 X104.676 Y126.495 F10800
G1 X105.344 Y127.163 E32.9326 F3600
G1 X105.347 Y127.714 E32.9601
G1 X104.657 Y127.024 E33.0087
G1 X104.650 Y127.565 E33.0357
G1 X105.350 Y128.265 E33.0851
G1 X105.345 Y128.807 E33.1121
G1 X104.652 Y128.115 E33.1610
G1 X104.656 Y128.666 E33.1885
G1 X105.314 Y129.324 E33.2349
G1 X105.250 Y129.808 E33.2593
G1 X104.673 Y129.231 E33.3000
;segType:Support
G1 F4800 E32.3000
G1 X108.004 Y128.703 F10800
G1 F4800 E33.3000
G1 X110.400 Y128.800 E33.4017 F5400
G1 F4800 E32.4017
G1 X105.602 Y125.389 F10800
G1 X104.397 Y125.389
G1 X101.426 Y127.026
G1 F4800 E33.4017
G1 X101.992 Y127.040 E33.4257 F5400
G1 F4800 E32.4257
G1 X104.168 Y130.457 F10800
G1 X105.000 Y130.702
G1 X105.854 Y130.434
G1 X106.748 Y128.652
G1 F4800 E33.4257
;segType:SoftSupport
G1 X108.004 Y128.703 E33.4539 F5400
; ------------------------------------
; Layer #2
; ------------------------------------
G21 ; mm
G90 ; abs
G92 E0 ; reset extr
M106 S0
;segType:Support
G1 F4800 E-1.0000
G1 F300 Z0.700
G1 X109.066 Y128.800 F10800
G1 F4800 E0.0000
G1 X110.400 Y128.800 E0.0566 F5400
G1 F4800 E-0.9434
G1 X110.400 Y132.400 F10800
G1 F4800 E0.0566
G1 X108.600 Y132.400 E0.1329 F5400
G1 X110.400 Y130.600 E0.2409
G1 X108.948 Y130.600 E0.3024
G1 F4800 E-0.6976
G1 X106.112 Y131.712 F10800
G1 F4800 E0.3024
G1 X106.384 Y131.984 E0.3187 F5400
G1 X105.416 Y131.984 E0.3597
G1 X103.200 Y132.400 E0.4554
G1 X101.400 Y132.400 E0.5317
G1 X101.400 Y130.600 E0.6080
;segType:SoftSupport
G1 X101.532 Y130.600 E0.6110 F5400
G1 F4800 E-0.3890
G1 X103.348 Y129.050 F10800
G1 X106.981 Y125.951
G1 F4800 E0.6110
;segType:HShell
G1 X102.852 Y130.080 E0.9023 F3600
G1 X102.809 Y129.575 E0.9276
G1 X106.507 Y125.877 E1.1885
;segType:Perimeter
G1 X107.047 Y125.700 F10800
G1 X107.739 Y125.617 E1.2233 F2159
G1 X107.764 Y125.700 E1.2276
G1 X107.788 Y126.031 E1.2441
G1 X107.808 Y127.111 E1.2980
G1 X107.809 Y128.340 E1.3594
G1 X107.792 Y129.571 E1.4208
G1 X107.767 Y130.057 E1.4451
G1 X107.674 Y130.489 E1.4671
G1 X107.591 Y130.601 E1.4740
G1 X107.425 Y130.687 E1.4834
G1 X107.183 Y130.750 E1.4959
G1 X106.689 Y130.841 E1.5209
G1 X106.219 Y130.902 E1.5446
G1 X105.410 Y130.958 E1.5850
G1 X104.590 Y130.958 E1.6259
G1 X103.781 Y130.902 E1.6664
G1 X103.311 Y130.841 E1.6900
G1 X102.817 Y130.750 E1.7151
G1 X102.575 Y130.687 E1.7275
G1 X102.409 Y130.601 E1.7369
G1 X102.326 Y130.489 E1.7438
G1 X102.233 Y130.057 E1.7659
G1 X102.208 Y129.571 E1.7901
G1 X102.191 Y128.340 E1.8516
G1 X102.192 Y127.046 E1.9161
G1 X102.213 Y126.010 E1.9678
G1 X102.257 Y125.607 E1.9881
G1 X102.425 Y125.467 E1.9990
G1 X103.090 Y125.330 E2.0328
G1 X103.769 Y125.240 E2.0670
G1 X104.496 Y125.190 E2.1034
G1 X105.272 Y125.183 E2.1421
G1 X105.818 Y125.205 E2.1693
G1 X106.575 Y125.281 E2.2073
G1 X107.062 Y125.354 E2.2319
G1 X107.474 Y125.438 E2.2529
G1 X107.671 Y125.536 E2.2638
G1 X107.470 Y126.203
;segType:Loop
G1 X107.399 Y126.627 F10800
G1 X107.408 Y127.115 E2.2881 F3600
G1 X107.409 Y128.338 E2.3491
G1 X107.392 Y129.558 E2.4100
G1 X107.369 Y130.004 E2.4323
G1 X107.280 Y130.311 E2.4483
G1 X106.627 Y130.446 E2.4816
G1 X106.179 Y130.504 E2.5041
G1 X105.396 Y130.558 E2.5433
G1 X104.604 Y130.558 E2.5827
G1 X103.821 Y130.504 E2.6219
G1 X103.373 Y130.446 E2.6444
G1 X102.694 Y130.298 E2.6791
G1 X102.631 Y130.004 E2.6941
G1 X102.608 Y129.558 E2.7164
G1 X102.591 Y128.338 E2.7773
G1 X102.592 Y127.050 E2.8415
G1 X102.612 Y126.036 E2.8921
G1 X102.635 Y125.833 E2.9023
G1 X103.157 Y125.725 E2.9290
G1 X103.809 Y125.638 E2.9618
G1 X104.512 Y125.590 E2.9969
G1 X105.266 Y125.583 E3.0345
G1 X105.790 Y125.604 E3.0607
G1 X106.525 Y125.677 E3.0976
G1 X106.992 Y125.748 E3.1211
G1 X107.373 Y125.834 E3.1406
G1 X107.389 Y126.049 E3.1513
G1 X107.396 Y126.434 E3.1705
;segType:HShell
G1 X107.191 Y126.289 F10800
G1 X103.262 Y130.217 E3.4477 F3600
G1 X103.736 Y130.291 E3.4716
G1 X107.202 Y126.825 E3.7162
G1 X107.208 Y127.366 E3.7432
G1 X104.242 Y130.333 E3.9525
G1 X104.764 Y130.358 E3.9786
G1 X107.209 Y127.914 E4.1510
G1 X107.207 Y128.463 E4.1784
G1 X105.312 Y130.358 E4.3121
G1 X105.895 Y130.323 E4.3412
G1 X107.200 Y129.018 E4.4333
G1 X107.191 Y129.574 E4.4610
G1 X106.505 Y130.260 E4.5094
G1 X103.172 Y125.926 F10800
G1 X102.810 Y126.288 E4.5350 F3600
G1 X102.797 Y126.849 E4.5630
G1 X103.805 Y125.841 E4.6342
G1 X104.395 Y125.798 E4.6637
G1 X102.791 Y127.402 E4.7768
G1 X102.791 Y127.950 E4.8041
G1 X104.955 Y125.786 E4.9568
G1 X105.496 Y125.792 E4.9838
G1 X102.793 Y128.495 E5.1745
G1 X102.801 Y129.036 E5.2015
G1 X106.009 Y125.827 E5.4278
;segType:Support
G1 F4800 E4.4278
G1 X83.400 Y121.600 F10800
G1 F4800 E5.4278
G1 X88.800 Y121.600 E5.6568 F5400
G1 F4800 E4.6568
G1 X85.200 Y118.000 F10800
G1 F4800 E5.6568
G1 X79.800 Y118.000 E5.8858 F5400
G1 F4800 E4.8858
G1 X87.000 Y123.400 F10800
G1 F4800 E5.8858
G1 X88.800 Y123.400 E5.9622 F5400
G1 X88.800 Y125.200 E6.0385
G1 X87.000 Y125.200 E6.1148
G1 F4800 E5.1148
G1 X83.400 Y119.800 F10800
G1 F4800 E6.1148
G1 X88.800 Y119.800 E6.3438 F5400
G1 F4800 E5.3438
G1 X74.125 Y102.468 F10800
G1 X73.841 Y100.000
G1 X74.081 Y96.400
G1 F4800 E6.3438
;segType:SoftSupport
G1 X76.014 Y96.400 E6.3872 F5400
G1 F4800 E5.3872
G1 X74.180 Y97.391 F10800
G1 X72.890 Y99.710
G1 F4800 E6.3872
;segType:Support
G1 X73.245 Y99.707 E6.4023 F5400
G1 F4800 E5.4023
G1 X74.081 Y96.400 F10800
G1 F4800 E6.4023
G1 X72.600 Y96.400 E6.4651 F5400
G1 F4800 E5.4651
G1 X79.800 Y80.200 F10800
G1 F4800 E6.4651
G1 X85.200 Y80.200 E6.6941 F5400
G1 X83.400 Y78.400 E6.8020
G1 X88.800 Y78.400 E7.0310
G1 X88.800 Y76.600 E7.1073
G1 X83.400 Y76.600 E7.3363
G1 F4800 E6.3363
G1 X87.000 Y73.000 F10800
G1 F4800 E7.3363
G1 X88.800 Y73.000 E7.4127 F5400
G1 F4800 E6.4127
G1 X72.890 Y98.490 F10800
G1 F4800 E7.4127
G1 X73.328 Y98.493 E7.4312 F5400
G1 F4800 E6.4312
G1 X85.200 Y83.800 F10800
G1 F4800 E7.4312
G1 X83.400 Y83.800 E7.5076 F5400
G1 F4800 E6.5076
G1 X87.000 Y74.800 F10800
G1 F4800 E7.5076
G1 X88.800 Y74.800 E7.5839 F5400
G1 F4800 E6.5839
G1 X83.400 Y85.600 F10800
G1 F4800 E7.5839
G1 X85.200 Y85.600 E7.6602 F5400
G1 F4800 E6.6602
G1 X85.200 Y82.000 F10800
G1 F4800 E7.6602
G1 X79.800 Y82.000 E7.8892 F5400
G1 F4800 E6.8892
G1 X93.171 Y93.812 F10800
G1 X110.363 Y109.000
G1 F4800 E7.8892
G1 X108.600 Y109.000 E7.9640 F5400
G1 F4800 E6.9640
G1 X99.000 Y89.800 F10800
G1 X97.800 Y87.400
G1 F4800 E7.9640
G1 X99.600 Y87.400 E8.0403 F5400
G1 F4800 E7.0403
G1 X102.335 Y76.719 F10800
G1 X103.019 Y74.049
G1 F4800 E8.0403
;segType:HShell
G1 X107.153 Y69.916 E8.3320 F3600
G1 X107.191 Y70.425 E8.3575
G1 X103.493 Y74.123 E8.6184
;segType:Perimeter
G1 X102.953 Y74.300 F10800
G1 X102.261 Y74.383 E8.6532 F2159
G1 X102.236 Y74.300 E8.6575
G1 X102.212 Y73.970 E8.6740
G1 X102.192 Y72.889 E8.7279
G1 X102.192 Y71.591 E8.7927
G1 X102.209 Y70.393 E8.8525
G1 X102.234 Y69.934 E8.8754
G1 X102.285 Y69.615 E8.8915
G1 X102.360 Y69.451 E8.9005
G1 X102.605 Y69.304 E8.9148
G1 X102.983 Y69.215 E8.9341
G1 X103.551 Y69.126 E8.9628
G1 X104.180 Y69.063 E8.9944
G1 X105.000 Y69.035 E9.0353
G1 X105.820 Y69.063 E9.0762
G1 X106.449 Y69.126 E9.1078
G1 X107.017 Y69.215 E9.1364
G1 X107.517 Y69.352 E9.1623
G1 X107.640 Y69.451 E9.1702
G1 X107.715 Y69.615 E9.1792
G1 X107.766 Y69.934 E9.1953
G1 X107.791 Y70.393 E9.2182
G1 X107.808 Y71.591 E9.2780
G1 X107.800 Y73.525 E9.3745
G1 X107.787 Y73.989 E9.3976
G1 X107.743 Y74.393 E9.4179
G1 X107.575 Y74.532 E9.4288
G1 X106.909 Y74.670 E9.4627
G1 X106.232 Y74.760 E9.4968
G1 X105.504 Y74.810 E9.5332
G1 X104.728 Y74.817 E9.5719
G1 X104.182 Y74.795 E9.5992
G1 X103.425 Y74.719 E9.6371
G1 X102.938 Y74.646 E9.6617
G1 X102.526 Y74.562 E9.6827
G1 X102.329 Y74.464 E9.6937
G1 X102.530 Y73.797
;segType:Loop
G1 X102.601 Y73.373 F10800
G1 X102.592 Y72.885 E9.7180 F3600
G1 X102.592 Y71.594 E9.7824
G1 X102.609 Y70.406 E9.8417
G1 X102.632 Y69.977 E9.8631
G1 X102.673 Y69.730 E9.8756
G1 X102.757 Y69.679 E9.8805
G1 X103.060 Y69.608 E9.8960
G1 X103.602 Y69.523 E9.9234
G1 X104.207 Y69.462 E9.9538
G1 X105.000 Y69.435 E9.9933
G1 X105.793 Y69.462 E10.0329
G1 X106.398 Y69.523 E10.0633
G1 X106.933 Y69.607 E10.0903
G1 X107.328 Y69.732 E10.1110
G1 X107.368 Y69.977 E10.1233
G1 X107.391 Y70.406 E10.1448
G1 X107.408 Y71.593 E10.2040
G1 X107.400 Y73.519 E10.3001
G1 X107.365 Y74.167 E10.3325
G1 X106.842 Y74.275 E10.3591
G1 X106.192 Y74.362 E10.3919
G1 X105.488 Y74.410 E10.4271
G1 X104.734 Y74.417 E10.4647
G1 X104.210 Y74.396 E10.4909
G1 X103.475 Y74.323 E10.5277
G1 X103.008 Y74.252 E10.5513
G1 X102.627 Y74.166 E10.5707
G1 X102.612 Y73.951 E10.5815
G1 X102.604 Y73.566 E10.6007
;segType:HShell
G1 X102.810 Y73.711 F10800
G1 X106.741 Y69.779 E10.8781 F3600
G1 X106.262 Y69.710 E10.9022
G1 X102.798 Y73.175 E11.1466
G1 X102.792 Y72.634 E11.1736
G1 X105.764 Y69.662 E11.3833
G1 X105.234 Y69.643 E11.4098
G1 X102.792 Y72.086 E11.5821
G1 X102.792 Y71.537 E11.6095
G1 X104.684 Y69.646 E11.7429
G1 X104.109 Y69.673 E11.7717
G1 X102.801 Y70.982 E11.8640
G1 X102.809 Y70.426 E11.8917
G1 X103.492 Y69.743 E11.9399
G1 X103.991 Y74.173 F10800
G1 X107.199 Y70.964 E12.1663 F3600
G1 X107.207 Y71.504 E12.1932
G1 X104.504 Y74.208 E12.3840
G1 X105.045 Y74.214 E12.4109
G1 X107.206 Y72.053 E12.5635
G1 X107.204 Y72.603 E12.5909
G1 X105.605 Y74.202 E12.7037
G1 X106.195 Y74.160 E12.7332
G1 X107.201 Y73.153 E12.8042
G1 X107.189 Y73.713 E12.8322
G1 X106.828 Y74.074 E12.8577
;segType:SoftSupport
G1 F4800 E11.8577
G1 X108.446 Y74.776 F10800
G1 F4800 E12.8577
G1 X108.581 Y74.797 E12.8607 F5400
G1 X108.602 Y73.000 E12.9011
G1 X109.066 Y73.000 E12.9115
;segType:Support
G1 F4800 E11.9115
G1 X110.400 Y69.400 F10800
G1 F4800 E12.9115
G1 X108.942 Y69.400 E12.9733 F5400
G1 X108.942 Y69.400
;segType:SoftSupport
G1 X108.600 Y69.400 E12.9810 F5400
G1 X110.400 Y71.200 E13.0382
;segType:Support
G1 X109.067 Y71.200 E13.0947 F5400
G1 X109.067 Y71.200
;segType:SoftSupport
G1 X108.603 Y71.200 E13.1051 F5400
G1 X109.066 Y73.000 E13.1468
;segType:Support
G1 X110.400 Y73.000 E13.2034 F5400
G1 F4800 E12.2034
G1 X124.800 Y78.400 F10800
G1 F4800 E13.2034
G1 X119.400 Y78.400 E13.4324 F5400
G1 F4800 E12.4324
G1 X110.400 Y74.800 F10800
G1 F4800 E13.4324
G1 X108.600 Y74.800 E13.5087 F5400
G1 X108.581 Y74.797 E13.5096
G1 F4800 E12.5096
G1 X123.000 Y80.200 F10800
G1 F4800 E13.5096
G1 X128.400 Y80.200 E13.7385 F5400
G1 F4800 E12.7385
G1 X123.000 Y82.000 F10800
G1 F4800 E13.7385
G1 X128.400 Y82.000 E13.9675 F5400
G1 F4800 E12.9675
G1 X112.200 Y89.200 F10800
G1 X96.000 Y96.400
G1 F4800 E13.9675
G1 X95.164 Y96.400 E14.0030 F5400
G1 F4800 E13.0030
G1 X92.866 Y97.175 F10800
G1 X81.373 Y101.052
G1 X79.075 Y101.827
G1 F4800 E14.0030
;segType:HShell
G1 X78.711 Y102.191 E14.0286 F3600
;segType:Loop
G1 X78.373 Y102.399 F10800
G1 X77.885 Y102.409 E14.0530 F3600
G1 X76.594 Y102.408 E14.1174
G1 X75.406 Y102.391 E14.1767
G1 X74.977 Y102.368 E14.1981
G1 X74.729 Y102.327 E14.2106
G1 X74.679 Y102.244 E14.2155
G1 X74.608 Y101.940 E14.2310
G1 X74.523 Y101.398 E14.2584
G1 X74.462 Y100.793 E14.2887
G1 X74.435 Y100.000 E14.3283
G1 X74.462 Y99.207 E14.3679
G1 X74.523 Y98.602 E14.3983
G1 X74.607 Y98.067 E14.4253
G1 X74.732 Y97.672 E14.4459
G1 X74.977 Y97.632 E14.4583
G1 X75.406 Y97.609 E14.4798
G1 X76.594 Y97.592 E14.5390
G1 X77.885 Y97.591 E14.6034
G1 X78.950 Y97.611 E14.6566
G1 X79.175 Y97.631 E14.6678
G1 X79.252 Y98.008 E14.6870
G1 X79.323 Y98.475 E14.7106
G1 X79.396 Y99.210 E14.7475
G1 X79.417 Y99.737 E14.7738
G1 X79.417 Y100.263 E14.8000
G1 X79.396 Y100.790 E14.8263
G1 X79.323 Y101.525 E14.8632
G1 X79.252 Y101.992 E14.8868
G1 X79.166 Y102.373 E14.9062
G1 X78.951 Y102.389 E14.9170
G1 X78.567 Y102.396 E14.9361
;segType:Perimeter
G1 X79.300 Y102.047 F10800
G1 X79.383 Y102.739 E14.9709 F2159
G1 X79.300 Y102.764 E14.9752
G1 X78.969 Y102.788 E14.9918
G1 X77.889 Y102.809 E15.0457
G1 X76.591 Y102.808 E15.1104
G1 X75.392 Y102.791 E15.1702
G1 X74.934 Y102.766 E15.1931
G1 X74.615 Y102.715 E15.2093
G1 X74.450 Y102.639 E15.2183
G1 X74.304 Y102.396 E15.2325
G1 X74.215 Y102.017 E15.2519
G1 X74.126 Y101.450 E15.2806
G1 X74.063 Y100.820 E15.3121
G1 X74.035 Y100.000 E15.3530
G1 X74.063 Y99.180 E15.3940
G1 X74.126 Y98.550 E15.4255
G1 X74.215 Y97.983 E15.4542
G1 X74.353 Y97.479 E15.4802
G1 X74.450 Y97.361 E15.4879
G1 X74.615 Y97.285 E15.4970
G1 X74.934 Y97.234 E15.5131
G1 X75.392 Y97.209 E15.5360
G1 X76.591 Y97.192 E15.5958
G1 X77.889 Y97.191 E15.6605
G1 X78.969 Y97.211 E15.7144
G1 X79.300 Y97.236 E15.7310
G1 X79.501 Y97.347 E15.7424
G1 X79.562 Y97.526 E15.7518
G1 X79.646 Y97.938 E15.7728
G1 X79.719 Y98.425 E15.7974
G1 X79.795 Y99.182 E15.8354
G1 X79.817 Y99.728 E15.8627
G1 X79.817 Y100.271 E15.8897
G1 X79.795 Y100.818 E15.9170
G1 X79.719 Y101.575 E15.9550
G1 X79.646 Y102.062 E15.9796
G1 X79.562 Y102.474 E16.0006
G1 X79.465 Y102.671 E16.0115
G1 X78.797 Y102.470
;segType:HShell
G1 X75.426 Y97.809 F10800
G1 X74.743 Y98.492 E16.0597 F3600
G1 X74.673 Y99.109 E16.0907
G1 X75.982 Y97.801 E16.1830
G1 X76.537 Y97.792 E16.2107
G1 X74.646 Y99.684 E16.3442
G1 X74.643 Y100.234 E16.3716
G1 X77.086 Y97.791 E16.5440
G1 X77.634 Y97.791 E16.5713
G1 X74.662 Y100.764 E16.7810
G1 X74.710 Y101.263 E16.8060
G1 X78.175 Y97.798 E17.0505
G1 X78.710 Y97.810 E17.0772
G1 X74.780 Y101.741 E17.3545
G1 X74.918 Y102.151 E17.3761
G1 X79.044 Y98.024 E17.6672
G1 X79.123 Y98.493 E17.6910
G1 X75.425 Y102.191 E17.9519
G1 X75.964 Y102.199 E17.9788
G1 X79.173 Y98.991 E18.2052
G1 X79.208 Y99.504 E18.2308
G1 X76.504 Y102.207 E18.4216
G1 X77.050 Y102.209 E18.4488
G1 X79.217 Y100.042 E18.6017
G1 X79.203 Y100.603 E18.6297
G1 X77.598 Y102.209 E18.7430
G1 X78.152 Y102.203 E18.7706
G1 X79.154 Y101.200 E18.8413
;segType:Support
G1 F4800 E17.8413
G1 X74.087 Y103.600 F10800
G1 F4800 E18.8413
G1 X72.600 Y103.600 E18.9044 F5400
G1 X73.371 Y101.800 E18.9874
G1 X72.600 Y101.800 E19.0202
G1 F4800 E18.0202
G1 X72.600 Y94.600 F10800
G1 F4800 E19.0202
G1 X78.000 Y94.600 E19.2492 F5400
G1 F4800 E18.2492
G1 X74.180 Y97.391 F10800
G1 X73.870 Y99.167
G1 X74.087 Y103.600
G1 F4800 E19.2492
;segType:SoftSupport
G1 X74.400 Y103.600 E19.2562 F5400
G1 X74.748 Y103.547 E19.2641
;segType:Support
G1 F4800 E18.2641
G1 X79.800 Y116.200 F10800
G1 F4800 E19.2641
G1 X85.200 Y116.200 E19.4931 F5400
G1 F4800 E18.4931
G1 X91.428 Y101.870 F10800
G1 X92.466 Y99.482
G1 X95.105 Y93.460
G1 X97.423 Y90.051
G1 F4800 E19.4931
;segType:HShell
G1 X95.052 Y92.423 E19.6604 F3600
;segType:Loop
G1 X95.138 Y91.054 F10800
G1 X95.243 Y90.933 E19.6684 F3600
G1 X95.707 Y90.460 E19.7014
G1 X96.079 Y90.109 E19.7269
G1 X96.147 Y90.066 E19.7310
G1 X96.801 Y90.004 E19.7638
G1 X97.039 Y89.959 E19.7758
G1 X97.492 Y89.821 E19.7994
G1 X98.250 Y89.488 E19.8408
G1 X99.506 Y88.876 E19.9105
G1 X100.213 Y88.549 E19.9493
G1 X100.937 Y88.266 E19.9881
G1 X101.698 Y88.028 E20.0279
G1 X102.482 Y87.838 E20.0681
G1 X103.282 Y87.699 E20.1087
G1 X104.091 Y87.613 E20.1492
G1 X104.903 Y87.580 E20.1898
G1 X105.715 Y87.600 E20.2303
G1 X106.525 Y87.673 E20.2709
G1 X107.328 Y87.800 E20.3114
G1 X108.125 Y87.980 E20.3522
G1 X108.914 Y88.215 E20.3933
G1 X109.706 Y88.514 E20.4355
G1 X110.303 Y88.784 E20.4682
G1 X111.478 Y89.359 E20.5335
G1 X112.268 Y89.726 E20.5769
G1 X112.699 Y89.887 E20.5999
G1 X113.342 Y90.028 E20.6327
G1 X113.873 Y90.080 E20.6593
G1 X113.979 Y90.162 E20.6660
G1 X114.417 Y90.583 E20.6963
G1 X114.838 Y91.021 E20.7266
G1 X114.920 Y91.127 E20.7333
G1 X114.972 Y91.658 E20.7600
G1 X115.113 Y92.301 E20.7928
G1 X115.274 Y92.732 E20.8157
G1 X115.641 Y93.522 E20.8592
G1 X116.216 Y94.697 E20.9244
G1 X116.486 Y95.294 E20.9572
G1 X116.785 Y96.086 E20.9994
G1 X117.020 Y96.875 E21.0404
G1 X117.200 Y97.672 E21.0812
G1 X117.327 Y98.475 E21.1218
G1 X117.400 Y99.285 E21.1624
G1 X117.420 Y100.097 E21.2029
G1 X117.387 Y100.909 E21.2434
G1 X117.301 Y101.718 E21.2840
G1 X117.162 Y102.518 E21.3245
G1 X116.972 Y103.302 E21.3648
G1 X116.734 Y104.063 E21.4046
G1 X116.451 Y104.787 E21.4433
G1 X116.124 Y105.494 E21.4822
G1 X115.512 Y106.750 E21.5519
G1 X115.179 Y107.508 E21.5932
G1 X115.039 Y107.969 E21.6173
G1 X114.958 Y108.480 E21.6431
G1 X114.925 Y108.873 E21.6627
G1 X114.757 Y109.067 E21.6756
G1 X114.293 Y109.540 E21.7086
G1 X113.921 Y109.891 E21.7341
G1 X113.852 Y109.934 E21.7382
G1 X113.199 Y109.996 E21.7709
G1 X112.961 Y110.041 E21.7830
G1 X112.515 Y110.176 E21.8062
G1 X112.111 Y110.342 E21.8280
G1 X111.218 Y110.768 E21.8774
G1 X110.493 Y111.125 E21.9177
G1 X109.787 Y111.451 E21.9565
G1 X109.063 Y111.734 E21.9953
G1 X108.302 Y111.972 E22.0351
G1 X107.518 Y112.162 E22.0753
G1 X106.718 Y112.301 E22.1159
G1 X105.909 Y112.387 E22.1564
G1 X105.097 Y112.420 E22.1969
G1 X104.285 Y112.400 E22.2375
G1 X103.475 Y112.327 E22.2781
G1 X102.672 Y112.200 E22.3186
G1 X101.875 Y112.020 E22.3594
G1 X101.086 Y111.785 E22.4004
G1 X100.294 Y111.486 E22.4427
G1 X99.696 Y111.216 E22.4754
G1 X98.522 Y110.641 E22.5406
G1 X97.732 Y110.274 E22.5841
G1 X97.316 Y110.119 E22.6063
G1 X97.018 Y110.037 E22.6217
G1 X96.647 Y109.970 E22.6405
G1 X96.127 Y109.920 E22.6665
G1 X96.021 Y109.838 E22.6732
G1 X95.583 Y109.417 E22.7035
G1 X95.162 Y108.979 E22.7338
G1 X95.080 Y108.873 E22.7405
G1 X95.030 Y108.353 E22.7666
G1 X94.963 Y107.982 E22.7854
G1 X94.881 Y107.684 E22.8008
G1 X94.726 Y107.268 E22.8230
G1 X94.359 Y106.478 E22.8664
G1 X93.784 Y105.304 E22.9317
G1 X93.514 Y104.706 E22.9644
G1 X93.215 Y103.914 E23.0066
G1 X92.980 Y103.125 E23.0477
G1 X92.800 Y102.328 E23.0885
G1 X92.673 Y101.525 E23.1290
G1 X92.600 Y100.715 E23.1696
G1 X92.580 Y99.903 E23.2101
G1 X92.613 Y99.091 E23.2507
G1 X92.699 Y98.282 E23.2912
G1 X92.838 Y97.482 E23.3318
G1 X93.028 Y96.698 E23.3720
G1 X93.266 Y95.937 E23.4118
G1 X93.549 Y95.213 E23.4505
G1 X93.876 Y94.506 E23.4894
G1 X94.485 Y93.257 E23.5587
G1 X94.658 Y92.887 E23.5791
G1 X94.824 Y92.485 E23.6008
G1 X94.961 Y92.031 E23.6245
G1 X95.042 Y91.520 E23.6503
G1 X95.067 Y91.224 E23.6651
G1 F4800 E22.6651
G1 X94.929 Y92.487 F10800
G1 F4800 E23.6651
;segType:Perimeter
G1 X94.580 Y91.883 E23.6999 F2159
G1 X94.644 Y91.478 E23.7204
G1 X94.664 Y91.113 E23.7386
G1 X94.713 Y90.934 E23.7479
G1 X94.949 Y90.662 E23.7659
G1 X95.426 Y90.174 E23.7999
G1 X95.833 Y89.791 E23.8278
G1 X96.015 Y89.676 E23.8385
G1 X96.745 Y89.607 E23.8751
G1 X96.943 Y89.570 E23.8852
G1 X97.353 Y89.446 E23.9065
G1 X98.082 Y89.125 E23.9462
G1 X99.334 Y88.514 E24.0157
G1 X100.056 Y88.180 E24.0554
G1 X100.804 Y87.889 E24.0955
G1 X101.591 Y87.642 E24.1366
G1 X102.400 Y87.446 E24.1782
G1 X103.227 Y87.302 E24.2200
G1 X104.062 Y87.214 E24.2619
G1 X104.900 Y87.180 E24.3038
G1 X105.738 Y87.201 E24.3456
G1 X106.574 Y87.276 E24.3875
G1 X107.404 Y87.407 E24.4294
G1 X108.227 Y87.593 E24.4715
G1 X109.042 Y87.836 E24.5139
G1 X109.859 Y88.144 E24.5575
G1 X110.474 Y88.423 E24.5911
G1 X111.650 Y88.998 E24.6565
G1 X112.423 Y89.357 E24.6990
G1 X112.813 Y89.502 E24.7197
G1 X113.404 Y89.633 E24.7500
G1 X114.026 Y89.693 E24.7811
G1 X114.241 Y89.859 E24.7947
G1 X114.700 Y90.300 E24.8264
G1 X115.141 Y90.759 E24.8582
G1 X115.307 Y90.974 E24.8717
G1 X115.367 Y91.596 E24.9029
G1 X115.498 Y92.187 E24.9332
G1 X115.643 Y92.577 E24.9539
G1 X116.002 Y93.350 E24.9964
G1 X116.577 Y94.526 E25.0618
G1 X116.856 Y95.141 E25.0954
G1 X117.164 Y95.958 E25.1390
G1 X117.407 Y96.773 E25.1814
G1 X117.593 Y97.596 E25.2235
G1 X117.724 Y98.426 E25.2654
G1 X117.799 Y99.262 E25.3073
G1 X117.820 Y100.100 E25.3491
G1 X117.786 Y100.938 E25.3910
G1 X117.698 Y101.773 E25.4329
G1 X117.554 Y102.600 E25.4747
G1 X117.358 Y103.409 E25.5163
G1 X117.111 Y104.196 E25.5574
G1 X116.820 Y104.944 E25.5974
G1 X116.486 Y105.666 E25.6371
G1 X115.875 Y106.918 E25.7066
G1 X115.554 Y107.647 E25.7464
G1 X115.429 Y108.059 E25.7679
G1 X115.356 Y108.522 E25.7912
G1 X115.336 Y108.887 E25.8095
G1 X115.287 Y109.066 E25.8187
G1 X115.051 Y109.338 E25.8367
G1 X114.574 Y109.826 E25.8708
G1 X114.167 Y110.209 E25.8986
G1 X113.985 Y110.324 E25.9094
G1 X113.255 Y110.393 E25.9459
G1 X113.056 Y110.430 E25.9560
G1 X112.650 Y110.554 E25.9772
G1 X112.273 Y110.708 E25.9975
G1 X111.392 Y111.128 E26.0462
G1 X110.666 Y111.486 E26.0866
G1 X109.944 Y111.820 E26.1263
G1 X109.196 Y112.111 E26.1664
G1 X108.409 Y112.358 E26.2075
G1 X107.600 Y112.554 E26.2490
G1 X106.773 Y112.698 E26.2909
G1 X105.938 Y112.786 E26.3328
G1 X105.100 Y112.820 E26.3746
G1 X104.262 Y112.799 E26.4165
G1 X103.426 Y112.724 E26.4583
G1 X102.597 Y112.593 E26.5002
G1 X101.773 Y112.407 E26.5423
G1 X100.958 Y112.164 E26.5848
G1 X100.141 Y111.856 E26.6283
G1 X99.526 Y111.577 E26.6620
G1 X98.350 Y111.002 E26.7273
G1 X97.577 Y110.643 E26.7698
G1 X97.193 Y110.500 E26.7903
G1 X96.929 Y110.427 E26.8039
G1 X96.592 Y110.367 E26.8210
G1 X95.974 Y110.307 E26.8520
G1 X95.759 Y110.141 E26.8656
G1 X95.300 Y109.700 E26.8973
G1 X94.859 Y109.241 E26.9291
G1 X94.693 Y109.026 E26.9426
G1 X94.633 Y108.408 E26.9736
G1 X94.573 Y108.071 E26.9907
G1 X94.500 Y107.807 E27.0044
G1 X94.357 Y107.423 E27.0248
G1 X93.998 Y106.650 E27.0673
G1 X93.423 Y105.474 E27.1327
G1 X93.144 Y104.859 E27.1664
G1 X92.836 Y104.042 E27.2099
G1 X92.593 Y103.227 E27.2524
G1 X92.407 Y102.403 E27.2945
G1 X92.276 Y101.574 E27.3364
G1 X92.201 Y100.738 E27.3782
G1 X92.180 Y99.900 E27.4201
G1 X92.214 Y99.062 E27.4619
G1 X92.302 Y98.227 E27.5038
G1 X92.446 Y97.400 E27.5457
G1 X92.642 Y96.591 E27.5872
G1 X92.889 Y95.804 E27.6283
G1 X93.180 Y95.056 E27.6684
G1 X93.514 Y94.334 E27.7081
G1 X94.124 Y93.085 E27.7774
G1 X94.292 Y92.726 E27.7972
G1 X94.446 Y92.350 E27.8175
G1 X94.554 Y91.996 E27.8359
G1 X95.132 Y91.606
G1 X102.723 Y88.755 F10800
G1 X104.961 Y88.527
G1 X107.199 Y88.739
G1 X109.355 Y89.385
G1 X111.342 Y90.438
G1 X113.085 Y91.859
G1 X114.518 Y93.592
G1 X115.585 Y95.572
G1 X116.245 Y97.723
G1 X116.473 Y99.961
G1 X116.261 Y102.200
G1 X115.347 Y106.631
;segType:HShell
G1 X111.626 Y110.352 E28.0984 F3600
G1 X111.474 Y109.956 E28.1196
G1 X110.563 Y110.868 E28.1839
G1 X110.207 Y110.675 E28.2040
G1 X109.556 Y111.327 E28.2500
G1 X109.246 Y111.089 E28.2695
G1 X108.696 Y111.639 E28.3083
G1 X108.415 Y111.373 E28.3276
G1 X107.932 Y111.856 E28.3617
G1 X107.670 Y111.570 E28.3811
G1 X107.231 Y112.009 E28.4120
G1 X106.577 Y112.115 E28.4451
G1 X106.985 Y111.707 E28.4739
G1 X106.346 Y111.798 E28.5061
G1 X105.964 Y112.180 E28.5330
G1 X105.389 Y112.208 E28.5618
G1 X105.742 Y111.855 E28.5867
G1 X105.174 Y111.875 E28.6150
G1 X104.836 Y112.213 E28.6389
G1 X104.301 Y112.200 E28.6656
G1 X104.633 Y111.868 E28.6890
;segType:Perimeter
G1 X104.713 Y111.767 F10800
G1 X104.243 Y111.253 E28.7238 F2159
G1 X103.566 Y111.189 E28.7577
G1 X102.838 Y111.071 E28.7945
G1 X102.118 Y110.905 E28.8314
G1 X101.411 Y110.694 E28.8682
G1 X100.719 Y110.436 E28.9050
G1 X100.046 Y110.134 E28.9418
G1 X99.394 Y109.788 E28.9787
G1 X98.765 Y109.401 E29.0155
G1 X98.164 Y108.973 E29.0523
G1 X97.592 Y108.506 E29.0891
G1 X97.052 Y108.003 E29.1260
G1 X96.545 Y107.466 E29.1628
G1 X96.075 Y106.897 E29.1996
G1 X95.643 Y106.300 E29.2364
G1 X95.250 Y105.673 E29.2733
G1 X94.900 Y105.023 E29.3101
G1 X94.594 Y104.353 E29.3469
G1 X94.331 Y103.663 E29.3837
G1 X94.114 Y102.957 E29.4206
G1 X93.945 Y102.238 E29.4574
G1 X93.822 Y101.511 E29.4942
G1 X93.747 Y100.776 E29.5311
G1 X93.721 Y100.039 E29.5679
G1 X93.742 Y99.301 E29.6047
G1 X93.811 Y98.566 E29.6415
G1 X93.929 Y97.838 E29.6784
G1 X94.095 Y97.118 E29.7152
G1 X94.306 Y96.411 E29.7520
G1 X94.564 Y95.719 E29.7889
G1 X94.866 Y95.046 E29.8256
G1 X95.212 Y94.394 E29.8625
G1 X95.599 Y93.765 E29.8993
G1 X96.027 Y93.164 E29.9361
G1 X96.494 Y92.592 E29.9730
G1 X96.997 Y92.052 E30.0098
G1 X97.534 Y91.545 E30.0466
G1 X98.103 Y91.075 E30.0835
G1 X98.700 Y90.643 E30.1202
G1 X99.327 Y90.250 E30.1571
G1 X99.977 Y89.900 E30.1939
G1 X100.647 Y89.594 E30.2307
G1 X101.337 Y89.331 E30.2676
G1 X102.043 Y89.114 E30.3044
G1 X102.762 Y88.944 E30.3412
G1 X103.489 Y88.822 E30.3780
G1 X104.224 Y88.746 E30.4149
G1 X104.961 Y88.721 E30.4517
G1 X105.699 Y88.742 E30.4885
G1 X106.434 Y88.811 E30.5254
G1 X107.162 Y88.929 E30.5622
G1 X107.882 Y89.095 E30.5990
G1 X108.589 Y89.306 E30.6358
G1 X109.281 Y89.564 E30.6727
G1 X109.954 Y89.866 E30.7095
G1 X110.606 Y90.212 E30.7463
G1 X111.235 Y90.599 E30.7832
G1 X111.836 Y91.027 E30.8200
G1 X112.408 Y91.494 E30.8568
G1 X112.948 Y91.997 E30.8936
G1 X113.455 Y92.534 E30.9305
G1 X113.925 Y93.103 E30.9673
G1 X114.357 Y93.700 E31.0041
G1 X114.750 Y94.327 E31.0409
G1 X115.100 Y94.977 E31.0778
G1 X115.406 Y95.647 E31.1146
G1 X115.669 Y96.337 E31.1514
G1 X115.886 Y97.043 E31.1882
G1 X116.056 Y97.762 E31.2251
G1 X116.178 Y98.489 E31.2619
G1 X116.254 Y99.224 E31.2987
G1 X116.279 Y99.961 E31.3355
G1 X116.258 Y100.699 E31.3724
G1 X116.189 Y101.434 E31.4092
G1 X116.071 Y102.162 E31.4460
G1 X115.905 Y102.882 E31.4829
G1 X115.694 Y103.589 E31.5197
G1 X115.436 Y104.281 E31.5565
G1 X115.134 Y104.954 E31.5933
G1 X114.788 Y105.606 E31.6301
G1 X114.401 Y106.235 E31.6670
G1 X113.973 Y106.836 E31.7038
G1 X113.506 Y107.408 E31.7406
G1 X113.003 Y107.948 E31.7774
G1 X112.466 Y108.455 E31.8143
G1 X111.897 Y108.925 E31.8511
G1 X111.300 Y109.357 E31.8879
G1 X110.673 Y109.750 E31.9248
G1 X110.023 Y110.100 E31.9616
G1 X109.353 Y110.406 E31.9984
G1 X108.663 Y110.669 E32.0352
G1 X107.957 Y110.886 E32.0720
G1 X107.238 Y111.055 E32.1089
G1 X106.511 Y111.178 E32.1457
G1 X105.776 Y111.253 E32.1825
G1 X105.039 Y111.279 E32.2194
G1 X104.359 Y111.260 E32.2533
G1 X103.829 Y111.713
;segType:Loop
G1 X103.180 Y111.531 F10800
G1 X102.761 Y111.463 E32.2744 F3600
G1 X102.016 Y111.292 E32.3126
G1 X101.283 Y111.073 E32.3507
G1 X100.567 Y110.806 E32.3889
G1 X99.870 Y110.494 E32.4270
G1 X99.195 Y110.135 E32.4651
G1 X98.544 Y109.734 E32.5033
G1 X97.922 Y109.291 E32.5414
G1 X97.329 Y108.808 E32.5795
G1 X96.769 Y108.287 E32.6176
G1 X96.245 Y107.731 E32.6558
G1 X95.758 Y107.142 E32.6939
G1 X95.311 Y106.523 E32.7320
G1 X94.904 Y105.875 E32.7702
G1 X94.542 Y105.202 E32.8083
G1 X94.224 Y104.507 E32.8464
G1 X93.953 Y103.793 E32.8846
G1 X93.728 Y103.062 E32.9227
G1 X93.552 Y102.318 E32.9608
G1 X93.425 Y101.565 E32.9989
G1 X93.347 Y100.804 E33.0371
G1 X93.321 Y100.040 E33.0752
G1 X93.342 Y99.276 E33.1134
G1 X93.414 Y98.515 E33.1515
G1 X93.537 Y97.761 E33.1896
G1 X93.708 Y97.016 E33.2278
G1 X93.927 Y96.284 E33.2659
G1 X94.194 Y95.567 E33.3041
G1 X94.506 Y94.870 E33.3421
G1 X94.865 Y94.195 E33.3803
G1 X95.266 Y93.544 E33.4184
G1 X95.709 Y92.922 E33.4565
G1 X96.192 Y92.329 E33.4947
G1 X96.713 Y91.769 E33.5328
G1 X97.269 Y91.245 E33.5710
G1 X97.858 Y90.758 E33.6091
G1 X98.477 Y90.311 E33.6472
G1 X99.125 Y89.904 E33.6854
G1 X99.798 Y89.542 E33.7235
G1 X100.493 Y89.225 E33.7616
G1 X101.207 Y88.953 E33.7997
G1 X101.938 Y88.728 E33.8379
G1 X102.682 Y88.552 E33.8760
G1 X103.435 Y88.425 E33.9141
G1 X104.196 Y88.347 E33.9523
G1 X104.960 Y88.321 E33.9904
G1 X105.724 Y88.342 E34.0285
G1 X106.485 Y88.414 E34.0667
G1 X107.239 Y88.537 E34.1048
G1 X107.984 Y88.708 E34.1430
G1 X108.717 Y88.927 E34.1811
G1 X109.433 Y89.194 E34.2192
G1 X110.130 Y89.506 E34.2573
G1 X110.805 Y89.865 E34.2955
G1 X111.456 Y90.266 E34.3336
G1 X112.078 Y90.709 E34.3717
G1 X112.671 Y91.192 E34.4099
G1 X113.231 Y91.713 E34.4480
G1 X113.755 Y92.269 E34.4862
G1 X114.242 Y92.858 E34.5243
G1 X114.689 Y93.477 E34.5624
G1 X115.096 Y94.126 E34.6006
G1 X115.458 Y94.798 E34.6387
G1 X115.775 Y95.493 E34.6768
G1 X116.047 Y96.207 E34.7149
G1 X116.272 Y96.938 E34.7531
G1 X116.448 Y97.682 E34.7912
G1 X116.575 Y98.435 E34.8293
G1 X116.653 Y99.196 E34.8675
G1 X116.679 Y99.960 E34.9056
G1 X116.658 Y100.724 E34.9437
G1 X116.586 Y101.485 E34.9819
G1 X116.463 Y102.239 E35.0200
G1 X116.292 Y102.984 E35.0581
G1 X116.073 Y103.717 E35.0963
G1 X115.806 Y104.433 E35.1344
G1 X115.494 Y105.130 E35.1725
G1 X115.135 Y105.805 E35.2107
G1 X114.734 Y106.456 E35.2488
G1 X114.291 Y107.078 E35.2869
G1 X113.808 Y107.671 E35.3251
G1 X113.287 Y108.231 E35.3632
G1 X112.731 Y108.755 E35.4013
G1 X112.142 Y109.242 E35.4395
G1 X111.523 Y109.689 E35.4776
G1 X110.875 Y110.096 E35.5157
G1 X110.201 Y110.458 E35.5539
G1 X109.507 Y110.776 E35.5920
G1 X108.793 Y111.047 E35.6301
G1 X108.062 Y111.272 E35.6682
G1 X107.318 Y111.448 E35.7064
G1 X106.565 Y111.575 E35.7445
G1 X105.804 Y111.653 E35.7827
G1 X105.040 Y111.679 E35.8208
G1 X104.276 Y111.658 E35.8589
G1 X103.515 Y111.586 E35.8971
G1 X103.371 Y111.562 E35.9044
;segType:HShell
G1 X104.111 Y111.843 F10800
G1 X103.799 Y112.155 E35.9264 F3600
G1 X103.308 Y112.098 E35.9510
G1 X103.610 Y111.796 E35.9723
G1 X103.132 Y111.726 E35.9965
G1 X102.835 Y112.023 E36.0174
G1 X102.381 Y111.929 E36.0405
G1 X102.664 Y111.646 E36.0605
G1 X102.219 Y111.544 E36.0833
G1 X101.935 Y111.828 E36.1033
G1 X101.512 Y111.703 E36.1253
G1 X101.784 Y111.432 E36.1444
G1 X101.362 Y111.305 E36.1664
G1 X101.094 Y111.574 E36.1853
G1 X100.696 Y111.424 E36.2065
G1 X100.956 Y111.164 E36.2248
G1 X100.556 Y111.016 E36.2461
G1 X100.302 Y111.270 E36.2640
G1 X99.925 Y111.099 E36.2846
G1 X100.175 Y110.850 E36.3023
G1 X99.797 Y110.680 E36.3229
G1 X99.554 Y110.923 E36.3401
G1 X99.186 Y110.743 E36.3605
G1 X99.438 Y110.491 E36.3783
G1 X99.081 Y110.300 E36.3985
G1 X98.818 Y110.563 E36.4171
G1 X98.448 Y110.386 E36.4376
G1 X98.742 Y110.091 E36.4584
G1 X98.405 Y109.881 E36.4782
G1 X98.074 Y110.212 E36.5016
G1 X97.693 Y110.046 E36.5223
G1 X98.085 Y109.653 E36.5500
G1 X97.767 Y109.424 E36.5696
G1 X97.287 Y109.903 E36.6035
G1 X96.841 Y109.802 E36.6263
G1 X97.466 Y109.177 E36.6704
G1 X97.166 Y108.929 E36.6898
G1 X96.354 Y109.741 E36.7470
G1 X96.007 Y109.541 E36.7670
G1 X96.882 Y108.665 E36.8288
G1 X96.600 Y108.400 E36.8481
G1 X95.724 Y109.276 E36.9100
G1 X95.459 Y108.993 E36.9293
G1 X96.335 Y108.118 E36.9911
G1 X96.071 Y107.834 E37.0104
G1 X95.259 Y108.646 E37.0677
G1 X95.198 Y108.159 E37.0922
G1 X95.823 Y107.534 E37.1362
G1 X95.577 Y107.233 E37.1556
G1 X95.097 Y107.713 E37.1895
G1 X94.954 Y107.307 E37.2110
G1 X95.347 Y106.915 E37.2387
G1 X95.119 Y106.595 E37.2583
G1 X94.788 Y106.926 E37.2817
G1 X94.614 Y106.552 E37.3022
G1 X94.908 Y106.258 E37.3230
G1 X94.700 Y105.918 E37.3429
G1 X94.437 Y106.182 E37.3615
G1 X94.257 Y105.814 E37.3819
G1 X94.509 Y105.562 E37.3997
G1 X94.322 Y105.201 E37.4200
G1 X94.077 Y105.446 E37.4372
G1 X93.901 Y105.075 E37.4577
G1 X94.150 Y104.826 E37.4753
G1 X93.986 Y104.442 E37.4961
G1 X93.730 Y104.698 E37.5142
G1 X93.576 Y104.304 E37.5353
G1 X93.835 Y104.045 E37.5535
G1 X93.696 Y103.637 E37.5750
G1 X93.426 Y103.906 E37.5941
G1 X93.297 Y103.488 E37.6159
G1 X93.567 Y103.218 E37.6349
G1 X93.456 Y102.781 E37.6574
G1 X93.172 Y103.065 E37.6775
G1 X93.071 Y102.619 E37.7003
G1 X93.353 Y102.337 E37.7202
G1 X93.274 Y101.868 E37.7439
G1 X92.977 Y102.165 E37.7649
G1 X92.902 Y101.692 E37.7888
G1 X93.206 Y101.388 E37.8102
G1 X93.155 Y100.891 E37.8351
G1 X92.845 Y101.201 E37.8570
G1 X92.800 Y100.699 E37.8822
G1 X93.132 Y100.367 E37.9056
G1 X93.127 Y99.824 E37.9327
G1 X92.787 Y100.164 E37.9567
G1 X92.792 Y99.611 E37.9843
G1 X93.143 Y99.261 E38.0090
G1 X93.200 Y98.655 E38.0394
G1 X92.820 Y99.036 E38.0662
G1 X92.885 Y98.423 E38.0969
G1 X93.293 Y98.015 E38.1257
G1 X92.991 Y97.769 E38.1451
G1 X93.430 Y97.330 E38.1761
G1 X93.144 Y97.068 E38.1954
G1 X93.628 Y96.585 E38.2296
G1 X93.361 Y96.304 E38.2489
G1 X93.911 Y95.754 E38.2877
G1 X93.673 Y95.444 E38.3072
G1 X94.320 Y94.798 E38.3528
G1 X94.131 Y94.439 E38.3730
G1 X95.040 Y93.530 E38.4371
G1 X100.444 Y88.673 F10800
G1 X99.793 Y89.325 E38.4831 F3600
G1 X96.714 Y90.213 F10800
G1 X95.214 Y91.712 E38.5889 F3600
G1 X98.526 Y90.044 F10800
G1 X99.439 Y89.131 E38.6533 F3600
G1 X94.653 Y93.369 F10800
G1 X98.369 Y89.653 E38.9155 F3600
G1 X100.754 Y88.911 F10800
G1 X101.304 Y88.361 E38.9543 F3600
G1 X101.585 Y88.627 E38.9736
G1 X102.068 Y88.144 E39.0077
G1 X102.330 Y88.430 E39.0270
G1 X102.769 Y87.991 E39.0580
G1 X103.423 Y87.885 E39.0910
G1 X103.015 Y88.293 E39.1198
G1 X103.654 Y88.202 E39.1520
G1 X104.036 Y87.820 E39.1790
G1 X104.611 Y87.792 E39.2077
G1 X104.259 Y88.145 E39.2326
G1 X104.826 Y88.125 E39.2610
G1 X105.164 Y87.787 E39.2848
G1 X105.699 Y87.800 E39.3115
G1 X105.367 Y88.132 E39.3349
G1 X105.889 Y88.157 E39.3610
G1 X106.202 Y87.845 E39.3831
G1 X106.692 Y87.902 E39.4077
G1 X106.390 Y88.205 E39.4291
G1 X106.868 Y88.274 E39.4532
G1 X107.165 Y87.976 E39.4742
G1 X107.619 Y88.071 E39.4973
G1 X107.336 Y88.354 E39.5172
G1 X107.781 Y88.456 E39.5400
G1 X108.065 Y88.172 E39.5601
G1 X108.488 Y88.297 E39.5820
G1 X108.216 Y88.568 E39.6012
G1 X108.638 Y88.695 E39.6231
G1 X108.906 Y88.426 E39.6421
G1 X109.304 Y88.576 E39.6633
G1 X109.044 Y88.836 E39.6816
G1 X109.444 Y88.984 E39.7028
G1 X109.698 Y88.730 E39.7207
G1 X110.075 Y88.901 E39.7414
G1 X109.825 Y89.150 E39.7590
G1 X110.203 Y89.320 E39.7797
G1 X110.446 Y89.077 E39.7969
G1 X110.814 Y89.257 E39.8173
G1 X110.562 Y89.509 E39.8351
G1 X110.919 Y89.700 E39.8553
G1 X111.182 Y89.437 E39.8739
G1 X111.552 Y89.614 E39.8943
G1 X111.258 Y89.909 E39.9151
G1 X111.595 Y90.119 E39.9350
G1 X111.926 Y89.788 E39.9584
G1 X112.307 Y89.954 E39.9791
G1 X111.915 Y90.347 E40.0068
G1 X112.233 Y90.576 E40.0264
G1 X112.715 Y90.095 E40.0604
G1 X113.163 Y90.194 E40.0833
G1 X112.534 Y90.823 E40.1277
G1 X112.834 Y91.071 E40.1471
G1 X113.646 Y90.259 E40.2043
G1 X113.994 Y90.459 E40.2244
G1 X113.118 Y91.335 E40.2861
G1 X113.400 Y91.600 E40.3055
G1 X114.276 Y90.724 E40.3673
G1 X114.541 Y91.006 E40.3866
G1 X113.665 Y91.882 E40.4484
G1 X113.929 Y92.166 E40.4677
G1 X114.741 Y91.354 E40.5250
G1 X114.806 Y91.837 E40.5493
G1 X114.177 Y92.466 E40.5937
G1 X114.423 Y92.767 E40.6131
G1 X114.905 Y92.285 E40.6471
G1 X115.046 Y92.693 E40.6686
G1 X114.653 Y93.085 E40.6963
G1 X114.881 Y93.405 E40.7159
G1 X115.212 Y93.074 E40.7393
G1 X115.386 Y93.448 E40.7599
G1 X115.092 Y93.742 E40.7806
G1 X115.299 Y94.082 E40.8005
G1 X115.563 Y93.818 E40.8191
G1 X115.743 Y94.186 E40.8396
G1 X115.491 Y94.438 E40.8574
G1 X115.678 Y94.799 E40.8776
G1 X115.923 Y94.554 E40.8949
G1 X116.099 Y94.925 E40.9154
G1 X115.850 Y95.174 E40.9330
G1 X116.014 Y95.558 E40.9538
G1 X116.270 Y95.302 E40.9719
G1 X116.424 Y95.696 E40.9930
G1 X116.165 Y95.955 E41.0112
G1 X116.304 Y96.363 E41.0327
G1 X116.574 Y96.094 E41.0517
G1 X116.703 Y96.512 E41.0736
G1 X116.433 Y96.782 E41.0926
G1 X116.544 Y97.219 E41.1151
G1 X116.828 Y96.935 E41.1352
G1 X116.929 Y97.381 E41.1580
G1 X116.647 Y97.663 E41.1779
G1 X116.727 Y98.132 E41.2016
G1 X117.024 Y97.835 E41.2226
G1 X117.098 Y98.308 E41.2465
G1 X116.794 Y98.612 E41.2679
G1 X116.845 Y99.109 E41.2928
G1 X117.155 Y98.798 E41.3147
G1 X117.200 Y99.301 E41.3399
G1 X116.868 Y99.633 E41.3633
G1 X116.873 Y100.176 E41.3904
G1 X117.213 Y99.836 E41.4144
G1 X117.208 Y100.389 E41.4420
G1 X116.857 Y100.739 E41.4667
G1 X116.800 Y101.345 E41.4970
G1 X117.180 Y100.964 E41.5239
G1 X117.115 Y101.577 E41.5546
G1 X116.707 Y101.985 E41.5834
G1 X117.009 Y102.231 E41.6028
G1 X116.570 Y102.670 E41.6338
G1 X116.856 Y102.932 E41.6531
G1 X116.372 Y103.415 E41.6872
G1 X116.089 Y104.246 E41.7310
G1 X116.639 Y103.696 E41.7698
G1 X116.327 Y104.556 E41.8154
G1 X115.681 Y105.202 E41.8610
G1 X115.869 Y105.561 E41.8812
G1 X114.960 Y106.470 E41.9454
G1 X114.785 Y108.288 F10800
G1 X113.286 Y109.787 E42.0511 F3600
G1 X114.949 Y107.577 F10800
G1 X112.577 Y109.949 E42.2185 F3600
;segType:Support
G1 F4800 E41.2185
G1 X116.627 Y107.200 F10800
G1 F4800 E42.2185
G1 X117.600 Y107.200 E42.2597 F5400
G1 X117.600 Y105.400 E42.3360
G1 X117.490 Y105.400 E42.3407
G1 F4800 E41.3407
G1 X132.000 Y116.200 F10800
G1 F4800 E42.3407
G1 X126.600 Y116.200 E42.5697 F5400
G1 F4800 E41.5697
G1 X119.400 Y76.600 F10800
G1 F4800 E42.5697
G1 X124.800 Y76.600 E42.7987 F5400
G1 F4800 E41.7987
G1 X126.600 Y85.600 F10800
G1 F4800 E42.7987
G1 X128.400 Y85.600 E42.8750 F5400
G1 X128.400 Y83.800 E42.9514
G1 X126.600 Y83.800 E43.0277
G1 F4800 E42.0277
G1 X130.200 Y96.400 F10800
G1 F4800 E43.0277
G1 X130.212 Y96.400 E43.0282 F5400
G1 X131.639 Y96.400 E43.0887
;segType:SoftSupport
G1 X130.212 Y96.400 E43.1207 F5400
G1 F4800 E42.1207
G1 X134.003 Y96.400 F10800
G1 F4800 E43.1207
G1 X135.600 Y96.400 E43.1566 F5400
G1 X135.600 Y94.600 E43.1970
;segType:Support
G1 X130.200 Y94.600 E43.4260 F5400
G1 F4800 E42.4260
G1 X130.563 Y97.130 F10800
G1 X130.926 Y99.661
G1 X131.288 Y102.191
G1 F4800 E43.4260
;segType:HShell
G1 X135.218 Y98.261 E43.7033 F3600
G1 X135.083 Y97.849 E43.7249
G1 X130.953 Y101.979 E44.0163
;segType:Perimeter
G1 X131.193 Y102.458 F10800
G1 X130.530 Y102.671 E44.0511 F2159
G1 X130.476 Y102.596 E44.0557
G1 X130.428 Y102.434 E44.0641
G1 X130.341 Y101.980 E44.0872
G1 X130.270 Y101.487 E44.1121
G1 X130.205 Y100.818 E44.1456
G1 X130.178 Y100.000 E44.1864
G1 X130.205 Y99.182 E44.2272
G1 X130.270 Y98.513 E44.2607
G1 X130.341 Y98.020 E44.2856
G1 X130.428 Y97.566 E44.3087
G1 X130.476 Y97.404 E44.3171
G1 X130.563 Y97.281 E44.3246
G1 X130.701 Y97.236 E44.3319
G1 X131.018 Y97.212 E44.3477
G1 X132.078 Y97.192 E44.4006
G1 X133.375 Y97.191 E44.4653
G1 X134.591 Y97.208 E44.5260
G1 X135.065 Y97.234 E44.5497
G1 X135.370 Y97.282 E44.5651
G1 X135.530 Y97.349 E44.5737
G1 X135.690 Y97.581 E44.5878
G1 X135.777 Y97.943 E44.6064
G1 X135.849 Y98.356 E44.6272
G1 X135.925 Y99.038 E44.6615
G1 X135.960 Y99.628 E44.6910
G1 X135.960 Y100.372 E44.7281
G1 X135.925 Y100.962 E44.7576
G1 X135.849 Y101.645 E44.7918
G1 X135.777 Y102.057 E44.8127
G1 X135.690 Y102.418 E44.8313
G1 X135.530 Y102.651 E44.8454
G1 X135.370 Y102.718 E44.8540
G1 X135.065 Y102.766 E44.8694
G1 X134.591 Y102.792 E44.8931
G1 X133.375 Y102.809 E44.9538
G1 X132.078 Y102.808 E45.0185
G1 X131.018 Y102.788 E45.0714
G1 X130.701 Y102.764 E45.0872
G1 X130.618 Y102.737 E45.0916
G1 X130.625 Y102.040
;segType:Loop
G1 X130.697 Y101.643 F10800
G1 X130.668 Y101.439 E45.1019 F3600
G1 X130.605 Y100.792 E45.1343
G1 X130.578 Y100.000 E45.1738
G1 X130.605 Y99.208 E45.2133
G1 X130.668 Y98.561 E45.2458
G1 X130.735 Y98.087 E45.2697
G1 X130.827 Y97.628 E45.2930
G1 X131.037 Y97.612 E45.3035
G1 X132.082 Y97.592 E45.3557
G1 X133.372 Y97.591 E45.4200
G1 X134.577 Y97.608 E45.4802
G1 X135.023 Y97.632 E45.5024
G1 X135.266 Y97.672 E45.5148
G1 X135.318 Y97.748 E45.5193
G1 X135.453 Y98.412 E45.5531
G1 X135.526 Y99.072 E45.5863
G1 X135.560 Y99.640 E45.6147
G1 X135.560 Y100.360 E45.6506
G1 X135.526 Y100.928 E45.6790
G1 X135.453 Y101.588 E45.7121
G1 X135.318 Y102.252 E45.7459
G1 X135.259 Y102.331 E45.7508
G1 X135.023 Y102.368 E45.7628
G1 X134.577 Y102.392 E45.7850
G1 X133.372 Y102.409 E45.8451
G1 X132.082 Y102.408 E45.9095
G1 X131.037 Y102.388 E45.9617
G1 X130.827 Y102.372 E45.9722
G1 X130.735 Y101.914 E45.9955
G1 X130.724 Y101.835 E45.9995
G1 X130.879 Y101.505 F10800
;segType:HShell
G1 X134.576 Y97.808 E46.2603 F3600
G1 X134.036 Y97.801 E46.2872
G1 X130.827 Y101.009 E46.5136
G1 X130.795 Y100.494 E46.5394
G1 X133.496 Y97.793 E46.7299
G1 X132.950 Y97.791 E46.7572
G1 X130.780 Y99.961 E46.9103
G1 X130.799 Y99.395 E46.9386
G1 X132.402 Y97.791 E47.0517
G1 X131.849 Y97.797 E47.0793
G1 X130.845 Y98.800 E47.1501
G1 X130.925 Y98.173 E47.1816
G1 X131.289 Y97.809 E47.2073
G1 X134.574 Y102.192 F10800
G1 X135.261 Y101.505 E47.2558 F3600
G1 X135.328 Y100.890 E47.2866
G1 X134.018 Y102.200 E47.3790
G1 X133.463 Y102.207 E47.4068
G1 X135.360 Y100.311 E47.5406
G1 X135.360 Y99.763 E47.5679
G1 X132.914 Y102.209 E47.7405
G1 X132.366 Y102.209 E47.7678
G1 X135.336 Y99.239 E47.9773
G1 X135.288 Y98.739 E48.0024
G1 X131.824 Y102.203 E48.2467
;segType:Support
G1 F4800 E47.2467
G1 X132.000 Y118.000 F10800
G1 F4800 E48.2467
G1 X126.600 Y118.000 E48.4757 F5400
G1 X128.400 Y119.800 E48.5837
G1 X119.400 Y119.800 E48.9653
;segType:SoftSupport
G1 F4800 E47.9653
G1 X108.948 Y130.600 F10800
G1 F4800 E48.9653
G1 X108.600 Y130.600 E48.9731 F5400
G1 X108.462 Y130.626 E48.9763
;segType:Support
G1 F4800 E47.9763
G1 X119.400 Y121.600 F10800
G1 F4800 E48.9763
G1 X128.400 Y121.600 E49.3579 F5400
G1 F4800 E48.3579
G1 X123.000 Y123.400 F10800
G1 F4800 E49.3579
G1 X124.800 Y123.400 E49.4343 F5400
G1 X124.800 Y125.200 E49.5106
G1 X123.000 Y125.200 E49.5869
;segType:SoftSupport
G1 F4800 E48.5869
G1 X109.066 Y128.800 F10800
G1 F4800 E49.5869
G1 X108.603 Y128.800 E49.5973 F5400
G1 X108.606 Y127.000 E49.6378
G1 X109.067 Y127.000 E49.6481
G1 X110.400 Y127.000 E49.6780
;segType:Support
G1 X109.067 Y127.000 E49.7346 F5400
; ------------------------------------
; Layer #3
; ------------------------------------
G21 ; mm
G90 ; abs
G92 E0 ; reset extr
M106 S255
;segType:SoftSupport
G1 F4800 E-1.0000
G1 F300 Z1.000
G1 X109.668 Y127.244 F10800
G1 F4800 E0.0000
G1 X109.887 Y127.244 E0.0049 F5400
G1 X109.887 Y127.244
;segType:Support
G1 X110.156 Y127.244 E0.0163 F5400
G1 F4800 E-0.9837
G1 X128.400 Y119.800 F10800
G1 F4800 E0.0163
G1 X119.400 Y119.800 E0.3980 F5400
G1 F4800 E-0.6020
G1 X83.400 Y121.600 F10800
G1 F4800 E0.3980
G1 X88.800 Y121.600 E0.6270 F5400
G1 F4800 E-0.3730
G1 X93.120 Y106.480 F10800
G1 X96.000 Y96.400
G1 F4800 E0.6270
G1 X95.184 Y96.400 E0.6616 F5400
G1 F4800 E-0.3384
G1 X94.248 Y99.193 F10800
G1 X93.311 Y101.986
G1 F4800 E0.6616
;segType:HShell
G1 X92.858 Y101.533 E0.6936 F3600
G1 X92.798 Y100.925 E0.7241
G1 X93.223 Y101.350 E0.7541
G1 X93.170 Y100.750 E0.7842
G1 X92.765 Y100.344 E0.8128
G1 X92.760 Y99.792 E0.8403
G1 X93.145 Y100.177 E0.8674
G1 X93.149 Y99.633 E0.8945
G1 X92.784 Y99.268 E0.9203
G1 X92.823 Y98.759 E0.9458
G1 X93.179 Y99.116 E0.9709
G1 X93.225 Y98.614 E0.9961
G1 X92.883 Y98.272 E1.0202
G1 X92.961 Y97.802 E1.0440
G1 X93.292 Y98.133 E1.0673
G1 X93.377 Y97.670 E1.0907
G1 X93.049 Y97.343 E1.1139
G1 X93.161 Y96.906 E1.1363
G1 X93.471 Y97.217 E1.1583
G1 X93.590 Y96.788 E1.1805
G1 X93.277 Y96.476 E1.2025
G1 X93.415 Y96.066 E1.2241
G1 X93.714 Y96.365 E1.2452
G1 X93.856 Y95.959 E1.2666
G1 X93.559 Y95.662 E1.2875
G1 X93.721 Y95.276 E1.3084
G1 X94.007 Y95.562 E1.3286
G1 X94.170 Y95.177 E1.3495
G1 X93.886 Y94.894 E1.3695
G1 X94.062 Y94.522 E1.3900
G1 X94.345 Y94.804 E1.4099
G1 X94.528 Y94.440 E1.4302
G1 X94.238 Y94.151 E1.4507
G1 X94.412 Y93.777 E1.4712
G1 X94.725 Y94.089 E1.4933
G1 X94.928 Y93.744 E1.5132
G1 X94.578 Y93.394 E1.5379
G1 X94.730 Y92.999 E1.5591
G1 X95.145 Y93.414 E1.5883
G1 X95.366 Y93.088 E1.6080
G1 X94.855 Y92.577 E1.6440
;segType:Perimeter
G1 X94.799 Y92.391 F10800
G1 X94.394 Y91.823 E1.6788 F2159
G1 X94.444 Y91.421 E1.6990
G1 X94.429 Y90.691 E1.7354
G1 X94.461 Y90.593 E1.7406
G1 X94.706 Y90.317 E1.7590
G1 X95.160 Y89.857 E1.7913
G1 X95.521 Y89.517 E1.8160
G1 X95.661 Y89.435 E1.8241
G1 X96.413 Y89.445 E1.8616
G1 X96.809 Y89.402 E1.8815
G1 X97.332 Y89.306 E1.9080
G1 X97.906 Y89.132 E1.9380
G1 X98.262 Y88.989 E1.9571
G1 X99.659 Y88.331 E2.0341
G1 X100.412 Y88.008 E2.0750
G1 X101.190 Y87.736 E2.1161
G1 X101.995 Y87.512 E2.1578
G1 X102.815 Y87.343 E2.1996
G1 X103.648 Y87.227 E2.2415
G1 X104.486 Y87.166 E2.2835
G1 X105.327 Y87.160 E2.3254
G1 X106.165 Y87.209 E2.3673
G1 X107.000 Y87.312 E2.4093
G1 X107.828 Y87.471 E2.4513
G1 X108.642 Y87.684 E2.4933
G1 X109.449 Y87.956 E2.5358
G1 X110.241 Y88.286 E2.5786
G1 X111.397 Y88.834 E2.6424
G1 X112.069 Y89.124 E2.6790
G1 X112.691 Y89.309 E2.7113
G1 X113.119 Y89.387 E2.7330
G1 X113.579 Y89.444 E2.7561
G1 X114.309 Y89.429 E2.7926
G1 X114.407 Y89.461 E2.7977
G1 X114.683 Y89.706 E2.8162
G1 X115.143 Y90.160 E2.8484
G1 X115.483 Y90.521 E2.8731
G1 X115.565 Y90.661 E2.8812
G1 X115.555 Y91.413 E2.9187
G1 X115.598 Y91.809 E2.9386
G1 X115.694 Y92.332 E2.9652
G1 X115.868 Y92.906 E2.9951
G1 X116.011 Y93.262 E3.0142
G1 X116.669 Y94.659 E3.0913
G1 X116.992 Y95.412 E3.1321
G1 X117.264 Y96.190 E3.1733
G1 X117.488 Y96.995 E3.2149
G1 X117.657 Y97.815 E3.2567
G1 X117.773 Y98.648 E3.2987
G1 X117.834 Y99.486 E3.3406
G1 X117.840 Y100.327 E3.3825
G1 X117.791 Y101.165 E3.4244
G1 X117.688 Y102.000 E3.4664
G1 X117.529 Y102.827 E3.5084
G1 X117.316 Y103.642 E3.5505
G1 X117.044 Y104.449 E3.5929
G1 X116.714 Y105.241 E3.6358
G1 X116.166 Y106.397 E3.6996
G1 X115.876 Y107.069 E3.7361
G1 X115.691 Y107.691 E3.7685
G1 X115.613 Y108.119 E3.7902
G1 X115.556 Y108.579 E3.8133
G1 X115.571 Y109.309 E3.8497
G1 X115.539 Y109.407 E3.8549
G1 X115.294 Y109.683 E3.8733
