; GCode generated by CraftWare

; filename = composition.3w 
; machine = daVinciF10 
; material = abs 
; extruder = 1 
M140 S90 ; Bed (no wait) 
M106 S255 ; Start fan 
G90 ; set absolute coordinates 
G28 ; home all axis 
M190 S90 ; Bed (wait) 
M104 S210 ; Extruder (no wait) 
M109 S210 ; Extruder (wait) 
M117 Start 
M117 Cleaning 
M100 ; Cleaning 
M117 Printing 
M190 S75 ;set bed temp (wait)
M109 S220 ;set head temp (wait)
; ------------------------------------
; Layer #0
; ------------------------------------
G21 ; mm
G90 ; abs
G92 E0 ; reset extr
M106 S0
G1 F4800 E-1.0000
G1 F300 Z0.300
G1 X71.577 Y40.263 F10800
G1 X72.023 Y37.588
G1 X72.785 Y35.899
G1 X73.755 Y34.433
G1 X75.293 Y32.896
G1 X77.399 Y31.587
G1 X80.783 Y30.917
G1 X81.593 Y30.876
G1 X130.358 Y29.958
G1 F4800 E0.0000
;segType:Support
G1 X135.600 Y29.800 E0.2224 F900
G1 X133.823 Y31.547 E0.3281
G1 X135.600 Y31.600 E0.4035
G1 F4800 E-0.5965
G1 X137.497 Y35.200 F10800
G1 F4800 E0.4035
G1 X139.200 Y35.200 E0.4757 F900
G1 X137.400 Y33.400 E0.5836
G1 X139.200 Y33.400 E0.6600
G1 F4800 E-0.3400
G1 X136.900 Y34.646 F10800
G1 X134.600 Y35.891
G1 X93.199 Y58.313
G1 X90.899 Y59.558
G1 F4800 E0.6600
;segType:HShell
G1 X87.572 Y63.001 E0.8988 F600
G1 X87.937 Y63.183
G1 X91.940 Y59.040 E1.1862
;segType:Perimeter
G1 X92.043 Y58.579 F10800
G1 X92.557 Y58.104 E1.2211 F359
G1 X92.557 Y66.193 E1.6247
G1 X88.211 Y64.011 E1.8673
G1 X86.729 Y63.268 E1.9500
G1 X85.671 Y62.766 E2.0084
G1 X85.097 Y62.521 E2.0396
G1 X84.484 Y62.275 E2.0725
G1 X84.036 Y62.109 E2.0963
G1 X84.745 Y61.836 E2.1342
G1 X85.349 Y61.564 E2.1673
G1 X85.905 Y61.333 E2.1973
G1 X86.774 Y60.920 E2.2453
G1 X92.505 Y58.071 E2.5646
G1 X92.314 Y58.755
;segType:Loop
G1 X92.157 Y59.134 F10800
G1 X92.157 Y65.532 E2.8839 F600
G1 X88.386 Y63.638 E3.0944
G1 X86.899 Y62.893 E3.1774
G1 X85.831 Y62.386 E3.2364
G1 X85.158 Y62.101 E3.2728
G1 X86.063 Y61.714 E3.3220
G1 X86.944 Y61.295 E3.3706
G1 X92.157 Y58.703 E3.6611
G1 X92.157 Y58.936 E3.6727
;segType:HShell
G1 X91.957 Y59.583 F10800
G1 X88.301 Y63.366 E3.9352 F600
G1 X88.666 Y63.549
G1 X91.957 Y60.143 E4.1714
G1 X91.957 Y60.703
G1 X89.030 Y63.732 E4.3816
G1 X89.394 Y63.915
G1 X91.957 Y61.263 E4.5656
G1 X91.957 Y61.823
G1 X89.759 Y64.098 E4.7234
G1 X90.123 Y64.280
G1 X91.957 Y62.382 E4.8551
G1 X91.957 Y62.942
G1 X90.487 Y64.463 E4.9606
G1 X90.851 Y64.646
G1 X91.957 Y63.502 E5.0400
G1 X91.957 Y64.062
G1 X91.216 Y64.829 E5.0932
G1 X91.580 Y65.012
G1 X91.957 Y64.622 E5.1203
G1 X86.744 Y61.618 F10800
G1 X86.099 Y62.286 E5.1667 F600
G1 X86.470 Y62.462
G1 X87.774 Y61.112 E5.2603
G1 X88.816 Y60.594 F10800
G1 X86.840 Y62.638 E5.4021 F600
G1 X87.208 Y62.818
G1 X89.857 Y60.076 E5.5924
;segType:Support
G1 F4800 E4.5924
G1 X70.800 Y56.800 F10800
G1 F4800 E5.5924
G1 X69.000 Y56.800 E5.6687 F900
G1 X69.000 Y58.600 E5.7450
G1 X70.800 Y58.600 E5.8213
G1 F4800 E4.8213
G1 X69.000 Y62.200 F10800
G1 F4800 E5.8213
G1 X70.800 Y62.200 E5.8977 F900
G1 F4800 E4.8977
G1 X69.000 Y65.800 F10800
G1 F4800 E5.8977
G1 X70.800 Y65.800 E5.9740 F900
G1 F4800 E4.9740
G1 X70.800 Y71.200 F10800
G1 F4800 E5.9740
G1 X69.000 Y71.200 E6.0503 F900
G1 F4800 E5.0503
G1 X69.000 Y80.200 F10800
G1 F4800 E6.0503
G1 X70.800 Y80.200 E6.1267 F900
G1 F4800 E5.1267
G1 X70.800 Y83.800 F10800
G1 F4800 E6.1267
G1 X69.000 Y83.800 E6.2030 F900
G1 F4800 E5.2030
G1 X70.800 Y87.400 F10800
G1 F4800 E6.2030
G1 X69.000 Y87.400 E6.2793 F900
G1 X69.000 Y89.200 E6.3557
G1 X70.800 Y89.200 E6.4320
G1 F4800 E5.4320
G1 X70.800 Y96.400 F10800
G1 F4800 E6.4320
G1 X69.000 Y96.400 E6.5083 F900
G1 X69.000 Y98.200 E6.5847
G1 X70.800 Y98.200 E6.6610
G1 F4800 E5.6610
G1 X71.646 Y160.003 F10800
G1 X72.022 Y161.950
G1 X72.790 Y163.641
G1 X73.696 Y165.036
G1 X75.430 Y166.762
G1 X77.806 Y168.057
G1 X80.504 Y168.704
G1 X126.699 Y168.754
G1 X130.283 Y168.605
G1 X132.926 Y167.736
G1 X134.599 Y166.668
G1 X135.834 Y165.598
G1 X138.104 Y163.133
G1 F4800 E6.6610
;segType:SoftSupport
G1 X138.131 Y163.133 E6.6616 F900
G1 X138.131 Y163.133
;segType:Support
G1 X139.067 Y163.133 E6.7013 F900
G1 X139.067 Y164.667 E6.7663
G1 X137.533 Y164.667 E6.8313
G1 F4800 E5.8313
G1 X132.926 Y167.736 F10800
G1 X130.283 Y168.605
G1 X121.306 Y168.749
G1 X80.323 Y168.692
G1 X77.806 Y168.057
G1 X75.430 Y166.762
G1 X69.000 Y161.200
G1 F4800 E6.8313
G1 X70.800 Y161.200 E6.9077 F900
G1 X69.000 Y159.400 E7.0156
G1 X70.800 Y159.400 E7.0919
G1 F4800 E6.0919
G1 X74.400 Y168.400 F10800
G1 F4800 E7.0919
G1 X72.600 Y168.400 E7.1683 F900
G1 X72.600 Y166.600 E7.2446
G1 X74.328 Y166.600 E7.3179
G1 X74.328 Y166.600
;segType:SoftSupport
G1 X74.400 Y166.600 E7.3195 F900
G1 F4800 E6.3195
G1 X78.536 Y168.307 F10800
G1 X80.504 Y168.704
G1 X126.699 Y168.754
G1 X133.800 Y168.400
G1 F4800 E7.3195
;segType:Support
G1 X135.600 Y168.400 E7.3958 F900
G1 F4800 E6.3958
G1 X124.002 Y168.751 F10800
G1 X80.323 Y168.692
G1 X77.806 Y168.057
G1 X75.430 Y166.762
G1 X73.476 Y164.807
G1 X69.000 Y157.600
G1 F4800 E7.3958
G1 X70.800 Y157.600 E7.4722 F900
G1 X69.000 Y155.800 E7.5801
G1 X70.800 Y155.800 E7.6565
G1 F4800 E6.6565
G1 X69.000 Y100.000 F10800
G1 F4800 E7.6565
G1 X70.800 Y100.000 E7.7328 F900
G1 F4800 E6.7328
G1 X69.000 Y94.600 F10800
G1 F4800 E7.7328
G1 X70.800 Y94.600 E7.8091 F900
G1 X70.800 Y92.800 E7.8855
G1 X69.000 Y92.800 E7.9618
G1 X70.800 Y91.000 E8.0697
G1 X69.000 Y91.000 E8.1461
G1 F4800 E7.1461
G1 X69.000 Y85.600 F10800
G1 F4800 E8.1461
G1 X70.800 Y85.600 E8.2224 F900
G1 F4800 E7.2224
G1 X70.800 Y82.000 F10800
G1 F4800 E8.2224
G1 X69.000 Y82.000 E8.2987 F900
G1 F4800 E7.2987
G1 X70.800 Y78.400 F10800
G1 F4800 E8.2987
G1 X69.000 Y78.400 E8.3751 F900
G1 F4800 E7.3751
G1 X70.800 Y67.600 F10800
G1 F4800 E8.3751
G1 X69.000 Y67.600 E8.4514 F900
G1 F4800 E7.4514
G1 X69.000 Y73.000 F10800
G1 F4800 E8.4514
G1 X70.800 Y73.000 E8.5277 F900
G1 X70.800 Y74.800 E8.6041
G1 X69.000 Y74.800 E8.6804
G1 X69.000 Y76.600 E8.7567
G1 X70.800 Y76.600 E8.8331
G1 F4800 E7.8331
G1 X70.800 Y69.400 F10800
G1 F4800 E8.8331
G1 X69.000 Y69.400 E8.9094 F900
G1 F4800 E7.9094
G1 X69.000 Y64.000 F10800
G1 F4800 E8.9094
G1 X70.800 Y64.000 E8.9857 F900
G1 F4800 E7.9857
G1 X70.800 Y60.400 F10800
G1 F4800 E8.9857
G1 X69.000 Y60.400 E9.0621 F900
G1 F4800 E8.0621
G1 X69.000 Y51.400 F10800
G1 F4800 E9.0621
G1 X70.800 Y51.400 E9.1384 F900
G1 F4800 E8.1384
G1 X70.800 Y47.800 F10800
G1 F4800 E9.1384
G1 X69.000 Y47.800 E9.2147 F900
G1 F4800 E8.2147
G1 X69.000 Y42.400 F10800
G1 F4800 E9.2147
G1 X70.800 Y42.400 E9.2910 F900
G1 F4800 E8.2910
G1 X70.800 Y55.000 F10800
G1 F4800 E9.2910
G1 X69.000 Y55.000 E9.3674 F900
G1 X69.000 Y53.200 E9.4437
G1 X70.800 Y53.200 E9.5200
G1 F4800 E8.5200
G1 X69.000 Y49.600 F10800
G1 F4800 E9.5200
G1 X70.800 Y49.600 E9.5964 F900
G1 F4800 E8.5964
G1 X70.800 Y46.000 F10800
G1 F4800 E9.5964
G1 X69.000 Y46.000 E9.6727 F900
G1 X69.000 Y44.200 E9.7490
G1 X70.800 Y44.200 E9.8254
G1 F4800 E8.8254
G1 X72.023 Y37.588 F10800
G1 X73.900 Y33.405
G1 F4800 E9.8254
;segType:SoftSupport
G1 X73.848 Y33.405 E9.8265 F900
G1 X73.848 Y33.405
;segType:Support
G1 X72.605 Y33.405 E9.8793 F900
G1 F4800 E8.8793
G1 X69.000 Y40.600 F10800
G1 F4800 E9.8793
G1 X70.800 Y40.600 E9.9556 F900
G1 F4800 E8.9556
G1 X72.785 Y35.899 F10800
G1 X73.755 Y34.433
G1 X77.819 Y29.981
G1 F4800 E9.9556
G1 X76.381 Y29.981 E10.0166 F900
G1 X76.540 Y31.419 E10.0780
;segType:SoftSupport
G1 X76.426 Y31.419 E10.0805 F900
G1 X76.381 Y31.419 E10.0816
;segType:Support
G1 X76.426 Y31.419 E10.0835 F900
G1 F4800 E9.0835
G1 X77.707 Y33.615 F10800
G1 X89.230 Y53.376
G1 X90.510 Y55.571
G1 X92.863 Y57.542
G1 X95.926 Y64.994
G1 F4800 E10.0835
;segType:HShell
G1 X128.188 Y31.608 E12.3997 F600
;segType:Perimeter
G1 X128.034 Y31.502 F10800
G1 X128.542 Y31.020 E12.4347 F359
G1 X130.295 Y31.200 E12.5226
G1 X131.661 Y31.483 E12.5922
G1 X132.107 Y31.632 E12.6156
G1 X132.774 Y31.958 E12.6526
G1 X133.023 Y32.046 E12.6658
G1 X133.603 Y32.362 E12.6988
G1 X134.026 Y32.656 E12.7245
G1 X134.732 Y33.267 E12.7711
G1 X134.959 Y33.437 E12.7852
G1 X135.055 Y33.405 E12.7903
G1 X135.319 Y33.648 E12.8082
G1 X135.535 Y33.983 E12.8280
G1 X136.075 Y34.469 E12.8643
G1 X136.273 Y34.752 E12.8815
G1 X136.507 Y35.038 E12.9000
G1 X136.660 Y35.311 E12.9156
G1 X136.933 Y35.893 E12.9476
G1 X137.339 Y36.476 E12.9831
G1 X137.433 Y36.667 E12.9937
G1 X137.534 Y37.062 E13.0141
G1 X137.786 Y37.793 E13.0527
G1 X138.099 Y38.985 E13.1141
G1 X138.146 Y39.212 E13.1257
G1 X138.242 Y40.520 E13.1911
G1 X138.246 Y55.330 E13.9300
G1 X138.173 Y71.035 E14.7135
G1 X138.192 Y88.131 E15.5664
G1 X138.250 Y93.060 E15.8124
G1 X138.239 Y103.237 E16.3201
G1 X138.140 Y122.659 E17.2891
G1 X138.140 Y144.702 E18.3888
G1 X138.154 Y153.001 E18.8029
G1 X138.199 Y153.089 E18.8078
G1 X138.160 Y159.028 E19.1041
G1 X138.177 Y159.723 E19.1388
G1 X138.052 Y160.150 E19.1610
G1 X137.976 Y160.772 E19.1923
G1 X137.994 Y161.154 E19.2113
G1 X137.883 Y161.592 E19.2338
G1 X137.533 Y162.390 E19.2774
G1 X137.214 Y163.200 E19.3208
G1 X137.007 Y163.523 E19.3399
G1 X136.759 Y164.079 E19.3703
G1 X136.575 Y164.334 E19.3860
G1 X135.700 Y165.457 E19.4570
G1 X135.259 Y165.811 E19.4852
G1 X134.483 Y166.510 E19.5373
G1 X134.067 Y166.791 E19.5624
G1 X133.559 Y167.170 E19.5940
G1 X133.197 Y167.350 E19.6142
G1 X132.838 Y167.560 E19.6349
G1 X132.509 Y167.722 E19.6532
G1 X131.796 Y167.966 E19.6908
G1 X130.683 Y168.271 E19.7484
G1 X130.252 Y168.410 E19.7710
G1 X129.915 Y168.421 E19.7878
G1 X126.695 Y168.556 E19.9486
G1 X121.306 Y168.551 E20.2174
G1 X80.510 Y168.506 E22.2528
G1 X80.346 Y168.496 E22.2610
G1 X79.379 Y168.316 E22.3100
G1 X78.595 Y168.119 E22.3504
G1 X78.241 Y167.966 E22.3696
G1 X77.866 Y167.869 E22.3889
G1 X77.135 Y167.548 E22.4288
G1 X76.809 Y167.338 E22.4481
G1 X76.214 Y167.075 E22.4806
G1 X75.542 Y166.601 E22.5216
G1 X75.386 Y166.480 E22.5314
G1 X74.919 Y165.961 E22.5662
G1 X74.369 Y165.542 E22.6008
G1 X73.836 Y164.901 E22.6423
G1 X73.626 Y164.685 E22.6574
G1 X72.970 Y163.574 E22.7217
G1 X72.941 Y163.358 E22.7326
G1 X72.577 Y162.835 E22.7644
G1 X72.204 Y161.889 E22.8152
G1 X72.039 Y161.198 E22.8506
G1 X71.918 Y160.567 E22.8826
G1 X71.836 Y159.982 E22.9121
G1 X71.779 Y159.169 E22.9528
G1 X71.744 Y156.426 E23.0896
G1 X71.743 Y134.270 E24.1950
G1 X71.756 Y123.274 E24.7436
G1 X71.756 Y40.516 E28.8724
G1 X71.765 Y40.300 E28.8832
G1 X71.880 Y39.958 E28.9012
G1 X71.873 Y39.722 E28.9129
G1 X71.928 Y39.281 E28.9351
G1 X72.025 Y38.823 E28.9585
G1 X72.207 Y37.641 E29.0182
G1 X72.667 Y36.462 E29.0813
G1 X72.938 Y36.018 E29.1072
G1 X73.121 Y35.804 E29.1213
G1 X73.336 Y35.285 E29.1493
G1 X73.587 Y34.907 E29.1720
G1 X73.891 Y34.572 E29.1945
G1 X74.528 Y33.940 E29.2393
G1 X74.685 Y33.647 E29.2559
G1 X74.938 Y33.437 E29.2723
G1 X75.201 Y33.184 E29.2905
G1 X75.405 Y33.057 E29.3025
G1 X75.696 Y32.798 E29.3219
G1 X76.176 Y32.494 E29.3503
G1 X76.821 Y32.220 E29.3852
G1 X77.486 Y31.763 E29.4255
G1 X77.980 Y31.570 E29.4519
G1 X78.412 Y31.422 E29.4747
G1 X78.640 Y31.438 E29.4861
G1 X78.923 Y31.369 E29.5006
G1 X79.375 Y31.224 E29.5243
G1 X80.837 Y31.107 E29.5975
G1 X80.975 Y31.031 E29.6054
G1 X81.455 Y30.993 E29.6294
G1 X81.521 Y31.060 E29.6341
G1 X116.044 Y30.974 E31.3564
G1 X128.260 Y30.953 E31.9659
G1 X128.482 Y30.959 E31.9770
G1 X128.928 Y31.502
;segType:Loop
G1 X129.493 Y31.534 F10800
G1 X130.236 Y31.610 E32.0142 F600
G1 X131.560 Y31.884 E32.0817
G1 X131.960 Y32.017 E32.1027
G1 X132.623 Y32.342 E32.1396
G1 X132.864 Y32.427 E32.1523
G1 X133.397 Y32.718 E32.1826
G1 X133.785 Y32.988 E32.2062
G1 X134.486 Y33.594 E32.2525
G1 X134.889 Y33.895 E32.2775
G1 X135.015 Y33.922 E32.2840
G1 X135.232 Y34.259 E32.3039
G1 X135.778 Y34.750 E32.3406
G1 X135.958 Y35.006 E32.3562
G1 X136.179 Y35.277 E32.3737
G1 X136.306 Y35.505 E32.3867
G1 X136.588 Y36.106 E32.4198
G1 X136.997 Y36.692 E32.4554
G1 X137.057 Y36.815 E32.4623
G1 X137.152 Y37.184 E32.4813
G1 X137.404 Y37.917 E32.5200
G1 X137.710 Y39.083 E32.5801
G1 X137.749 Y39.271 E32.5897
G1 X137.843 Y40.536 E32.6530
G1 X137.847 Y55.329 E33.3910
G1 X137.773 Y71.034 E34.1745
G1 X137.792 Y88.134 E35.0277
G1 X137.850 Y93.063 E35.2736
G1 X137.839 Y103.235 E35.7811
G1 X137.740 Y122.658 E36.7501
G1 X137.740 Y144.702 E37.8499
G1 X137.754 Y153.104 E38.2691
G1 X137.798 Y153.190 E38.2739
G1 X137.760 Y159.032 E38.5653
G1 X137.776 Y159.667 E38.5970
G1 X137.659 Y160.063 E38.6176
G1 X137.575 Y160.757 E38.6525
G1 X137.592 Y161.111 E38.6702
G1 X137.505 Y161.453 E38.6878
G1 X137.165 Y162.227 E38.7299
G1 X136.859 Y163.006 E38.7717
G1 X136.657 Y163.320 E38.7903
G1 X136.414 Y163.866 E38.8202
G1 X136.260 Y164.079 E38.8333
G1 X135.417 Y165.159 E38.9016
G1 X135.004 Y165.492 E38.9281
G1 X134.241 Y166.179 E38.9793
G1 X133.841 Y166.450 E39.0034
G1 X133.355 Y166.813 E39.0337
G1 X133.011 Y166.983 E39.0528
G1 X132.654 Y167.193 E39.0735
G1 X132.360 Y167.337 E39.0898
G1 X131.681 Y167.569 E39.1256
G1 X130.572 Y167.873 E39.1830
G1 X130.185 Y167.998 E39.2033
G1 X129.900 Y168.007 E39.2175
G1 X126.687 Y168.142 E39.3779
G1 X121.307 Y168.137 E39.6463
G1 X80.522 Y168.092 E41.6811
G1 X80.393 Y168.084 E41.6876
G1 X79.461 Y167.911 E41.7348
G1 X78.720 Y167.724 E41.7730
G1 X78.367 Y167.572 E41.7922
G1 X77.994 Y167.475 E41.8114
G1 X77.320 Y167.179 E41.8481
G1 X76.994 Y166.970 E41.8674
G1 X76.407 Y166.710 E41.8995
G1 X75.654 Y166.171 E41.9456
G1 X75.187 Y165.651 E41.9805
G1 X74.643 Y165.236 E42.0147
G1 X74.130 Y164.619 E42.0547
G1 X73.942 Y164.426 E42.0681
G1 X73.355 Y163.432 E42.1257
G1 X73.324 Y163.199 E42.1375
G1 X72.930 Y162.633 E42.1719
G1 X72.586 Y161.760 E42.2187
G1 X72.430 Y161.109 E42.2521
G1 X72.313 Y160.497 E42.2832
G1 X72.234 Y159.937 E42.3114
G1 X72.179 Y159.151 E42.3507
G1 X72.144 Y156.423 E42.4868
G1 X72.143 Y134.270 E43.5920
G1 X72.156 Y123.275 E44.1406
G1 X72.156 Y40.525 E48.2690
G1 X72.162 Y40.378 E48.2763
G1 X72.282 Y40.021 E48.2951
G1 X72.274 Y39.743 E48.3090
G1 X72.322 Y39.352 E48.3286
G1 X72.418 Y38.900 E48.3517
G1 X72.595 Y37.752 E48.4096
G1 X73.025 Y36.652 E48.4686
G1 X73.259 Y36.267 E48.4911
G1 X73.463 Y36.028 E48.5067
G1 X73.688 Y35.486 E48.5360
G1 X73.899 Y35.167 E48.5551
G1 X74.175 Y34.864 E48.5755
G1 X74.849 Y34.196 E48.6229
G1 X74.997 Y33.918 E48.6385
G1 X75.443 Y33.516 E48.6685
G1 X75.641 Y33.394 E48.6801
G1 X75.932 Y33.133 E48.6996
G1 X76.358 Y32.864 E48.7248
G1 X77.009 Y32.587 E48.7601
G1 X77.670 Y32.134 E48.8000
G1 X78.113 Y31.960 E48.8238
G1 X78.464 Y31.840 E48.8423
G1 X78.673 Y31.855 E48.8527
G1 X79.028 Y31.769 E48.8709
G1 X79.451 Y31.633 E48.8931
G1 X80.951 Y31.513 E48.9682
G1 X81.089 Y31.437 E48.9761
G1 X81.304 Y31.420 E48.9868
G1 X81.359 Y31.474 E48.9907
G1 X116.045 Y31.388 E50.7212
G1 X128.085 Y31.389 E51.3219
G1 X129.302 Y31.514 E51.3829
;segType:HShell
G1 X137.646 Y52.057 F10800
G1 X124.348 Y65.818 E52.3376 F600
;segType:Perimeter
G1 X124.250 Y65.787 F10800
G1 X123.810 Y66.335 E52.3727 F359
G1 X123.416 Y68.516 E52.4832
G1 X122.243 Y70.529 E52.5995
G1 X120.425 Y72.120 E52.7200
G1 X118.142 Y73.138 E52.8447
G1 X115.615 Y73.488 E52.9720
G1 X113.088 Y73.138 E53.0993
G1 X110.804 Y72.120 E53.2240
G1 X108.987 Y70.529 E53.3445
G1 X107.814 Y68.516 E53.4608
G1 X107.410 Y66.277 E53.5743
G1 X107.814 Y64.038 E53.6878
G1 X108.987 Y62.025 E53.8040
G1 X110.804 Y60.434 E53.9245
G1 X113.088 Y59.416 E54.0493
G1 X115.615 Y59.065 E54.1765
G1 X118.142 Y59.416 E54.3038
G1 X120.425 Y60.434 E54.4286
G1 X122.243 Y62.025 E54.5491
G1 X123.416 Y64.038 E54.6653
G1 X123.810 Y66.219 E54.7759
G1 X124.250 Y66.767
;segType:Loop
G1 X124.020 Y67.423 F10800
G1 X123.796 Y68.665 E54.8388 F600
G1 X122.552 Y70.801 E54.9621
G1 X120.638 Y72.476 E55.0890
G1 X118.249 Y73.541 E55.2195
G1 X115.615 Y73.905 E55.3522
G1 X112.981 Y73.541 E55.4849
G1 X110.591 Y72.476 E55.6154
G1 X108.678 Y70.801 E55.7422
G1 X107.434 Y68.665 E55.8655
G1 X107.003 Y66.277 E55.9866
G1 X107.434 Y63.888 E56.1077
G1 X108.678 Y61.753 E56.2310
G1 X110.591 Y60.078 E56.3579
G1 X112.981 Y59.013 E56.4884
G1 X115.615 Y58.647 E56.6211
G1 X118.249 Y59.013 E56.7538
G1 X120.638 Y60.078 E56.8843
G1 X122.552 Y61.753 E57.0111
G1 X123.796 Y63.888 E57.1344
G1 X124.227 Y66.277 E57.2555
G1 X124.055 Y67.229 E57.3038
G1 X122.389 Y70.657 F10800
G1 X118.193 Y73.329
G1 X102.240 Y75.818
;segType:HShell
G1 X107.934 Y69.925 E57.7126 F600
G1 X107.731 Y69.576
G1 X102.417 Y75.074 E58.0941
;segType:Perimeter
G1 X102.385 Y75.114 F10800
G1 X101.705 Y75.223 E58.1285 F359
G1 X101.527 Y75.180 E58.1376
G1 X80.356 Y63.999 E59.3321
G1 X80.356 Y60.241 E59.5196
G1 X101.527 Y49.090 E60.7134
G1 X101.761 Y49.033 E60.7253
G1 X101.818 Y49.274 E60.7377
G1 X101.818 Y53.273 E60.9372
G1 X95.326 Y56.625 E61.3017
G1 X95.326 Y67.614 E61.8500
G1 X101.818 Y70.935 E62.2138
G1 X101.818 Y74.996 E62.4164
G1 X101.774 Y75.179 E62.4258
G1 X101.371 Y75.757
;segType:Loop
G1 X100.622 Y75.167 F10800
G1 X79.956 Y64.252 E63.5918 F600
G1 X79.956 Y59.987 E63.8045
G1 X101.389 Y48.698 E65.0131
G1 X102.054 Y48.537 E65.0473
G1 X102.218 Y49.223 E65.0825
G1 X102.218 Y53.529 E65.2973
G1 X95.726 Y56.881 E65.6618
G1 X95.726 Y67.357 E66.1844
G1 X102.218 Y70.678 E66.5483
G1 X102.218 Y75.047 E66.7662
G1 X102.054 Y75.733 E66.8014
G1 X101.389 Y75.572 E66.8356
G1 X100.792 Y75.257 E66.8692
G1 X80.306 Y78.763 F10800
G1 X72.356 Y92.745
;segType:HShell
G1 X81.021 Y83.778 E67.4913 F600
;segType:Perimeter
G1 X80.704 Y83.756 F10800
G1 X80.441 Y83.098 E67.5267 F359
G1 X80.441 Y78.903 E67.7360
G1 X101.818 Y78.903 E68.8025
G1 X101.818 Y94.981 E69.6047
G1 X99.070 Y94.981 E69.7418
G1 X99.070 Y83.157 E70.3317
G1 X80.498 Y83.157 E71.2582
G1 X79.862 Y82.884
;segType:Loop
G1 X80.041 Y82.068 F10800
G1 X80.041 Y78.489 E71.4368 F600
G1 X102.218 Y78.489 E72.5432
G1 X102.218 Y95.395 E73.3866
G1 X98.670 Y95.395 E73.5636
G1 X98.670 Y83.571 E74.1535
G1 X80.041 Y83.571 E75.0829
G1 X80.041 Y82.266 E75.1480
G1 X80.306 Y115.936 F10800
G1 X83.344 Y115.936
G1 X83.809 Y115.608
;segType:HShell
G1 X88.680 Y110.568 E75.4977 F600
G1 X88.680 Y111.128
G1 X83.809 Y116.168 E75.8475
;segType:Perimeter
G1 X83.788 Y115.523 F10800
G1 X83.152 Y115.796 E75.8820 F359
G1 X80.441 Y115.796 E76.0172
G1 X80.441 Y99.687 E76.8209
G1 X101.818 Y99.687 E77.8874
G1 X101.818 Y115.796 E78.6911
G1 X99.070 Y115.796 E78.8282
G1 X99.070 Y103.941 E79.4197
G1 X92.048 Y103.941 E79.7700
G1 X92.048 Y115.003 E80.3219
G1 X89.280 Y115.003 E80.4600
G1 X89.280 Y103.941 E81.0119
G1 X83.209 Y103.941 E81.3148
G1 X83.209 Y115.737 E81.9032
G1 X82.946 Y116.395
;segType:Loop
G1 X82.157 Y116.210 F10800
G1 X80.041 Y116.210 E82.0088 F600
G1 X80.041 Y99.273 E82.8538
G1 X102.218 Y99.273 E83.9602
G1 X102.218 Y116.210 E84.8052
G1 X98.670 Y116.210 E84.9822
G1 X98.670 Y104.355 E85.5736
G1 X92.448 Y104.355 E85.8841
G1 X92.448 Y115.417 E86.4359
G1 X88.880 Y115.417 E86.6139
G1 X88.880 Y104.355 E87.1658
G1 X83.609 Y104.355 E87.4288
G1 X83.609 Y116.210 E88.0203
G1 X82.348 Y116.210 E88.0831
G1 X101.823 Y117.668 F10800
G1 X102.218 Y118.924
G1 X102.218 Y122.286 E88.2508 F600
G1 X93.491 Y129.569 E88.8180
G1 X102.218 Y136.619 E89.3777
G1 X102.218 Y141.339 E89.6132
G1 X101.998 Y142.116 E89.6535
G1 X101.280 Y141.796 E89.6927
G1 X90.584 Y132.642 E90.3950
G1 X80.986 Y141.091 E91.0330
G1 X80.265 Y141.421 E91.0726
G1 X80.041 Y140.639 E91.1132
G1 X80.041 Y136.356 E91.3268
G1 X87.737 Y129.702 E91.8344
G1 X80.041 Y123.135 E92.3391
G1 X80.041 Y118.668 E92.5620
G1 X80.263 Y117.888 E92.6025
G1 X80.984 Y118.215 E92.6419
G1 X90.668 Y126.665 E93.2832
G1 X101.280 Y117.601 E93.9794
G1 X101.999 Y117.283 E94.0186
G1 X102.218 Y118.059 E94.0589
G1 X102.218 Y118.727 E94.0922
G1 X101.925 Y117.791 F10800
G1 X101.279 Y117.391
;segType:Perimeter
G1 X101.758 Y117.904 E94.1272 F359
G1 X101.818 Y118.118 E94.1383
G1 X101.818 Y122.088 E94.3363
G1 X92.847 Y129.574 E94.9193
G1 X101.818 Y136.821 E95.4946
G1 X101.818 Y141.280 E95.7171
G1 X101.741 Y141.551 E95.7311
G1 X101.491 Y141.439 E95.7448
G1 X90.581 Y132.102 E96.4612
G1 X80.771 Y140.737 E97.1133
G1 X80.519 Y140.852 E97.1271
G1 X80.441 Y140.579 E97.1412
G1 X80.441 Y136.550 E97.3422
G1 X88.363 Y129.700 E97.8647
G1 X80.441 Y122.940 E98.3843
G1 X80.441 Y118.728 E98.5944
G1 X80.518 Y118.456 E98.6086
G1 X80.770 Y118.570 E98.6223
G1 X90.665 Y127.204 E99.2775
G1 X101.491 Y117.958 E99.9878
G1 X101.689 Y117.870 E99.9986
G1 X102.375 Y117.926
G1 X121.526 Y107.288 F10800
G1 X124.595 Y103.586
G1 X137.597 Y88.503
;segType:HShell
G1 X125.404 Y101.120 E100.8740 F600
;segType:Perimeter
G1 X125.251 Y100.787 F10800
G1 X124.811 Y101.335 E100.9091 F359
G1 X124.416 Y103.516 E101.0196
G1 X123.243 Y105.529 E101.1359
G1 X121.426 Y107.120 E101.2564
G1 X119.142 Y108.138 E101.3811
G1 X116.615 Y108.488 E101.5084
G1 X114.088 Y108.138 E101.6356
G1 X111.805 Y107.120 E101.7604
G1 X109.987 Y105.529 E101.8809
G1 X108.814 Y103.516 E101.9971
G1 X108.409 Y101.277 E102.1106
G1 X108.814 Y99.038 E102.2242
G1 X109.987 Y97.025 E102.3404
G1 X111.805 Y95.434 E102.4609
G1 X114.088 Y94.416 E102.5857
G1 X116.615 Y94.066 E102.7129
G1 X119.142 Y94.416 E102.8402
G1 X121.426 Y95.434 E102.9649
G1 X123.243 Y97.025 E103.0854
G1 X124.416 Y99.038 E103.2017
G1 X124.811 Y101.219 E103.3122
G1 X125.251 Y101.767
;segType:Loop
G1 X125.021 Y102.423 F10800
G1 X124.796 Y103.666 E103.3752 F600
G1 X123.552 Y105.801 E103.4985
G1 X121.639 Y107.476 E103.6253
G1 X119.249 Y108.541 E103.7559
G1 X116.615 Y108.906 E103.8885
G1 X113.981 Y108.541 E104.0212
G1 X111.592 Y107.476 E104.1517
G1 X109.678 Y105.801 E104.2786
G1 X108.434 Y103.666 E104.4019
G1 X108.003 Y101.277 E104.5230
G1 X108.434 Y98.888 E104.6441
G1 X109.678 Y96.753 E104.7674
G1 X111.592 Y95.078 E104.8942
G1 X113.981 Y94.013 E105.0247
G1 X116.615 Y93.649 E105.1574
G1 X119.249 Y94.013 E105.2901
G1 X121.639 Y95.078 E105.4206
G1 X123.552 Y96.753 E105.5475
G1 X124.796 Y98.888 E105.6708
G1 X125.229 Y101.277 E105.7919
G1 X125.056 Y102.229 E105.8401
;segType:HShell
G1 X137.540 Y124.397 F10800
G1 X126.373 Y135.953 E106.6419 F600
;segType:Perimeter
G1 X126.251 Y135.787 F10800
G1 X125.811 Y136.335 E106.6769 F359
G1 X125.416 Y138.516 E106.7875
G1 X124.243 Y140.529 E106.9037
G1 X122.426 Y142.120 E107.0242
G1 X120.142 Y143.138 E107.1490
G1 X117.615 Y143.489 E107.2763
G1 X115.088 Y143.138 E107.4035
G1 X112.805 Y142.120 E107.5283
G1 X110.987 Y140.529 E107.6488
G1 X109.814 Y138.516 E107.7650
G1 X109.409 Y136.277 E107.8785
G1 X109.814 Y134.038 E107.9921
G1 X110.987 Y132.025 E108.1083
G1 X112.805 Y130.434 E108.2288
G1 X115.088 Y129.416 E108.3536
G1 X117.615 Y129.066 E108.4808
G1 X120.142 Y129.416 E108.6081
G1 X122.426 Y130.434 E108.7328
G1 X124.243 Y132.025 E108.8534
G1 X125.416 Y134.038 E108.9696
G1 X125.811 Y136.219 E109.0801
G1 X126.251 Y136.767
;segType:Loop
G1 X126.021 Y137.424 F10800
G1 X125.796 Y138.666 E109.1431 F600
G1 X124.552 Y140.801 E109.2664
G1 X122.639 Y142.476 E109.3933
G1 X120.250 Y143.541 E109.5238
G1 X117.615 Y143.907 E109.6565
G1 X114.980 Y143.541 E109.7892
G1 X112.592 Y142.476 E109.9197
G1 X110.678 Y140.801 E110.0465
G1 X109.434 Y138.666 E110.1698
G1 X109.003 Y136.277 E110.2909
G1 X109.434 Y133.888 E110.4120
G1 X110.678 Y131.753 E110.5353
G1 X112.592 Y130.078 E110.6622
G1 X114.980 Y129.013 E110.7927
G1 X117.615 Y128.648 E110.9254
G1 X120.250 Y129.013 E111.0581
G1 X122.639 Y130.078 E111.1886
G1 X124.552 Y131.753 E111.3154
G1 X125.796 Y133.888 E111.4387
G1 X126.228 Y136.277 E111.5598
G1 X126.056 Y137.229 E111.6081
;segType:HShell
G1 X132.283 Y161.752 F10800
G1 X137.578 Y156.273 E111.9882 F600
G1 X137.574 Y156.837
G1 X132.309 Y162.286 E112.3663
;segType:Perimeter
G1 X132.175 Y161.677 F10800
G1 X131.713 Y162.206 E112.4013 F359
G1 X131.632 Y163.028 E112.4425
G1 X131.375 Y163.875 E112.4867
G1 X130.958 Y164.655 E112.5308
G1 X130.398 Y165.339 E112.5749
G1 X129.715 Y165.898 E112.6189
G1 X129.123 Y166.215 E112.6524
G1 X128.785 Y166.360 E112.6708
G1 X128.094 Y166.570 E112.7068
G1 X127.226 Y166.656 E112.7503
G1 X112.903 Y166.656 E113.4649
G1 X112.015 Y166.564 E113.5094
G1 X111.193 Y166.314 E113.5523
G1 X110.415 Y165.898 E113.5963
G1 X109.732 Y165.339 E113.6403
G1 X109.172 Y164.655 E113.6844
G1 X108.755 Y163.875 E113.7286
G1 X108.498 Y163.028 E113.7727
G1 X108.411 Y162.147 E113.8169
G1 X108.498 Y161.266 E113.8611
G1 X108.755 Y160.420 E113.9052
G1 X109.172 Y159.640 E113.9493
G1 X109.732 Y158.956 E113.9934
G1 X110.415 Y158.396 E114.0375
G1 X111.193 Y157.980 E114.0815
G1 X112.036 Y157.724 E114.1254
G1 X112.904 Y157.639 E114.1689
G1 X127.216 Y157.640 E114.8830
G1 X128.094 Y157.724 E114.9270
G1 X128.937 Y157.980 E114.9709
G1 X129.715 Y158.396 E115.0150
G1 X130.398 Y158.956 E115.0590
G1 X130.958 Y159.640 E115.1031
G1 X131.375 Y160.420 E115.1472
G1 X131.632 Y161.266 E115.1913
G1 X131.713 Y162.088 E115.2326
G1 X132.175 Y162.617
;segType:Loop
G1 X131.955 Y163.346 F10800
G1 X131.744 Y164.039 E115.2687 F600
G1 X131.289 Y164.892 E115.3169
G1 X130.677 Y165.638 E115.3651
G1 X129.933 Y166.247 E115.4130
G1 X129.292 Y166.590 E115.4493
G1 X128.918 Y166.751 E115.4696
G1 X128.170 Y166.979 E115.5086
G1 X127.246 Y167.070 E115.5550
G1 X112.883 Y167.070 E116.2715
G1 X111.938 Y166.972 E116.3189
G1 X111.044 Y166.700 E116.3656
G1 X110.197 Y166.247 E116.4135
G1 X109.453 Y165.638 E116.4614
G1 X108.841 Y164.892 E116.5096
G1 X108.385 Y164.039 E116.5578
G1 X108.105 Y163.112 E116.6061
G1 X108.009 Y162.147 E116.6545
G1 X108.105 Y161.182 E116.7029
G1 X108.385 Y160.256 E116.7512
G1 X108.841 Y159.403 E116.7994
G1 X109.453 Y158.657 E116.8476
G1 X110.197 Y158.047 E116.8955
G1 X111.044 Y157.594 E116.9435
G1 X111.960 Y157.315 E116.9913
G1 X112.885 Y157.225 E117.0376
G1 X127.235 Y157.226 E117.7535
G1 X128.169 Y157.315 E117.8004
G1 X129.086 Y157.594 E117.8482
G1 X129.933 Y158.047 E117.8961
G1 X130.677 Y158.657 E117.9441
G1 X131.289 Y159.403 E117.9922
G1 X131.744 Y160.256 E118.0405
G1 X132.026 Y161.182 E118.0887
G1 X132.121 Y162.147 E118.1371
G1 X132.026 Y163.112 E118.1855
G1 X132.012 Y163.157 E118.1878
G1 X131.819 Y161.226 F10800
G1 X131.116 Y159.527
G1 X129.819 Y158.230
G1 X128.130 Y157.529
G1 X111.861 Y157.130
;segType:HShell
G1 X137.540 Y130.556 E120.0315 F600
G1 X137.540 Y131.116
G1 X112.472 Y157.058 E121.8313
G1 X113.051 Y157.018
G1 X137.540 Y131.676 E123.5895
G1 X137.540 Y132.236
G1 X113.592 Y157.018 E125.3088
G1 X114.133 Y157.018
G1 X137.540 Y132.796 E126.9893
G1 X137.540 Y133.356
G1 X114.674 Y157.018 E128.6310
G1 X115.215 Y157.018
G1 X137.540 Y133.915 E130.2338
G1 X137.540 Y134.475
G1 X115.756 Y157.018 E131.7978
G1 X116.297 Y157.018
G1 X137.540 Y135.035 E133.3229
G1 X137.540 Y135.595
G1 X116.838 Y157.018 E134.8092
G1 X117.379 Y157.018
G1 X137.540 Y136.155 E136.2566
G1 X137.540 Y136.715
G1 X117.920 Y157.018 E137.6652
G1 X118.461 Y157.018
G1 X137.540 Y137.275 E139.0350
G1 X137.540 Y137.835
G1 X119.002 Y157.018 E140.3659
G1 X119.543 Y157.019
G1 X137.540 Y138.395 E141.6580
G1 X137.540 Y138.955
G1 X120.084 Y157.019 E142.9112
G1 X120.625 Y157.019
G1 X137.540 Y139.515 E144.1256
G1 X137.540 Y140.075
G1 X121.166 Y157.019 E145.3011
G1 X121.708 Y157.019
G1 X137.540 Y140.635 E146.4378
G1 X137.540 Y141.194
G1 X122.249 Y157.019 E147.5357
G1 X122.790 Y157.019
G1 X137.540 Y141.754 E148.5947
G1 X137.540 Y142.314
G1 X123.331 Y157.019 E149.6148
G1 X123.872 Y157.019
G1 X137.540 Y142.874 E150.5961
G1 X137.540 Y143.434
G1 X124.413 Y157.019 E151.5386
G1 X124.954 Y157.019
G1 X137.540 Y143.994 E152.4422
G1 X137.540 Y144.554
G1 X125.495 Y157.019 E153.3070
G1 X126.036 Y157.019
G1 X137.541 Y145.113 E154.1330
G1 X137.542 Y145.672
G1 X126.577 Y157.019 E154.9202
G1 X127.118 Y157.019
G1 X137.543 Y146.231 E155.6687
G1 X137.543 Y146.790
G1 X127.624 Y157.055 E156.3809
G1 X128.119 Y157.103
G1 X137.544 Y147.349 E157.0575
G1 X137.545 Y147.908
G1 X128.551 Y157.216 E157.7033
G1 X128.969 Y157.343
G1 X137.546 Y148.467 E158.3191
G1 X137.547 Y149.026
G1 X129.354 Y157.504 E158.9073
G1 X129.711 Y157.695
G1 X137.548 Y149.585 E159.4699
G1 X137.549 Y150.144
G1 X130.064 Y157.890 E160.0073
G1 X130.365 Y158.138
G1 X137.550 Y150.703 E160.5232
G1 X137.551 Y151.262
G1 X130.667 Y158.385 E161.0174
G1 X130.942 Y158.661
G1 X137.552 Y151.821 E161.4919
G1 X137.553 Y152.380
G1 X131.191 Y158.964 E161.9486
G1 X131.439 Y159.266
G1 X137.554 Y152.939 E162.3876
G1 X137.596 Y153.455
G1 X131.635 Y159.623 E162.8156
G1 X131.828 Y159.984
G1 X137.593 Y154.018 E163.2295
G1 X137.589 Y154.582
G1 X131.990 Y160.376 E163.6315
G1 X132.120 Y160.802
G1 X137.585 Y155.146 E164.0239
G1 X137.582 Y155.709
G1 X132.233 Y161.245 E164.4079
G1 X132.247 Y162.910 F10800
G1 X137.571 Y157.401 E164.7902 F600
G1 X137.567 Y157.964
G1 X132.072 Y163.651 E165.1847
G1 X131.819 Y161.226 F10800
G1 X125.595 Y133.968
G1 X124.389 Y131.897
G1 X122.526 Y130.266
G1 X120.193 Y129.225
G1 X115.494 Y128.733
G1 X137.626 Y105.830 E166.7736 F600
G1 X137.623 Y106.393
G1 X116.119 Y128.647 E168.3175
G1 X116.743 Y128.560
G1 X137.620 Y106.956 E169.8164
G1 X137.617 Y107.519
G1 X117.368 Y128.474 E171.2701
G1 X117.904 Y128.480
G1 X137.614 Y108.082 E172.6853
G1 X137.611 Y108.645
G1 X118.381 Y128.546 E174.0659
G1 X118.858 Y128.612
G1 X137.609 Y109.208 E175.4121
G1 X137.606 Y109.771
G1 X119.335 Y128.678 E176.7239
G1 X119.813 Y128.744
G1 X137.603 Y110.334 E178.0011
G1 X137.600 Y110.896
G1 X120.290 Y128.810 E179.2439
G1 X120.671 Y128.975
G1 X137.597 Y111.459 E180.4591
G1 X137.594 Y112.022
G1 X121.049 Y129.144 E181.6470
G1 X121.427 Y129.313
G1 X137.591 Y112.585 E182.8075
G1 X137.588 Y113.148
G1 X121.805 Y129.481 E183.9406
G1 X122.183 Y129.650
G1 X137.586 Y113.711 E185.0464
G1 X137.583 Y114.274
G1 X122.562 Y129.818 E186.1249
G1 X122.896 Y130.032
G1 X137.580 Y114.837 E187.1791
G1 X137.577 Y115.400
G1 X123.189 Y130.289 E188.2121
G1 X123.482 Y130.546
G1 X137.574 Y115.963 E189.2238
G1 X137.571 Y116.525
G1 X123.775 Y130.802 E190.2143
G1 X124.068 Y131.059
G1 X137.568 Y117.088 E191.1835
G1 X137.565 Y117.651
G1 X124.361 Y131.315 E192.1315
G1 X124.654 Y131.572
G1 X137.563 Y118.214 E193.0583
G1 X137.560 Y118.777
G1 X124.874 Y131.905 E193.9690
G1 X125.077 Y132.254
G1 X137.557 Y119.340 E194.8650
G1 X137.554 Y119.903
G1 X125.281 Y132.604 E195.7462
G1 X125.484 Y132.953
G1 X137.551 Y120.466 E196.6125
G1 X137.548 Y121.029
G1 X125.688 Y133.302 E197.4640
G1 X125.891 Y133.652
G1 X137.545 Y121.591 E198.3007
G1 X137.543 Y122.154
G1 X126.032 Y134.066 E199.1271
G1 X126.117 Y134.538
G1 X137.540 Y122.717 E199.9473
G1 X137.540 Y123.277
G1 X126.202 Y135.010 E200.7612
G1 X126.288 Y135.481
G1 X137.540 Y123.837 E201.5691
G1 X126.393 Y136.492 F10800
G1 X137.540 Y124.957 E202.3694 F600
G1 X137.540 Y125.517
G1 X126.268 Y137.181 E203.1787
G1 X125.595 Y133.968 F10800
G1 X108.635 Y103.586
G1 X108.218 Y101.277
G1 X108.635 Y98.968
G1 X109.841 Y96.897
G1 X113.228 Y94.123
G1 X137.583 Y68.919 E204.9273 F600
G1 X137.581 Y69.482
G1 X114.092 Y93.789 E206.6136
G1 X114.717 Y93.702
G1 X137.578 Y70.045 E208.2549
G1 X137.575 Y70.607
G1 X115.341 Y93.616 E209.8512
G1 X115.966 Y93.530
G1 X137.573 Y71.169 E211.4025
G1 X137.574 Y71.728
G1 X116.591 Y93.443 E212.9090
G1 X117.074 Y93.503
G1 X137.575 Y72.288 E214.3809
G1 X137.575 Y72.847
G1 X117.551 Y93.569 E215.8186
G1 X118.028 Y93.635
G1 X137.576 Y73.406 E217.2220
G1 X137.577 Y73.966
G1 X118.505 Y93.701 E218.5912
G1 X118.983 Y93.767
G1 X137.577 Y74.525 E219.9262
G1 X137.578 Y75.084
G1 X119.427 Y93.867 E221.2293
G1 X119.806 Y94.036
G1 X137.578 Y75.643 E222.5053
G1 X137.579 Y76.203
G1 X120.184 Y94.204 E223.7542
G1 X120.562 Y94.373
G1 X137.580 Y76.762 E224.9760
G1 X137.580 Y77.321
G1 X120.940 Y94.541 E226.1707
G1 X121.318 Y94.710
G1 X137.581 Y77.881 E227.3383
G1 X137.582 Y78.440
G1 X121.696 Y94.879 E228.4788
G1 X122.000 Y95.124
G1 X137.582 Y78.999 E229.5975
G1 X137.583 Y79.558
G1 X122.293 Y95.380 E230.6952
G1 X122.587 Y95.637
G1 X137.583 Y80.118 E231.7719
G1 X137.584 Y80.677
G1 X122.880 Y95.894 E232.8276
G1 X123.173 Y96.150
G1 X137.585 Y81.236 E233.8623
G1 X137.585 Y81.796
G1 X123.466 Y96.407 E234.8760
G1 X123.743 Y96.680
G1 X137.586 Y82.355 E235.8698
G1 X137.586 Y82.914
G1 X123.946 Y97.030 E236.8491
G1 X124.150 Y97.379
G1 X137.587 Y83.473 E237.8138
G1 X137.588 Y84.033
G1 X124.353 Y97.728 E238.7640
G1 X124.557 Y98.078
G1 X137.588 Y84.592 E239.6996
G1 X137.589 Y85.151
G1 X124.760 Y98.427 E240.6206
G1 X124.964 Y98.776
G1 X137.590 Y85.711 E241.5271
G1 X137.590 Y86.270
G1 X125.062 Y99.235 E242.4266
G1 X125.147 Y99.706
G1 X137.591 Y86.829 E243.3199
G1 X137.591 Y87.388
G1 X125.233 Y100.178 E244.2072
G1 X125.318 Y100.649
G1 X137.592 Y87.948 E245.0884
G1 X125.349 Y101.737 F10800
G1 X137.603 Y89.056 E245.9682 F600
G1 X137.610 Y89.609
G1 X125.224 Y102.427 E246.8574
G1 X123.389 Y105.657 F10800
G1 X119.193 Y108.329
G1 X101.953 Y115.936
G1 X98.935 Y115.936
G1 X89.145 Y115.143
G1 X84.203 Y104.562
G1 X83.809 Y104.970 E246.8857 F600
G1 X83.809 Y105.530
G1 X84.744 Y104.562 E246.9529
G1 X85.285 Y104.562
G1 X83.809 Y106.090 E247.0589
G1 X83.809 Y106.650
G1 X85.826 Y104.562 E247.2037
G1 X86.367 Y104.562
G1 X83.809 Y107.209 E247.3873
G1 X83.809 Y107.769
G1 X86.908 Y104.562 E247.6099
G1 X87.450 Y104.562
G1 X83.809 Y108.329 E247.8712
G1 X83.809 Y108.889
G1 X87.991 Y104.562 E248.1714
G1 X88.532 Y104.562
G1 X83.809 Y109.449 E248.5105
G1 X83.809 Y110.009
G1 X88.680 Y104.968 E248.8602
G1 X88.680 Y105.528
G1 X83.809 Y110.569 E249.2099
G1 X83.809 Y111.129
G1 X88.680 Y106.088 E249.5597
G1 X88.680 Y106.648
G1 X83.809 Y111.689 E249.9094
G1 X83.809 Y112.249
G1 X88.680 Y107.208 E250.2591
G1 X88.680 Y107.768
G1 X83.809 Y112.809 E250.6088
G1 X83.809 Y113.369
G1 X88.680 Y108.328 E250.9585
G1 X88.680 Y108.888
G1 X83.809 Y113.929 E251.3082
G1 X83.809 Y114.488
G1 X88.680 Y109.448 E251.6580
G1 X88.680 Y110.008
G1 X83.809 Y115.048 E252.0077
G1 X83.344 Y115.936 F10800
G1 X80.306 Y115.936
G1 X79.841 Y78.840
G1 X72.356 Y86.586 E252.5450 F600
G1 X72.356 Y87.146
G1 X79.841 Y79.400 E253.0824
G1 X79.841 Y79.960
G1 X72.356 Y87.706 E253.6198
G1 X72.356 Y88.266
G1 X79.841 Y80.520 E254.1571
G1 X79.841 Y81.080
G1 X72.356 Y88.825 E254.6945
G1 X72.356 Y89.385
G1 X79.841 Y81.640 E255.2319
G1 X79.841 Y82.200
G1 X72.356 Y89.945 E255.7693
G1 X72.356 Y90.505
G1 X79.841 Y82.760 E256.3066
G1 X79.841 Y83.320
G1 X72.356 Y91.065 E256.8440
G1 X72.356 Y91.625
G1 X79.939 Y83.778 E257.3884
G1 X80.480 Y83.778
G1 X72.356 Y92.185 E257.9717
G1 X81.562 Y83.778 F10800
G1 X72.356 Y93.305 E258.6327 F600
G1 X72.356 Y93.865
G1 X82.104 Y83.778 E259.3325
G1 X82.645 Y83.778
G1 X72.356 Y94.425 E260.0712
G1 X72.356 Y94.985
G1 X83.186 Y83.778 E260.8487
G1 X83.727 Y83.778
G1 X72.356 Y95.545 E261.6650
G1 X72.356 Y96.105
G1 X84.268 Y83.778 E262.5202
G1 X84.809 Y83.778
G1 X72.356 Y96.664 E263.4143
G1 X72.356 Y97.224
G1 X85.350 Y83.778 E264.3471
G1 X85.891 Y83.778
G1 X72.356 Y97.784 E265.3189
G1 X72.356 Y98.344
G1 X86.432 Y83.778 E266.3295
G1 X86.973 Y83.778
G1 X72.356 Y98.904 E267.3789
G1 X72.356 Y99.464
G1 X87.514 Y83.778 E268.4672
G1 X88.055 Y83.778
G1 X72.356 Y100.024 E269.5943
G1 X72.356 Y100.584
G1 X88.596 Y83.778 E270.7603
G1 X89.137 Y83.778
G1 X72.356 Y101.144 E271.9651
G1 X72.356 Y101.704
G1 X89.679 Y83.778 E273.2088
G1 X90.220 Y83.778
G1 X72.356 Y102.264 E274.4913
G1 X72.356 Y102.824
G1 X90.761 Y83.778 E275.8126
G1 X91.302 Y83.778
G1 X72.356 Y103.384 E277.1728
G1 X72.356 Y103.943
G1 X91.843 Y83.778 E278.5719
G1 X92.384 Y83.778
G1 X72.356 Y104.503 E280.0098
G1 X72.356 Y105.063
G1 X92.925 Y83.778 E281.4865
G1 X93.466 Y83.778
G1 X72.356 Y105.623 E283.0021
G1 X72.356 Y106.183
G1 X94.007 Y83.778 E284.5566
G1 X94.548 Y83.778
G1 X72.356 Y106.743 E286.1499
G1 X72.356 Y107.303
G1 X79.841 Y99.557 E286.6872
G1 X79.841 Y100.117
G1 X72.356 Y107.863 E287.2246
G1 X72.356 Y108.423
G1 X79.841 Y100.677 E287.7620
G1 X79.841 Y101.237
G1 X72.356 Y108.983 E288.2994
G1 X72.356 Y109.543
G1 X79.841 Y101.797 E288.8368
G1 X79.841 Y102.357
G1 X72.356 Y110.103 E289.3742
G1 X72.356 Y110.663
G1 X79.841 Y102.917 E289.9115
G1 X79.841 Y103.477
G1 X72.356 Y111.223 E290.4489
G1 X72.356 Y111.782
G1 X79.841 Y104.037 E290.9863
G1 X79.841 Y104.597
G1 X72.356 Y112.342 E291.5237
G1 X72.356 Y112.902
G1 X79.841 Y105.157 E292.0611
G1 X79.841 Y105.717
G1 X72.356 Y113.462 E292.5985
G1 X72.356 Y114.022
G1 X79.841 Y106.277 E293.1358
G1 X79.841 Y106.837
G1 X72.356 Y114.582 E293.6732
G1 X72.356 Y115.142
G1 X79.841 Y107.396 E294.2106
G1 X79.841 Y107.956
G1 X72.356 Y115.702 E294.7480
G1 X72.356 Y116.262
G1 X79.841 Y108.516 E295.2854
G1 X79.841 Y109.076
G1 X72.356 Y116.822 E295.8228
G1 X72.356 Y117.382
G1 X79.841 Y109.636 E296.3602
G1 X79.841 Y110.196
G1 X72.356 Y117.942 E296.8975
G1 X72.356 Y118.502
G1 X79.841 Y110.756 E297.4349
G1 X79.841 Y111.316
G1 X72.356 Y119.061 E297.9723
G1 X72.356 Y119.621
G1 X79.841 Y111.876 E298.5097
G1 X79.841 Y112.436
G1 X72.356 Y120.181 E299.0471
G1 X72.356 Y120.741
G1 X79.841 Y112.996 E299.5845
G1 X79.841 Y113.556
G1 X72.356 Y121.301 E300.1218
G1 X72.356 Y121.861
G1 X79.841 Y114.116 E300.6592
G1 X79.841 Y114.675
G1 X72.356 Y122.421 E301.1966
G1 X72.356 Y122.981
G1 X79.841 Y115.235 E301.7340
G1 X79.841 Y115.795
G1 X72.356 Y123.541 E302.2714
G1 X72.355 Y124.102
G1 X79.841 Y116.355 E302.8088
G1 X80.322 Y116.417
G1 X72.354 Y124.662 E303.3809
G1 X72.354 Y125.223
G1 X80.864 Y116.417 E303.9918
G1 X81.405 Y116.417
G1 X80.220 Y117.643 E304.0769
G1 X80.596 Y117.813
G1 X81.946 Y116.417 E304.1737
G1 X82.487 Y116.417
G1 X80.972 Y117.984 E304.2824
G1 X81.292 Y118.213
G1 X83.028 Y116.417 E304.4071
G1 X83.569 Y116.417
G1 X81.585 Y118.469 E304.5495
G1 X81.879 Y118.726
G1 X88.680 Y111.687 E305.0377
G1 X88.680 Y112.247
G1 X82.173 Y118.982 E305.5050
G1 X82.466 Y119.238
G1 X88.680 Y112.807 E305.9511
G1 X88.680 Y113.367
G1 X82.760 Y119.494 E306.3761
G1 X83.053 Y119.750
G1 X88.680 Y113.927 E306.7801
G1 X88.680 Y114.487
G1 X83.347 Y120.006 E307.1630
G1 X83.640 Y120.262
G1 X88.680 Y115.047 E307.5249
G1 X88.680 Y115.607
G1 X83.934 Y120.519 E307.8656
G1 X84.227 Y120.775
G1 X89.205 Y115.624 E308.2229
G1 X89.746 Y115.624
G1 X84.521 Y121.031 E308.5981
G1 X84.815 Y121.287
G1 X90.287 Y115.624 E308.9909
G1 X90.828 Y115.624
G1 X85.108 Y121.543 E309.4016
G1 X85.402 Y121.799
G1 X91.369 Y115.624 E309.8300
G1 X91.910 Y115.624
G1 X85.695 Y122.055 E310.2762
G1 X85.989 Y122.312
G1 X92.451 Y115.624 E310.7402
G1 X98.935 Y115.936 F10800
G1 X101.953 Y115.936
G1 X101.953 Y99.547
G1 X98.935 Y95.121
G1 X101.953 Y95.121
G1 X106.972 Y65.322
G1 X102.085 Y70.379 E311.0910 F600
G1 X102.418 Y70.594
G1 X106.847 Y66.011 E311.4090
G1 X106.851 Y66.566
G1 X102.418 Y71.154 E311.7273
G1 X102.418 Y71.714
G1 X106.937 Y67.038 E312.0517
G1 X107.022 Y67.510
G1 X102.418 Y72.274 E312.3823
G1 X102.418 Y72.834
G1 X107.107 Y67.982 E312.7189
G1 X107.192 Y68.453
G1 X102.418 Y73.394 E313.0617
G1 X102.418 Y73.954
G1 X107.324 Y68.877 E313.4139
G1 X107.528 Y69.226
G1 X102.418 Y74.514 E313.7807
G1 X107.635 Y63.968 F10800
G1 X108.841 Y61.897
G1 X110.704 Y60.266
G1 X112.567 Y58.972
G1 X135.721 Y35.011 E315.4431 F600
G1 X135.959 Y35.324
G1 X113.315 Y58.758 E317.0688
G1 X113.940 Y58.671
G1 X136.163 Y35.674 E318.6643
G1 X136.340 Y36.051
G1 X114.565 Y58.584 E320.2276
G1 X115.190 Y58.498
G1 X136.545 Y36.398 E321.7608
G1 X136.772 Y36.723
G1 X115.767 Y58.460 E323.2689
G1 X116.244 Y58.526
G1 X136.924 Y37.125 E324.7536
G1 X137.063 Y37.542
G1 X116.722 Y58.592 E326.2140
G1 X117.199 Y58.658
G1 X137.205 Y37.955 E327.6503
G1 X137.322 Y38.394
G1 X117.676 Y58.724 E329.0608
G1 X118.153 Y58.791
G1 X137.437 Y38.834 E330.4453
G1 X137.547 Y39.281
G1 X118.562 Y58.927 E331.8083
G1 X118.940 Y59.096
G1 X137.588 Y39.799 E333.1470
G1 X137.626 Y40.319
G1 X119.319 Y59.264 E334.4614
G1 X119.697 Y59.433
G1 X137.643 Y40.862 E335.7499
G1 X137.643 Y41.421
G1 X120.075 Y59.601 E337.0112
G1 X120.453 Y59.770
G1 X137.643 Y41.981 E338.2453
G1 X137.643 Y42.541
G1 X120.812 Y59.959 E339.4537
G1 X121.105 Y60.215
G1 X137.643 Y43.101 E340.6411
G1 X137.643 Y43.660
G1 X121.398 Y60.472 E341.8074
G1 X121.691 Y60.729
G1 X137.644 Y44.220 E342.9528
G1 X137.644 Y44.780
G1 X121.984 Y60.985 E344.0770
G1 X122.277 Y61.242
G1 X137.644 Y45.340 E345.1803
G1 X137.644 Y45.900
G1 X122.570 Y61.498 E346.2625
G1 X122.815 Y61.805
G1 X137.644 Y46.459 E347.3271
G1 X137.644 Y47.019
G1 X123.019 Y62.154 E348.3772
G1 X123.222 Y62.503
G1 X137.644 Y47.579 E349.4126
G1 X137.645 Y48.139
G1 X123.426 Y62.853 E350.4335
G1 X123.629 Y63.202
G1 X137.645 Y48.698 E351.4397
G1 X137.645 Y49.258
G1 X123.833 Y63.551 E352.4313
G1 X124.007 Y63.931
G1 X137.645 Y49.818 E353.4105
G1 X137.645 Y50.378
G1 X124.092 Y64.403 E354.3835
G1 X124.177 Y64.875
G1 X137.645 Y50.937 E355.3504
G1 X137.645 Y51.497
G1 X124.263 Y65.346 E356.3113
G1 X137.646 Y52.617 F10800
G1 X124.428 Y66.295 E357.2603 F600
G1 X123.595 Y63.968 F10800
G1 X122.389 Y61.897
G1 X120.526 Y60.266
G1 X118.193 Y59.225
G1 X101.608 Y54.075
G1 X95.926 Y59.955 E357.6682 F600
G1 X95.926 Y60.515
G1 X123.871 Y31.596 E359.6745
G1 X124.412 Y31.596
G1 X95.926 Y61.075 E361.7197
G1 X95.926 Y61.635
G1 X124.953 Y31.596 E363.8037
G1 X125.494 Y31.596
G1 X95.926 Y62.195 E365.9266
G1 X95.926 Y62.755
G1 X126.035 Y31.596 E368.0883
G1 X126.576 Y31.596
G1 X95.926 Y63.315 E370.2888
G1 X95.926 Y63.874
G1 X127.117 Y31.596 E372.5282
G1 X127.658 Y31.596
G1 X95.926 Y64.434 E374.8064
G1 X128.680 Y31.658 F10800
G1 X95.926 Y65.554 E377.1580 F600
G1 X95.926 Y66.114
G1 X129.173 Y31.709 E379.5450
G1 X129.665 Y31.759
G1 X95.926 Y66.674 E381.9673
G1 X95.929 Y67.230
G1 X130.158 Y31.810 E384.4247
G1 X130.612 Y31.899
G1 X96.292 Y67.416 E386.8888
G1 X96.654 Y67.601
G1 X131.063 Y31.992 E389.3592
G1 X131.513 Y32.086
G1 X97.016 Y67.786 E391.8360
G1 X97.378 Y67.971
G1 X131.919 Y32.226 E394.3159
G1 X132.286 Y32.406
G1 X97.740 Y68.157 E396.7962
G1 X98.102 Y68.342
G1 X132.664 Y32.575 E399.2776
G1 X133.033 Y32.753
G1 X98.464 Y68.527 E401.7595
G1 X98.826 Y68.712
G1 X133.379 Y32.955 E404.2402
G1 X133.700 Y33.183
G1 X99.188 Y68.897 E406.7180
G1 X99.550 Y69.083
G1 X133.994 Y33.438 E409.1909
G1 X134.289 Y33.693
G1 X99.912 Y69.268 E411.6590
G1 X100.274 Y69.453
G1 X134.598 Y33.933 E414.1233
G1 X134.925 Y34.155
G1 X100.637 Y69.638 E416.5850
G1 X100.999 Y69.824
G1 X107.909 Y62.672 E417.0812
G1 X107.218 Y66.277 F10800
G1 X107.635 Y68.586
G1 X124.595 Y98.967
G1 X136.071 Y163.992
G1 X134.111 Y166.020 E417.2219 F600
G1 X132.684 Y166.937 F10800
G1 X136.753 Y162.726 E417.5140 F600
G1 X137.155 Y161.751 F10800
G1 X131.773 Y167.320 E417.9004 F600
G1 X131.024 Y167.535
G1 X137.384 Y160.953 E418.3570
G1 X137.422 Y160.354
G1 X130.272 Y167.753 E418.8704
G1 X131.646 Y164.652 F10800
G1 X137.563 Y158.528 E419.2952 F600
G1 X137.562 Y159.090
G1 X129.111 Y167.835 E419.9019
G1 X129.675 Y167.812
G1 X137.575 Y159.636 E420.4691
G1 X128.846 Y166.989 F10800
G1 X127.984 Y167.881 E420.5310 F600
G1 X128.548 Y167.858
G1 X129.821 Y166.540 E420.6225
G1 X115.284 Y166.854 F10800
G1 X111.978 Y166.758
G1 X110.311 Y166.064
G1 X109.014 Y164.768
G1 X108.311 Y163.068
G1 X108.120 Y160.441
G1 X100.905 Y167.908 E421.1405 F600
G1 X101.445 Y167.908
G1 X107.899 Y161.230 E421.6038
G1 X107.837 Y161.854
G1 X101.986 Y167.909 E422.0239
G1 X102.526 Y167.910
G1 X107.834 Y162.416 E422.4050
G1 X107.885 Y162.924
G1 X103.067 Y167.910 E422.7509
G1 X103.607 Y167.911
G1 X107.978 Y163.387 E423.0648
G1 X108.108 Y163.813
G1 X104.148 Y167.911 E423.3491
G1 X104.688 Y167.912
G1 X108.254 Y164.221 E423.6051
G1 X108.447 Y164.582
G1 X105.229 Y167.913 E423.8362
G1 X105.769 Y167.913
G1 X108.640 Y164.943 E424.0423
G1 X108.878 Y165.256
G1 X106.310 Y167.914 E424.2266
G1 X106.850 Y167.914
G1 X109.126 Y165.559 E424.3901
G1 X109.388 Y165.848
G1 X107.391 Y167.915 E424.5335
G1 X107.931 Y167.916
G1 X109.690 Y166.096 E424.6598
G1 X109.992 Y166.343
G1 X108.472 Y167.916 E424.7689
G1 X109.012 Y167.917
G1 X110.331 Y166.552 E424.8636
G1 X110.688 Y166.743
G1 X109.553 Y167.917 E424.9451
G1 X110.093 Y167.918
G1 X111.058 Y166.920 E425.0144
G1 X111.476 Y167.047
G1 X110.634 Y167.919 E425.0749
G1 X111.174 Y167.919
G1 X111.894 Y167.174 E425.1266
G1 X112.385 Y167.226
G1 X111.715 Y167.920 E425.1747
G1 X112.255 Y167.920
G1 X112.877 Y167.277 E425.2193
G1 X113.418 Y167.277
G1 X112.796 Y167.921 E425.2640
G1 X113.336 Y167.922
G1 X113.959 Y167.277 E425.3087
G1 X114.500 Y167.277
G1 X113.877 Y167.922 E425.3535
G1 X114.417 Y167.923
G1 X115.041 Y167.277 E425.3983
G1 X115.582 Y167.277
G1 X114.958 Y167.923 E425.4432
G1 X115.498 Y167.924
G1 X116.123 Y167.277 E425.4881
G1 X116.664 Y167.277
G1 X116.038 Y167.925 E425.5330
G1 X116.579 Y167.925
G1 X117.205 Y167.277 E425.5780
G1 X117.747 Y167.277
G1 X117.119 Y167.926 E425.6230
G1 X117.660 Y167.926
G1 X118.288 Y167.277 E425.6681
G1 X118.829 Y167.277
G1 X118.200 Y167.927 E425.7132
G1 X118.741 Y167.928
G1 X119.370 Y167.277 E425.7583
G1 X119.911 Y167.277
G1 X119.281 Y167.928 E425.8035
G1 X119.822 Y167.929
G1 X120.452 Y167.277 E425.8487
G1 X120.993 Y167.277
G1 X120.362 Y167.929 E425.8940
G1 X120.903 Y167.930
G1 X121.534 Y167.277 E425.9393
G1 X122.075 Y167.277
G1 X121.443 Y167.931 E425.9846
G1 X121.984 Y167.931
G1 X122.616 Y167.277 E426.0300
G1 X123.157 Y167.277
G1 X122.525 Y167.931 E426.0754
G1 X123.065 Y167.932
G1 X123.698 Y167.277 E426.1209
G1 X124.239 Y167.277
G1 X123.606 Y167.932 E426.1663
G1 X124.147 Y167.933
G1 X124.780 Y167.277 E426.2118
G1 X125.322 Y167.277
G1 X124.687 Y167.933 E426.2574
G1 X125.228 Y167.933
G1 X125.863 Y167.277 E426.3029
G1 X126.404 Y167.277
G1 X125.769 Y167.934 E426.3485
G1 X126.310 Y167.934
G1 X126.945 Y167.277 E426.3941
G1 X127.510 Y167.252
G1 X126.857 Y167.927 E426.4410
G1 X127.421 Y167.904
G1 X128.108 Y167.193 E426.4904
G1 X111.978 Y166.758 F10800
G1 X110.311 Y166.064
G1 X109.014 Y164.768
G1 X108.311 Y163.068
G1 X108.311 Y161.226
G1 X109.014 Y159.527
G1 X109.958 Y157.979
G1 X137.540 Y129.436 E428.4706 F600
G1 X137.540 Y129.996
G1 X111.094 Y157.363 E430.3693
G1 X125.380 Y139.780 F10800
G1 X137.540 Y127.196 E431.2422 F600
G1 X137.540 Y127.756
G1 X98.743 Y167.905 E434.0277
G1 X99.283 Y167.906
G1 X137.540 Y128.316 E436.7743
G1 X137.540 Y128.876
G1 X99.824 Y167.907 E439.4822
G1 X100.364 Y167.907
G1 X108.650 Y159.333 E440.0771
G1 X121.545 Y143.189 F10800
G1 X97.662 Y167.904 E441.7918 F600
G1 X98.202 Y167.905
G1 X122.495 Y142.765 E443.5359
G1 X124.389 Y140.657 F10800
G1 X126.143 Y137.870
G1 X137.540 Y126.076 E444.3542 F600
G1 X137.540 Y126.636
G1 X126.019 Y138.559 E445.1813
G1 X124.389 Y140.657 F10800
G1 X120.193 Y143.329
G1 X117.615 Y143.687
G1 X115.037 Y143.329
G1 X112.704 Y142.288
G1 X110.841 Y140.657
G1 X109.635 Y138.586
G1 X108.811 Y136.209
G1 X78.617 Y167.456 E447.3492 F600
G1 X79.029 Y167.589
G1 X108.876 Y136.702 E449.4921
G1 X108.961 Y137.174
G1 X79.464 Y167.699 E451.6098
G1 X79.920 Y167.786
G1 X109.046 Y137.645 E453.7009
G1 X109.132 Y138.117
G1 X80.379 Y167.871 E455.7652
G1 X80.906 Y167.886
G1 X109.217 Y138.589 E457.7978
G1 X109.382 Y138.977
G1 X81.447 Y167.886 E459.8034
G1 X81.987 Y167.887
G1 X109.586 Y139.327 E461.7848
G1 X109.789 Y139.676
G1 X82.528 Y167.887 E463.7420
G1 X83.068 Y167.888
G1 X109.993 Y140.025 E465.6751
G1 X110.196 Y140.375
G1 X83.609 Y167.889 E467.5839
G1 X84.149 Y167.889
G1 X110.400 Y140.724 E469.4686
G1 X110.638 Y141.037
G1 X84.690 Y167.890 E471.3315
G1 X85.230 Y167.890
G1 X110.931 Y141.294 E473.1768
G1 X111.225 Y141.550
G1 X85.771 Y167.891 E475.0042
G1 X86.311 Y167.892
G1 X111.518 Y141.807 E476.8139
G1 X111.811 Y142.064
G1 X86.852 Y167.892 E478.6058
G1 X87.392 Y167.893
G1 X112.104 Y142.320 E480.3800
G1 X112.397 Y142.577
G1 X87.933 Y167.893 E482.1364
G1 X88.473 Y167.894
G1 X112.750 Y142.772 E483.8793
G1 X113.128 Y142.940
G1 X89.014 Y167.895 E485.6106
G1 X89.554 Y167.895
G1 X113.506 Y143.109 E487.3302
G1 X113.884 Y143.278
G1 X90.095 Y167.896 E489.0381
G1 X90.635 Y167.896
G1 X114.262 Y143.446 E490.7344
G1 X114.640 Y143.615
G1 X91.176 Y167.897 E492.4191
G1 X91.716 Y167.898
G1 X115.043 Y143.759 E494.0938
G1 X115.520 Y143.825
G1 X92.257 Y167.898 E495.7639
G1 X92.797 Y167.899
G1 X115.997 Y143.891 E497.4296
G1 X116.474 Y143.957
G1 X93.338 Y167.899 E499.0906
G1 X93.878 Y167.900
G1 X116.951 Y144.023 E500.7472
G1 X117.428 Y144.089
G1 X94.419 Y167.901 E502.3991
G1 X94.959 Y167.901
G1 X117.995 Y144.063 E504.0530
G1 X118.620 Y143.976
G1 X95.500 Y167.902 E505.7129
G1 X96.040 Y167.902
G1 X119.245 Y143.889 E507.3789
G1 X119.870 Y143.803
G1 X96.581 Y167.903 E509.0509
G1 X97.121 Y167.904
G1 X120.594 Y143.613 E510.7361
G1 X117.615 Y143.687 F10800
G1 X101.823 Y141.730
G1 X101.391 Y141.608
G1 X89.031 Y134.282
G1 X72.344 Y151.550 E511.9342 F600
G1 X72.344 Y152.110
G1 X90.755 Y133.057 E513.2561
G1 X91.051 Y133.310
G1 X72.344 Y152.670 E514.5992
G1 X72.344 Y153.230
G1 X91.347 Y133.564 E515.9636
G1 X91.644 Y133.817
G1 X72.344 Y153.790 E517.3492
G1 X72.344 Y154.350
G1 X91.940 Y134.071 E518.7561
G1 X92.236 Y134.324
G1 X72.344 Y154.910 E520.1843
G1 X72.344 Y155.470
G1 X92.532 Y134.578 E521.6337
G1 X92.828 Y134.831
G1 X72.344 Y156.029 E523.1044
G1 X72.346 Y156.587
G1 X93.124 Y135.085 E524.5962
G1 X93.421 Y135.338
G1 X72.353 Y157.140 E526.1088
G1 X72.360 Y157.692
G1 X93.717 Y135.592 E527.6421
G1 X94.013 Y135.845
G1 X72.367 Y158.245 E529.1961
G1 X72.375 Y158.797
G1 X94.309 Y136.098 E530.7708
G1 X94.605 Y136.352
G1 X72.393 Y159.338 E532.3656
G1 X72.429 Y159.860
G1 X94.901 Y136.605 E533.9790
G1 X95.197 Y136.859
G1 X72.495 Y160.353 E535.6089
G1 X72.580 Y160.825
G1 X95.494 Y137.112 E537.2541
G1 X95.790 Y137.366
G1 X72.678 Y161.283 E538.9134
G1 X72.789 Y161.728
G1 X96.086 Y137.619 E540.5860
G1 X96.382 Y137.873
G1 X72.946 Y162.126 E542.2686
G1 X73.102 Y162.523
G1 X96.678 Y138.126 E543.9612
G1 X96.974 Y138.380
G1 X73.327 Y162.850 E545.6590
G1 X73.526 Y163.205
G1 X97.270 Y138.633 E547.3637
G1 X97.567 Y138.887
G1 X73.687 Y163.598 E549.0781
G1 X73.892 Y163.946
G1 X97.863 Y139.140 E550.7990
G1 X98.159 Y139.393
G1 X74.098 Y164.293 E552.5265
G1 X74.361 Y164.580
G1 X98.455 Y139.647 E554.2563
G1 X98.751 Y139.900
G1 X74.611 Y164.881 E555.9894
G1 X74.882 Y165.161
G1 X99.047 Y140.154 E557.7244
G1 X99.343 Y140.407
G1 X75.193 Y165.399 E559.4582
G1 X75.475 Y165.667
G1 X99.640 Y140.661 E561.1931
G1 X99.936 Y140.914
G1 X75.735 Y165.958 E562.9306
G1 X76.044 Y166.199
G1 X100.232 Y141.168 E564.6672
G1 X100.528 Y141.421
G1 X76.364 Y166.427 E566.4021
G1 X76.717 Y166.622
G1 X100.824 Y141.675 E568.1328
G1 X101.120 Y141.928
G1 X77.095 Y166.791 E569.8578
G1 X77.431 Y167.003
G1 X101.483 Y142.112 E571.5846
G1 X101.861 Y142.281
G1 X77.811 Y167.170 E573.3114
G1 X78.209 Y167.318
G1 X108.936 Y135.520 E575.5174
G1 X109.060 Y134.831
G1 X102.283 Y141.844 E576.0040
G1 X110.841 Y131.897 F10800
G1 X113.889 Y129.274
G1 X137.631 Y104.705 E577.7086 F600
G1 X137.629 Y105.268
G1 X114.840 Y128.850 E579.3447
G1 X112.704 Y130.266 F10800
G1 X109.673 Y133.077
G1 X102.418 Y140.585 E579.8656 F600
G1 X102.418 Y141.145
G1 X109.185 Y134.143 E580.3514
G1 X110.648 Y131.508 F10800
G1 X137.637 Y103.579 E582.2891 F600
G1 X137.634 Y104.142
G1 X112.939 Y129.698 E584.0621
G1 X124.087 Y105.282 F10800
G1 X137.629 Y91.269 E585.0343 F600
G1 X137.635 Y91.822
G1 X97.940 Y132.901 E587.8842
G1 X98.244 Y133.146
G1 X137.642 Y92.375 E590.7129
G1 X137.648 Y92.929
G1 X98.548 Y133.392 E593.5201
G1 X98.852 Y133.637
G1 X137.649 Y93.487 E596.3056
G1 X137.649 Y94.048
G1 X99.155 Y133.883 E599.0692
G1 X99.459 Y134.128
G1 X137.648 Y94.609 E601.8110
G1 X137.648 Y95.169
G1 X99.763 Y134.374 E604.5309
G1 X100.067 Y134.619
G1 X137.647 Y95.730 E607.2290
G1 X137.646 Y96.290
G1 X100.371 Y134.865 E609.9052
G1 X100.675 Y135.110
G1 X137.646 Y96.851 E612.5595
G1 X137.645 Y97.411
G1 X100.979 Y135.355 E615.1920
G1 X101.283 Y135.601
G1 X137.645 Y97.972 E617.8026
G1 X137.644 Y98.532
G1 X101.587 Y135.846 E620.3914
G1 X101.890 Y136.092
G1 X137.643 Y99.093 E622.9583
G1 X137.643 Y99.654
G1 X102.194 Y136.337 E625.5033
G1 X102.418 Y136.666
G1 X137.642 Y100.214 E628.0323
G1 X137.642 Y100.775
G1 X102.418 Y137.225 E630.5611
G1 X102.418 Y137.785
G1 X137.641 Y101.335 E633.0899
G1 X137.640 Y101.896
G1 X102.418 Y138.345 E635.6187
G1 X102.418 Y138.905
G1 X137.640 Y102.456 E638.1475
G1 X137.639 Y103.017
G1 X102.418 Y139.465 E640.6762
G1 X102.418 Y140.025
G1 X110.495 Y131.667 E641.2561
G1 X120.884 Y108.038 F10800
G1 X97.332 Y132.410 E642.9470 F600
G1 X97.636 Y132.655
G1 X122.076 Y107.364 E644.7016
G1 X125.099 Y103.116 F10800
G1 X137.616 Y90.163 E645.6003 F600
G1 X137.622 Y90.716
G1 X124.908 Y103.873 E646.5131
G1 X121.526 Y107.288 F10800
G1 X101.804 Y117.144
G1 X111.208 Y107.412 E647.1883 F600
G1 X111.506 Y107.663
G1 X102.208 Y117.286 E647.8559
G1 X102.330 Y117.719
G1 X111.885 Y107.832 E648.5418
G1 X112.263 Y108.000
G1 X102.418 Y118.188 E649.2486
G1 X102.418 Y118.748
G1 X112.641 Y108.169 E649.9826
G1 X113.019 Y108.338
G1 X102.418 Y119.308 E650.7437
G1 X102.418 Y119.868
G1 X113.397 Y108.506 E651.5319
G1 X113.775 Y108.675
G1 X102.418 Y120.428 E652.3473
G1 X102.418 Y120.988
G1 X114.213 Y108.782 E653.1941
G1 X114.690 Y108.848
G1 X102.418 Y121.548 E654.0752
G1 X102.418 Y122.107
G1 X115.167 Y108.914 E654.9905
G1 X115.645 Y108.980
G1 X94.901 Y130.446 E656.4798
G1 X95.205 Y130.692
G1 X116.122 Y109.046 E657.9815
G1 X116.599 Y109.112
G1 X95.509 Y130.937 E659.4956
G1 X95.813 Y131.183
G1 X117.219 Y109.031 E661.0325
G1 X117.843 Y108.944
G1 X96.117 Y131.428 E662.5924
G1 X96.421 Y131.674
G1 X118.468 Y108.858 E664.1753
G1 X119.093 Y108.772
G1 X96.724 Y131.919 E665.7812
G1 X97.028 Y132.164
G1 X119.933 Y108.461 E667.4256
G1 X98.239 Y125.873 F10800
G1 X94.293 Y129.955 E667.7089 F600
G1 X94.597 Y130.201
G1 X101.034 Y123.540 E668.1710
G1 X93.990 Y129.710 F10800
G1 X95.444 Y128.205 E668.2754 F600
G1 X101.990 Y136.734 F10800
G1 X102.008 Y141.308
G1 X101.823 Y141.730
G1 X81.792 Y140.653
G1 X72.344 Y150.430 E668.9538 F600
G1 X72.344 Y150.990
G1 X85.411 Y137.467 E669.8919
G1 X80.872 Y140.904 F10800
G1 X80.439 Y141.032
G1 X80.252 Y140.607
G1 X80.085 Y117.782
G1 X72.353 Y125.784 E670.4470 F600
G1 X72.352 Y126.344
G1 X79.858 Y118.577 E670.9859
G1 X79.841 Y119.155
G1 X72.352 Y126.905 E671.5236
G1 X72.351 Y127.466
G1 X79.841 Y119.715 E672.0613
G1 X79.841 Y120.275
G1 X72.350 Y128.026 E672.5991
G1 X72.350 Y128.587
G1 X79.841 Y120.835 E673.1369
G1 X79.841 Y121.395
G1 X72.349 Y129.147 E673.6748
G1 X72.348 Y129.708
G1 X79.841 Y121.955 E674.2127
G1 X79.841 Y122.514
G1 X72.348 Y130.269 E674.7507
G1 X72.347 Y130.829
G1 X79.841 Y123.074 E675.2887
G1 X80.054 Y123.414
G1 X72.346 Y131.390 E675.8421
G1 X72.346 Y131.951
G1 X80.350 Y123.667 E676.4168
G1 X80.647 Y123.920
G1 X72.345 Y132.511 E677.0128
G1 X72.344 Y133.072
G1 X80.943 Y124.173 E677.6302
G1 X81.240 Y124.426
G1 X72.344 Y133.632 E678.2689
G1 X72.343 Y134.193
G1 X81.536 Y124.679 E678.9289
G1 X81.833 Y124.932
G1 X72.343 Y134.753 E679.6103
G1 X72.343 Y135.313
G1 X82.130 Y125.185 E680.3129
G1 X82.426 Y125.438
G1 X72.343 Y135.873 E681.0368
G1 X72.343 Y136.433
G1 X82.723 Y125.692 E681.7820
G1 X83.019 Y125.945
G1 X72.343 Y136.993 E682.5485
G1 X72.343 Y137.553
G1 X83.316 Y126.198 E683.3363
G1 X83.612 Y126.451
G1 X72.343 Y138.112 E684.1453
G1 X72.343 Y138.672
G1 X83.909 Y126.704 E684.9757
G1 X84.205 Y126.957
G1 X72.343 Y139.232 E685.8274
G1 X72.343 Y139.792
G1 X84.502 Y127.210 E686.7003
G1 X84.798 Y127.463
G1 X72.343 Y140.352 E687.5945
G1 X72.343 Y140.912
G1 X85.095 Y127.716 E688.5100
G1 X85.391 Y127.969
G1 X72.343 Y141.472 E689.4468
G1 X72.343 Y142.032
G1 X85.688 Y128.222 E690.4049
G1 X85.984 Y128.475
G1 X72.343 Y142.592 E691.3842
G1 X72.343 Y143.152
G1 X86.281 Y128.728 E692.3849
G1 X86.578 Y128.981
G1 X72.343 Y143.712 E693.4069
G1 X72.343 Y144.271
G1 X79.841 Y136.513 E693.9452
G1 X79.841 Y137.072
G1 X72.343 Y144.831 E694.4834
G1 X72.343 Y145.391
G1 X79.841 Y137.632 E695.0217
G1 X79.841 Y138.192
G1 X72.343 Y145.951 E695.5600
G1 X72.343 Y146.511
G1 X79.841 Y138.752 E696.0982
G1 X79.841 Y139.312
G1 X72.343 Y147.071 E696.6365
G1 X72.343 Y147.631
G1 X79.841 Y139.872 E697.1748
G1 X79.841 Y140.432
G1 X72.343 Y148.191 E697.7130
G1 X72.343 Y148.751
G1 X79.912 Y140.918 E698.2564
G1 X80.036 Y141.350
G1 X72.343 Y149.311 E698.8087
G1 X72.343 Y149.870
G1 X80.309 Y141.628 E699.3806
G1 X80.252 Y118.700 F10800
G1 X80.438 Y118.276
G1 X97.036 Y120.958
G1 X101.424 Y116.417 E699.6956 F600
G1 X101.965 Y116.417
G1 X100.134 Y118.312 E699.8271
G1 X108.016 Y100.077 F10800
G1 X102.418 Y105.870 E700.2290 F600
G1 X102.418 Y106.430
G1 X107.891 Y100.766 E700.6220
G1 X107.821 Y101.398
G1 X102.418 Y106.989 E701.0099
G1 X102.418 Y107.549
G1 X107.906 Y101.870 E701.4039
G1 X107.991 Y102.342
G1 X102.418 Y108.109 E701.8040
G1 X102.418 Y108.669
G1 X108.077 Y102.813 E702.2103
G1 X108.162 Y103.285
G1 X102.418 Y109.229 E702.6227
G1 X102.418 Y109.789
G1 X108.251 Y103.753 E703.0415
G1 X108.455 Y104.102
G1 X102.418 Y110.349 E703.4749
G1 X102.418 Y110.909
G1 X108.658 Y104.451 E703.9229
G1 X108.862 Y104.801
G1 X102.418 Y111.469 E704.3856
G1 X102.418 Y112.029
G1 X109.065 Y105.150 E704.8628
G1 X109.269 Y105.499
G1 X102.418 Y112.589 E705.3546
G1 X102.418 Y113.149
G1 X109.472 Y105.849 E705.8611
G1 X109.743 Y106.129
G1 X102.418 Y113.709 E706.3870
G1 X102.418 Y114.269
G1 X110.036 Y106.385 E706.9339
G1 X110.329 Y106.642
G1 X102.418 Y114.828 E707.5019
G1 X102.418 Y115.388
G1 X110.622 Y106.898 E708.0909
G1 X110.915 Y107.155
G1 X102.418 Y115.948 E708.7010
G1 X98.935 Y115.936 F10800
G1 X92.860 Y104.562
G1 X92.648 Y104.782 E708.7162 F600
G1 X92.648 Y105.342
G1 X93.401 Y104.562 E708.7703
G1 X93.942 Y104.562
G1 X92.648 Y105.901 E708.8632
G1 X92.648 Y106.461
G1 X94.484 Y104.562 E708.9950
G1 X95.025 Y104.562
G1 X92.648 Y107.021 E709.1656
G1 X92.648 Y107.581
G1 X95.566 Y104.562 E709.3751
G1 X96.107 Y104.562
G1 X92.648 Y108.141 E709.6234
G1 X92.648 Y108.701
G1 X96.648 Y104.562 E709.9105
G1 X97.189 Y104.562
G1 X92.648 Y109.261 E710.2365
G1 X92.648 Y109.821
G1 X97.730 Y104.562 E710.6014
G1 X98.271 Y104.562
G1 X92.648 Y110.381 E711.0051
G1 X92.648 Y110.941
G1 X98.470 Y104.916 E711.4231
G1 X98.470 Y105.476
G1 X92.648 Y111.501 E711.8410
G1 X92.648 Y112.061
G1 X98.470 Y106.036 E712.2590
G1 X98.470 Y106.596
G1 X92.648 Y112.621 E712.6770
G1 X92.648 Y113.181
G1 X98.470 Y107.156 E713.0949
G1 X98.470 Y107.716
G1 X92.648 Y113.740 E713.5129
G1 X92.648 Y114.300
G1 X98.470 Y108.275 E713.9309
G1 X98.470 Y108.835
G1 X92.648 Y114.860 E714.3488
G1 X92.648 Y115.420
G1 X98.470 Y109.395 E714.7668
G1 X98.470 Y109.955
G1 X86.282 Y122.568 E715.6418
G1 X86.576 Y122.824
G1 X98.470 Y110.515 E716.4958
G1 X98.470 Y111.075
G1 X86.869 Y123.080 E717.3286
G1 X87.163 Y123.336
G1 X98.470 Y111.635 E718.1404
G1 X98.470 Y112.195
G1 X87.457 Y123.592 E718.9311
G1 X87.750 Y123.848
G1 X98.470 Y112.755 E719.7008
G1 X98.470 Y113.315
G1 X88.044 Y124.105 E720.4494
G1 X88.337 Y124.361
G1 X98.470 Y113.875 E721.1768
G1 X98.470 Y114.435
G1 X88.631 Y124.617 E721.8833
G1 X88.924 Y124.873
G1 X98.470 Y114.995 E722.5686
G1 X98.470 Y115.555
G1 X89.218 Y125.129 E723.2329
G1 X89.511 Y125.385
G1 X98.470 Y116.114 E723.8761
G1 X98.719 Y116.417
G1 X89.805 Y125.641 E724.5160
G1 X90.098 Y125.898
G1 X99.260 Y116.417 E725.1738
G1 X99.801 Y116.417
G1 X90.392 Y126.154 E725.8493
G1 X90.839 Y126.251
G1 X100.342 Y116.417 E726.5316
G1 X100.883 Y116.417
G1 X93.937 Y123.605 E727.0303
G1 X80.438 Y118.276 F10800
G1 X80.252 Y118.700
G1 X80.268 Y123.024
G1 X81.327 Y134.974
G1 X86.874 Y129.234 E727.4285 F600
G1 X87.171 Y129.487
G1 X84.618 Y132.129 E727.6118
G1 X80.268 Y123.024 F10800
G1 X80.252 Y118.700
G1 X80.438 Y118.276
G1 X98.935 Y115.936
G1 X101.953 Y115.936
G1 X108.381 Y98.579
G1 X102.418 Y104.750 E728.0399 F600
G1 X102.418 Y105.310
G1 X108.141 Y99.388 E728.4507
G1 X110.900 Y95.412 F10800
G1 X137.588 Y67.794 E730.3668 F600
G1 X137.586 Y68.357
G1 X112.277 Y94.547 E732.1838
G1 X122.794 Y70.785 F10800
G1 X137.646 Y55.416 E733.2501 F600
G1 X137.643 Y55.979
G1 X102.418 Y92.431 E735.7791
G1 X102.418 Y92.991
G1 X137.641 Y56.541 E738.3079
G1 X137.638 Y57.104
G1 X102.418 Y93.551 E740.8365
G1 X102.418 Y94.111
G1 X137.636 Y57.667 E743.3650
G1 X137.633 Y58.229
G1 X102.418 Y94.671 E745.8932
G1 X102.418 Y95.231
G1 X137.630 Y58.792 E748.4213
G1 X137.628 Y59.355
G1 X99.253 Y99.066 E751.1764
G1 X99.794 Y99.066
G1 X137.625 Y59.917 E753.8924
G1 X137.622 Y60.480
G1 X100.335 Y99.066 E756.5694
G1 X100.877 Y99.066
G1 X137.620 Y61.043 E759.2074
G1 X137.617 Y61.605
G1 X101.418 Y99.066 E761.8064
G1 X101.959 Y99.066
G1 X137.615 Y62.168 E764.3663
G1 X137.612 Y62.730
G1 X102.418 Y99.151 E766.8930
G1 X102.418 Y99.710
G1 X137.609 Y63.293 E769.4196
G1 X137.607 Y63.856
G1 X102.418 Y100.270 E771.9459
G1 X102.418 Y100.830
G1 X137.604 Y64.418 E774.4721
G1 X137.601 Y64.981
G1 X102.418 Y101.390 E776.9981
G1 X102.418 Y101.950
G1 X137.599 Y65.544 E779.5240
G1 X137.596 Y66.106
G1 X102.418 Y102.510 E782.0496
G1 X102.418 Y103.070
G1 X137.594 Y66.669 E784.5750
G1 X137.591 Y67.232
G1 X102.418 Y103.630 E787.1003
G1 X102.418 Y104.190
G1 X109.202 Y97.169 E787.5874
G1 X80.316 Y99.066 F10800
G1 X95.089 Y83.778 E788.6480 F600
G1 X95.630 Y83.778
G1 X80.857 Y99.066 E789.7087
G1 X81.398 Y99.066
G1 X96.171 Y83.778 E790.7694
G1 X96.712 Y83.778
G1 X81.939 Y99.066 E791.8300
G1 X82.480 Y99.066
G1 X97.254 Y83.778 E792.8907
G1 X97.795 Y83.778
G1 X83.021 Y99.066 E793.9514
G1 X83.562 Y99.066
G1 X98.336 Y83.778 E795.0120
G1 X98.470 Y84.199
G1 X84.103 Y99.066 E796.0435
G1 X84.644 Y99.066
G1 X98.470 Y84.759 E797.0361
G1 X98.470 Y85.319
G1 X85.185 Y99.066 E797.9899
G1 X85.727 Y99.066
G1 X98.470 Y85.878 E798.9048
G1 X98.470 Y86.438
G1 X86.268 Y99.066 E799.7809
G1 X86.809 Y99.066
G1 X98.470 Y86.998 E800.6181
G1 X98.470 Y87.558
G1 X87.350 Y99.066 E801.4165
G1 X87.891 Y99.066
G1 X98.470 Y88.118 E802.1761
G1 X98.470 Y88.678
G1 X88.432 Y99.066 E802.8968
G1 X88.973 Y99.066
G1 X98.470 Y89.238 E803.5786
G1 X98.470 Y89.798
G1 X89.514 Y99.066 E804.2216
G1 X90.055 Y99.066
G1 X98.470 Y90.358 E804.8257
G1 X98.470 Y90.918
G1 X90.596 Y99.066 E805.3910
G1 X91.137 Y99.066
G1 X98.470 Y91.478 E805.9175
G1 X98.470 Y92.038
G1 X91.678 Y99.066 E806.4051
G1 X92.219 Y99.066
G1 X98.470 Y92.598 E806.8539
G1 X98.470 Y93.157
G1 X92.760 Y99.066 E807.2638
G1 X93.302 Y99.066
G1 X98.470 Y93.717 E807.6349
G1 X98.470 Y94.277
G1 X93.843 Y99.066 E807.9671
G1 X94.384 Y99.066
G1 X98.470 Y94.837 E808.2605
G1 X98.470 Y95.397
G1 X94.925 Y99.066 E808.5150
G1 X95.466 Y99.066
G1 X98.813 Y95.602 E808.7554
G1 X99.355 Y95.602
G1 X96.007 Y99.066 E808.9958
G1 X96.548 Y99.066
G1 X99.896 Y95.602 E809.2361
G1 X100.437 Y95.602
G1 X97.089 Y99.066 E809.4765
G1 X97.630 Y99.066
G1 X100.978 Y95.602 E809.7168
G1 X101.519 Y95.602
G1 X98.171 Y99.066 E809.9572
G1 X98.712 Y99.066
G1 X102.060 Y95.602 E810.1975
G1 X120.223 Y72.887 F10800
G1 X102.418 Y91.312 E811.4758 F600
G1 X102.418 Y91.871
G1 X122.328 Y71.268 E812.9052
G1 X124.054 Y68.362 F10800
G1 X137.646 Y54.296 E813.8811 F600
G1 X137.646 Y54.856
G1 X123.615 Y69.376 E814.8884
G1 X120.526 Y72.288 F10800
G1 X118.193 Y73.329
G1 X115.615 Y73.686
G1 X113.037 Y73.329
G1 X110.704 Y72.288
G1 X108.841 Y70.657
G1 X107.635 Y68.586
G1 X101.861 Y48.864
G1 X101.462 Y48.904
G1 X79.756 Y59.891
G1 X72.356 Y67.548 E815.4196 F600
G1 X72.356 Y68.108
G1 X79.756 Y60.450 E815.9509
G1 X79.756 Y61.010
G1 X72.356 Y68.668 E816.4821
G1 X72.356 Y69.228
G1 X79.756 Y61.570 E817.0134
G1 X79.756 Y62.130
G1 X72.356 Y69.788 E817.5446
G1 X72.356 Y70.348
G1 X79.756 Y62.690 E818.0759
G1 X79.756 Y63.250
G1 X72.356 Y70.908 E818.6071
G1 X72.356 Y71.468
G1 X79.756 Y63.810 E819.1384
G1 X79.756 Y64.370
G1 X72.356 Y72.028 E819.6696
G1 X72.356 Y72.588
G1 X80.109 Y64.565 E820.2262
G1 X80.467 Y64.754
G1 X72.356 Y73.148 E820.8086
G1 X72.356 Y73.708
G1 X80.825 Y64.943 E821.4166
G1 X81.183 Y65.133
G1 X72.356 Y74.267 E822.0503
G1 X72.356 Y74.827
G1 X81.542 Y65.322 E822.7098
G1 X81.900 Y65.511
G1 X72.356 Y75.387 E823.3950
G1 X72.356 Y75.947
G1 X82.258 Y65.700 E824.1059
G1 X82.616 Y65.889
G1 X72.356 Y76.507 E824.8426
G1 X72.356 Y77.067
G1 X82.975 Y66.079 E825.6049
G1 X83.333 Y66.268
G1 X72.356 Y77.627 E826.3930
G1 X72.356 Y78.187
G1 X83.691 Y66.457 E827.2068
G1 X84.049 Y66.646
G1 X72.356 Y78.747 E828.0463
G1 X72.356 Y79.307
G1 X84.408 Y66.835 E828.9115
G1 X84.766 Y67.025
G1 X72.356 Y79.867 E829.8025
G1 X72.356 Y80.427
G1 X85.124 Y67.214 E830.7191
G1 X85.482 Y67.403
G1 X72.356 Y80.987 E831.6615
G1 X72.356 Y81.546
G1 X85.841 Y67.592 E832.6297
G1 X86.199 Y67.781
G1 X72.356 Y82.106 E833.6235
G1 X72.356 Y82.666
G1 X86.557 Y67.971 E834.6430
G1 X86.915 Y68.160
G1 X72.356 Y83.226 E835.6883
G1 X72.356 Y83.786
G1 X87.273 Y68.349 E836.7593
G1 X87.632 Y68.538
G1 X72.356 Y84.346 E837.8560
G1 X72.356 Y84.906
G1 X87.990 Y68.727 E838.9784
G1 X88.348 Y68.917
G1 X72.356 Y85.466 E840.1266
G1 X72.356 Y86.026
G1 X88.706 Y69.106 E841.3004
G1 X89.065 Y69.295
G1 X80.380 Y78.282 E841.9240
G1 X80.921 Y78.282
G1 X89.423 Y69.484 E842.5342
G1 X89.781 Y69.674
G1 X81.462 Y78.282 E843.1316
G1 X82.003 Y78.282
G1 X90.139 Y69.863 E843.7156
G1 X90.498 Y70.052
G1 X82.545 Y78.282 E844.2866
G1 X83.086 Y78.282
G1 X90.856 Y70.241 E844.8444
G1 X91.214 Y70.430
G1 X83.627 Y78.282 E845.3892
G1 X84.168 Y78.282
G1 X91.572 Y70.620 E845.9208
G1 X91.931 Y70.809
G1 X84.709 Y78.282 E846.4394
G1 X85.250 Y78.282
G1 X92.289 Y70.998 E846.9446
G1 X92.647 Y71.187
G1 X85.791 Y78.282 E847.4370
G1 X86.332 Y78.282
G1 X93.005 Y71.376 E847.9160
G1 X93.363 Y71.566
G1 X86.873 Y78.282 E848.3820
G1 X87.414 Y78.282
G1 X93.722 Y71.755 E848.8348
G1 X94.080 Y71.944
G1 X87.955 Y78.282 E849.2746
G1 X88.496 Y78.282
G1 X94.438 Y72.133 E849.7012
G1 X94.796 Y72.322
G1 X89.037 Y78.282 E850.1146
G1 X89.578 Y78.282
G1 X95.155 Y72.512 E850.5150
G1 X95.513 Y72.701
G1 X90.120 Y78.282 E850.9022
G1 X90.661 Y78.282
G1 X95.871 Y72.890 E851.2762
G1 X96.229 Y73.079
G1 X91.202 Y78.282 E851.6372
G1 X91.743 Y78.282
G1 X96.588 Y73.268 E851.9850
G1 X96.946 Y73.458
G1 X92.284 Y78.282 E852.3198
G1 X92.825 Y78.282
G1 X97.304 Y73.647 E852.6414
G1 X97.662 Y73.836
G1 X93.366 Y78.282 E852.9498
G1 X93.907 Y78.282
G1 X98.021 Y74.025 E853.2452
G1 X98.379 Y74.214
G1 X94.448 Y78.282 E853.5274
G1 X94.989 Y78.282
G1 X98.737 Y74.404 E853.7964
G1 X99.095 Y74.593
G1 X95.530 Y78.282 E854.0524
G1 X96.071 Y78.282
G1 X99.454 Y74.782 E854.2952
G1 X99.812 Y74.971
G1 X96.612 Y78.282 E854.5248
G1 X97.153 Y78.282
G1 X100.170 Y75.161 E854.7414
G1 X100.528 Y75.350
G1 X97.695 Y78.282 E854.9448
G1 X98.236 Y78.282
G1 X100.886 Y75.539 E855.1352
G1 X101.245 Y75.728
G1 X98.777 Y78.282 E855.3124
G1 X99.318 Y78.282
G1 X101.666 Y75.852 E855.4810
G1 X102.105 Y75.958
G1 X99.859 Y78.282 E855.6422
G1 X100.400 Y78.282
G1 X108.138 Y70.274 E856.1978
G1 X108.341 Y70.624
G1 X100.941 Y78.282 E856.7292
G1 X101.482 Y78.282
G1 X108.554 Y70.964 E857.2368
G1 X108.847 Y71.220
G1 X102.023 Y78.282 E857.7268
G1 X102.418 Y78.433
G1 X109.140 Y71.477 E858.2094
G1 X109.434 Y71.733
G1 X102.418 Y78.993 E858.7130
G1 X102.418 Y79.553
G1 X109.727 Y71.990 E859.2378
G1 X110.020 Y72.247
G1 X102.418 Y80.113 E859.7836
G1 X102.418 Y80.673
G1 X110.313 Y72.503 E860.3504
G1 X110.641 Y72.723
G1 X102.418 Y81.233 E860.9408
G1 X102.418 Y81.793
G1 X111.019 Y72.892 E861.5582
G1 X111.397 Y73.061
G1 X102.418 Y82.353 E862.2030
G1 X102.418 Y82.913
G1 X111.776 Y73.229 E862.8748
G1 X112.154 Y73.398
G1 X102.418 Y83.473 E863.5738
G1 X102.418 Y84.033
G1 X112.532 Y73.566 E864.2998
G1 X112.910 Y73.735
G1 X102.418 Y84.592 E865.0530
G1 X102.418 Y85.152
G1 X113.383 Y73.806 E865.8404
G1 X113.860 Y73.872
G1 X102.418 Y85.712 E866.6618
G1 X102.418 Y86.272
G1 X114.337 Y73.938 E867.5176
G1 X114.815 Y74.004
G1 X102.418 Y86.832 E868.4076
G1 X102.418 Y87.392
G1 X115.292 Y74.070 E869.3318
G1 X115.817 Y74.086
G1 X102.418 Y87.952 E870.2938
G1 X102.418 Y88.512
G1 X116.441 Y74.000 E871.3006
G1 X117.066 Y73.914
G1 X102.418 Y89.072 E872.3522
G1 X102.418 Y89.632
G1 X117.691 Y73.827 E873.4488
G1 X118.321 Y73.734
G1 X102.418 Y90.192 E874.5906
G1 X102.418 Y90.752
G1 X119.272 Y73.310 E875.8006
G1 X124.303 Y66.984 F10800
G1 X137.646 Y53.177 E876.7584 F600
G1 X137.646 Y53.736
G1 X124.179 Y67.673 E877.7254
G1 X123.595 Y63.968 F10800
G1 X122.389 Y61.897
G1 X120.526 Y60.266
G1 X118.193 Y59.225
G1 X115.615 Y58.867
G1 X113.037 Y59.225
G1 X110.704 Y60.266
G1 X108.841 Y61.897
G1 X107.221 Y63.945
G1 X101.361 Y70.009 E878.1462 F600
G1 X101.723 Y70.194
G1 X107.096 Y64.633 E878.5320
G1 X108.823 Y61.923 F10800
G1 X110.666 Y59.820
G1 X135.162 Y34.470 E880.2906 F600
G1 X135.452 Y34.730
G1 X111.617 Y59.396 E882.0018
G1 X101.861 Y48.864 F10800
G1 X100.753 Y48.800
G1 X117.379 Y31.595 E883.1956 F600
G1 X117.920 Y31.595
G1 X101.663 Y48.419 E884.3628
G1 X102.227 Y48.396
G1 X118.461 Y31.595 E885.5284
G1 X119.002 Y31.595
G1 X102.334 Y48.845 E886.7250
G1 X102.418 Y49.317
G1 X119.543 Y31.595 E887.9546
G1 X120.084 Y31.595
G1 X102.418 Y49.877 E889.2230
G1 X102.418 Y50.437
G1 X120.625 Y31.595 E890.5302
G1 X121.166 Y31.596
G1 X102.418 Y50.997 E891.8762
G1 X102.418 Y51.557
G1 X121.707 Y31.596 E893.2610
G1 X122.248 Y31.596
G1 X102.418 Y52.117 E894.6848
G1 X102.418 Y52.677
G1 X122.789 Y31.596 E896.1472
G1 X123.330 Y31.596
G1 X102.418 Y53.237 E897.6486
G1 X99.448 Y55.191 F10800
G1 X95.926 Y58.835 E897.9016 F600
G1 X95.926 Y59.395
G1 X100.528 Y54.633 E898.2320
G1 X97.288 Y56.306 F10800
G1 X95.926 Y57.715 E898.3298 F600
G1 X95.926 Y58.275
G1 X98.368 Y55.748 E898.5050
G1 X95.926 Y57.155 F10800
G1 X96.208 Y56.864 E898.5252 F600
G1 X101.994 Y51.314 F10800
G1 X102.008 Y49.250
G1 X101.861 Y48.864
G1 X98.549 Y49.961
G1 X116.297 Y31.595 E899.7994 F600
G1 X116.838 Y31.595
G1 X99.651 Y49.381 E901.0334
G1 X96.345 Y51.122 F10800
G1 X115.213 Y31.597 E902.3880 F600
G1 X115.756 Y31.595
G1 X97.447 Y50.542 E903.7026
G1 X94.141 Y52.283 F10800
G1 X114.128 Y31.600 E905.1376 F600
G1 X114.671 Y31.598
G1 X95.243 Y51.703 E906.5324
G1 X91.937 Y53.444 F10800
G1 X113.044 Y31.602 E908.0476 F600
G1 X113.586 Y31.601
G1 X93.039 Y52.864 E909.5228
G1 X89.733 Y54.605 F10800
G1 X111.959 Y31.605 E911.1186 F600
G1 X112.501 Y31.604
G1 X90.835 Y54.024 E912.6740
G1 X87.529 Y55.766 F10800
G1 X110.874 Y31.608 E914.3500 F600
G1 X111.417 Y31.606
G1 X88.631 Y55.185 E915.9860
G1 X85.326 Y56.927 F10800
G1 X109.789 Y31.610 E917.7424 F600
G1 X110.332 Y31.609
G1 X86.428 Y56.346 E919.4586
G1 X83.122 Y58.088 F10800
G1 X108.705 Y31.613 E921.2952 F600
G1 X109.247 Y31.612
G1 X84.224 Y57.507 E923.0918
G1 X80.918 Y59.248 F10800
G1 X107.620 Y31.616 E925.0090 F600
G1 X108.162 Y31.614
G1 X82.020 Y58.668 E926.8858
G1 X79.838 Y31.810 F10800
G1 X72.521 Y39.382 E927.4112 F600
G1 X72.481 Y39.983
G1 X80.424 Y31.763 E927.9814
G1 X81.012 Y31.715
G1 X72.356 Y40.672 E928.6030
G1 X72.356 Y41.232
G1 X81.586 Y31.680 E929.2656
G1 X82.128 Y31.679
G1 X72.356 Y41.792 E929.9672
G1 X72.356 Y42.352
G1 X82.671 Y31.678 E930.7078
G1 X83.213 Y31.676
G1 X72.356 Y42.912 E931.4872
G1 X72.356 Y43.472
G1 X83.755 Y31.675 E932.3056
G1 X84.298 Y31.674
G1 X72.356 Y44.031 E933.1630
G1 X72.356 Y44.591
G1 X84.840 Y31.672 E934.0594
G1 X85.383 Y31.671
G1 X72.356 Y45.151 E934.9946
G1 X72.356 Y45.711
G1 X85.925 Y31.670 E935.9688
G1 X86.467 Y31.668
G1 X72.356 Y46.271 E936.9818
G1 X72.356 Y46.831
G1 X87.010 Y31.667 E938.0340
G1 X87.552 Y31.666
G1 X72.356 Y47.391 E939.1250
G1 X72.356 Y47.951
G1 X88.094 Y31.664 E940.2548
G1 X88.637 Y31.663
G1 X72.356 Y48.511 E941.4238
G1 X72.356 Y49.071
G1 X89.179 Y31.662 E942.6316
G1 X89.722 Y31.660
G1 X72.356 Y49.631 E943.8784
G1 X72.356 Y50.191
G1 X90.264 Y31.659 E945.1640
G1 X90.806 Y31.658
G1 X72.356 Y50.751 E946.4886
G1 X72.356 Y51.310
G1 X91.349 Y31.656 E947.8522
G1 X91.891 Y31.655
G1 X72.356 Y51.870 E949.2548
G1 X72.356 Y52.430
G1 X92.433 Y31.654 E950.6962
G1 X92.976 Y31.652
G1 X72.356 Y52.990 E952.1766
G1 X72.356 Y53.550
G1 X93.518 Y31.651 E953.6960
G1 X94.061 Y31.649
G1 X72.356 Y54.110 E955.2544
G1 X72.356 Y54.670
G1 X94.603 Y31.648 E956.8516
G1 X95.145 Y31.647
G1 X72.356 Y55.230 E958.4878
G1 X72.356 Y55.790
G1 X95.688 Y31.645 E960.1628
G1 X96.230 Y31.644
G1 X72.356 Y56.350 E961.8768
G1 X72.356 Y56.910
G1 X96.772 Y31.643 E963.6298
G1 X97.315 Y31.641
G1 X72.356 Y57.470 E965.4218
G1 X72.356 Y58.030
G1 X97.857 Y31.640 E967.2526
G1 X98.400 Y31.639
G1 X72.356 Y58.590 E969.1224
G1 X72.356 Y59.149
G1 X98.942 Y31.637 E971.0312
G1 X99.484 Y31.636
G1 X72.356 Y59.709 E972.9790
G1 X72.356 Y60.269
G1 X100.027 Y31.635 E974.9656
G1 X100.569 Y31.633
G1 X72.356 Y60.829 E976.9912
G1 X72.356 Y61.389
G1 X101.111 Y31.632 E979.0556
G1 X101.654 Y31.631
G1 X72.356 Y61.949 E981.1592
G1 X72.356 Y62.509
G1 X102.196 Y31.629 E983.3016
G1 X102.739 Y31.628
G1 X72.356 Y63.069 E985.4828
G1 X72.356 Y63.629
G1 X103.281 Y31.626 E987.7032
G1 X103.823 Y31.625
G1 X72.356 Y64.189 E989.9624
G1 X72.356 Y64.749
G1 X104.366 Y31.624 E992.2604
G1 X104.908 Y31.622
G1 X72.356 Y65.309 E994.5976
G1 X72.356 Y65.869
G1 X105.450 Y31.621 E996.9736
G1 X105.993 Y31.620
G1 X72.356 Y66.428 E999.3886
G1 X72.356 Y66.988
G1 X106.535 Y31.618 E1001.8426
G1 X107.078 Y31.617
G1 X79.816 Y59.829 E1003.7998
G1 X78.522 Y32.052 F10800
G1 X72.757 Y38.018 E1004.2136 F600
G1 X72.654 Y38.684
G1 X79.172 Y31.939 E1004.6816
G1 X73.040 Y37.164 F10800
G1 X77.643 Y32.401 E1005.0122 F600
G1 X76.495 Y33.030 F10800
G1 X73.743 Y35.877 E1005.2098 F600
; ------------------------------------
; Layer #1
; ------------------------------------
G21 ; mm
G90 ; abs
G92 E0 ; reset extr
M106 S255
G1 F4800 E-1.0000
G1 F300 Z0.600
G1 X80.035 Y116.216 F10800
G1 X80.277 Y117.917
G1 X79.873 Y118.643
G1 X79.922 Y123.193
G1 X86.556 Y130.453
G1 F4800 E0.0000
;segType:HShell
G1 X71.981 Y115.371 E1.0464 F3600
;segType:Perimeter
G1 X71.823 Y114.901 F10800
G1 X71.424 Y114.321 E1.0815 F2159
G1 X71.352 Y114.097 E1.0932
G1 X71.346 Y113.799 E1.1081
G1 X71.273 Y113.608 E1.1183
G1 X71.165 Y113.166 E1.1410
G1 X71.166 Y86.346 E2.4791
G1 X71.166 Y67.061 E3.4412
G1 X71.198 Y55.729 E4.0066
G1 X71.213 Y40.517 E4.7655
G1 X71.248 Y39.676 E4.8075
G1 X71.336 Y38.851 E4.8489
G1 X71.522 Y38.034 E4.8907
G1 X71.707 Y37.321 E4.9274
G1 X71.847 Y36.891 E4.9500
G1 X72.124 Y36.232 E4.9856
G1 X72.750 Y35.111 E5.0497
G1 X72.918 Y34.854 E5.0650
G1 X73.362 Y34.332 E5.0992
G1 X73.634 Y33.949 E5.1226
G1 X73.871 Y33.670 E5.1409
G1 X74.126 Y33.415 E5.1589
G1 X74.503 Y33.132 E5.1824
G1 X75.095 Y32.524 E5.2248
G1 X76.391 Y31.681 E5.3019
G1 X76.702 Y31.491 E5.3201
G1 X77.233 Y31.232 E5.3496
G1 X78.825 Y30.684 E5.4336
G1 X79.294 Y30.586 E5.4575
G1 X79.816 Y30.496 E5.4839
G1 X80.375 Y30.430 E5.5120
G1 X80.811 Y30.405 E5.5338
G1 X81.054 Y30.442 E5.5460
G1 X81.346 Y30.572 E5.5620
G1 X81.685 Y30.573 E5.5789
G1 X81.964 Y30.611 E5.5929
G1 X100.980 Y30.611 E6.5417
G1 X128.010 Y30.585 E7.8902
G1 X128.319 Y30.624 E7.9057
G1 X128.581 Y30.539 E7.9194
G1 X129.343 Y30.411 E7.9580
G1 X129.834 Y30.450 E7.9826
G1 X130.348 Y30.558 E8.0088
G1 X130.948 Y30.638 E8.0390
G1 X131.325 Y30.744 E8.0585
G1 X131.959 Y30.992 E8.0924
G1 X132.617 Y31.188 E8.1267
G1 X133.084 Y31.387 E8.1520
G1 X133.509 Y31.595 E8.1756
G1 X133.644 Y31.692 E8.1840
G1 X134.219 Y32.034 E8.2173
G1 X134.577 Y32.358 E8.2414
G1 X134.913 Y32.548 E8.2607
G1 X135.381 Y32.906 E8.2901
G1 X135.721 Y33.219 E8.3131
G1 X136.892 Y34.602 E8.4035
G1 X137.160 Y34.968 E8.4262
G1 X137.358 Y35.409 E8.4503
G1 X137.585 Y35.714 E8.4692
G1 X137.934 Y36.455 E8.5101
G1 X138.479 Y38.041 E8.5938
G1 X138.590 Y38.571 E8.6208
G1 X138.613 Y38.858 E8.6352
G1 X138.683 Y39.133 E8.6493
G1 X138.777 Y40.260 E8.7057
G1 X138.832 Y40.533 E8.7196
G1 X138.809 Y59.651 E9.6734
G1 X138.799 Y79.954 E10.6863
G1 X138.819 Y106.032 E11.9874
G1 X138.805 Y119.252 E12.6469
G1 X138.794 Y119.491 E12.6589
G1 X138.726 Y119.716 E12.6706
G1 X138.634 Y120.182 E12.6943
G1 X138.620 Y120.517 E12.7110
G1 X138.620 Y121.842 E12.7771
G1 X138.620 Y149.516 E14.1578
G1 X138.583 Y149.847 E14.1744
G1 X138.672 Y150.146 E14.1900
G1 X138.822 Y150.864 E14.2265
G1 X138.806 Y153.920 E14.3790
G1 X138.801 Y159.010 E14.6330
G1 X138.745 Y159.391 E14.6522
G1 X138.780 Y159.874 E14.6763
G1 X138.698 Y160.536 E14.7096
G1 X138.692 Y160.702 E14.7179
G1 X138.596 Y161.161 E14.7413
G1 X138.495 Y161.506 E14.7592
G1 X138.419 Y161.858 E14.7772
G1 X138.282 Y162.315 E14.8010
G1 X138.200 Y162.526 E14.8123
G1 X137.813 Y163.329 E14.8567
G1 X137.589 Y163.849 E14.8850
G1 X137.428 Y164.151 E14.9021
G1 X136.899 Y164.960 E14.9503
G1 X136.672 Y165.233 E14.9680
G1 X136.463 Y165.522 E14.9858
G1 X135.983 Y166.059 E15.0218
G1 X135.559 Y166.481 E15.0516
G1 X135.194 Y166.790 E15.0755
G1 X134.903 Y167.001 E15.0934
G1 X134.628 Y167.230 E15.1112
G1 X134.035 Y167.629 E15.1469
G1 X133.161 Y168.079 E15.1959
G1 X132.751 Y168.280 E15.2187
G1 X131.617 Y168.702 E15.2791
G1 X131.181 Y168.852 E15.3021
G1 X130.345 Y168.956 E15.3441
G1 X129.676 Y169.096 E15.3782
G1 X129.475 Y169.104 E15.3882
G1 X128.682 Y169.083 E15.4278
G1 X127.425 Y169.157 E15.4906
G1 X107.368 Y169.139 E16.4913
G1 X94.510 Y169.138 E17.1328
G1 X80.475 Y169.113 E17.8330
G1 X80.013 Y169.051 E17.8563
G1 X79.187 Y168.898 E17.8982
G1 X78.814 Y168.851 E17.9169
G1 X78.361 Y168.715 E17.9405
G1 X77.878 Y168.544 E17.9661
G1 X77.249 Y168.281 E18.0001
G1 X76.629 Y167.997 E18.0341
G1 X76.182 Y167.759 E18.0594
G1 X75.667 Y167.411 E18.0904
G1 X75.366 Y167.225 E18.1080
G1 X74.815 Y166.797 E18.1428
G1 X74.464 Y166.447 E18.1676
G1 X74.371 Y166.375 E18.1735
G1 X73.963 Y165.806 E18.2084
G1 X73.686 Y165.481 E18.2297
G1 X73.180 Y164.961 E18.2659
G1 X72.815 Y164.559 E18.2930
G1 X72.124 Y163.307 E18.3643
G1 X71.846 Y162.645 E18.4002
G1 X71.616 Y161.974 E18.4355
G1 X71.482 Y161.525 E18.4589
G1 X71.405 Y160.679 E18.5013
G1 X71.231 Y159.950 E18.5387
G1 X71.188 Y159.508 E18.5609
G1 X71.166 Y157.879 E18.6421
G1 X71.175 Y155.877 E18.7420
G1 X71.259 Y155.615 E18.7557
G1 X71.288 Y155.241 E18.7744
G1 X71.363 Y154.786 E18.7974
G1 X71.436 Y154.560 E18.8093
G1 X71.405 Y138.015 E19.6347
G1 X71.380 Y114.563 E20.8047
G1 X71.423 Y114.433 E20.8116
G1 X71.827 Y113.856
;segType:Loop
G1 X71.592 Y113.225 F10800
G1 X71.565 Y113.115 E20.8172 F3600
G1 X71.566 Y86.346 E22.1527
G1 X71.566 Y67.062 E23.1148
G1 X71.598 Y55.729 E23.6802
G1 X71.613 Y40.526 E24.4387
G1 X71.647 Y39.708 E24.4795
G1 X71.731 Y38.921 E24.5190
G1 X71.910 Y38.135 E24.5592
G1 X72.090 Y37.440 E24.5950
G1 X72.220 Y37.040 E24.6160
G1 X72.482 Y36.419 E24.6497
G1 X73.089 Y35.331 E24.7119
G1 X73.235 Y35.108 E24.7251
G1 X73.674 Y34.591 E24.7589
G1 X73.946 Y34.209 E24.7824
G1 X74.161 Y33.956 E24.7989
G1 X74.384 Y33.733 E24.8147
G1 X74.763 Y33.449 E24.8383
G1 X75.346 Y32.850 E24.8800
G1 X76.599 Y32.035 E24.9546
G1 X76.889 Y31.858 E24.9715
G1 X77.382 Y31.617 E24.9989
G1 X78.928 Y31.085 E25.0805
G1 X79.367 Y30.993 E25.1028
G1 X79.872 Y30.906 E25.1284
G1 X80.409 Y30.843 E25.1554
G1 X80.792 Y30.821 E25.1746
G1 X80.944 Y30.844 E25.1822
G1 X81.263 Y30.985 E25.1996
G1 X81.658 Y30.987 E25.2193
G1 X81.938 Y31.025 E25.2334
G1 X100.981 Y31.025 E26.1835
G1 X127.986 Y30.999 E27.5308
G1 X128.356 Y31.045 E27.5494
G1 X128.673 Y30.943 E27.5660
G1 X129.360 Y30.827 E27.6007
G1 X129.779 Y30.861 E27.6217
G1 X130.283 Y30.966 E27.6474
G1 X130.869 Y31.044 E27.6769
G1 X131.201 Y31.139 E27.6941
G1 X131.832 Y31.385 E27.7279
G1 X132.485 Y31.579 E27.7619
G1 X132.922 Y31.766 E27.7856
G1 X133.308 Y31.955 E27.8071
G1 X133.431 Y32.042 E27.8146
G1 X133.985 Y32.372 E27.8467
G1 X134.346 Y32.699 E27.8711
G1 X134.697 Y32.898 E27.8912
G1 X135.129 Y33.228 E27.9183
G1 X135.437 Y33.512 E27.9392
G1 X136.582 Y34.864 E28.0276
G1 X136.816 Y35.183 E28.0473
G1 X137.014 Y35.625 E28.0715
G1 X137.244 Y35.933 E28.0906
G1 X137.565 Y36.616 E28.1283
G1 X138.093 Y38.154 E28.2094
G1 X138.193 Y38.633 E28.2338
G1 X138.218 Y38.929 E28.2487
G1 X138.287 Y39.204 E28.2628
G1 X138.380 Y40.320 E28.3187
G1 X138.432 Y40.576 E28.3317
G1 X138.409 Y59.651 E29.2834
G1 X138.399 Y79.954 E30.2963
G1 X138.419 Y106.032 E31.5973
G1 X138.405 Y119.242 E32.2564
G1 X138.396 Y119.418 E32.2652
G1 X138.338 Y119.613 E32.2753
G1 X138.236 Y120.131 E32.3017
G1 X138.220 Y120.508 E32.3205
G1 X138.221 Y121.842 E32.3870
G1 X138.221 Y149.492 E33.7665
G1 X138.176 Y149.886 E33.7863
G1 X138.285 Y150.251 E33.8053
G1 X138.422 Y150.907 E33.8387
G1 X138.406 Y153.919 E33.9890
G1 X138.401 Y158.978 E34.2414
G1 X138.342 Y159.376 E34.2614
G1 X138.378 Y159.863 E34.2858
G1 X138.299 Y160.502 E34.3179
G1 X138.293 Y160.650 E34.3253
G1 X138.208 Y161.057 E34.3461
G1 X138.108 Y161.400 E34.3639
G1 X138.032 Y161.751 E34.3818
G1 X137.834 Y162.356 E34.4136
G1 X137.452 Y163.152 E34.4577
G1 X137.231 Y163.664 E34.4855
G1 X137.087 Y163.934 E34.5007
G1 X136.581 Y164.708 E34.5469
G1 X136.360 Y164.974 E34.5641
G1 X136.155 Y165.257 E34.5816
G1 X135.697 Y165.769 E34.6158
G1 X135.293 Y166.171 E34.6443
G1 X134.952 Y166.460 E34.6666
G1 X134.662 Y166.670 E34.6844
G1 X134.393 Y166.894 E34.7019
G1 X133.837 Y167.269 E34.7354
G1 X132.987 Y167.707 E34.7831
G1 X132.598 Y167.897 E34.8047
G1 X131.487 Y168.311 E34.8638
G1 X131.093 Y168.445 E34.8846
G1 X130.281 Y168.547 E34.9254
G1 X129.629 Y168.683 E34.9586
G1 X129.473 Y168.690 E34.9664
G1 X128.676 Y168.669 E35.0062
G1 X127.414 Y168.743 E35.0693
G1 X107.368 Y168.725 E36.0693
G1 X94.510 Y168.725 E36.7109
G1 X80.502 Y168.700 E37.4097
G1 X80.074 Y168.642 E37.4313
G1 X79.246 Y168.489 E37.4733
G1 X78.895 Y168.444 E37.4909
G1 X78.482 Y168.320 E37.5125
G1 X78.017 Y168.155 E37.5370
G1 X77.405 Y167.900 E37.5702
G1 X76.802 Y167.623 E37.6032
G1 X76.383 Y167.400 E37.6269
G1 X75.878 Y167.060 E37.6573
G1 X75.589 Y166.881 E37.6743
G1 X75.075 Y166.482 E37.7067
G1 X74.656 Y166.079 E37.7357
G1 X74.274 Y165.545 E37.7685
G1 X73.978 Y165.197 E37.7913
G1 X73.467 Y164.672 E37.8278
G1 X73.139 Y164.311 E37.8522
G1 X72.482 Y163.121 E37.9200
G1 X72.219 Y162.493 E37.9540
G1 X71.996 Y161.843 E37.9882
G1 X71.876 Y161.444 E38.0090
G1 X71.801 Y160.609 E38.0508
G1 X71.626 Y159.879 E38.0883
G1 X71.588 Y159.484 E38.1081
G1 X71.567 Y157.878 E38.1882
G1 X71.575 Y155.944 E38.2847
G1 X71.653 Y155.698 E38.2976
G1 X71.685 Y155.293 E38.3178
G1 X71.752 Y154.887 E38.3384
G1 X71.836 Y154.627 E38.3520
G1 X71.805 Y138.014 E39.1808
G1 X71.781 Y114.631 E40.3474
G1 X71.864 Y114.379 E40.3607
G1 X71.751 Y114.026 E40.3791
G1 X71.745 Y113.716 E40.3946
G1 X71.655 Y113.481 E40.4072
G1 X71.639 Y113.417 E40.4105
G1 F4800 E39.4105
G1 X92.789 Y124.585 F10800
G1 F4800 E40.4105
;segType:HShell
G1 X83.809 Y115.293 E41.0552 F3600
;segType:Perimeter
G1 X83.788 Y115.523 F10800
G1 X83.152 Y115.796 E41.0897 F2159
G1 X80.441 Y115.796 E41.2250
G1 X80.441 Y99.687 E42.0287
G1 X101.818 Y99.687 E43.0952
G1 X101.818 Y115.796 E43.8989
G1 X99.070 Y115.796 E44.0360
G1 X99.070 Y103.941 E44.6274
G1 X92.048 Y103.941 E44.9778
G1 X92.048 Y115.003 E45.5296
G1 X89.280 Y115.003 E45.6677
G1 X89.280 Y103.941 E46.2196
G1 X83.209 Y103.941 E46.5225
G1 X83.209 Y115.737 E47.1110
G1 X82.946 Y116.395
;segType:Loop
G1 X82.157 Y116.210 F10800
G1 X80.041 Y116.210 E47.2166 F3600
G1 X80.041 Y99.273 E48.0615
G1 X102.218 Y99.273 E49.1679
G1 X102.218 Y116.210 E50.0129
G1 X98.670 Y116.210 E50.1899
G1 X98.670 Y104.355 E50.7814
G1 X92.448 Y104.355 E51.0918
G1 X92.448 Y115.417 E51.6437
G1 X88.880 Y115.417 E51.8217
G1 X88.880 Y104.355 E52.3736
G1 X83.609 Y104.355 E52.6366
G1 X83.609 Y116.210 E53.2280
G1 X82.348 Y116.210 E53.2909
;segType:HShell
G1 X101.444 Y117.304 F10800
G1 X100.587 Y116.417 E53.3524 F3600
G1 X101.128 Y116.417
G1 X101.822 Y117.136 E53.4023
;segType:Loop
G1 X102.218 Y118.924 F10800
G1 X102.218 Y122.286 E53.5700 F3600
G1 X93.491 Y129.569 E54.1371
G1 X102.218 Y136.619 E54.6968
G1 X102.218 Y141.339 E54.9323
G1 X101.998 Y142.116 E54.9726
G1 X101.280 Y141.796 E55.0118
G1 X90.584 Y132.642 E55.7142
G1 X80.986 Y141.091 E56.3521
G1 X80.265 Y141.421 E56.3917
G1 X80.041 Y140.639 E56.4323
G1 X80.041 Y136.356 E56.6460
G1 X87.737 Y129.702 E57.1535
G1 X80.041 Y123.135 E57.6583
G1 X80.041 Y118.668 E57.8811
G1 X80.263 Y117.888 E57.9216
G1 X80.984 Y118.215 E57.9610
G1 X90.668 Y126.665 E58.6023
G1 X101.280 Y117.601 E59.2986
G1 X101.999 Y117.283 E59.3378
G1 X102.218 Y118.059 E59.3780
G1 X102.218 Y118.727 E59.4113
G1 X101.925 Y117.791 F10800
G1 X101.279 Y117.391
;segType:Perimeter
G1 X101.758 Y117.904 E59.4463 F2159
G1 X101.818 Y118.118 E59.4574
G1 X101.818 Y122.088 E59.6555
G1 X92.847 Y129.574 E60.2384
G1 X101.818 Y136.821 E60.8138
G1 X101.818 Y141.280 E61.0362
G1 X101.741 Y141.551 E61.0503
G1 X101.491 Y141.439 E61.0640
G1 X90.581 Y132.102 E61.7804
G1 X80.771 Y140.737 E62.4324
G1 X80.519 Y140.852 E62.4462
G1 X80.441 Y140.579 E62.4604
G1 X80.441 Y136.550 E62.6614
G1 X88.363 Y129.700 E63.1839
G1 X80.441 Y122.940 E63.7035
G1 X80.441 Y118.728 E63.9136
G1 X80.518 Y118.456 E63.9277
G1 X80.770 Y118.570 E63.9415
G1 X90.665 Y127.204 E64.5967
G1 X101.491 Y117.958 E65.3070
G1 X101.689 Y117.870 E65.3178
G1 X102.375 Y117.926
;segType:HShell
G1 X138.211 Y113.917 F10800
G1 X125.302 Y100.559 E66.2445 F3600
;segType:Perimeter
G1 X125.251 Y100.787 F10800
G1 X124.811 Y101.335 E66.2796 F2159
G1 X124.416 Y103.516 E66.3902
G1 X123.243 Y105.529 E66.5064
G1 X121.426 Y107.120 E66.6269
G1 X119.142 Y108.138 E66.7517
G1 X116.615 Y108.488 E66.8789
G1 X114.088 Y108.138 E67.0062
G1 X111.805 Y107.120 E67.1309
G1 X109.987 Y105.529 E67.2515
G1 X108.814 Y103.516 E67.3677
G1 X108.409 Y101.277 E67.4812
G1 X108.814 Y99.038 E67.5947
G1 X109.987 Y97.025 E67.7109
G1 X111.805 Y95.434 E67.8314
G1 X114.088 Y94.416 E67.9562
G1 X116.615 Y94.066 E68.0835
G1 X119.142 Y94.416 E68.2107
G1 X121.426 Y95.434 E68.3355
G1 X123.243 Y97.025 E68.4560
G1 X124.416 Y99.038 E68.5722
G1 X124.811 Y101.219 E68.6828
G1 X125.251 Y101.767
;segType:Loop
G1 X125.021 Y102.423 F10800
G1 X124.796 Y103.666 E68.7457 F3600
G1 X123.552 Y105.801 E68.8690
G1 X121.639 Y107.476 E68.9959
G1 X119.249 Y108.541 E69.1264
G1 X116.615 Y108.906 E69.2591
G1 X113.981 Y108.541 E69.3918
G1 X111.592 Y107.476 E69.5223
G1 X109.678 Y105.801 E69.6491
G1 X108.434 Y103.666 E69.7724
G1 X108.003 Y101.277 E69.8935
G1 X108.434 Y98.888 E70.0146
G1 X109.678 Y96.753 E70.1379
G1 X111.592 Y95.078 E70.2648
G1 X113.981 Y94.013 E70.3953
G1 X116.615 Y93.649 E70.5280
G1 X119.249 Y94.013 E70.6606
G1 X121.639 Y95.078 E70.7912
G1 X123.552 Y96.753 E70.9180
G1 X124.796 Y98.888 E71.0413
G1 X125.229 Y101.277 E71.1624
G1 X125.056 Y102.229 E71.2107
;segType:HShell
G1 X138.020 Y147.876 F10800
G1 X126.344 Y135.793 E72.0490 F3600
;segType:Perimeter
G1 X126.251 Y135.787 F10800
G1 X125.811 Y136.335 E72.0841 F2159
G1 X125.416 Y138.516 E72.1946
G1 X124.243 Y140.529 E72.3108
G1 X122.426 Y142.120 E72.4314
G1 X120.142 Y143.138 E72.5561
G1 X117.615 Y143.489 E72.6834
G1 X115.088 Y143.138 E72.8106
G1 X112.805 Y142.120 E72.9354
G1 X110.987 Y140.529 E73.0559
G1 X109.814 Y138.516 E73.1722
G1 X109.409 Y136.277 E73.2857
G1 X109.814 Y134.038 E73.3992
G1 X110.987 Y132.025 E73.5154
G1 X112.805 Y130.434 E73.6359
G1 X115.088 Y129.416 E73.7607
G1 X117.615 Y129.066 E73.8879
G1 X120.142 Y129.416 E74.0152
G1 X122.426 Y130.434 E74.1399
G1 X124.243 Y132.025 E74.2605
G1 X125.416 Y134.038 E74.3767
G1 X125.811 Y136.219 E74.4873
G1 X126.251 Y136.767
;segType:Loop
G1 X126.021 Y137.424 F10800
G1 X125.796 Y138.666 E74.5502 F3600
G1 X124.552 Y140.801 E74.6735
G1 X122.639 Y142.476 E74.8004
G1 X120.250 Y143.541 E74.9309
G1 X117.615 Y143.907 E75.0636
G1 X114.980 Y143.541 E75.1963
G1 X112.592 Y142.476 E75.3268
G1 X110.678 Y140.801 E75.4536
G1 X109.434 Y138.666 E75.5770
G1 X109.003 Y136.277 E75.6980
G1 X109.434 Y133.888 E75.8191
G1 X110.678 Y131.753 E75.9424
G1 X112.592 Y130.078 E76.0693
G1 X114.980 Y129.013 E76.1998
G1 X117.615 Y128.648 E76.3325
G1 X120.250 Y129.013 E76.4652
G1 X122.639 Y130.078 E76.5957
G1 X124.552 Y131.753 E76.7226
G1 X125.796 Y133.888 E76.8458
G1 X126.228 Y136.277 E76.9670
G1 X126.056 Y137.229 E77.0152
;segType:HShell
G1 X135.349 Y165.828 F10800
G1 X132.273 Y162.645 E77.2360 F3600
G1 X132.321 Y162.136
G1 X135.620 Y165.550 E77.4729
G1 X135.881 Y165.259
G1 X132.259 Y161.511 E77.7329
;segType:Perimeter
G1 X132.175 Y161.677 F10800
G1 X131.713 Y162.206 E77.7679 F2159
G1 X131.632 Y163.028 E77.8091
G1 X131.375 Y163.875 E77.8533
G1 X130.958 Y164.655 E77.8974
G1 X130.398 Y165.339 E77.9415
G1 X129.715 Y165.898 E77.9855
G1 X128.937 Y166.314 E78.0295
G1 X128.094 Y166.570 E78.0735
G1 X127.226 Y166.656 E78.1170
G1 X112.903 Y166.656 E78.8316
G1 X111.995 Y166.558 E78.8772
G1 X111.193 Y166.314 E78.9190
G1 X110.415 Y165.898 E78.9630
G1 X109.732 Y165.339 E79.0070
G1 X109.172 Y164.655 E79.0511
G1 X108.755 Y163.875 E79.0952
G1 X108.498 Y163.028 E79.1394
G1 X108.411 Y162.147 E79.1836
G1 X108.498 Y161.266 E79.2277
G1 X108.755 Y160.420 E79.2718
G1 X109.172 Y159.640 E79.3160
G1 X109.732 Y158.956 E79.3601
G1 X110.415 Y158.396 E79.4041
G1 X111.193 Y157.980 E79.4481
G1 X112.036 Y157.724 E79.4921
G1 X112.904 Y157.639 E79.5356
G1 X127.216 Y157.640 E80.2496
G1 X128.094 Y157.724 E80.2936
G1 X128.937 Y157.980 E80.3376
G1 X129.715 Y158.396 E80.3816
G1 X130.398 Y158.956 E80.4257
G1 X130.958 Y159.640 E80.4698
G1 X131.375 Y160.420 E80.5139
G1 X131.632 Y161.266 E80.5580
G1 X131.713 Y162.088 E80.5992
G1 X132.175 Y162.617
;segType:Loop
G1 X131.955 Y163.346 F10800
G1 X131.744 Y164.039 E80.6353 F3600
G1 X131.289 Y164.892 E80.6836
G1 X130.677 Y165.638 E80.7317
G1 X129.933 Y166.247 E80.7797
G1 X129.086 Y166.700 E80.8276
G1 X128.170 Y166.979 E80.8754
G1 X127.246 Y167.070 E80.9217
G1 X112.882 Y167.070 E81.6383
G1 X111.917 Y166.965 E81.6868
G1 X111.044 Y166.700 E81.7323
G1 X110.197 Y166.247 E81.7802
G1 X109.453 Y165.638 E81.8282
G1 X108.841 Y164.892 E81.8763
G1 X108.385 Y164.039 E81.9246
G1 X108.105 Y163.112 E81.9729
G1 X108.009 Y162.147 E82.0213
G1 X108.105 Y161.182 E82.0696
G1 X108.385 Y160.256 E82.1179
G1 X108.841 Y159.403 E82.1661
G1 X109.453 Y158.657 E82.2143
G1 X110.197 Y158.047 E82.2623
G1 X111.044 Y157.594 E82.3102
G1 X111.960 Y157.315 E82.3580
G1 X112.885 Y157.225 E82.4043
G1 X127.235 Y157.226 E83.1203
G1 X128.169 Y157.315 E83.1671
G1 X129.086 Y157.594 E83.2149
G1 X129.933 Y158.047 E83.2628
G1 X130.677 Y158.657 E83.3108
G1 X131.289 Y159.403 E83.3590
G1 X131.744 Y160.256 E83.4072
G1 X132.026 Y161.182 E83.4555
G1 X132.121 Y162.147 E83.5038
G1 X132.026 Y163.112 E83.5522
G1 X132.012 Y163.157 E83.5546
G1 X125.013 Y101.277 F10800
G1 X124.595 Y98.967
G1 X123.389 Y96.897
G1 X121.239 Y94.675
;segType:HShell
G1 X102.394 Y75.173 E84.9076 F3600
;segType:Perimeter
G1 X102.385 Y75.114 F10800
G1 X101.705 Y75.223 E84.9420 F2159
G1 X101.527 Y75.180 E84.9511
G1 X80.356 Y63.999 E86.1456
G1 X80.356 Y60.241 E86.3330
G1 X101.527 Y49.090 E87.5268
G1 X101.761 Y49.033 E87.5388
G1 X101.818 Y49.274 E87.5512
G1 X101.818 Y53.273 E87.7507
G1 X95.326 Y56.625 E88.1152
G1 X95.326 Y67.614 E88.6635
G1 X101.818 Y70.935 E89.0273
G1 X101.818 Y74.996 E89.2299
G1 X101.774 Y75.179 E89.2393
G1 X101.371 Y75.757
;segType:Loop
G1 X100.622 Y75.167 F10800
G1 X79.956 Y64.252 E90.4053 F3600
G1 X79.956 Y59.987 E90.6180
G1 X101.389 Y48.698 E91.8266
G1 X102.054 Y48.537 E91.8607
G1 X102.218 Y49.223 E91.8959
G1 X102.218 Y53.529 E92.1107
G1 X95.726 Y56.881 E92.4753
G1 X95.726 Y67.357 E92.9979
G1 X102.218 Y70.678 E93.3617
G1 X102.218 Y75.047 E93.5797
G1 X102.054 Y75.733 E93.6149
G1 X101.389 Y75.572 E93.6490
G1 X100.792 Y75.257 E93.6827
G1 X101.953 Y78.763 F10800
G1 X101.953 Y95.121
G1 X95.724 Y99.066
;segType:HShell
G1 X80.950 Y83.778 E94.7434 F3600
;segType:Perimeter
G1 X80.704 Y83.756 F10800
G1 X80.441 Y83.098 E94.7788 F2159
G1 X80.441 Y78.903 E94.9880
G1 X101.818 Y78.903 E96.0545
G1 X101.818 Y94.981 E96.8567
G1 X99.070 Y94.981 E96.9938
G1 X99.070 Y83.157 E97.5837
G1 X80.498 Y83.157 E98.5102
G1 X79.862 Y82.884
;segType:Loop
G1 X80.041 Y82.068 F10800
G1 X80.041 Y78.489 E98.6888 F3600
G1 X102.218 Y78.489 E99.7952
G1 X102.218 Y95.395 E100.6386
G1 X98.670 Y95.395 E100.8156
G1 X98.670 Y83.571 E101.4055
G1 X80.041 Y83.571 E102.3350
G1 X80.041 Y82.266 E102.4000
G1 X80.306 Y78.763 F10800
G1 X101.953 Y78.763
G1 X138.199 Y80.310
;segType:HShell
G1 X124.383 Y66.013 E103.3920 F3600
;segType:Perimeter
G1 X124.250 Y65.787 F10800
G1 X123.810 Y66.335 E103.4271 F2159
G1 X123.416 Y68.516 E103.5376
G1 X122.243 Y70.529 E103.6538
G1 X120.425 Y72.120 E103.7743
G1 X118.142 Y73.138 E103.8991
G1 X115.615 Y73.488 E104.0264
G1 X113.088 Y73.138 E104.1536
G1 X110.804 Y72.120 E104.2784
G1 X108.987 Y70.529 E104.3989
G1 X107.814 Y68.516 E104.5151
G1 X107.410 Y66.277 E104.6286
G1 X107.814 Y64.038 E104.7421
G1 X108.987 Y62.025 E104.8584
G1 X110.804 Y60.434 E104.9789
G1 X113.088 Y59.416 E105.1036
G1 X115.615 Y59.065 E105.2309
G1 X118.142 Y59.416 E105.3582
G1 X120.425 Y60.434 E105.4829
G1 X122.243 Y62.025 E105.6034
G1 X123.416 Y64.038 E105.7197
G1 X123.810 Y66.219 E105.8302
G1 X124.250 Y66.767
;segType:Loop
G1 X124.020 Y67.423 F10800
G1 X123.796 Y68.665 E105.8932 F3600
G1 X122.552 Y70.801 E106.0165
G1 X120.638 Y72.476 E106.1433
G1 X118.249 Y73.541 E106.2738
G1 X115.615 Y73.905 E106.4065
G1 X112.981 Y73.541 E106.5392
G1 X110.591 Y72.476 E106.6697
G1 X108.678 Y70.801 E106.7966
G1 X107.434 Y68.665 E106.9199
G1 X107.003 Y66.277 E107.0410
G1 X107.434 Y63.888 E107.1621
G1 X108.678 Y61.753 E107.2853
G1 X110.591 Y60.078 E107.4122
G1 X112.981 Y59.013 E107.5427
G1 X115.615 Y58.647 E107.6754
G1 X118.249 Y59.013 E107.8081
G1 X120.638 Y60.078 E107.9386
G1 X122.552 Y61.753 E108.0655
G1 X123.796 Y63.888 E108.1888
G1 X124.227 Y66.277 E108.3099
G1 X124.055 Y67.229 E108.3581
;segType:HShell
G1 X124.010 Y63.946 F10800
G1 X138.200 Y78.631 E109.3769 F3600
G1 X138.200 Y78.071
G1 X123.322 Y62.675 E110.4451
G1 X124.259 Y65.324 F10800
G1 X138.199 Y79.750 E111.4459 F3600
G1 X138.200 Y79.190
G1 X124.134 Y64.635 E112.4558
G1 X120.526 Y72.288 F10800
G1 X118.193 Y73.329
G1 X115.615 Y73.686
G1 X111.956 Y73.310
G1 X138.215 Y100.484 E114.3410 F3600
G1 X138.215 Y101.044
G1 X111.005 Y72.886 E116.2946
G1 X108.895 Y71.262 F10800
G1 X138.216 Y101.604 E118.3997 F3600
G1 X138.216 Y102.165
G1 X95.926 Y58.401 E121.4359
G1 X95.926 Y58.961
G1 X138.217 Y102.725 E124.4722
G1 X138.217 Y103.286
G1 X95.926 Y59.521 E127.5085
G1 X95.926 Y60.081
G1 X138.218 Y103.846 E130.5449
G1 X138.218 Y104.406
G1 X95.926 Y60.641 E133.5812
G1 X95.926 Y61.201
G1 X138.218 Y104.967 E136.6176
G1 X138.219 Y105.527
G1 X95.926 Y61.760 E139.6540
G1 X95.926 Y62.320
G1 X138.219 Y106.087 E142.6905
G1 X138.219 Y106.647
G1 X95.926 Y62.880 E145.7269
G1 X95.926 Y63.440
G1 X138.218 Y107.206 E148.7633
G1 X138.217 Y107.765
G1 X102.418 Y70.719 E151.3335
G1 X102.418 Y71.278
G1 X138.217 Y108.324 E153.9036
G1 X138.216 Y108.884
G1 X102.418 Y71.838 E156.4738
G1 X102.418 Y72.398
G1 X138.216 Y109.443 E159.0439
G1 X138.215 Y110.002
G1 X102.418 Y72.958 E161.6139
G1 X102.418 Y73.518
G1 X138.214 Y110.562 E164.1839
G1 X138.214 Y111.121
G1 X102.418 Y74.078 E166.7538
G1 X102.418 Y74.638
G1 X123.388 Y96.339 E168.2594
G1 X124.601 Y98.154 F10800
G1 X138.213 Y112.240 E169.2366 F3600
G1 X138.213 Y111.680
G1 X123.780 Y96.745 E170.2728
G1 X101.981 Y70.831 F10800
G1 X99.955 Y69.290
G1 X95.926 Y65.120 E170.5621 F3600
G1 X95.926 Y65.680
G1 X98.886 Y68.743 E170.7746
G1 X102.095 Y70.385 F10800
G1 X95.926 Y64.000 E171.2175 F3600
G1 X95.926 Y64.560
G1 X101.025 Y69.837 E171.5836
G1 X94.742 Y72.294 F10800
G1 X100.529 Y78.282 E171.9991 F3600
G1 X99.988 Y78.282
G1 X93.637 Y71.710 E172.4550
G1 X101.994 Y72.925 F10800
G1 X97.816 Y68.195
G1 X95.926 Y66.240 E172.5907 F3600
G1 X95.926 Y66.800
G1 X96.746 Y67.648 E172.6495
G1 X101.981 Y70.831 F10800
G1 X107.845 Y101.531
G1 X102.115 Y95.602 E173.0609 F3600
G1 X102.418 Y95.355
G1 X107.853 Y100.979 E173.4511
G1 X107.938 Y100.508
G1 X102.418 Y94.795 E173.8474
G1 X102.418 Y94.235
G1 X108.023 Y100.036 E174.2498
G1 X108.109 Y99.564
G1 X102.418 Y93.675 E174.6584
G1 X102.418 Y93.116
G1 X108.194 Y99.093 E175.0731
G1 X108.327 Y98.671
G1 X102.418 Y92.556 E175.4973
G1 X102.418 Y91.996
G1 X108.531 Y98.322 E175.9362
G1 X108.734 Y97.972
G1 X102.418 Y91.436 E176.3897
G1 X102.418 Y90.876
G1 X108.938 Y97.623 E176.8577
G1 X109.141 Y97.274
G1 X102.418 Y90.316 E177.3405
G1 X102.418 Y89.756
G1 X109.345 Y96.924 E177.8378
G1 X109.559 Y96.586
G1 X102.418 Y89.196 E178.3505
G1 X102.418 Y88.636
G1 X109.852 Y96.330 E178.8842
G1 X110.146 Y96.073
G1 X102.418 Y88.076 E179.4390
G1 X102.418 Y87.516
G1 X110.439 Y95.816 E180.0149
G1 X110.732 Y95.560
G1 X102.418 Y86.956 E180.6117
G1 X102.418 Y86.396
G1 X111.025 Y95.303 E181.2297
G1 X111.318 Y95.047
G1 X102.418 Y85.837 E181.8686
G1 X102.418 Y85.277
G1 X111.648 Y94.828 E182.5313
G1 X112.026 Y94.659
G1 X102.418 Y84.717 E183.2211
G1 X102.418 Y84.157
G1 X112.404 Y94.491 E183.9380
G1 X112.782 Y94.322
G1 X102.418 Y83.597 E184.6821
G1 X102.418 Y83.037
G1 X113.160 Y94.153 E185.4533
G1 X113.538 Y93.985
G1 X102.418 Y82.477 E186.2517
G1 X102.418 Y81.917
G1 X113.917 Y93.816 E187.0772
G1 X114.391 Y93.747
G1 X102.418 Y81.357 E187.9368
G1 X102.418 Y80.797
G1 X114.868 Y93.681 E188.8307
G1 X115.346 Y93.615
G1 X102.418 Y80.237 E189.7589
G1 X102.418 Y79.677
G1 X115.823 Y93.549 E190.7213
G1 X116.300 Y93.483
G1 X102.418 Y79.117 E191.7179
G1 X102.418 Y78.557
G1 X116.828 Y93.469 E192.7525
G1 X117.452 Y93.556
G1 X99.162 Y74.628 E194.0656
G1 X101.953 Y78.763 F10800
G1 X102.418 Y99.275
G1 X138.020 Y136.118 E196.6217 F3600
G1 X138.020 Y136.678
G1 X102.418 Y99.835 E199.1777
G1 X102.418 Y100.395
G1 X138.020 Y137.237 E201.7338
G1 X138.020 Y137.797
G1 X102.418 Y100.955 E204.2899
G1 X102.418 Y101.514
G1 X138.020 Y138.357 E206.8460
G1 X138.020 Y138.917
G1 X102.418 Y102.074 E209.4020
G1 X102.418 Y102.634
G1 X138.020 Y139.477 E211.9581
G1 X138.020 Y140.037
G1 X102.418 Y103.194 E214.5142
G1 X102.418 Y103.754
G1 X138.020 Y140.597 E217.0703
G1 X138.020 Y141.157
G1 X102.418 Y104.314 E219.6264
G1 X102.418 Y104.874
G1 X138.020 Y141.717 E222.1824
G1 X138.020 Y142.277
G1 X102.418 Y105.434 E224.7385
G1 X102.418 Y105.994
G1 X138.020 Y142.837 E227.2946
G1 X138.020 Y143.397
G1 X102.418 Y106.554 E229.8507
G1 X102.418 Y107.114
G1 X138.020 Y143.957 E232.4067
G1 X138.020 Y144.516
G1 X102.418 Y107.674 E234.9628
G1 X102.418 Y108.234
G1 X138.020 Y145.076 E237.5189
G1 X138.020 Y145.636
G1 X125.060 Y132.224 E238.4494
G1 X108.635 Y103.586 F10800
G1 X102.059 Y75.946
G1 X119.338 Y93.827 E239.6899 F3600
G1 X121.526 Y95.266 F10800
G1 X123.389 Y96.897
