; GCode generated by CraftWare

; filename = composition.3w 
; machine = daVinciF10 
; material = abs 
; extruder = 1 
M140 S90 ; Bed (no wait) 
M106 S255 ; Start fan 
G90 ; set absolute coordinates 
G28 ; home all axis 
M190 S90 ; Bed (wait) 
M104 S210 ; Extruder (no wait) 
M109 S210 ; Extruder (wait) 
M117 Start 
M117 Cleaning 
M100 ; Cleaning 
M117 Printing 
M109 S220 ;set head temp (wait)
M190 S75 ;set bed temp (wait)
; ------------------------------------
; Layer #0
; ------------------------------------
G21 ; mm
G90 ; abs
G92 E0 ; reset extr
M106 S0
G1 F4800 E-1.0000
G1 F300 Z0.300
G1 X89.426 Y119.349 F10800
G1 X168.000 Y100.000
G1 F4800 E0.0000
;segType:Support
G1 X94.200 Y100.000 E3.1296 F900
G1 F4800 E2.1296
G1 X168.000 Y94.600 F10800
G1 F4800 E3.1296
G1 X94.200 Y94.600 E6.2592 F900
G1 F4800 E5.2592
G1 X94.200 Y101.800 F10800
G1 F4800 E6.2592
G1 X168.000 Y101.800 E9.3888 F900
G1 F4800 E8.3888
G1 X168.000 Y74.800 F10800
G1 F4800 E9.3888
G1 X105.000 Y74.800 E12.0605 F900
G1 F4800 E11.0605
G1 X94.200 Y85.600 F10800
G1 F4800 E12.0605
G1 X168.000 Y85.600 E15.1901 F900
G1 F4800 E14.1901
G1 X91.292 Y114.433 F10800
G1 X88.817 Y115.363
G1 X86.343 Y116.294
G1 F4800 E15.1901
;segType:HShell
G1 X88.312 Y114.335 E15.3286 F600
;segType:Loop
G1 X89.326 Y114.266 F10800
G1 X89.905 Y114.561 E15.3610 F600
G1 X90.435 Y115.091 E15.3984
G1 X90.775 Y115.759 E15.4358
G1 X90.893 Y116.500 E15.4733
G1 X90.775 Y117.241 E15.5107
G1 X90.435 Y117.909 E15.5481
G1 X89.905 Y118.439 E15.5855
G1 X89.238 Y118.779 E15.6228
G1 X88.500 Y118.896 E15.6601
G1 X87.762 Y118.779 E15.6974
G1 X87.095 Y118.439 E15.7347
G1 X86.566 Y117.909 E15.7721
G1 X86.225 Y117.241 E15.8095
G1 X86.107 Y116.500 E15.8470
G1 X86.225 Y115.759 E15.8844
G1 X86.566 Y115.091 E15.9218
G1 X87.095 Y114.561 E15.9592
G1 X87.762 Y114.221 E15.9965
G1 X88.500 Y114.104 E16.0338
G1 X89.141 Y114.206 E16.0662
G1 F4800 E15.0662
G1 X88.096 Y114.249 F10800
G1 F4800 E16.0662
;segType:Perimeter
G1 X88.559 Y113.711 E16.1016 F359
G1 X89.364 Y113.838 E16.1423
G1 X90.144 Y114.236 E16.1859
G1 X90.763 Y114.855 E16.2296
G1 X91.160 Y115.635 E16.2733
G1 X91.297 Y116.500 E16.3170
G1 X91.160 Y117.365 E16.3607
G1 X90.763 Y118.145 E16.4044
G1 X90.144 Y118.765 E16.4481
G1 X89.364 Y119.162 E16.4917
G1 X88.500 Y119.299 E16.5353
G1 X87.636 Y119.162 E16.5790
G1 X86.856 Y118.765 E16.6226
G1 X86.237 Y118.145 E16.6663
G1 X85.840 Y117.365 E16.7100
G1 X85.703 Y116.500 E16.7537
G1 X85.840 Y115.635 E16.7974
G1 X86.237 Y114.855 E16.8411
G1 X86.856 Y114.236 E16.8848
G1 X87.636 Y113.838 E16.9284
G1 X88.442 Y113.711 E16.9691
G1 X88.904 Y114.249
;segType:HShell
G1 X88.847 Y114.361 F10800
G1 X86.362 Y116.830 E17.1439 F600
G1 X86.469 Y117.280
G1 X89.293 Y114.473 E17.3426
G1 X89.663 Y114.661
G1 X86.657 Y117.650 E17.5541
G1 X86.902 Y117.963
G1 X89.972 Y114.910 E17.7701
G1 X90.251 Y115.189
G1 X87.180 Y118.243 E17.9861
G1 X87.539 Y118.442
G1 X90.446 Y115.553 E18.1906
G1 X90.603 Y115.952
G1 X87.935 Y118.605 E18.3783
G1 X88.418 Y118.681
G1 X90.679 Y116.433 E18.5374
G1 X90.600 Y117.069
G1 X89.052 Y118.607 E18.6463
G1 X86.581 Y115.500 F10800
G1 X87.518 Y114.569 E18.7122 F600
;segType:Support
G1 F4800 E17.7122
G1 X85.200 Y118.000 F10800
G1 F4800 E18.7122
G1 X43.800 Y118.000 E20.4678 F900
G1 F4800 E19.4678
G1 X43.800 Y96.400 F10800
G1 F4800 E20.4678
G1 X88.800 Y96.400 E22.3761 F900
G1 F4800 E21.3761
G1 X43.800 Y110.800 F10800
G1 F4800 E22.3761
G1 X88.800 Y110.800 E24.2844 F900
G1 F4800 E23.2844
G1 X88.800 Y105.400 F10800
G1 F4800 E24.2844
G1 X43.800 Y105.400 E26.1927 F900
G1 X43.800 Y103.600 E26.2691
G1 X88.800 Y103.600 E28.1774
G1 F4800 E27.1774
G1 X85.200 Y112.600 F10800
G1 F4800 E28.1774
G1 X43.800 Y112.600 E29.9330 F900
G1 F4800 E28.9330
G1 X84.946 Y116.200 F10800
G1 F4800 E29.9330
G1 X43.800 Y116.200 E31.6778 F900
G1 F4800 E30.6778
G1 X88.800 Y92.800 F10800
G1 F4800 E31.6778
G1 X43.800 Y92.800 E33.5861 F900
G1 X43.800 Y91.000 E33.6625
G1 X88.800 Y91.000 E35.5708
G1 F4800 E34.5708
G1 X43.800 Y89.200 F10800
G1 F4800 E35.5708
G1 X85.200 Y89.200 E37.3264 F900
G1 F4800 E36.3264
G1 X88.500 Y89.495 F10800
G1 X168.000 Y89.200
G1 F4800 E37.3264
G1 X94.200 Y89.200 E40.4560 F900
G1 F4800 E39.4560
G1 X88.800 Y94.600 F10800
G1 F4800 E40.4560
G1 X43.800 Y94.600 E42.3643 F900
G1 F4800 E41.3643
G1 X43.800 Y87.400 F10800
G1 F4800 E42.3643
G1 X85.037 Y87.400 E44.1130 F900
G1 F4800 E43.1130
G1 X91.495 Y116.500 F10800
G1 X91.349 Y117.426
G1 X89.865 Y119.800
G1 F4800 E44.1130
G1 X168.000 Y119.800 E47.4265 F900
G1 F4800 E46.4265
G1 X168.000 Y123.400 F10800
G1 F4800 E47.4265
G1 X43.800 Y123.400 E52.6934 F900
G1 X43.800 Y125.200 E52.7697
G1 X168.000 Y125.200 E58.0366
G1 F4800 E57.0366
G1 X168.000 Y103.600 F10800
G1 F4800 E58.0366
G1 X94.200 Y103.600 E61.1662 F900
G1 F4800 E60.1662
G1 X85.200 Y114.400 F10800
G1 F4800 E61.1662
G1 X43.800 Y114.400 E62.9219 F900
G1 F4800 E61.9219
G1 X43.800 Y107.200 F10800
G1 F4800 E62.9219
G1 X88.800 Y107.200 E64.8302 F900
G1 F4800 E63.8302
G1 X94.200 Y114.400 F10800
G1 F4800 E64.8302
G1 X168.000 Y114.400 E67.9598 F900
G1 F4800 E66.9598
G1 X43.800 Y82.000 F10800
G1 F4800 E67.9598
G1 X168.000 Y82.000 E73.2267 F900
G1 F4800 E72.2267
G1 X88.500 Y83.505 F10800
G1 X43.800 Y85.600
G1 F4800 E73.2267
G1 X85.037 Y85.600 E74.9754 F900
G1 F4800 E73.9754
G1 X43.800 Y101.800 F10800
G1 F4800 E74.9754
G1 X88.800 Y101.800 E76.8837 F900
G1 F4800 E75.8837
G1 X85.505 Y116.500 F10800
G1 X85.651 Y117.426
G1 X87.135 Y119.800
G1 F4800 E76.8837
G1 X43.800 Y119.800 E78.7214 F900
G1 F4800 E77.7214
G1 X94.200 Y91.000 F10800
G1 F4800 E78.7214
G1 X168.000 Y91.000 E81.8510 F900
G1 F4800 E80.8510
G1 X168.000 Y116.200 F10800
G1 F4800 E81.8510
G1 X94.200 Y116.200 E84.9806 F900
G1 F4800 E83.9806
G1 X168.000 Y112.600 F10800
G1 F4800 E84.9806
G1 X94.200 Y112.600 E88.1102 F900
G1 F4800 E87.1102
G1 X168.000 Y121.600 F10800
G1 F4800 E88.1102
G1 X43.800 Y121.600 E93.3771 F900
G1 F4800 E92.3771
G1 X88.800 Y98.200 F10800
G1 F4800 E93.3771
G1 X43.800 Y98.200 E95.2854 F900
G1 F4800 E94.2854
G1 X43.800 Y109.000 F10800
G1 F4800 E95.2854
G1 X88.800 Y109.000 E97.1937 F900
G1 F4800 E96.1937
G1 X86.895 Y91.298 F10800
G1 X86.623 Y88.769
G1 X86.351 Y86.240
G1 F4800 E97.1937
;segType:HShell
G1 X88.259 Y84.344 E97.3279 F600
;segType:Loop
G1 X89.326 Y84.266 F10800
G1 X89.905 Y84.561 E97.3603 F600
G1 X90.435 Y85.091 E97.3977
G1 X90.775 Y85.759 E97.4351
G1 X90.893 Y86.500 E97.4726
G1 X90.775 Y87.241 E97.5100
G1 X90.434 Y87.909 E97.5474
G1 X89.905 Y88.439 E97.5848
G1 X89.238 Y88.779 E97.6221
G1 X88.500 Y88.896 E97.6594
G1 X87.762 Y88.779 E97.6967
G1 X87.095 Y88.439 E97.7340
G1 X86.566 Y87.909 E97.7714
G1 X86.225 Y87.241 E97.8088
G1 X86.107 Y86.500 E97.8463
G1 X86.225 Y85.759 E97.8837
G1 X86.565 Y85.091 E97.9211
G1 X87.095 Y84.561 E97.9585
G1 X87.762 Y84.221 E97.9958
G1 X88.500 Y84.104 E98.0331
G1 X89.141 Y84.206 E98.0655
G1 F4800 E97.0655
G1 X88.096 Y84.249 F10800
G1 F4800 E98.0655
;segType:Perimeter
G1 X88.559 Y83.711 E98.1009 F359
G1 X89.364 Y83.838 E98.1416
G1 X90.144 Y84.236 E98.1852
G1 X90.763 Y84.855 E98.2289
G1 X91.160 Y85.635 E98.2726
G1 X91.297 Y86.500 E98.3163
G1 X91.160 Y87.365 E98.3600
G1 X90.763 Y88.145 E98.4037
G1 X90.144 Y88.765 E98.4474
G1 X89.364 Y89.162 E98.4910
G1 X88.500 Y89.299 E98.5346
G1 X87.636 Y89.162 E98.5783
G1 X86.856 Y88.765 E98.6219
G1 X86.237 Y88.145 E98.6656
G1 X85.840 Y87.365 E98.7093
G1 X85.703 Y86.500 E98.7530
G1 X85.840 Y85.635 E98.7967
G1 X86.237 Y84.855 E98.8404
G1 X86.856 Y84.236 E98.8841
G1 X87.636 Y83.838 E98.9277
G1 X88.442 Y83.711 E98.9684
G1 X88.904 Y84.249
;segType:HShell
G1 X88.808 Y84.354 F10800
G1 X86.356 Y86.792 E99.1409 F600
G1 X86.454 Y87.251
G1 X89.264 Y84.458 E99.3385
G1 X89.634 Y84.646
G1 X86.642 Y87.620 E99.5490
G1 X86.879 Y87.941
G1 X89.950 Y84.888 E99.7650
G1 X90.229 Y85.167
G1 X87.158 Y88.220 E99.9811
G1 X87.510 Y88.427
G1 X90.431 Y85.523 E100.1866
G1 X90.597 Y85.914
G1 X87.897 Y88.599 E100.3766
G1 X88.379 Y88.675
G1 X90.673 Y86.394 E100.5380
G1 X90.608 Y87.015
G1 X88.999 Y88.615 E100.6512
G1 X86.627 Y85.410 F10800
G1 X87.426 Y84.616 E100.7073 F600
;segType:Support
G1 F4800 E99.7073
G1 X43.800 Y100.000 F10800
G1 F4800 E100.7073
G1 X88.800 Y100.000 E102.6156 F900
G1 F4800 E101.6156
G1 X168.000 Y118.000 F10800
G1 F4800 E102.6156
G1 X94.200 Y118.000 E105.7453 F900
G1 F4800 E104.7453
G1 X94.200 Y109.000 F10800
G1 F4800 E105.7453
G1 X168.000 Y109.000 E108.8749 F900
G1 X168.000 Y107.200 E108.9512
G1 X94.200 Y107.200 E112.0808
G1 F4800 E111.0808
G1 X105.000 Y76.600 F10800
G1 F4800 E112.0808
G1 X168.000 Y76.600 E114.7525 F900
G1 F4800 E113.7525
G1 X94.200 Y83.800 F10800
G1 F4800 E114.7525
G1 X168.000 Y83.800 E117.8821 F900
G1 F4800 E116.8821
G1 X168.000 Y87.400 F10800
G1 F4800 E117.8821
G1 X94.200 Y87.400 E121.0117 F900
G1 F4800 E120.0117
G1 X90.260 Y84.077 F10800
G1 X89.426 Y83.651
G1 X88.500 Y83.505
G1 X85.200 Y83.800
G1 F4800 E121.0117
G1 X43.800 Y83.800 E122.7673 F900
G1 F4800 E121.7673
G1 X43.800 Y80.200 F10800
G1 F4800 E122.7673
G1 X168.000 Y80.200 E128.0342 F900
G1 F4800 E127.0342
G1 X105.000 Y78.400 F10800
G1 F4800 E128.0342
G1 X168.000 Y78.400 E130.7058 F900
G1 F4800 E129.7058
G1 X168.000 Y73.000 F10800
G1 F4800 E130.7058
G1 X105.000 Y73.000 E133.3775 F900
G1 F4800 E132.3775
G1 X168.000 Y110.800 F10800
G1 F4800 E133.3775
G1 X94.200 Y110.800 E136.5071 F900
G1 F4800 E135.5071
G1 X94.200 Y105.400 F10800
G1 F4800 E136.5071
G1 X168.000 Y105.400 E139.6367 F900
G1 F4800 E138.6367
G1 X168.000 Y92.800 F10800
G1 F4800 E139.6367
G1 X94.200 Y92.800 E142.7663 F900
G1 F4800 E141.7663
G1 X94.200 Y96.400 F10800
G1 F4800 E142.7663
G1 X168.000 Y96.400 E145.8959 F900
G1 X168.000 Y98.200 E145.9722
G1 X94.200 Y98.200 E149.1018
; ------------------------------------
; Layer #1
; ------------------------------------
G21 ; mm
G90 ; abs
G92 E0 ; reset extr
M106 S255
;segType:Support
G1 F4800 E-1.0000
G1 F300 Z0.600
G1 X94.200 Y98.200 F10800
G1 F4800 E0.0000
G1 X168.000 Y98.200 E3.1296 F5400
G1 F4800 E2.1296
G1 X168.000 Y87.400 F10800
G1 F4800 E3.1296
G1 X94.200 Y87.400 E6.2592 F5400
G1 F4800 E5.2592
G1 X94.200 Y83.800 F10800
G1 F4800 E6.2592
G1 X168.000 Y83.800 E9.3888 F5400
G1 F4800 E8.3888
G1 X168.000 Y78.400 F10800
G1 F4800 E9.3888
G1 X105.000 Y78.400 E12.0605 F5400
G1 F4800 E11.0605
G1 X168.000 Y73.000 F10800
G1 F4800 E12.0605
G1 X105.000 Y73.000 E14.7321 F5400
G1 F4800 E13.7321
G1 X94.200 Y109.000 F10800
G1 F4800 E14.7321
G1 X168.000 Y109.000 E17.8617 F5400
G1 F4800 E16.8617
G1 X168.000 Y74.800 F10800
G1 F4800 E17.8617
G1 X105.000 Y74.800 E20.5333 F5400
G1 X105.000 Y76.600 E20.6096
G1 X168.000 Y76.600 E23.2813
G1 F4800 E22.2813
G1 X168.000 Y80.200 F10800
G1 F4800 E23.2813
G1 X43.800 Y80.200 E28.5482 F5400
G1 F4800 E27.5482
G1 X43.800 Y87.400 F10800
G1 F4800 E28.5482
G1 X85.037 Y87.400 E30.2969 F5400
G1 F4800 E29.2969
G1 X43.800 Y89.200 F10800
G1 F4800 E30.2969
G1 X85.200 Y89.200 E32.0525 F5400
G1 F4800 E31.0525
G1 X88.800 Y96.400 F10800
G1 F4800 E32.0525
G1 X43.800 Y96.400 E33.9608 F5400
G1 F4800 E32.9608
G1 X43.800 Y100.000 F10800
G1 F4800 E33.9608
G1 X88.800 Y100.000 E35.8691 F5400
G1 F4800 E34.8691
G1 X43.800 Y82.000 F10800
G1 F4800 E35.8691
G1 X168.000 Y82.000 E41.1360 F5400
G1 F4800 E40.1360
G1 X168.000 Y94.600 F10800
G1 F4800 E41.1360
G1 X94.200 Y94.600 E44.2656 F5400
G1 F4800 E43.2656
G1 X94.200 Y85.600 F10800
G1 F4800 E44.2656
G1 X168.000 Y85.600 E47.3952 F5400
G1 F4800 E46.3952
G1 X94.200 Y91.000 F10800
G1 F4800 E47.3952
G1 X168.000 Y91.000 E50.5249 F5400
G1 F4800 E49.5249
G1 X168.000 Y96.400 F10800
G1 F4800 E50.5249
G1 X94.200 Y96.400 E53.6545 F5400
G1 F4800 E52.6545
G1 X94.200 Y105.400 F10800
G1 F4800 E53.6545
G1 X168.000 Y105.400 E56.7841 F5400
G1 X168.000 Y107.200 E56.8604
G1 X94.200 Y107.200 E59.9900
G1 F4800 E58.9900
G1 X94.200 Y112.600 F10800
G1 F4800 E59.9900
G1 X168.000 Y112.600 E63.1196 F5400
G1 F4800 E62.1196
G1 X168.000 Y116.200 F10800
G1 F4800 E63.1196
G1 X94.200 Y116.200 E66.2493 F5400
G1 F4800 E65.2493
G1 X88.800 Y98.200 F10800
G1 F4800 E66.2493
G1 X43.800 Y98.200 E68.1576 F5400
G1 F4800 E67.1576
G1 X43.800 Y92.800 F10800
G1 F4800 E68.1576
G1 X88.800 Y92.800 E70.0659 F5400
G1 X88.800 Y91.000 E70.1422
G1 X43.800 Y91.000 E72.0505
G1 F4800 E71.0505
G1 X43.800 Y94.600 F10800
G1 F4800 E72.0505
G1 X88.800 Y94.600 E73.9588 F5400
G1 F4800 E72.9588
G1 X85.977 Y87.850 F10800
G1 X85.037 Y85.600
G1 F4800 E73.9588
G1 X43.800 Y85.600 E75.7075 F5400
G1 F4800 E74.7075
G1 X85.200 Y83.800 F10800
G1 F4800 E75.7075
G1 X43.800 Y83.800 E77.4631 F5400
G1 F4800 E76.4631
G1 X85.285 Y86.998 F10800
G1 X90.471 Y87.398
G1 F4800 E77.4631
;segType:HShell
G1 X87.589 Y84.533 E77.6659 F3600
G1 X88.000 Y84.385
G1 X90.613 Y86.983 E77.8497
G1 X90.690 Y86.503
G1 X88.482 Y84.308 E78.0050
;segType:Perimeter
G1 X88.096 Y84.249 F10800
G1 X88.559 Y83.711 E78.0404 F2159
G1 X89.364 Y83.838 E78.0811
G1 X90.144 Y84.236 E78.1248
G1 X90.763 Y84.855 E78.1685
G1 X91.160 Y85.635 E78.2121
G1 X91.297 Y86.500 E78.2558
G1 X91.160 Y87.365 E78.2995
G1 X90.763 Y88.145 E78.3432
G1 X90.144 Y88.765 E78.3869
G1 X89.364 Y89.162 E78.4306
G1 X88.500 Y89.299 E78.4742
G1 X87.636 Y89.162 E78.5178
G1 X86.856 Y88.765 E78.5615
G1 X86.237 Y88.145 E78.6052
G1 X85.840 Y87.365 E78.6489
G1 X85.703 Y86.500 E78.6926
G1 X85.840 Y85.635 E78.7363
G1 X86.237 Y84.855 E78.7799
G1 X86.856 Y84.236 E78.8236
G1 X87.636 Y83.838 E78.8673
G1 X88.442 Y83.711 E78.9080
G1 X88.904 Y84.249
;segType:Loop
G1 X89.326 Y84.266 F10800
G1 X89.905 Y84.561 E78.9404 F3600
G1 X90.435 Y85.091 E78.9778
G1 X90.775 Y85.759 E79.0152
G1 X90.893 Y86.500 E79.0526
G1 X90.775 Y87.241 E79.0900
G1 X90.434 Y87.909 E79.1275
G1 X89.905 Y88.439 E79.1648
G1 X89.238 Y88.779 E79.2022
G1 X88.500 Y88.896 E79.2394
G1 X87.762 Y88.779 E79.2767
G1 X87.095 Y88.439 E79.3141
G1 X86.566 Y87.909 E79.3514
G1 X86.225 Y87.241 E79.3889
G1 X86.107 Y86.500 E79.4263
G1 X86.225 Y85.759 E79.4637
G1 X86.565 Y85.091 E79.5011
G1 X87.095 Y84.561 E79.5385
G1 X87.762 Y84.221 E79.5758
G1 X88.500 Y84.104 E79.6131
G1 X89.141 Y84.206 E79.6455
G1 F4800 E78.6455
G1 X89.142 Y84.407 F10800
G1 F4800 E79.6455
;segType:HShell
G1 X90.586 Y85.843 E79.7471 F3600
G1 X90.283 Y87.767 F10800
G1 X87.219 Y84.721 E79.9626 F3600
G1 X86.939 Y84.999
G1 X90.010 Y88.052 E80.1787
G1 X89.713 Y88.314
G1 X86.683 Y85.301 E80.3919
G1 X86.494 Y85.670
G1 X89.343 Y88.502 E80.5923
G1 X88.911 Y88.629
G1 X86.373 Y86.105 E80.7709
G1 X86.329 Y86.618
G1 X88.401 Y88.679 E80.9167
G1 X87.671 Y88.509
G1 X86.504 Y87.349 E80.9988
;segType:Support
G1 F4800 E79.9988
G1 X168.000 Y125.200 F10800
G1 F4800 E80.9988
G1 X43.800 Y125.200 E86.2657 F5400
G1 F4800 E85.2657
G1 X43.800 Y118.000 F10800
G1 F4800 E86.2657
G1 X85.200 Y118.000 E88.0214 F5400
G1 X87.135 Y119.800 E88.1334
G1 X43.800 Y119.800 E89.9711
G1 F4800 E88.9711
G1 X94.200 Y101.800 F10800
G1 F4800 E89.9711
G1 X168.000 Y101.800 E93.1007 F5400
G1 F4800 E92.1007
G1 X43.800 Y101.800 F10800
G1 F4800 E93.1007
G1 X88.800 Y101.800 E95.0090 F5400
G1 F4800 E94.0090
G1 X94.200 Y92.800 F10800
G1 F4800 E95.0090
G1 X168.000 Y92.800 E98.1386 F5400
G1 F4800 E97.1386
G1 X168.000 Y110.800 F10800
G1 F4800 E98.1386
G1 X94.200 Y110.800 E101.2682 F5400
G1 F4800 E100.2682
G1 X168.000 Y103.600 F10800
G1 F4800 E101.2682
G1 X94.200 Y103.600 E104.3979 F5400
G1 F4800 E103.3979
G1 X168.000 Y89.200 F10800
G1 F4800 E104.3979
G1 X94.200 Y89.200 E107.5275 F5400
G1 F4800 E106.5275
G1 X168.000 Y123.400 F10800
G1 F4800 E107.5275
G1 X43.800 Y123.400 E112.7944 F5400
G1 F4800 E111.7944
G1 X43.800 Y116.200 F10800
G1 F4800 E112.7944
G1 X84.946 Y116.200 E114.5392 F5400
G1 F4800 E113.5392
G1 X88.800 Y110.800 F10800
G1 F4800 E114.5392
G1 X43.800 Y110.800 E116.4475 F5400
G1 X43.800 Y109.000 E116.5239
G1 X88.800 Y109.000 E118.4322
G1 F4800 E117.4322
G1 X168.000 Y119.800 F10800
G1 F4800 E118.4322
G1 X89.865 Y119.800 E121.7456 F5400
G1 F4800 E120.7456
G1 X168.000 Y100.000 F10800
G1 F4800 E121.7456
G1 X94.200 Y100.000 E124.8752 F5400
G1 F4800 E123.8752
G1 X43.800 Y105.400 F10800
G1 F4800 E124.8752
G1 X88.800 Y105.400 E126.7835 F5400
G1 X88.800 Y103.600 E126.8598
G1 X43.800 Y103.600 E128.7681
G1 F4800 E127.7681
G1 X43.800 Y107.200 F10800
G1 F4800 E128.7681
G1 X88.800 Y107.200 E130.6764 F5400
G1 F4800 E129.6764
G1 X168.000 Y118.000 F10800
G1 F4800 E130.6764
G1 X94.200 Y118.000 E133.8061 F5400
;segType:HShell
G1 F4800 E132.8061
G1 X90.456 Y117.428 F10800
G1 F4800 E133.8061
G1 X87.559 Y114.548 E134.0098 F3600
G1 X87.961 Y114.391
G1 X90.607 Y117.022 E134.1960
G1 X90.683 Y116.541
G1 X88.444 Y114.315 E134.3536
;segType:Perimeter
G1 X88.096 Y114.249 F10800
G1 X88.559 Y113.711 E134.3890 F2159
G1 X89.364 Y113.838 E134.4296
G1 X90.144 Y114.236 E134.4733
G1 X90.763 Y114.855 E134.5170
G1 X91.160 Y115.635 E134.5607
G1 X91.297 Y116.500 E134.6044
G1 X91.160 Y117.365 E134.6481
G1 X90.763 Y118.145 E134.6917
G1 X90.144 Y118.765 E134.7354
G1 X89.364 Y119.162 E134.7791
G1 X88.500 Y119.299 E134.8227
G1 X87.636 Y119.162 E134.8664
G1 X86.856 Y118.765 E134.9101
G1 X86.237 Y118.145 E134.9538
G1 X85.840 Y117.365 E134.9974
G1 X85.703 Y116.500 E135.0411
G1 X85.840 Y115.635 E135.0848
G1 X86.237 Y114.855 E135.1285
G1 X86.856 Y114.236 E135.1722
G1 X87.636 Y113.838 E135.2159
G1 X88.442 Y113.711 E135.2566
G1 X88.904 Y114.249
;segType:Loop
G1 X89.326 Y114.266 F10800
G1 X89.905 Y114.561 E135.2889 F3600
G1 X90.435 Y115.091 E135.3263
G1 X90.775 Y115.759 E135.3637
G1 X90.893 Y116.500 E135.4012
G1 X90.775 Y117.241 E135.4386
G1 X90.435 Y117.909 E135.4760
G1 X89.905 Y118.439 E135.5134
G1 X89.238 Y118.779 E135.5507
G1 X88.500 Y118.896 E135.5880
G1 X87.762 Y118.779 E135.6253
G1 X87.095 Y118.439 E135.6626
G1 X86.566 Y117.909 E135.7000
G1 X86.225 Y117.241 E135.7374
G1 X86.107 Y116.500 E135.7749
G1 X86.225 Y115.759 E135.8123
G1 X86.566 Y115.091 E135.8497
G1 X87.095 Y114.561 E135.8871
G1 X87.762 Y114.221 E135.9244
G1 X88.500 Y114.104 E135.9617
G1 X89.141 Y114.206 E135.9941
G1 F4800 E134.9941
G1 X89.088 Y114.399 F10800
G1 F4800 E135.9941
;segType:HShell
G1 X90.594 Y115.896 E136.1000 F3600
G1 X90.266 Y117.796 F10800
G1 X87.195 Y114.742 E136.3161 F3600
G1 X86.917 Y115.022
G1 X89.987 Y118.075 E136.5321
G1 X89.683 Y118.329
G1 X86.668 Y115.331 E136.7443
G1 X86.479 Y115.700
G1 X89.313 Y118.517 E136.9437
G1 X88.873 Y118.635
G1 X86.366 Y116.144 E137.1200
G1 X86.337 Y116.671
G1 X88.348 Y118.670 E137.2614
G1 X87.580 Y118.463
G1 X86.550 Y117.439 E137.3338
;segType:Support
G1 F4800 E136.3338
G1 X85.200 Y114.400 F10800
G1 F4800 E137.3338
G1 X43.800 Y114.400 E139.0895 F5400
G1 F4800 E138.0895
G1 X85.200 Y112.600 F10800
G1 F4800 E139.0895
G1 X43.800 Y112.600 E140.8451 F5400
G1 F4800 E139.8451
G1 X168.000 Y114.400 F10800
G1 F4800 E140.8451
G1 X94.200 Y114.400 E143.9747 F5400
G1 F4800 E142.9747
G1 X168.000 Y121.600 F10800
G1 F4800 E143.9747
G1 X43.800 Y121.600 E149.2416 F5400
; ------------------------------------
; Layer #2
; ------------------------------------
G21 ; mm
G90 ; abs
G92 E0 ; reset extr
M106 S255
G1 F4800 E-1.0000
G1 F300 Z0.900
G1 X88.500 Y119.495 F10800
G1 X101.500 Y116.200
G1 F4800 E0.0000
;segType:SoftSupport
G1 X94.200 Y116.200 E0.1639 F5400
G1 F4800 E-0.8361
G1 X101.500 Y123.400 F10800
G1 F4800 E0.1639
G1 X43.800 Y123.400 E1.4593 F5400
G1 F4800 E0.4593
G1 X89.865 Y119.800 F10800
G1 F4800 E1.4593
G1 X101.500 Y119.800 E1.7205 F5400
G1 F4800 E0.7205
G1 X154.362 Y114.400 F10800
G1 F4800 E1.7205
G1 X166.500 Y114.400 E1.9930 F5400
;segType:Support
G1 F4800 E0.9930
G1 X166.500 Y98.200 F10800
G1 F4800 E1.9930
G1 X168.000 Y98.200 E2.0566 F5400
;segType:SoftSupport
G1 F4800 E1.0566
G1 X101.500 Y103.600 F10800
G1 F4800 E2.0566
G1 X94.200 Y103.600 E2.2205 F5400
;segType:Support
G1 F4800 E1.2205
G1 X101.500 Y103.600 F10800
G1 F4800 E2.2205
G1 X104.500 Y103.600 E2.3477 F5400
G1 F4800 E1.3477
G1 X86.077 Y88.260 F10800
G1 X85.037 Y85.600
G1 F4800 E2.3477
;segType:SoftSupport
G1 X53.914 Y85.600 E3.0464 F5400
;segType:Support
G1 F4800 E2.0464
G1 X52.545 Y116.200 F10800
G1 F4800 E3.0464
G1 X54.901 Y116.200 E3.1463 F5400
;segType:SoftSupport
G1 F4800 E2.1463
G1 X43.800 Y89.200 F10800
G1 F4800 E3.1463
G1 X85.200 Y89.200 E4.0758 F5400
;segType:Support
G1 F4800 E3.0758
G1 X101.500 Y96.400 F10800
G1 F4800 E4.0758
G1 X104.500 Y96.400 E4.2030 F5400
;segType:SoftSupport
G1 F4800 E3.2030
G1 X152.831 Y112.600 F10800
G1 F4800 E4.2030
G1 X166.500 Y112.600 E4.5099 F5400
;segType:Support
G1 F4800 E3.5099
G1 X168.000 Y87.400 F10800
G1 F4800 E4.5099
G1 X166.500 Y87.400 E4.5735 F5400
;segType:SoftSupport
G1 F4800 E3.5735
G1 X152.836 Y82.000 F10800
G1 F4800 E4.5735
G1 X166.500 Y82.000 E4.8802 F5400
G1 X166.500 Y83.800 E4.9207
G1 X154.362 Y83.800 E5.1932
G1 F4800 E4.1932
G1 X104.500 Y119.800 F10800
G1 F4800 E5.1932
G1 X166.500 Y119.800 E6.5851 F5400
;segType:Support
G1 F4800 E5.5851
G1 X168.000 Y107.200 F10800
G1 F4800 E6.5851
G1 X166.500 Y107.200 E6.6487 F5400
;segType:SoftSupport
G1 F4800 E5.6487
G1 X166.500 Y110.800 F10800
G1 F4800 E6.6487
G1 X104.500 Y110.800 E8.0406 F5400
;segType:Support
G1 F4800 E7.0406
G1 X150.167 Y82.000 F10800
G1 F4800 E8.0406
G1 X152.836 Y82.000 E8.1538 F5400
G1 F4800 E7.1538
G1 X104.500 Y82.000 F10800
G1 F4800 E8.1538
G1 X101.500 Y82.000 E8.2810 F5400
;segType:SoftSupport
G1 F4800 E7.2810
G1 X105.000 Y78.400 F10800
G1 F4800 E8.2810
G1 X166.500 Y78.400 E9.6617 F5400
;segType:Support
G1 F4800 E8.6617
G1 X166.500 Y82.000 F10800
G1 F4800 E9.6617
G1 X168.000 Y82.000 E9.7253 F5400
G1 F4800 E8.7253
G1 X168.000 Y94.600 F10800
G1 F4800 E9.7253
G1 X166.500 Y94.600 E9.7889 F5400
G1 F4800 E8.7889
G1 X168.000 Y89.200 F10800
G1 F4800 E9.7889
G1 X166.500 Y89.200 E9.8525 F5400
;segType:SoftSupport
G1 F4800 E8.8525
G1 X166.500 Y101.800 F10800
G1 F4800 E9.8525
G1 X104.500 Y101.800 E11.2445 F5400
G1 X104.500 Y100.000 E11.2849
;segType:Support
G1 X101.500 Y100.000 E11.4121 F5400
G1 X101.500 Y98.200 E11.4884
;segType:SoftSupport
G1 X94.200 Y98.200 E11.6523 F5400
G1 F4800 E10.6523
G1 X94.200 Y105.400 F10800
G1 F4800 E11.6523
G1 X101.500 Y105.400 E11.8162 F5400
G1 F4800 E10.8162
G1 X104.500 Y103.600 F10800
G1 F4800 E11.8162
G1 X166.500 Y103.600 E13.2081 F5400
;segType:Support
G1 F4800 E12.2081
G1 X168.000 Y121.600 F10800
G1 F4800 E13.2081
G1 X166.500 Y121.600 E13.2717 F5400
G1 F4800 E12.2717
G1 X166.500 Y116.200 F10800
G1 F4800 E13.2717
G1 X168.000 Y116.200 E13.3353 F5400
G1 F4800 E12.3353
G1 X168.000 Y119.800 F10800
G1 F4800 E13.3353
G1 X166.500 Y119.800 E13.3989 F5400
G1 F4800 E12.3989
G1 X166.500 Y112.600 F10800
G1 F4800 E13.3989
G1 X168.000 Y112.600 E13.4625 F5400
G1 F4800 E12.4625
G1 X154.362 Y116.200 F10800
G1 F4800 E13.4625
G1 X148.641 Y116.200 E13.7051 F5400
;segType:SoftSupport
G1 F4800 E12.7051
G1 X166.500 Y87.400 F10800
G1 F4800 E13.7051
G1 X152.830 Y87.400 E14.0120 F5400
;segType:Support
G1 F4800 E13.0120
G1 X168.000 Y78.400 F10800
G1 F4800 E14.0120
G1 X166.500 Y78.400 E14.0756 F5400
G1 X166.500 Y80.200 E14.1520
G1 X168.000 Y80.200 E14.2156
G1 F4800 E13.2156
G1 X166.500 Y100.000 F10800
G1 F4800 E14.2156
G1 X168.000 Y100.000 E14.2792 F5400
G1 F4800 E13.2792
G1 X154.362 Y114.400 F10800
G1 F4800 E14.2792
G1 X148.641 Y114.400 E14.5218 F5400
;segType:SoftSupport
G1 F4800 E13.5218
G1 X166.500 Y121.600 F10800
G1 F4800 E14.5218
G1 X104.500 Y121.600 E15.9137 F5400
G1 X104.500 Y121.600
;segType:Support
G1 X101.500 Y121.600 E16.0409 F5400
;segType:SoftSupport
G1 F4800 E15.0409
G1 X94.200 Y110.800 F10800
G1 F4800 E16.0409
G1 X101.500 Y110.800 E16.2048 F5400
;segType:Support
G1 F4800 E15.2048
G1 X104.500 Y110.800 F10800
G1 F4800 E16.2048
G1 X101.500 Y110.800 E16.3320 F5400
G1 F4800 E15.3320
G1 X152.838 Y118.000 F10800
G1 F4800 E16.3320
G1 X150.165 Y118.000 E16.4454 F5400
;segType:SoftSupport
G1 F4800 E15.4454
G1 X105.000 Y76.600 F10800
G1 F4800 E16.4454
G1 X166.500 Y76.600 E17.8261 F5400
G1 X166.500 Y74.800 E17.8665
G1 X105.000 Y74.800 E19.2472
G1 F4800 E18.2472
G1 X94.200 Y87.400 F10800
G1 F4800 E19.2472
G1 X101.500 Y87.400 E19.4111 F5400
;segType:Support
G1 F4800 E18.4111
G1 X104.500 Y85.600 F10800
G1 F4800 E19.4111
G1 X101.500 Y85.600 E19.5383 F5400
G1 F4800 E18.5383
G1 X101.500 Y94.600 F10800
G1 F4800 E19.5383
G1 X104.500 Y94.600 E19.6655 F5400
G1 X104.500 Y94.600
;segType:SoftSupport
G1 X166.500 Y94.600 E21.0575 F5400
G1 F4800 E20.0575
G1 X104.500 Y112.600 F10800
G1 F4800 E21.0575
G1 X150.172 Y112.600 E22.0828 F5400
;segType:Support
G1 F4800 E21.0828
G1 X168.000 Y91.000 F10800
G1 F4800 E22.0828
G1 X166.500 Y91.000 E22.1464 F5400
G1 F4800 E21.1464
G1 X166.500 Y103.600 F10800
G1 F4800 E22.1464
G1 X168.000 Y103.600 E22.2100 F5400
G1 X166.500 Y101.800 E22.3094
G1 X168.000 Y101.800 E22.3730
G1 F4800 E21.3730
G1 X105.000 Y73.000 F10800
G1 F4800 E22.3730
G1 X168.000 Y73.000 E25.0445 F5400
G1 F4800 E24.0445
G1 X154.362 Y83.800 F10800
G1 F4800 E25.0445
G1 X148.641 Y83.800 E25.2872 F5400
;segType:SoftSupport
G1 F4800 E24.2872
G1 X150.165 Y118.000 F10800
G1 F4800 E25.2872
G1 X104.500 Y118.000 E26.3124 F5400
;segType:Support
G1 F4800 E25.3124
G1 X168.000 Y125.200 F10800
G1 F4800 E26.3124
G1 X166.500 Y125.200 E26.3760 F5400
;segType:SoftSupport
G1 F4800 E25.3760
G1 X166.500 Y107.200 F10800
G1 F4800 E26.3760
G1 X104.500 Y107.200 E27.7679 F5400
G1 F4800 E26.7679
G1 X148.641 Y83.800 F10800
G1 F4800 E27.7679
G1 X104.500 Y83.800 E28.7589 F5400
G1 F4800 E27.7589
G1 X101.500 Y91.000 F10800
G1 F4800 E28.7589
G1 X94.200 Y91.000 E28.9228 F5400
G1 F4800 E27.9228
G1 X94.200 Y101.800 F10800
G1 F4800 E28.9228
G1 X101.500 Y101.800 E29.0867 F5400
G1 F4800 E28.0867
G1 X94.200 Y96.400 F10800
G1 F4800 E29.0867
G1 X101.500 Y96.400 E29.2505 F5400
G1 F4800 E28.2505
G1 X43.800 Y94.600 F10800
G1 F4800 E29.2505
G1 X88.800 Y94.600 E30.2608 F5400
;segType:Support
G1 F4800 E29.2608
G1 X104.500 Y98.200 F10800
G1 F4800 E30.2608
G1 X101.500 Y98.200 E30.3880 F5400
G1 F4800 E29.3880
G1 X90.679 Y89.658 F10800
G1 X88.515 Y87.949
G1 X86.351 Y86.240
G1 F4800 E30.3880
;segType:HShell
G1 X88.259 Y84.344 E30.5222 F3600
;segType:Loop
G1 X89.326 Y84.266 F10800
G1 X89.905 Y84.561 E30.5546 F3600
G1 X90.435 Y85.091 E30.5920
G1 X90.775 Y85.759 E30.6294
G1 X90.893 Y86.500 E30.6669
G1 X90.782 Y87.195 E30.7020
G1 X90.754 Y87.282 E30.7066
G1 X90.434 Y87.909 E30.7417
G1 X89.905 Y88.439 E30.7791
G1 X89.238 Y88.779 E30.8164
G1 X88.500 Y88.896 E30.8537
G1 X87.762 Y88.779 E30.8910
G1 X87.095 Y88.439 E30.9283
G1 X86.566 Y87.909 E30.9657
G1 X86.225 Y87.241 E31.0031
G1 X86.107 Y86.500 E31.0405
G1 X86.225 Y85.759 E31.0780
G1 X86.565 Y85.091 E31.1154
G1 X87.095 Y84.561 E31.1527
G1 X87.762 Y84.221 E31.1901
G1 X88.500 Y84.104 E31.2274
G1 X89.141 Y84.206 E31.2597
G1 F4800 E30.2597
G1 X88.096 Y84.249 F10800
G1 F4800 E31.2597
;segType:Perimeter
G1 X88.559 Y83.711 E31.2951 F2159
G1 X89.364 Y83.838 E31.3358
G1 X90.144 Y84.236 E31.3795
G1 X90.763 Y84.855 E31.4232
G1 X91.160 Y85.635 E31.4668
G1 X91.297 Y86.500 E31.5105
G1 X91.173 Y87.288 E31.5503
G1 X91.125 Y87.434 E31.5580
G1 X90.763 Y88.145 E31.5978
G1 X90.144 Y88.765 E31.6415
G1 X89.364 Y89.162 E31.6852
G1 X88.500 Y89.299 E31.7288
G1 X87.636 Y89.162 E31.7725
G1 X86.856 Y88.765 E31.8161
G1 X86.237 Y88.145 E31.8598
G1 X85.840 Y87.365 E31.9035
G1 X85.703 Y86.500 E31.9472
G1 X85.840 Y85.635 E31.9909
G1 X86.237 Y84.855 E32.0345
G1 X86.856 Y84.236 E32.0782
G1 X87.636 Y83.838 E32.1219
G1 X88.442 Y83.711 E32.1626
G1 X88.904 Y84.249
;segType:HShell
G1 X88.808 Y84.354 F10800
G1 X86.356 Y86.792 E32.3351 F3600
G1 X86.454 Y87.251
G1 X89.264 Y84.458 E32.5327
G1 X89.634 Y84.646
G1 X86.642 Y87.620 E32.7431
G1 X86.879 Y87.941
G1 X89.950 Y84.888 E32.9592
G1 X90.229 Y85.167
G1 X87.158 Y88.220 E33.1752
G1 X87.510 Y88.427
G1 X90.431 Y85.523 E33.3807
G1 X90.597 Y85.914
G1 X87.897 Y88.599 E33.5707
G1 X88.379 Y88.675
G1 X90.673 Y86.394 E33.7321
G1 X90.600 Y87.024
G1 X88.999 Y88.615 E33.8447
G1 X86.627 Y85.410 F10800
G1 X87.426 Y84.616 E33.9009 F3600
;segType:SoftSupport
G1 F4800 E32.9009
G1 X148.641 Y116.200 F10800
G1 F4800 E33.9009
G1 X104.500 Y116.200 E34.8919 F5400
;segType:Support
G1 F4800 E33.8919
G1 X101.500 Y109.000 F10800
G1 F4800 E34.8919
G1 X104.500 Y109.000 E35.0191 F5400
G1 F4800 E34.0191
G1 X104.500 Y114.400 F10800
G1 F4800 E35.0191
G1 X101.500 Y114.400 E35.1464 F5400
;segType:SoftSupport
G1 F4800 E34.1464
G1 X152.838 Y118.000 F10800
G1 F4800 E35.1464
G1 X166.500 Y118.000 E35.4531 F5400
;segType:Support
G1 F4800 E34.4531
G1 X168.000 Y114.400 F10800
G1 F4800 E35.4531
G1 X166.500 Y114.400 E35.5167 F5400
;segType:SoftSupport
G1 F4800 E34.5167
G1 X166.500 Y109.000 F10800
G1 F4800 E35.5167
G1 X104.500 Y109.000 E36.9086 F5400
;segType:Support
G1 F4800 E35.9086
G1 X104.500 Y112.600 F10800
G1 F4800 E36.9086
G1 X101.500 Y112.600 E37.0358 F5400
G1 F4800 E36.0358
G1 X166.500 Y96.400 F10800
G1 F4800 E37.0358
G1 X168.000 Y96.400 E37.0994 F5400
G1 F4800 E36.0994
G1 X168.000 Y76.600 F10800
G1 F4800 E37.0994
G1 X166.500 Y76.600 E37.1630 F5400
G1 X166.500 Y74.800 E37.2394
G1 X168.000 Y74.800 E37.3030
G1 F4800 E36.3030
G1 X168.000 Y83.800 F10800
G1 F4800 E37.3030
G1 X166.500 Y83.800 E37.3666 F5400
G1 F4800 E36.3666
G1 X168.000 Y92.800 F10800
G1 F4800 E37.3666
G1 X166.500 Y92.800 E37.4302 F5400
G1 F4800 E36.4302
G1 X166.500 Y110.800 F10800
G1 F4800 E37.4302
G1 X168.000 Y110.800 E37.4938 F5400
G1 X168.000 Y109.000 E37.5701
G1 X166.500 Y109.000 E37.6337
;segType:SoftSupport
G1 F4800 E36.6337
G1 X166.500 Y105.400 F10800
G1 F4800 E37.6337
G1 X104.500 Y105.400 E39.0256 F5400
G1 F4800 E38.0256
G1 X101.500 Y107.200 F10800
G1 F4800 E39.0256
G1 X94.200 Y107.200 E39.1895 F5400
G1 F4800 E38.1895
G1 X104.500 Y91.000 F10800
G1 F4800 E39.1895
G1 X166.500 Y91.000 E40.5814 F5400
G1 F4800 E39.5814
G1 X166.500 Y85.600 F10800
G1 F4800 E40.5814
G1 X154.362 Y85.600 E40.8540 F5400
G1 F4800 E39.8540
G1 X104.500 Y85.600 F10800
G1 F4800 E40.8540
G1 X148.641 Y85.600 E41.8450 F5400
;segType:Support
G1 F4800 E40.8450
G1 X152.830 Y87.400 F10800
G1 F4800 E41.8450
G1 X150.173 Y87.400 E41.9577 F5400
G1 F4800 E40.9577
G1 X166.500 Y118.000 F10800
G1 F4800 E41.9577
G1 X168.000 Y118.000 E42.0213 F5400
G1 X166.500 Y116.200 E42.1206
;segType:SoftSupport
G1 X154.362 Y116.200 E42.3931 F5400
G1 F4800 E41.3931
G1 X150.167 Y82.000 F10800
G1 F4800 E42.3931
G1 X104.500 Y82.000 E43.4183 F5400
G1 X104.500 Y80.200 E43.4587
G1 X166.500 Y80.200 E44.8507
G1 F4800 E43.8507
G1 X166.500 Y92.800 F10800
G1 F4800 E44.8507
G1 X104.500 Y92.800 E46.2426 F5400
G1 F4800 E45.2426
G1 X89.644 Y112.022 F10800
G1 X87.993 Y114.158
G1 X86.343 Y116.294
G1 F4800 E46.2426
;segType:HShell
G1 X88.312 Y114.335 E46.3812 F3600
;segType:Loop
G1 X89.326 Y114.266 F10800
G1 X89.905 Y114.561 E46.4136 F3600
G1 X90.435 Y115.091 E46.4510
G1 X90.775 Y115.759 E46.4884
G1 X90.893 Y116.500 E46.5258
G1 X90.775 Y117.241 E46.5633
G1 X90.435 Y117.909 E46.6007
G1 X89.905 Y118.439 E46.6380
G1 X89.238 Y118.779 E46.6754
G1 X88.500 Y118.896 E46.7127
G1 X87.762 Y118.779 E46.7500
G1 X87.095 Y118.439 E46.7873
G1 X86.566 Y117.909 E46.8247
G1 X86.225 Y117.241 E46.8621
G1 X86.107 Y116.500 E46.8995
G1 X86.225 Y115.759 E46.9370
G1 X86.566 Y115.091 E46.9744
G1 X87.095 Y114.561 E47.0117
G1 X87.762 Y114.221 E47.0491
G1 X88.500 Y114.104 E47.0864
G1 X89.141 Y114.206 E47.1187
G1 F4800 E46.1187
G1 X88.096 Y114.249 F10800
G1 F4800 E47.1187
;segType:Perimeter
G1 X88.559 Y113.711 E47.1541 F2159
G1 X89.364 Y113.838 E47.1948
G1 X90.144 Y114.236 E47.2385
G1 X90.763 Y114.855 E47.2822
G1 X91.160 Y115.635 E47.3258
G1 X91.297 Y116.500 E47.3695
G1 X91.160 Y117.365 E47.4132
G1 X90.763 Y118.145 E47.4569
G1 X90.144 Y118.765 E47.5006
G1 X89.364 Y119.162 E47.5442
G1 X88.500 Y119.299 E47.5879
G1 X87.636 Y119.162 E47.6315
G1 X86.856 Y118.765 E47.6752
G1 X86.237 Y118.145 E47.7189
G1 X85.840 Y117.365 E47.7626
G1 X85.703 Y116.500 E47.8063
G1 X85.840 Y115.635 E47.8500
G1 X86.237 Y114.855 E47.8936
G1 X86.856 Y114.236 E47.9373
G1 X87.636 Y113.838 E47.9810
G1 X88.442 Y113.711 E48.0217
G1 X88.904 Y114.249
;segType:HShell
G1 X88.847 Y114.361 F10800
G1 X86.362 Y116.830 E48.1964 F3600
G1 X86.469 Y117.280
G1 X89.293 Y114.473 E48.3951
G1 X89.663 Y114.661
G1 X86.657 Y117.650 E48.6066
G1 X86.902 Y117.963
G1 X89.972 Y114.910 E48.8226
G1 X90.251 Y115.189
G1 X87.180 Y118.243 E49.0387
G1 X87.539 Y118.442
G1 X90.446 Y115.553 E49.2432
G1 X90.603 Y115.952
G1 X87.935 Y118.605 E49.4309
G1 X88.418 Y118.681
G1 X90.679 Y116.433 E49.5900
G1 X90.600 Y117.069
G1 X89.052 Y118.607 E49.6988
G1 X86.581 Y115.500 F10800
G1 X87.518 Y114.569 E49.7647 F3600
;segType:Support
G1 F4800 E48.7647
G1 X101.500 Y123.400 F10800
G1 F4800 E49.7647
G1 X104.500 Y123.400 E49.8919 F5400
;segType:SoftSupport
G1 F4800 E48.8919
G1 X166.500 Y123.400 F10800
G1 F4800 E49.8919
G1 X104.500 Y123.400 E51.2839 F5400
G1 F4800 E50.2839
G1 X94.200 Y114.400 F10800
G1 F4800 E51.2839
G1 X101.500 Y114.400 E51.4478 F5400
G1 F4800 E50.4478
G1 X94.200 Y118.000 F10800
G1 F4800 E51.4478
G1 X101.500 Y118.000 E51.6116 F5400
G1 X101.500 Y118.000
;segType:Support
G1 X104.500 Y118.000 E51.7389 F5400
G1 F4800 E50.7389
G1 X101.500 Y116.200 F10800
G1 F4800 E51.7389
G1 X104.500 Y116.200 E51.8661 F5400
;segType:SoftSupport
G1 F4800 E50.8661
G1 X104.500 Y98.200 F10800
G1 F4800 E51.8661
G1 X166.500 Y98.200 E53.2580 F5400
;segType:Support
G1 F4800 E52.2580
G1 X166.500 Y85.600 F10800
G1 F4800 E53.2580
G1 X168.000 Y85.600 E53.3216 F5400
G1 F4800 E52.3216
G1 X101.500 Y91.000 F10800
G1 F4800 E53.3216
G1 X104.500 Y91.000 E53.4489 F5400
;segType:SoftSupport
G1 F4800 E52.4489
G1 X104.500 Y125.200 F10800
G1 F4800 E53.4489
G1 X166.500 Y125.200 E54.8408 F5400
;segType:Support
G1 F4800 E53.8408
G1 X152.831 Y112.600 F10800
G1 F4800 E54.8408
G1 X150.172 Y112.600 E54.9536 F5400
G1 F4800 E53.9536
G1 X101.500 Y83.800 F10800
G1 F4800 E54.9536
G1 X104.500 Y83.800 E55.0808 F5400
;segType:SoftSupport
G1 F4800 E54.0808
G1 X166.500 Y89.200 F10800
G1 F4800 E55.0808
G1 X104.500 Y89.200 E56.4727 F5400
G1 F4800 E55.4727
G1 X94.200 Y89.200 F10800
G1 F4800 E56.4727
G1 X101.500 Y89.200 E56.6366 F5400
G1 F4800 E55.6366
G1 X43.800 Y98.200 F10800
G1 F4800 E56.6366
G1 X88.800 Y98.200 E57.6469 F5400
G1 F4800 E56.6469
G1 X85.200 Y118.000 F10800
G1 F4800 E57.6469
G1 X43.800 Y118.000 E58.5763 F5400
G1 F4800 E57.5763
G1 X54.901 Y116.200 F10800
G1 F4800 E58.5763
G1 X84.946 Y116.200 E59.2508 F5400
G1 F4800 E58.2508
G1 X43.800 Y114.400 F10800
G1 F4800 E59.2508
G1 X85.200 Y114.400 E60.1803 F5400
G1 F4800 E59.1803
G1 X88.800 Y107.200 F10800
G1 F4800 E60.1803
G1 X43.800 Y107.200 E61.1905 F5400
G1 F4800 E60.1905
G1 X85.200 Y112.600 F10800
G1 F4800 E61.1905
G1 X43.800 Y112.600 E62.1200 F5400
G1 F4800 E61.1200
G1 X43.800 Y101.800 F10800
G1 F4800 E62.1200
G1 X88.800 Y101.800 E63.1302 F5400
G1 F4800 E62.1302
G1 X94.200 Y109.000 F10800
G1 F4800 E63.1302
G1 X101.500 Y109.000 E63.2941 F5400
G1 F4800 E62.2941
G1 X88.800 Y91.000 F10800
G1 F4800 E63.2941
G1 X43.800 Y91.000 E64.3044 F5400
G1 F4800 E63.3044
G1 X101.500 Y112.600 F10800
G1 F4800 E64.3044
G1 X94.200 Y112.600 E64.4682 F5400
G1 F4800 E63.4682
G1 X90.923 Y118.260 F10800
G1 X90.260 Y118.923
G1 X89.426 Y119.349
G1 X87.135 Y119.800
G1 F4800 E64.4682
G1 X43.800 Y119.800 E65.4411 F5400
G1 F4800 E64.4411
G1 X43.800 Y92.800 F10800
G1 F4800 E65.4411
G1 X88.800 Y92.800 E66.4514 F5400
;segType:Support
G1 F4800 E65.4514
G1 X148.641 Y85.600 F10800
G1 F4800 E66.4514
G1 X154.362 Y85.600 E66.6940 F5400
;segType:SoftSupport
G1 F4800 E65.6940
G1 X104.500 Y87.400 F10800
G1 F4800 E66.6940
G1 X150.173 Y87.400 E67.7194 F5400
G1 F4800 E66.7194
G1 X101.500 Y92.800 F10800
G1 F4800 E67.7194
G1 X94.200 Y92.800 E67.8833 F5400
;segType:Support
G1 F4800 E66.8833
G1 X104.500 Y87.400 F10800
G1 F4800 E67.8833
G1 X101.500 Y87.400 E68.0105 F5400
;segType:SoftSupport
G1 F4800 E67.0105
G1 X101.500 Y80.200 F10800
G1 F4800 E68.0105
G1 X43.800 Y80.200 E69.3059 F5400
G1 F4800 E68.3059
G1 X43.800 Y85.600 F10800
G1 F4800 E69.3059
G1 X53.086 Y85.600 E69.5143 F5400
G1 F4800 E68.5143
G1 X43.800 Y110.800 F10800
G1 F4800 E69.5143
G1 X88.800 Y110.800 E70.5246 F5400
G1 X88.800 Y109.000 E70.5650
G1 X43.800 Y109.000 E71.5753
G1 F4800 E70.5753
G1 X43.800 Y105.400 F10800
G1 F4800 E71.5753
G1 X88.800 Y105.400 E72.5855 F5400
;segType:Support
G1 F4800 E71.5855
G1 X53.914 Y85.600 F10800
G1 F4800 E72.5855
G1 X53.086 Y85.600 E72.6206 F5400
;segType:SoftSupport
G1 F4800 E71.6206
G1 X43.800 Y116.200 F10800
G1 F4800 E72.6206
G1 X52.545 Y116.200 E72.8169 F5400
G1 F4800 E71.8169
G1 X101.500 Y83.800 F10800
G1 F4800 E72.8169
G1 X94.200 Y83.800 E72.9808 F5400
G1 F4800 E71.9808
G1 X88.500 Y83.505 F10800
G1 X85.200 Y83.800
G1 F4800 E72.9808
G1 X43.800 Y83.800 E73.9103 F5400
G1 F4800 E72.9103
G1 X101.500 Y82.000 F10800
G1 F4800 E73.9103
G1 X43.800 Y82.000 E75.2057 F5400
G1 F4800 E74.2057
G1 X43.800 Y121.600 F10800
G1 F4800 E75.2057
G1 X101.500 Y121.600 E76.5010 F5400
;segType:Support
G1 F4800 E75.5010
G1 X104.500 Y125.200 F10800
G1 F4800 E76.5010
G1 X43.800 Y125.200 E79.0751 F5400
;segType:SoftSupport
G1 F4800 E78.0751
G1 X43.800 Y103.600 F10800
G1 F4800 E79.0751
G1 X88.800 Y103.600 E80.0854 F5400
;segType:Support
G1 F4800 E79.0854
G1 X104.500 Y101.800 F10800
G1 F4800 E80.0854
G1 X101.500 Y101.800 E80.2126 F5400
G1 F4800 E79.2126
G1 X104.500 Y105.400 F10800
G1 F4800 E80.2126
G1 X101.500 Y105.400 E80.3398 F5400
G1 F4800 E79.3398
G1 X101.500 Y119.800 F10800
G1 F4800 E80.3398
G1 X104.500 Y119.800 E80.4671 F5400
G1 F4800 E79.4671
G1 X168.000 Y123.400 F10800
G1 F4800 E80.4671
G1 X166.500 Y123.400 E80.5307 F5400
G1 F4800 E79.5307
G1 X168.000 Y105.400 F10800
G1 F4800 E80.5307
G1 X166.500 Y105.400 E80.5943 F5400
;segType:SoftSupport
G1 F4800 E79.5943
G1 X148.641 Y114.400 F10800
G1 F4800 E80.5943
G1 X104.500 Y114.400 E81.5853 F5400
G1 F4800 E80.5853
G1 X166.500 Y100.000 F10800
G1 F4800 E81.5853
G1 X104.500 Y100.000 E82.9772 F5400
G1 F4800 E81.9772
G1 X101.500 Y85.600 F10800
G1 F4800 E82.9772
G1 X94.200 Y85.600 E83.1411 F5400
G1 F4800 E82.1411
G1 X101.500 Y94.600 F10800
G1 F4800 E83.1411
G1 X94.200 Y94.600 E83.3050 F5400
G1 F4800 E82.3050
G1 X166.500 Y96.400 F10800
G1 F4800 E83.3050
G1 X104.500 Y96.400 E84.6969 F5400
;segType:Support
G1 F4800 E83.6969
G1 X104.500 Y92.800 F10800
G1 F4800 E84.6969
G1 X101.500 Y92.800 E84.8241 F5400
G1 F4800 E83.8241
G1 X104.500 Y80.200 F10800
G1 F4800 E84.8241
G1 X101.500 Y80.200 E84.9513 F5400
G1 F4800 E83.9513
G1 X104.500 Y89.200 F10800
G1 F4800 E84.9513
G1 X101.500 Y89.200 E85.0786 F5400
;segType:SoftSupport
G1 F4800 E84.0786
G1 X88.800 Y96.400 F10800
G1 F4800 E85.0786
G1 X43.800 Y96.400 E86.0888 F5400
G1 F4800 E85.0888
G1 X53.086 Y87.400 F10800
G1 F4800 E86.0888
G1 X43.800 Y87.400 E86.2973 F5400
G1 F4800 E85.2973
G1 X53.913 Y87.400 F10800
G1 F4800 E86.2973
G1 X85.037 Y87.400 E86.9961 F5400
G1 F4800 E85.9961
G1 X88.800 Y100.000 F10800
G1 F4800 E86.9961
G1 X43.800 Y100.000 E88.0063 F5400
;segType:Support
G1 F4800 E87.0063
G1 X53.086 Y87.400 F10800
G1 F4800 E88.0063
G1 X53.913 Y87.400 E88.0414 F5400
;segType:SoftSupport
G1 F4800 E87.0414
G1 X94.200 Y100.000 F10800
G1 F4800 E88.0414
G1 X101.500 Y100.000 E88.2053 F5400
;segType:Support
G1 F4800 E87.2053
G1 X101.500 Y107.200 F10800
G1 F4800 E88.2053
G1 X104.500 Y107.200 E88.3325 F5400
; ------------------------------------
; Layer #3
; ------------------------------------
G21 ; mm
G90 ; abs
G92 E0 ; reset extr
M106 S255
;segType:Support
G1 F4800 E-1.0000
G1 F300 Z1.200
G1 X105.300 Y73.300 F10800
G1 F4800 E0.0000
G1 X167.700 Y73.300 E2.6462 F5400
G1 F4800 E1.6462
G1 X167.100 Y96.100 F10800
G1 F4800 E2.6462
G1 X167.700 Y96.100 E2.6716 F5400
G1 F4800 E1.6716
G1 X166.044 Y98.260 F10800
G1 X151.143 Y117.700
G1 F4800 E2.6716
G1 X151.860 Y117.700 E2.7020 F5400
G1 F4800 E1.7020
G1 X102.100 Y91.300 F10800
G1 F4800 E2.7020
G1 X103.900 Y91.300 E2.7783 F5400
G1 F4800 E1.7783
G1 X163.749 Y74.560 F10800
G1 X166.440 Y74.560
G1 X167.700 Y99.700
G1 F4800 E2.7783
G1 X167.100 Y99.700 E2.8038 F5400
G1 X167.700 Y98.500 E2.8606
G1 X167.100 Y98.500 E2.8861
G1 F4800 E1.8861
G1 X167.700 Y102.100 F10800
G1 F4800 E2.8861
G1 X167.100 Y102.100 E2.9115 F5400
G1 X167.100 Y103.300 E2.9624
G1 X167.700 Y103.300 E2.9878
G1 F4800 E1.9878
G1 X167.700 Y110.500 F10800
G1 F4800 E2.9878
G1 X167.100 Y110.500 E3.0132 F5400
G1 F4800 E2.0132
G1 X167.100 Y106.900 F10800
G1 F4800 E3.0132
G1 X167.700 Y106.900 E3.0387 F5400
G1 X167.100 Y105.700 E3.0955
G1 X167.700 Y105.700 E3.1210
G1 F4800 E2.1210
G1 X167.700 Y114.100 F10800
G1 F4800 E3.1210
G1 X167.100 Y114.100 E3.1464 F5400
G1 X167.100 Y116.500 E3.2482
G1 X167.700 Y116.500 E3.2737
G1 F4800 E2.2737
G1 X167.100 Y112.900 F10800
G1 F4800 E3.2737
G1 X167.700 Y112.900 E3.2991 F5400
G1 F4800 E2.2991
G1 X167.700 Y123.700 F10800
G1 F4800 E3.2991
G1 X167.100 Y123.700 E3.3245 F5400
G1 F4800 E2.3245
G1 X167.100 Y109.300 F10800
G1 F4800 E3.3245
G1 X167.700 Y109.300 E3.3500 F5400
G1 F4800 E2.3500
G1 X167.700 Y121.300 F10800
G1 F4800 E3.3500
G1 X167.100 Y121.300 E3.3754 F5400
G1 F4800 E2.3754
G1 X167.700 Y117.700 F10800
G1 F4800 E3.3754
G1 X167.100 Y117.700 E3.4008 F5400
G1 F4800 E2.4008
G1 X167.100 Y124.900 F10800
G1 F4800 E3.4008
G1 X167.700 Y124.900 E3.4263 F5400
G1 F4800 E2.4263
G1 X165.679 Y123.357 F10800
G1 X153.557 Y114.100
G1 F4800 E3.4263
G1 X149.446 Y114.100 E3.6006 F5400
G1 X151.841 Y112.900 E3.7142
G1 X151.161 Y112.900 E3.7431
G1 F4800 E2.7431
G1 X103.900 Y116.500 F10800
G1 F4800 E3.7431
G1 X102.100 Y116.500 E3.8194 F5400
G1 F4800 E2.8194
G1 X102.100 Y106.900 F10800
G1 F4800 E3.8194
G1 X103.900 Y106.900 E3.8957 F5400
G1 F4800 E2.8957
G1 X102.100 Y110.500 F10800
G1 F4800 E3.8957
G1 X103.900 Y110.500 E3.9721 F5400
G1 F4800 E2.9721
G1 X103.900 Y114.100 F10800
G1 F4800 E3.9721
G1 X102.100 Y114.100 E4.0484 F5400
G1 X103.900 Y112.900 E4.1402
G1 X102.100 Y112.900 E4.2165
G1 F4800 E3.2165
G1 X102.100 Y109.300 F10800
G1 F4800 E4.2165
G1 X103.900 Y109.300 E4.2928 F5400
G1 F4800 E3.2928
G1 X102.100 Y105.700 F10800
G1 F4800 E4.2928
G1 X103.900 Y105.700 E4.3692 F5400
G1 X103.900 Y103.300 E4.4710
G1 X102.100 Y103.300 E4.5473
G1 F4800 E3.5473
G1 X163.749 Y74.560 F10800
G1 X166.440 Y74.560
G1 X167.100 Y92.500
G1 F4800 E4.5473
G1 X167.700 Y92.500 E4.5728 F5400
G1 F4800 E3.5728
G1 X167.700 Y88.900 F10800
G1 F4800 E4.5728
G1 X167.100 Y88.900 E4.5982 F5400
G1 F4800 E3.5982
G1 X167.100 Y84.100 F10800
G1 F4800 E4.5982
G1 X167.700 Y84.100 E4.6236 F5400
G1 F4800 E3.6236
G1 X167.100 Y76.900 F10800
G1 F4800 E4.6236
G1 X167.700 Y76.900 E4.6491 F5400
G1 F4800 E3.6491
G1 X167.100 Y80.500 F10800
G1 F4800 E4.6491
G1 X167.700 Y80.500 E4.6745 F5400
G1 X167.700 Y78.100 E4.7763
G1 X167.100 Y78.100 E4.8018
G1 F4800 E3.8018
G1 X167.700 Y81.700 F10800
G1 F4800 E4.8018
G1 X167.100 Y81.700 E4.8272 F5400
G1 F4800 E3.8272
G1 X167.100 Y85.300 F10800
G1 F4800 E4.8272
G1 X167.700 Y85.300 E4.8526 F5400
G1 X167.700 Y87.700 E4.9544
G1 X167.100 Y87.700 E4.9799
G1 F4800 E3.9799
G1 X167.700 Y91.300 F10800
G1 F4800 E4.9799
G1 X167.100 Y91.300 E5.0053 F5400
G1 F4800 E4.0053
G1 X167.700 Y94.900 F10800
G1 F4800 E5.0053
G1 X167.100 Y94.900 E5.0307 F5400
G1 F4800 E4.0307
G1 X165.188 Y93.317 F10800
G1 X153.717 Y83.817
G1 F4800 E5.0307
G1 X153.600 Y83.800 E5.0357 F5400
G1 X151.800 Y83.800 E5.1121
G1 X149.700 Y84.100 E5.2020
G1 X149.201 Y84.100 E5.2232
G1 F4800 E4.2232
G1 X103.900 Y87.700 F10800
G1 F4800 E5.2232
G1 X102.100 Y87.700 E5.2995 F5400
G1 F4800 E4.2995
G1 X103.900 Y94.900 F10800
G1 F4800 E5.2995
G1 X102.100 Y94.900 E5.3759 F5400
;segType:HShell
G1 F4800 E4.3759
G1 X105.610 Y124.705 F10800
G1 F4800 E5.3759
G1 X105.300 Y124.397 E5.3977 F3600
;segType:Loop
G1 X105.100 Y124.219 F10800
G1 X105.100 Y75.096 E7.8484 F3600
G1 X165.900 Y75.096 E10.8818
G1 X165.900 Y124.904 E13.3667
G1 X105.100 Y124.904 E16.4000
G1 X105.100 Y124.416 E16.4243
;segType:Perimeter
G1 X105.358 Y124.971 F10800
G1 X104.700 Y125.242 E16.4598 F2159
G1 X104.700 Y74.699 E18.9814
G1 X166.300 Y74.699 E22.0547
G1 X166.300 Y125.301 E24.5792
G1 X104.759 Y125.301 E27.6495
G1 X105.032 Y124.647
;segType:HShell
G1 X151.522 Y119.164 F10800
G1 X157.094 Y124.705 E28.0416 F3600
G1 X157.654 Y124.705
G1 X152.003 Y119.087 E28.4391
;segType:Perimeter
G1 X151.985 Y119.013 F10800
G1 X151.442 Y118.554 E28.4745 F2159
G1 X150.510 Y118.403 E28.5217
G1 X149.617 Y117.939 E28.5719
G1 X148.909 Y117.218 E28.6223
G1 X148.455 Y116.308 E28.6730
G1 X148.299 Y115.302 E28.7238
G1 X148.455 Y114.295 E28.7747
G1 X148.909 Y113.387 E28.8253
G1 X149.617 Y112.665 E28.8758
G1 X150.510 Y112.200 E28.9260
G1 X151.501 Y112.040 E28.9761
G1 X152.493 Y112.200 E29.0262
G1 X153.386 Y112.665 E29.0764
G1 X154.094 Y113.387 E29.1269
G1 X154.548 Y114.295 E29.1776
G1 X154.704 Y115.302 E29.2284
G1 X154.548 Y116.308 E29.2792
G1 X154.094 Y117.218 E29.3299
G1 X153.386 Y117.939 E29.3804
G1 X152.493 Y118.403 E29.4306
G1 X151.560 Y118.554 E29.4777
G1 X151.017 Y119.013
;segType:Loop
G1 X150.365 Y118.777 F10800
G1 X149.375 Y118.263 E29.5334 F3600
G1 X148.578 Y117.450 E29.5901
G1 X148.069 Y116.429 E29.6470
G1 X147.894 Y115.302 E29.7040
G1 X148.069 Y114.174 E29.7609
G1 X148.579 Y113.154 E29.8178
G1 X149.375 Y112.342 E29.8746
G1 X150.382 Y111.817 E29.9312
G1 X151.501 Y111.637 E29.9878
G1 X152.621 Y111.817 E30.0444
G1 X153.628 Y112.342 E30.1010
G1 X154.424 Y113.154 E30.1577
G1 X154.934 Y114.174 E30.2146
G1 X155.109 Y115.302 E30.2716
G1 X154.934 Y116.429 E30.3285
G1 X154.425 Y117.450 E30.3854
G1 X153.628 Y118.263 E30.4422
G1 X152.621 Y118.786 E30.4988
G1 X151.501 Y118.966 E30.5554
G1 X150.558 Y118.814 E30.6031
G1 X148.266 Y116.367 F10800
G1 X148.101 Y115.302
G1 X148.101 Y84.698
G1 X148.266 Y83.633
G1 X148.747 Y82.670
G1 X150.607 Y80.977
;segType:HShell
G1 X144.892 Y75.295 E31.0051 F3600
G1 X145.452 Y75.295
G1 X151.088 Y80.899 E31.4016
;segType:Perimeter
G1 X151.017 Y80.987 F10800
G1 X151.560 Y81.446 E31.4371 F2159
G1 X152.493 Y81.597 E31.4842
G1 X153.386 Y82.062 E31.5345
G1 X154.094 Y82.783 E31.5849
G1 X154.548 Y83.692 E31.6356
G1 X154.704 Y84.698 E31.6864
G1 X154.548 Y85.705 E31.7372
G1 X154.094 Y86.613 E31.7879
G1 X153.386 Y87.336 E31.8383
G1 X152.493 Y87.800 E31.8885
G1 X151.501 Y87.960 E31.9387
G1 X150.510 Y87.800 E31.9888
G1 X149.617 Y87.336 E32.0390
G1 X148.909 Y86.613 E32.0894
G1 X148.455 Y85.705 E32.1401
G1 X148.299 Y84.698 E32.1909
G1 X148.455 Y83.692 E32.2417
G1 X148.909 Y82.783 E32.2924
G1 X149.617 Y82.062 E32.3429
G1 X150.510 Y81.597 E32.3931
G1 X151.442 Y81.446 E32.4402
G1 X151.985 Y80.987
;segType:Loop
G1 X152.637 Y81.223 F10800
G1 X153.628 Y81.739 E32.4959 F3600
G1 X154.424 Y82.551 E32.5526
G1 X154.934 Y83.570 E32.6095
G1 X155.109 Y84.698 E32.6665
G1 X154.934 Y85.826 E32.7234
G1 X154.424 Y86.846 E32.7803
G1 X153.628 Y87.658 E32.8371
G1 X152.621 Y88.183 E32.8937
G1 X151.501 Y88.363 E32.9503
G1 X150.382 Y88.183 E33.0069
G1 X149.375 Y87.658 E33.0635
G1 X148.579 Y86.846 E33.1202
G1 X148.069 Y85.826 E33.1771
G1 X147.894 Y84.698 E33.2341
G1 X148.069 Y83.570 E33.2910
G1 X148.579 Y82.551 E33.3479
G1 X149.375 Y81.739 E33.4046
G1 X150.382 Y81.215 E33.4612
G1 X151.501 Y81.034 E33.5178
G1 X152.444 Y81.186 E33.5655
;segType:HShell
G1 X152.264 Y80.955 F10800
G1 X146.571 Y75.295 E33.9660 F3600
G1 X146.011 Y75.295
G1 X151.596 Y80.847 E34.3589
G1 X150.171 Y81.100 F10800
G1 X144.332 Y75.295 E34.7696 F3600
G1 X143.773 Y75.295
G1 X149.804 Y81.291 E35.1939
G1 X149.436 Y81.482
G1 X143.213 Y75.295 E35.6317
G1 X142.654 Y75.295
G1 X149.115 Y81.719 E36.0863
G1 X148.839 Y82.001
G1 X142.094 Y75.295 E36.5608
G1 X141.534 Y75.295
G1 X148.562 Y82.283 E37.0552
G1 X148.328 Y82.606
G1 X140.975 Y75.295 E37.5725
G1 X140.415 Y75.295
G1 X148.142 Y82.977 E38.1161
G1 X147.956 Y83.349
G1 X139.856 Y75.295 E38.6860
G1 X139.296 Y75.295
G1 X147.834 Y83.784 E39.2866
G1 X147.759 Y84.266
G1 X138.736 Y75.295 E39.9214
G1 X138.177 Y75.295
G1 X147.702 Y84.766 E40.5915
G1 X147.804 Y85.424
G1 X137.617 Y75.295 E41.3082
G1 X137.057 Y75.295
G1 X148.039 Y86.214 E42.0808
G1 X106.169 Y124.705 F10800
G1 X105.300 Y123.840 E42.1419 F3600
G1 X105.300 Y123.284
G1 X106.729 Y124.705 E42.2425
G1 X107.289 Y124.705
G1 X105.300 Y122.728 E42.3824
G1 X105.300 Y122.171
G1 X107.848 Y124.705 E42.5617
G1 X108.408 Y124.705
G1 X105.300 Y121.615 E42.7803
G1 X105.300 Y121.058
G1 X108.967 Y124.705 E43.0384
G1 X109.527 Y124.705
G1 X105.300 Y120.502 E43.3357
G1 X105.300 Y119.946
G1 X110.087 Y124.705 E43.6725
G1 X110.646 Y124.705
G1 X105.300 Y119.389 E44.0486
G1 X105.300 Y118.833
G1 X111.206 Y124.705 E44.4641
G1 X111.766 Y124.705
G1 X105.300 Y118.276 E44.9190
G1 X105.300 Y117.720
G1 X112.325 Y124.705 E45.4133
G1 X112.885 Y124.705
G1 X105.300 Y117.164 E45.9469
G1 X105.300 Y116.607
G1 X113.444 Y124.705 E46.5198
G1 X114.004 Y124.705
G1 X105.300 Y116.051 E47.1322
G1 X105.300 Y115.495
G1 X114.564 Y124.705 E47.7839
G1 X115.123 Y124.705
G1 X105.300 Y114.938 E48.4750
G1 X105.300 Y114.382
G1 X115.683 Y124.705 E49.2055
G1 X116.242 Y124.705
G1 X105.300 Y113.825 E49.9753
G1 X105.300 Y113.269
G1 X116.802 Y124.705 E50.7845
G1 X117.362 Y124.705
G1 X105.300 Y112.713 E51.6331
G1 X105.300 Y112.156
G1 X117.921 Y124.705 E52.5210
G1 X118.481 Y124.705
G1 X105.300 Y111.600 E53.4483
G1 X105.300 Y111.043
G1 X119.041 Y124.705 E54.4150
G1 X119.600 Y124.705
G1 X105.300 Y110.487 E55.4211
G1 X105.300 Y109.931
G1 X120.160 Y124.705 E56.4665
G1 X120.719 Y124.705
G1 X105.300 Y109.374 E57.5513
G1 X105.300 Y108.818
G1 X121.279 Y124.705 E58.6755
G1 X121.839 Y124.705
G1 X105.300 Y108.262 E59.8390
G1 X105.300 Y107.705
G1 X122.398 Y124.705 E61.0419
G1 X122.958 Y124.705
G1 X105.300 Y107.149 E62.2842
G1 X105.300 Y106.592
G1 X123.517 Y124.705 E63.5658
G1 X124.077 Y124.705
G1 X105.300 Y106.036 E64.8868
G1 X105.300 Y105.480
G1 X124.637 Y124.705 E66.2472
G1 X125.196 Y124.705
G1 X105.300 Y104.923 E67.6470
G1 X105.300 Y104.367
G1 X125.756 Y124.705 E69.0861
G1 X126.316 Y124.705
G1 X105.300 Y103.810 E70.5646
G1 X105.300 Y103.254
G1 X126.875 Y124.705 E72.0824
G1 X127.435 Y124.705
G1 X105.300 Y102.698 E73.6397
G1 X105.300 Y102.141
G1 X127.994 Y124.705 E75.2363
G1 X128.554 Y124.705
G1 X105.300 Y101.585 E76.8722
G1 X105.300 Y101.029
G1 X129.114 Y124.705 E78.5476
G1 X129.673 Y124.705
G1 X105.300 Y100.472 E80.2623
G1 X105.300 Y99.916
G1 X130.233 Y124.705 E82.0164
G1 X130.792 Y124.705
G1 X105.300 Y99.359 E83.8098
G1 X105.300 Y98.803
G1 X131.352 Y124.705 E85.6427
G1 X131.912 Y124.705
G1 X105.300 Y98.247 E87.5149
G1 X105.300 Y97.690
G1 X132.471 Y124.705 E89.4264
G1 X133.031 Y124.705
G1 X105.300 Y97.134 E91.3774
G1 X105.300 Y96.578
G1 X133.591 Y124.705 E93.3677
G1 X134.150 Y124.705
G1 X105.300 Y96.021 E95.3973
G1 X105.300 Y95.465
G1 X134.710 Y124.705 E97.4664
G1 X135.269 Y124.705
G1 X105.300 Y94.908 E99.5748
G1 X105.300 Y94.352
G1 X135.829 Y124.705 E101.7226
G1 X136.389 Y124.705
G1 X105.300 Y93.796 E103.9097
G1 X105.300 Y93.239
G1 X136.948 Y124.705 E106.1363
G1 X137.508 Y124.705
G1 X105.300 Y92.683 E108.4021
G1 X105.300 Y92.126
G1 X138.067 Y124.705 E110.7074
G1 X138.627 Y124.705
G1 X105.300 Y91.570 E113.0520
G1 X105.300 Y91.014
G1 X139.187 Y124.705 E115.4360
G1 X139.746 Y124.705
G1 X105.300 Y90.457 E117.8594
G1 X105.300 Y89.901
G1 X140.306 Y124.705 E120.3222
G1 X140.866 Y124.705
G1 X105.300 Y89.345 E122.8243
G1 X105.300 Y88.788
G1 X141.425 Y124.705 E125.3658
G1 X141.985 Y124.705
G1 X105.300 Y88.232 E127.9466
G1 X105.300 Y87.675
G1 X142.544 Y124.705 E130.5669
G1 X143.104 Y124.705
G1 X105.300 Y87.119 E133.2264
G1 X105.300 Y86.563
G1 X143.664 Y124.705 E135.9254
G1 X144.223 Y124.705
G1 X105.300 Y86.006 E138.6637
G1 X105.300 Y85.450
G1 X144.783 Y124.705 E141.4415
G1 X145.343 Y124.705
G1 X105.300 Y84.893 E144.2585
G1 X105.300 Y84.337
G1 X145.902 Y124.705 E147.1150
G1 X146.462 Y124.705
G1 X105.300 Y83.781 E150.0108
G1 X105.300 Y83.224
G1 X147.021 Y124.705 E152.9460
G1 X147.581 Y124.705
G1 X105.300 Y82.668 E155.9205
G1 X105.300 Y82.112
G1 X148.141 Y124.705 E158.9345
G1 X148.700 Y124.705
G1 X105.300 Y81.555 E161.9878
G1 X105.300 Y80.999
G1 X149.260 Y124.705 E165.0804
G1 X149.819 Y124.705
G1 X105.300 Y80.442 E168.2125
G1 X105.300 Y79.886
G1 X150.379 Y124.705 E171.3839
G1 X150.939 Y124.705
G1 X105.300 Y79.330 E174.5946
G1 X105.300 Y78.773
G1 X151.498 Y124.705 E177.8448
G1 X152.058 Y124.705
G1 X105.300 Y78.217 E181.1343
G1 X105.300 Y77.660
G1 X152.618 Y124.705 E184.4632
G1 X153.177 Y124.705
G1 X105.300 Y77.104 E187.8314
G1 X105.300 Y76.548
G1 X153.737 Y124.705 E191.2391
G1 X154.296 Y124.705
G1 X105.300 Y75.991 E194.6860
G1 X105.300 Y75.435
G1 X154.856 Y124.705 E198.1724
G1 X155.416 Y124.705
G1 X105.719 Y75.295 E201.6686
G1 X106.279 Y75.295
G1 X148.037 Y116.812 E204.6064
G1 X147.804 Y116.024
G1 X106.838 Y75.295 E207.4884
G1 X107.398 Y75.295
G1 X147.701 Y115.366 E210.3239
G1 X147.759 Y114.867
G1 X107.957 Y75.295 E213.1240
G1 X108.517 Y75.295
G1 X147.834 Y114.385 E215.8900
G1 X147.957 Y113.951
G1 X109.077 Y75.295 E218.6253
G1 X109.636 Y75.295
G1 X148.143 Y113.579 E221.3343
G1 X148.328 Y113.207
G1 X110.196 Y75.295 E224.0170
G1 X110.755 Y75.295
G1 X148.563 Y112.885 E226.6769
G1 X148.840 Y112.603
G1 X111.315 Y75.295 E229.3168
G1 X111.875 Y75.295
G1 X149.116 Y112.321 E231.9368
G1 X149.438 Y112.085
G1 X112.434 Y75.295 E234.5400
G1 X112.994 Y75.295
G1 X149.805 Y111.893 E237.1297
G1 X150.172 Y111.702
G1 X113.554 Y75.295 E239.7059
G1 X114.113 Y75.295
G1 X150.608 Y111.579 E242.2734
G1 X151.090 Y111.502
G1 X114.673 Y75.295 E244.8354
G1 X115.232 Y75.295
G1 X151.598 Y111.451 E247.3938
G1 X152.266 Y111.559
G1 X115.792 Y75.295 E249.9598
G1 X116.352 Y75.295
G1 X153.123 Y111.854 E252.5468
G1 X154.256 Y113.273 F10800
G1 X154.737 Y114.236
G1 X154.902 Y115.302
G1 X154.737 Y116.367
G1 X153.504 Y118.097
G1 X152.556 Y118.590
G1 X150.862 Y119.065
G1 X156.535 Y124.705 E252.9459 F3600
G1 X155.975 Y124.705
G1 X150.100 Y118.863 E253.3593
G1 X152.556 Y118.590 F10800
G1 X154.256 Y117.331
G1 X154.737 Y116.367
G1 X155.180 Y114.456
G1 X165.489 Y124.705 E254.0845 F3600
G1 X164.929 Y124.705
G1 X155.282 Y115.114 E254.7632
G1 X155.258 Y115.646
G1 X164.369 Y124.705 E255.4042
G1 X163.810 Y124.705
G1 X155.183 Y116.128 E256.0111
G1 X155.081 Y116.583
G1 X163.250 Y124.705 E256.5858
G1 X162.691 Y124.705
G1 X154.895 Y116.954 E257.1342
G1 X154.710 Y117.326
G1 X162.131 Y124.705 E257.6563
G1 X161.571 Y124.705
G1 X154.492 Y117.666 E258.1544
G1 X154.216 Y117.948
G1 X161.012 Y124.705 E258.6325
G1 X160.452 Y124.705
G1 X153.939 Y118.230 E259.0907
G1 X153.635 Y118.483
G1 X159.892 Y124.705 E259.5309
G1 X159.333 Y124.705
G1 X153.267 Y118.674 E259.9577
G1 X152.900 Y118.865
G1 X158.773 Y124.705 E260.3709
G1 X158.214 Y124.705
G1 X152.485 Y119.009 E260.7739
G1 X154.256 Y117.331 F10800
G1 X154.737 Y116.367
G1 X154.902 Y115.302
G1 X154.863 Y113.584
G1 X165.700 Y124.359 E261.5364 F3600
G1 X165.700 Y123.802
G1 X116.911 Y75.295 E264.9687
G1 X117.471 Y75.295
G1 X165.700 Y123.246 E268.3617
G1 X165.700 Y122.689
G1 X118.030 Y75.295 E271.7154
G1 X118.590 Y75.295
G1 X165.700 Y122.133 E275.0296
G1 X165.700 Y121.577
G1 X119.150 Y75.295 E278.3045
G1 X119.709 Y75.295
G1 X165.700 Y121.020 E281.5401
G1 X165.700 Y120.464
G1 X120.269 Y75.295 E284.7362
G1 X120.829 Y75.295
G1 X165.700 Y119.908 E287.8930
G1 X165.700 Y119.351
G1 X121.388 Y75.295 E291.0105
G1 X121.948 Y75.295
G1 X165.700 Y118.795 E294.0885
G1 X165.700 Y118.238
G1 X122.507 Y75.295 E297.1272
G1 X123.067 Y75.295
G1 X165.700 Y117.682 E300.1266
G1 X165.700 Y117.126
G1 X123.627 Y75.295 E303.0865
G1 X124.186 Y75.295
G1 X165.700 Y116.569 E306.0071
G1 X165.700 Y116.013
G1 X124.746 Y75.295 E308.8883
G1 X125.306 Y75.295
G1 X165.700 Y115.456 E311.7301
G1 X165.700 Y114.900
G1 X125.865 Y75.295 E314.5325
G1 X126.425 Y75.295
G1 X165.700 Y114.344 E317.2956
G1 X165.700 Y113.787
G1 X126.984 Y75.295 E320.0194
G1 X127.544 Y75.295
G1 X165.700 Y113.231 E322.7037
G1 X165.700 Y112.675
G1 X128.104 Y75.295 E325.3487
G1 X128.663 Y75.295
G1 X165.700 Y112.118 E327.9543
G1 X165.700 Y111.562
G1 X129.223 Y75.295 E330.5206
G1 X129.782 Y75.295
G1 X165.700 Y111.005 E333.0475
G1 X165.700 Y110.449
G1 X130.342 Y75.295 E335.5350
G1 X130.902 Y75.295
G1 X165.700 Y109.893 E337.9831
G1 X165.700 Y109.336
G1 X131.461 Y75.295 E340.3919
G1 X132.021 Y75.295
G1 X165.700 Y108.780 E342.7612
G1 X165.700 Y108.223
G1 X132.580 Y75.295 E345.0913
G1 X133.140 Y75.295
G1 X165.700 Y107.667 E347.3819
G1 X165.700 Y107.111
G1 X133.700 Y75.295 E349.6332
G1 X134.259 Y75.295
G1 X165.700 Y106.554 E351.8451
G1 X165.700 Y105.998
G1 X134.819 Y75.295 E354.0177
G1 X135.379 Y75.295
G1 X165.700 Y105.442 E356.1508
G1 X165.700 Y104.885
G1 X135.938 Y75.295 E358.2446
G1 X136.498 Y75.295
G1 X165.700 Y104.329 E360.2991
G1 X165.700 Y103.772
G1 X150.096 Y88.258 E361.3969
G1 X150.860 Y88.461
G1 X165.700 Y103.216 E362.4410
G1 X165.700 Y102.660
G1 X151.520 Y88.562 E363.4386
G1 X152.002 Y88.484
G1 X165.700 Y102.103 E364.4023
G1 X165.700 Y101.547
G1 X152.483 Y88.406 E365.3321
G1 X152.898 Y88.263
G1 X165.700 Y100.990 E366.2327
G1 X165.700 Y100.434
G1 X153.266 Y88.072 E367.1075
G1 X153.633 Y87.880
G1 X165.700 Y99.878 E367.9565
G1 X165.700 Y99.321
G1 X153.938 Y87.627 E368.7839
G1 X154.214 Y87.345
G1 X165.700 Y98.765 E369.5920
G1 X165.700 Y98.209
G1 X154.491 Y87.064 E370.3806
G1 X154.709 Y86.724
G1 X165.700 Y97.652 E371.1539
G1 X165.700 Y97.096
G1 X154.894 Y86.353 E371.9140
G1 X155.080 Y85.981
G1 X165.700 Y96.539 E372.6612
G1 X165.700 Y95.983
G1 X155.183 Y85.527 E373.4011
G1 X155.258 Y85.045
G1 X165.700 Y95.427 E374.1357
G1 X165.700 Y94.870
G1 X155.283 Y84.513 E374.8686
G1 X155.180 Y83.855
G1 X165.700 Y94.314 E375.6087
G1 X165.700 Y93.758
G1 X154.865 Y82.985 E376.3710
G1 X153.119 Y81.250 F10800
G1 X147.131 Y75.295 E376.7923 F3600
G1 X147.690 Y75.295
G1 X165.700 Y93.201 E378.0593
G1 X165.700 Y92.645
G1 X148.250 Y75.295 E379.2870
G1 X148.809 Y75.295
G1 X165.700 Y92.088 E380.4753
G1 X165.700 Y91.532
G1 X149.369 Y75.295 E381.6242
G1 X149.929 Y75.295
G1 X165.700 Y90.976 E382.7338
G1 X165.700 Y90.419
G1 X150.488 Y75.295 E383.8040
G1 X151.048 Y75.295
G1 X165.700 Y89.863 E384.8348
G1 X165.700 Y89.306
G1 X151.607 Y75.295 E385.8262
G1 X152.167 Y75.295
G1 X165.700 Y88.750 E386.7783
G1 X165.700 Y88.194
G1 X152.727 Y75.295 E387.6910
G1 X153.286 Y75.295
G1 X165.700 Y87.637 E388.5643
G1 X165.700 Y87.081
G1 X153.846 Y75.295 E389.3983
G1 X154.406 Y75.295
G1 X165.700 Y86.525 E390.1929
G1 X165.700 Y85.968
G1 X154.965 Y75.295 E390.9481
G1 X155.525 Y75.295
G1 X165.700 Y85.412 E391.6640
G1 X165.700 Y84.855
G1 X156.084 Y75.295 E392.3404
G1 X156.644 Y75.295
G1 X165.700 Y84.299 E392.9776
G1 X165.700 Y83.743
G1 X157.204 Y75.295 E393.5753
G1 X157.763 Y75.295
G1 X165.700 Y83.186 E394.1337
G1 X165.700 Y82.630
G1 X158.323 Y75.295 E394.6527
G1 X158.882 Y75.295
G1 X165.700 Y82.073 E395.1323
G1 X165.700 Y81.517
G1 X159.442 Y75.295 E395.5726
G1 X160.002 Y75.295
G1 X165.700 Y80.961 E395.9735
G1 X165.700 Y80.404
G1 X160.561 Y75.295 E396.3350
G1 X161.121 Y75.295
G1 X165.700 Y79.848 E396.6571
G1 X165.700 Y79.292
G1 X161.681 Y75.295 E396.9399
G1 X162.240 Y75.295
G1 X165.700 Y78.735 E397.1833
G1 X165.700 Y78.179
G1 X162.800 Y75.295 E397.3874
G1 X163.359 Y75.295
G1 X165.700 Y77.622 E397.5520
G1 X165.700 Y77.066
G1 X163.919 Y75.295 E397.6774
G1 X164.479 Y75.295
G1 X165.700 Y76.510 E397.7633
G1 X165.700 Y75.953
G1 X165.038 Y75.295 E397.8099
G1 X165.598 Y75.295
G1 X165.700 Y75.397 E397.8171
G1 F4800 E396.8171
G1 X153.740 Y87.809 F10800
G1 X103.900 Y117.700
G1 F4800 E397.8171
;segType:Support
G1 X102.100 Y117.700 E397.8934 F5400
G1 F4800 E396.8934
G1 X104.560 Y125.440 F10800
G1 X166.440 Y125.440
G1 X167.700 Y120.100
G1 F4800 E397.8934
G1 X167.100 Y120.100 E397.9189 F5400
G1 F4800 E396.9189
G1 X164.392 Y119.380 F10800
G1 X153.559 Y116.500
G1 F4800 E397.9189
G1 X149.444 Y116.500 E398.0934 F5400
G1 F4800 E397.0934
G1 X103.900 Y96.100 F10800
G1 F4800 E398.0934
G1 X102.100 Y96.100 E398.1697 F5400
G1 F4800 E397.1697
G1 X102.100 Y92.500 F10800
G1 F4800 E398.1697
G1 X103.900 Y92.500 E398.2461 F5400
G1 F4800 E397.2461
G1 X102.100 Y88.900 F10800
G1 F4800 E398.2461
G1 X103.900 Y88.900 E398.3224 F5400
G1 F4800 E397.3224
G1 X101.605 Y90.197 F10800
G1 X99.310 Y91.495
G1 X53.712 Y118.264
G1 X44.100 Y122.219
G1 F4800 E398.3224
;segType:Loop
G1 X44.100 Y79.097 E400.4738 F3600
G1 X100.900 Y79.097 E403.3076
G1 X100.900 Y122.904 E405.4931
G1 X44.100 Y122.904 E408.3269
G1 X44.100 Y122.416 E408.3512
;segType:Perimeter
G1 X44.358 Y122.971 F10800
G1 X43.700 Y123.242 E408.3867 F2159
G1 X43.700 Y78.699 E410.6090
G1 X101.300 Y78.699 E413.4827
G1 X101.300 Y123.301 E415.7079
G1 X43.759 Y123.301 E418.5786
G1 X44.032 Y122.647
;segType:HShell
G1 X44.300 Y105.478 F10800
G1 X52.876 Y114.004 E419.1819 F3600
;segType:Perimeter
G1 X53.309 Y113.861 F10800
G1 X53.862 Y114.307 E419.2174 F2159
G1 X54.230 Y114.385 E419.2361
G1 X54.604 Y114.639 E419.2587
G1 X54.888 Y115.021 E419.2824
G1 X55.066 Y115.489 E419.3074
G1 X55.127 Y116.000 E419.3331
G1 X55.066 Y116.511 E419.3588
G1 X54.888 Y116.979 E419.3837
G1 X54.604 Y117.361 E419.4075
G1 X54.230 Y117.615 E419.4301
G1 X53.886 Y117.688 E419.4476
G1 X53.685 Y117.675 E419.4577
G1 X53.500 Y117.704 E419.4670
G1 X53.127 Y117.644 E419.4859
G1 X52.792 Y117.473 E419.5047
G1 X52.525 Y117.207 E419.5235
G1 X52.355 Y116.872 E419.5422
G1 X52.295 Y116.500 E419.5610
G1 X52.355 Y116.128 E419.5798
G1 X52.495 Y115.851 E419.5953
G1 X52.544 Y115.487 E419.6136
G1 X52.721 Y115.021 E419.6385
G1 X53.005 Y114.639 E419.6622
G1 X53.378 Y114.385 E419.6847
G1 X53.746 Y114.307 E419.7035
G1 X54.299 Y113.861
;segType:Loop
G1 X55.044 Y114.562 F10800
G1 X55.243 Y114.829 E419.7201 F3600
G1 X55.457 Y115.394 E419.7503
G1 X55.529 Y116.000 E419.7807
G1 X55.457 Y116.606 E419.8112
G1 X55.243 Y117.171 E419.8413
G1 X54.885 Y117.651 E419.8712
G1 X54.391 Y117.988 E419.9011
G1 X53.914 Y118.089 E419.9253
G1 X53.704 Y118.074 E419.9359
G1 X53.500 Y118.107 E419.9462
G1 X53.000 Y118.027 E419.9714
G1 X52.553 Y117.799 E419.9965
G1 X52.196 Y117.443 E420.0216
G1 X51.969 Y116.996 E420.0466
G1 X51.889 Y116.500 E420.0717
G1 X51.969 Y116.003 E420.0968
G1 X52.108 Y115.732 E420.1120
G1 X52.153 Y115.390 E420.1292
G1 X52.366 Y114.829 E420.1591
G1 X52.724 Y114.349 E420.1890
G1 X53.217 Y114.012 E420.2188
G1 X53.804 Y113.888 E420.2487
G1 X54.391 Y114.012 E420.2787
G1 X54.885 Y114.349 E420.3085
G1 X54.927 Y114.404 E420.3119
;segType:HShell
G1 X91.287 Y122.705 F10800
G1 X55.251 Y86.878 E422.8471 F3600
;segType:Perimeter
G1 X55.223 Y86.548 F10800
G1 X54.619 Y86.924 E422.8826 F2159
G1 X54.475 Y87.207 E422.8984
G1 X54.208 Y87.473 E422.9173
G1 X53.873 Y87.644 E422.9361
G1 X53.500 Y87.704 E422.9549
G1 X53.127 Y87.644 E422.9737
G1 X52.792 Y87.473 E422.9925
G1 X52.525 Y87.207 E423.0113
G1 X52.355 Y86.872 E423.0301
G1 X52.295 Y86.500 E423.0489
G1 X52.355 Y86.128 E423.0677
G1 X52.525 Y85.793 E423.0864
G1 X52.792 Y85.526 E423.1052
G1 X53.127 Y85.356 E423.1240
G1 X53.500 Y85.296 E423.1428
G1 X53.873 Y85.356 E423.1616
G1 X54.208 Y85.526 E423.1804
G1 X54.475 Y85.793 E423.1992
G1 X54.646 Y86.128 E423.2180
G1 X54.703 Y86.489 E423.2362
G1 X54.655 Y86.812 E423.2526
G1 X54.931 Y87.465
;segType:Loop
G1 X54.096 Y87.978 F10800
G1 X53.999 Y88.027 E423.2580 F3600
G1 X53.500 Y88.106 E423.2832
G1 X53.001 Y88.027 E423.3084
G1 X52.553 Y87.799 E423.3335
G1 X52.196 Y87.443 E423.3586
G1 X51.969 Y86.996 E423.3836
G1 X51.889 Y86.500 E423.4087
G1 X51.969 Y86.004 E423.4338
G1 X52.196 Y85.557 E423.4587
G1 X52.553 Y85.201 E423.4839
G1 X53.001 Y84.973 E423.5089
G1 X53.500 Y84.893 E423.5342
G1 X53.999 Y84.973 E423.5594
G1 X54.447 Y85.201 E423.5845
G1 X54.803 Y85.557 E423.6096
G1 X55.031 Y86.004 E423.6346
G1 X55.107 Y86.487 E423.6590
G1 X55.032 Y86.993 E423.6845
G1 X54.804 Y87.443 E423.7097
G1 X54.447 Y87.799 E423.7348
G1 X54.272 Y87.888 E423.7446
G1 X87.035 Y85.344 F10800
G1 X89.609 Y85.087
;segType:Infill
G1 X90.149 Y85.087 E423.7716 F5400
;segType:Loop
G1 X90.050 Y86.875 F10800
G1 X90.031 Y86.995 E423.7776 F3600
G1 X89.804 Y87.443 E423.8027
G1 X89.447 Y87.799 E423.8278
G1 X88.999 Y88.027 E423.8529
G1 X88.500 Y88.106 E423.8781
G1 X88.001 Y88.027 E423.9033
G1 X87.553 Y87.799 E423.9284
G1 X87.196 Y87.443 E423.9535
G1 X86.970 Y86.996 E423.9785
G1 X86.889 Y86.500 E424.0036
G1 X86.970 Y86.004 E424.0287
G1 X87.196 Y85.557 E424.0536
G1 X87.553 Y85.201 E424.0788
G1 X88.001 Y84.973 E424.1039
G1 X88.500 Y84.893 E424.1291
G1 X88.999 Y84.973 E424.1543
G1 X89.433 Y85.194 E424.1786
G1 X89.793 Y85.545 E424.2037
G1 X90.033 Y86.017 E424.2301
G1 X90.109 Y86.500 E424.2545
G1 X90.081 Y86.681 E424.2637
;segType:Perimeter
G1 X89.544 Y85.129 F10800
G1 X89.493 Y85.836 E424.2990 F2159
G1 X89.648 Y86.141 E424.3161
G1 X89.705 Y86.500 E424.3343
G1 X89.646 Y86.872 E424.3530
G1 X89.475 Y87.207 E424.3718
G1 X89.208 Y87.473 E424.3906
G1 X88.873 Y87.644 E424.4094
G1 X88.500 Y87.704 E424.4282
G1 X88.127 Y87.644 E424.4470
G1 X87.792 Y87.473 E424.4658
G1 X87.525 Y87.207 E424.4847
G1 X87.355 Y86.872 E424.5034
G1 X87.294 Y86.500 E424.5222
G1 X87.355 Y86.128 E424.5410
G1 X87.525 Y85.793 E424.5598
G1 X87.792 Y85.526 E424.5786
G1 X88.127 Y85.356 E424.5974
G1 X88.500 Y85.296 E424.6162
G1 X88.873 Y85.356 E424.6351
G1 X89.196 Y85.520 E424.6532
G1 X89.423 Y85.742 E424.6690
G1 X90.116 Y85.907
;segType:HShell
G1 X90.683 Y116.541 F10800
G1 X96.883 Y122.705 E425.1051 F3600
G1 X96.323 Y122.705
G1 X90.607 Y117.022 E425.5073
;segType:Perimeter
G1 X90.223 Y116.547 F10800
G1 X89.619 Y116.923 E425.5427 F2159
G1 X89.475 Y117.207 E425.5586
G1 X89.208 Y117.474 E425.5774
G1 X88.873 Y117.644 E425.5962
G1 X88.500 Y117.704 E425.6151
G1 X88.127 Y117.644 E425.6339
G1 X87.792 Y117.474 E425.6527
G1 X87.525 Y117.207 E425.6715
G1 X87.355 Y116.872 E425.6903
G1 X87.294 Y116.500 E425.7091
G1 X87.355 Y116.128 E425.7279
G1 X87.525 Y115.793 E425.7466
G1 X87.792 Y115.526 E425.7655
G1 X88.127 Y115.355 E425.7843
G1 X88.500 Y115.297 E425.8031
G1 X88.873 Y115.355 E425.8219
G1 X89.208 Y115.526 E425.8407
G1 X89.475 Y115.793 E425.8596
G1 X89.646 Y116.128 E425.8783
G1 X89.702 Y116.486 E425.8964
G1 X89.655 Y116.812 E425.9128
G1 X89.931 Y117.465
;segType:Loop
G1 X89.096 Y117.977 F10800
G1 X88.999 Y118.027 E425.9182 F3600
G1 X88.500 Y118.107 E425.9434
G1 X88.001 Y118.027 E425.9687
G1 X87.553 Y117.799 E425.9937
G1 X87.196 Y117.443 E426.0189
G1 X86.970 Y116.996 E426.0439
G1 X86.889 Y116.500 E426.0690
G1 X86.970 Y116.004 E426.0940
G1 X87.196 Y115.557 E426.1190
G1 X87.553 Y115.201 E426.1442
G1 X88.002 Y114.973 E426.1693
G1 X88.500 Y114.894 E426.1945
G1 X88.998 Y114.973 E426.2196
G1 X89.447 Y115.201 E426.2447
G1 X89.804 Y115.557 E426.2699
G1 X90.031 Y116.004 E426.2949
G1 X90.107 Y116.484 E426.3191
G1 X90.033 Y116.992 E426.3447
G1 X89.804 Y117.443 E426.3700
G1 X89.447 Y117.799 E426.3951
G1 X89.272 Y117.888 E426.4049
;segType:HShell
G1 X87.579 Y118.463 F10800
G1 X91.846 Y122.705 E426.7051 F3600
G1 X92.406 Y122.705
G1 X88.348 Y118.670 E426.9906
G1 X88.873 Y118.635
G1 X92.966 Y122.705 E427.2785
G1 X93.525 Y122.705
G1 X89.313 Y118.517 E427.5749
G1 X89.683 Y118.329
G1 X94.085 Y122.705 E427.8845
G1 X94.644 Y122.705
G1 X89.987 Y118.075 E428.2122
G1 X90.266 Y117.796
G1 X95.204 Y122.705 E428.5595
G1 X95.764 Y122.705
G1 X90.456 Y117.428 E428.9329
G1 X90.594 Y115.896 F10800
G1 X97.442 Y122.705 E429.4147 F3600
G1 X98.002 Y122.705
G1 X54.340 Y79.295 E432.4864
G1 X54.900 Y79.295
G1 X98.562 Y122.705 E435.5581
G1 X99.121 Y122.705
G1 X55.460 Y79.295 E438.6298
G1 X56.019 Y79.295
G1 X99.681 Y122.705 E441.7015
G1 X100.241 Y122.705
G1 X56.579 Y79.295 E444.7732
G1 X57.138 Y79.295
G1 X100.700 Y122.605 E447.8378
G1 X100.700 Y122.049
G1 X57.698 Y79.295 E450.8631
G1 X58.258 Y79.295
G1 X100.700 Y121.492 E453.8490
G1 X100.700 Y120.936
G1 X58.817 Y79.295 E456.7955
G1 X59.377 Y79.295
G1 X100.700 Y120.380 E459.7027
G1 X100.700 Y119.823
G1 X59.937 Y79.295 E462.5705
G1 X60.496 Y79.295
G1 X100.700 Y119.267 E465.3989
G1 X100.700 Y118.711
G1 X61.056 Y79.295 E468.1880
G1 X61.615 Y79.295
G1 X100.700 Y118.154 E470.9376
G1 X100.700 Y117.598
G1 X62.175 Y79.295 E473.6479
G1 X62.735 Y79.295
G1 X100.700 Y117.041 E476.3188
G1 X100.700 Y116.485
G1 X63.294 Y79.295 E478.9504
G1 X63.854 Y79.295
G1 X100.700 Y115.929 E481.5426
G1 X100.700 Y115.372
G1 X64.413 Y79.295 E484.0954
G1 X64.973 Y79.295
G1 X100.700 Y114.816 E486.6089
G1 X100.700 Y114.260
G1 X65.533 Y79.295 E489.0830
G1 X66.092 Y79.295
G1 X100.700 Y113.703 E491.5177
G1 X100.700 Y113.147
G1 X66.652 Y79.295 E493.9130
G1 X67.212 Y79.295
G1 X100.700 Y112.590 E496.2690
G1 X100.700 Y112.034
G1 X67.771 Y79.295 E498.5857
G1 X68.331 Y79.295
G1 X100.700 Y111.478 E500.8629
G1 X100.700 Y110.921
G1 X68.890 Y79.295 E503.1008
G1 X69.450 Y79.295
G1 X100.700 Y110.365 E505.2992
G1 X100.700 Y109.808
G1 X70.010 Y79.295 E507.4584
G1 X70.569 Y79.295
G1 X100.700 Y109.252 E509.5781
G1 X100.700 Y108.696
G1 X71.129 Y79.295 E511.6585
G1 X71.688 Y79.295
G1 X100.700 Y108.139 E513.6995
G1 X100.700 Y107.583
G1 X72.248 Y79.295 E515.7012
G1 X72.808 Y79.295
G1 X100.700 Y107.027 E517.6635
G1 X100.700 Y106.470
G1 X73.367 Y79.295 E519.5864
G1 X73.927 Y79.295
G1 X100.700 Y105.914 E521.4699
G1 X100.700 Y105.357
G1 X74.487 Y79.295 E523.3141
G1 X75.046 Y79.295
G1 X100.700 Y104.801 E525.1189
G1 X100.700 Y104.245
G1 X75.606 Y79.295 E526.8844
G1 X76.165 Y79.295
G1 X100.700 Y103.688 E528.6104
G1 X100.700 Y103.132
G1 X76.725 Y79.295 E530.2971
G1 X77.285 Y79.295
G1 X100.700 Y102.575 E531.9445
G1 X100.700 Y102.019
G1 X77.844 Y79.295 E533.5525
G1 X78.404 Y79.295
G1 X86.504 Y87.349 E534.1223
;segType:Infill
G1 X88.319 Y88.666 F10800
G1 X88.319 Y88.279 E534.1416 F5400
;segType:HShell
G1 X87.671 Y88.509 F10800
G1 X100.700 Y101.463 E535.0582 F3600
G1 X100.700 Y100.906
G1 X88.401 Y88.679 E535.9234
G1 X88.911 Y88.629
G1 X100.700 Y100.350 E536.7528
G1 X100.700 Y99.794
G1 X89.343 Y88.502 E537.5518
G1 X89.713 Y88.314
G1 X100.700 Y99.237 E538.3247
G1 X100.700 Y98.681
G1 X90.010 Y88.052 E539.0768
G1 X90.283 Y87.767
G1 X100.700 Y98.124 E539.8097
G1 X100.700 Y97.568
G1 X90.471 Y87.398 E540.5293
G1 X90.608 Y86.978
G1 X100.700 Y97.012 E541.2393
G1 X100.700 Y96.455
G1 X90.690 Y86.503 E541.9436
G1 X90.586 Y85.843
G1 X100.700 Y95.899 E542.6551
G1 X100.700 Y95.342
G1 X84.560 Y79.295 E543.7906
G1 X85.119 Y79.295
G1 X100.700 Y94.786 E544.8867
G1 X100.700 Y94.230
G1 X85.679 Y79.295 E545.9435
G1 X86.238 Y79.295
G1 X100.700 Y93.673 E546.9609
G1 X100.700 Y93.117
G1 X86.798 Y79.295 E547.9389
G1 X87.358 Y79.295
G1 X100.700 Y92.561 E548.8776
G1 X100.700 Y92.004
G1 X87.917 Y79.295 E549.7769
G1 X88.477 Y79.295
G1 X100.700 Y91.448 E550.6368
G1 X100.700 Y90.891
G1 X89.037 Y79.295 E551.4574
G1 X89.596 Y79.295
G1 X100.700 Y90.335 E552.2386
G1 X100.700 Y89.779
G1 X90.156 Y79.295 E552.9804
G1 X90.715 Y79.295
G1 X100.700 Y89.222 E553.6828
G1 X100.700 Y88.666
G1 X91.275 Y79.295 E554.3459
G1 X91.835 Y79.295
G1 X100.700 Y88.110 E554.9696
G1 X100.700 Y87.553
G1 X92.394 Y79.295 E555.5540
G1 X92.954 Y79.295
G1 X100.700 Y86.997 E556.0990
G1 X100.700 Y86.440
G1 X93.513 Y79.295 E556.6046
G1 X94.073 Y79.295
G1 X100.700 Y85.884 E557.0708
G1 X100.700 Y85.328
G1 X94.633 Y79.295 E557.4976
G1 X95.192 Y79.295
G1 X100.700 Y84.771 E557.8850
G1 X100.700 Y84.215
G1 X95.752 Y79.295 E558.2331
G1 X96.312 Y79.295
G1 X100.700 Y83.658 E558.5418
G1 X100.700 Y83.102
G1 X96.871 Y79.295 E558.8112
G1 X97.431 Y79.295
G1 X100.700 Y82.546 E559.0412
G1 X100.700 Y81.989
G1 X97.990 Y79.295 E559.2318
G1 X98.550 Y79.295
G1 X100.700 Y81.433 E559.3830
G1 X100.700 Y80.877
G1 X99.110 Y79.295 E559.4949
G1 X99.669 Y79.295
G1 X100.700 Y80.320 E559.5674
G1 X100.700 Y79.764
G1 X100.229 Y79.295 E559.6005
G1 X54.308 Y114.204 F10800
G1 X53.804 Y114.098
G1 X53.300 Y114.204
G1 X52.547 Y114.927
G1 X51.729 Y116.758
G1 X44.300 Y109.373 E560.1232 F3600
G1 X44.300 Y108.816
G1 X51.734 Y116.207 E560.6462
G1 X51.861 Y115.777
G1 X44.300 Y108.260 E561.1781
G1 X44.300 Y107.703
G1 X51.964 Y115.324 E561.7173
G1 X52.118 Y114.920
G1 X44.300 Y107.147 E562.2673
G1 X44.300 Y106.591
G1 X52.317 Y114.561 E562.8313
G1 X52.555 Y114.241
G1 X44.300 Y106.034 E563.4120
G1 X55.501 Y114.945 F10800
G1 X63.306 Y122.705 E563.9611 F3600
G1 X62.746 Y122.705
G1 X55.694 Y115.694 E564.4572
G1 X55.700 Y116.256
G1 X62.187 Y122.705 E564.9135
G1 X61.627 Y122.705
G1 X55.622 Y116.735 E565.3359
G1 X55.469 Y117.139
G1 X61.067 Y122.705 E565.7298
G1 X60.508 Y122.705
G1 X55.258 Y117.485 E566.0991
G1 X55.017 Y117.803
G1 X59.948 Y122.705 E566.4459
G1 X59.389 Y122.705
G1 X54.685 Y118.029 E566.7768
G1 X54.307 Y118.209
G1 X58.829 Y122.705 E567.0949
G1 X58.269 Y122.705
G1 X53.820 Y118.282 E567.4079
G1 X53.247 Y118.268
G1 X57.710 Y122.705 E567.7219
G1 X57.150 Y122.705
G1 X44.300 Y109.929 E568.6259
G1 X44.300 Y110.485
G1 X56.590 Y122.705 E569.4906
G1 X56.031 Y122.705
G1 X44.300 Y111.042 E570.3159
G1 X44.300 Y111.598
G1 X55.471 Y122.705 E571.1018
G1 X54.912 Y122.705
G1 X44.300 Y112.155 E571.8484
G1 X44.300 Y112.711
G1 X54.352 Y122.705 E572.5555
G1 X53.792 Y122.705
G1 X44.300 Y113.267 E573.2233
G1 X44.300 Y113.824
G1 X53.233 Y122.705 E573.8517
G1 X52.673 Y122.705
G1 X44.300 Y114.380 E574.4408
G1 X44.300 Y114.936
G1 X52.114 Y122.705 E574.9904
G1 X51.554 Y122.705
G1 X44.300 Y115.493 E575.5008
G1 X44.300 Y116.049
G1 X50.994 Y122.705 E575.9717
G1 X50.435 Y122.705
G1 X44.300 Y116.606 E576.4033
G1 X44.300 Y117.162
G1 X49.875 Y122.705 E576.7955
G1 X49.315 Y122.705
G1 X44.300 Y117.718 E577.1483
G1 X44.300 Y118.275
G1 X48.756 Y122.705 E577.4618
G1 X48.196 Y122.705
G1 X44.300 Y118.831 E577.7359
G1 X44.300 Y119.387
G1 X47.637 Y122.705 E577.9707
G1 X47.077 Y122.705
G1 X44.300 Y119.944 E578.1660
G1 X44.300 Y120.500
G1 X46.517 Y122.705 E578.3220
G1 X45.958 Y122.705
G1 X44.300 Y121.057 E578.4387
G1 X44.300 Y121.613
G1 X45.398 Y122.705 E578.5160
G1 X44.839 Y122.705
G1 X44.300 Y122.169 E578.5539
G1 X51.720 Y86.705 F10800
G1 X44.300 Y79.328 E579.0759 F3600
G1 X44.827 Y79.295
G1 X51.740 Y86.169 E579.5623
G1 X51.876 Y85.747
G1 X45.387 Y79.295 E580.0188
G1 X45.946 Y79.295
G1 X52.079 Y85.393 E580.4503
G1 X52.358 Y85.114
G1 X46.506 Y79.295 E580.8620
G1 X47.065 Y79.295
G1 X52.704 Y84.901 E581.2587
G1 X53.115 Y84.753
G1 X47.625 Y79.295 E581.6449
G1 X48.185 Y79.295
G1 X53.634 Y84.713 E582.0283
;segType:Infill
G1 X88.319 Y84.721 F10800
G1 X88.319 Y84.334 E582.0476 F5400
G1 X86.851 Y85.087 F10800
G1 X87.385 Y85.087 E582.0742 F5400
;segType:HShell
G1 X89.142 Y84.407 F10800
G1 X84.000 Y79.295 E582.4359 F3600
G1 X83.440 Y79.295
G1 X88.482 Y84.308 E582.7906
G1 X88.000 Y84.385
G1 X82.881 Y79.295 E583.1507
G1 X82.321 Y79.295
G1 X87.589 Y84.533 E583.5213
G1 X87.219 Y84.721
G1 X81.762 Y79.295 E583.9052
G1 X81.202 Y79.295
G1 X86.939 Y84.999 E584.3089
G1 X86.683 Y85.301
G1 X80.642 Y79.295 E584.7338
G1 X80.083 Y79.295
G1 X86.494 Y85.670 E585.1849
G1 X86.373 Y86.105
G1 X79.523 Y79.295 E585.6668
G1 X78.963 Y79.295
G1 X86.329 Y86.618 E586.1849
G1 X55.012 Y85.527 F10800
G1 X86.337 Y116.671 E588.3886 F3600
;segType:Infill
G1 X87.155 Y118.217 F10800
G1 X87.937 Y118.217 E588.4276 F5400
G1 X87.166 Y116.933 F10800
G1 X87.166 Y116.067
G1 X88.319 Y114.334
G1 X88.319 Y114.721 E588.4469 F5400
G1 X89.636 Y115.678 F10800
G1 X89.900 Y116.485
G1 X89.636 Y117.322
G1 X89.063 Y118.217
G1 X89.845 Y118.217 E588.4859 F5400
G1 X88.319 Y118.279 F10800
G1 X88.319 Y118.666 E588.5052 F5400
;segType:HShell
G1 X90.727 Y122.705 F10800
G1 X55.106 Y87.289 E591.0113 F3600
G1 X54.893 Y87.635
G1 X90.167 Y122.705 E593.4928
G1 X89.608 Y122.705
G1 X54.614 Y87.913 E595.9547
G1 X54.260 Y88.117
G1 X89.048 Y122.705 E598.4021
G1 X88.489 Y122.705
G1 X53.838 Y88.254 E600.8399
G1 X53.300 Y88.276
G1 X87.929 Y122.705 E603.2761
G1 X87.369 Y122.705
G1 X44.300 Y79.884 E606.3061
G1 X44.300 Y80.441
G1 X86.810 Y122.705 E609.2968
G1 X86.250 Y122.705
G1 X44.300 Y80.997 E612.2481
G1 X44.300 Y81.553
G1 X85.691 Y122.705 E615.1600
G1 X85.131 Y122.705
G1 X44.300 Y82.110 E618.0326
G1 X44.300 Y82.666
G1 X84.571 Y122.705 E620.8657
G1 X84.012 Y122.705
G1 X44.300 Y83.223 E623.6594
G1 X44.300 Y83.779
G1 X83.452 Y122.705 E626.4138
G1 X82.892 Y122.705
G1 X44.300 Y84.335 E629.1289
G1 X44.300 Y84.892
G1 X82.333 Y122.705 E631.8045
G1 X81.773 Y122.705
G1 X44.300 Y85.448 E634.4408
G1 X44.300 Y86.005
G1 X81.214 Y122.705 E637.0377
G1 X80.654 Y122.705
G1 X44.300 Y86.561 E639.5953
G1 X44.300 Y87.117
G1 X80.094 Y122.705 E642.1135
G1 X79.535 Y122.705
G1 X44.300 Y87.674 E644.5923
G1 X44.300 Y88.230
G1 X78.975 Y122.705 E647.0318
G1 X78.415 Y122.705
G1 X44.300 Y88.786 E649.4318
G1 X44.300 Y89.343
G1 X77.856 Y122.705 E651.7926
G1 X77.296 Y122.705
G1 X44.300 Y89.899 E654.1139
G1 X44.300 Y90.456
G1 X76.737 Y122.705 E656.3959
G1 X76.177 Y122.705
G1 X44.300 Y91.012 E658.6385
G1 X44.300 Y91.568
G1 X75.617 Y122.705 E660.8418
G1 X75.058 Y122.705
G1 X44.300 Y92.125 E663.0056
G1 X44.300 Y92.681
G1 X74.498 Y122.705 E665.1302
G1 X73.939 Y122.705
G1 X44.300 Y93.237 E667.2153
G1 X44.300 Y93.794
G1 X73.379 Y122.705 E669.2611
G1 X72.819 Y122.705
G1 X44.300 Y94.350 E671.2675
G1 X44.300 Y94.907
G1 X72.260 Y122.705 E673.2345
G1 X71.700 Y122.705
G1 X44.300 Y95.463 E675.1622
G1 X44.300 Y96.019
G1 X71.140 Y122.705 E677.0505
G1 X70.581 Y122.705
G1 X44.300 Y96.576 E678.8994
G1 X44.300 Y97.132
G1 X70.021 Y122.705 E680.7089
G1 X69.462 Y122.705
G1 X44.300 Y97.689 E682.4791
G1 X44.300 Y98.245
G1 X68.902 Y122.705 E684.2099
G1 X68.342 Y122.705
G1 X44.300 Y98.801 E685.9013
G1 X44.300 Y99.358
G1 X67.783 Y122.705 E687.5533
G1 X67.223 Y122.705
G1 X44.300 Y99.914 E689.1660
G1 X44.300 Y100.470
G1 X66.664 Y122.705 E690.7393
G1 X66.104 Y122.705
G1 X44.300 Y101.027 E692.2732
G1 X44.300 Y101.583
G1 X65.544 Y122.705 E693.7678
G1 X64.985 Y122.705
G1 X44.300 Y102.140 E695.2230
G1 X44.300 Y102.696
G1 X64.425 Y122.705 E696.6388
G1 X63.865 Y122.705
G1 X44.300 Y103.252 E698.0153
G1 X44.300 Y103.809
G1 X54.349 Y113.800 E698.7223
G1 X53.697 Y113.708
G1 X44.300 Y104.365 E699.3833
G1 X44.300 Y104.922
G1 X53.235 Y113.805 E700.0119
G1 X89.088 Y114.399 F10800
G1 X53.781 Y79.295 E702.4959 F3600
G1 X53.221 Y79.295
G1 X88.444 Y114.315 E704.9738
G1 X87.961 Y114.391
G1 X52.662 Y79.295 E707.4572
G1 X52.102 Y79.295
G1 X87.559 Y114.548 E709.9517
G1 X87.195 Y114.742
G1 X51.542 Y79.295 E712.4600
G1 X50.983 Y79.295
G1 X86.917 Y115.022 E714.9880
G1 X86.668 Y115.331
G1 X50.423 Y79.295 E717.5379
G1 X49.863 Y79.295
G1 X86.479 Y115.700 E720.1139
G1 X86.366 Y116.144
G1 X49.304 Y79.295 E722.7213
G1 X48.744 Y79.295
G1 X54.473 Y84.991 E723.1243
G1 X55.290 Y86.359 F10800
G1 X86.550 Y117.439 E725.3236 F3600
;segType:Support
G1 F4800 E724.3236
G1 X44.100 Y124.900 F10800
G1 F4800 E725.3236
G1 X103.900 Y124.900 E727.8595 F5400
G1 F4800 E726.8595
G1 X103.900 Y120.100 F10800
G1 F4800 E727.8595
G1 X102.100 Y120.100 E727.9358 F5400
G1 F4800 E726.9358
G1 X102.100 Y123.700 F10800
G1 F4800 E727.9358
G1 X103.900 Y123.700 E728.0122 F5400
G1 F4800 E727.0122
G1 X102.100 Y121.300 F10800
G1 F4800 E728.0122
G1 X103.900 Y121.300 E728.0885 F5400
G1 F4800 E727.0885
G1 X101.285 Y121.047 F10800
G1 X54.215 Y116.500
G1 F4800 E728.0885
G1 X53.125 Y116.500 E728.1348 F5400
G1 F4800 E727.1348
G1 X99.522 Y102.858 F10800
G1 X102.100 Y102.100
G1 F4800 E728.1348
G1 X103.900 Y102.100 E728.2111 F5400
G1 X103.900 Y99.700 E728.3130
G1 X102.100 Y99.700 E728.3893
G1 X103.900 Y98.500 E728.4810
G1 X102.100 Y98.500 E728.5574
G1 F4800 E727.5574
G1 X102.100 Y85.300 F10800
G1 F4800 E728.5574
G1 X103.900 Y85.300 E728.6338 F5400
G1 X102.100 Y84.100 E728.7255
G1 X103.900 Y84.100 E728.8018
G1 X103.900 Y81.700 E728.9037
G1 X102.100 Y81.700 E728.9800
G1 X102.100 Y80.500 E729.0308
G1 X103.900 Y80.500 E729.1072
G1 F4800 E728.1072
G1 X165.003 Y74.502 F10800
G1 X167.100 Y74.500
G1 F4800 E729.1072
G1 X167.700 Y74.500 E729.1327 F5400
G1 F4800 E728.1327
G1 X165.387 Y75.850 F10800
G1 X149.202 Y85.300
G1 F4800 E729.1327
G1 X149.700 Y85.300 E729.1538 F5400
G1 X151.800 Y85.600 E729.2437
G1 X153.600 Y85.600 E729.3201
G1 X153.715 Y85.584 E729.3250
; ------------------------------------
; Layer #4
; ------------------------------------
G21 ; mm
G90 ; abs
G92 E0 ; reset extr
M106 S255
;segType:Support
G1 F4800 E-1.0000
G1 F300 Z1.500
G1 X151.800 Y83.800 F10800
G1 F4800 E0.0000
G1 X153.600 Y83.800 E0.0763 F5400
G1 X153.600 Y85.600 E0.1527
G1 X151.800 Y85.600 E0.2290
G1 F4800 E-0.7710
G1 X152.703 Y73.903 F10800
G1 F4800 E0.2290
G1 X152.400 Y73.600 E0.2472 F5400
G1 X156.600 Y73.600 E0.4253
G1 X156.297 Y73.903 E0.4434
G1 F4800 E-0.5566
G1 X134.697 Y73.903 F10800
G1 F4800 E0.4434
G1 X135.000 Y73.600 E0.4616 F5400
G1 X134.400 Y73.600 E0.4870
G1 F4800 E-0.5130
G1 X127.200 Y73.600 F10800
G1 F4800 E0.4870
G1 X127.800 Y73.600 E0.5125 F5400
G1 X127.497 Y73.903 E0.5306
G1 F4800 E-0.4694
G1 X130.800 Y73.600 F10800
G1 F4800 E0.5306
G1 X131.400 Y73.600 E0.5561 F5400
G1 X131.097 Y73.903 E0.5742
G1 F4800 E-0.4258
G1 X120.297 Y73.903 F10800
G1 F4800 E0.5742
G1 X120.600 Y73.600 E0.5924 F5400
G1 X116.400 Y73.600 E0.7705
G1 X116.703 Y73.903 E0.7887
G1 F4800 E-0.2113
G1 X109.497 Y73.903 F10800
G1 F4800 E0.7887
G1 X109.800 Y73.600 E0.8069 F5400
G1 X109.200 Y73.600 E0.8323
G1 F4800 E-0.1677
G1 X103.900 Y80.800 F10800
G1 F4800 E0.8323
G1 X102.100 Y80.800 E0.9086 F5400
G1 F4800 E-0.0914
G1 X102.600 Y88.000 F10800
G1 F4800 E0.9086
G1 X102.100 Y88.000 E0.9298 F5400
G1 F4800 E-0.0702
G1 X102.100 Y92.100 F10800
G1 F4800 E0.9298
G1 X102.600 Y91.600 E0.9598 F5400
G1 X102.100 Y91.600 E0.9810
G1 F4800 E-0.0190
G1 X102.100 Y88.100 F10800
G1 F4800 E0.9810
G1 X102.600 Y88.600 E1.0110 F5400
G1 X102.100 Y88.600 E1.0322
G1 F4800 E0.0322
G1 X102.100 Y92.200 F10800
G1 F4800 E1.0322
G1 X103.900 Y92.200 E1.1085 F5400
G1 F4800 E0.1085
G1 X103.900 Y95.200 F10800
G1 F4800 E1.1085
G1 X102.100 Y95.200 E1.1849 F5400
G1 F4800 E0.1849
G1 X102.100 Y99.300 F10800
G1 F4800 E1.1849
G1 X102.600 Y98.800 E1.2149 F5400
G1 X102.100 Y98.800 E1.2361
G1 F4800 E0.2361
G1 X102.100 Y106.600 F10800
G1 F4800 E1.2361
G1 X103.900 Y106.600 E1.3124 F5400
G1 F4800 E0.3124
G1 X103.900 Y109.600 F10800
G1 F4800 E1.3124
G1 X102.100 Y109.600 E1.3887 F5400
G1 X102.100 Y109.700 E1.3930
G1 X102.600 Y110.200 E1.4229
G1 X102.100 Y110.200 E1.4441
G1 F4800 E0.4441
G1 X102.100 Y117.300 F10800
G1 F4800 E1.4441
G1 X102.600 Y116.800 E1.4741 F5400
G1 X102.100 Y116.800 E1.4953
G1 X102.100 Y117.400 E1.5207
G1 X103.900 Y117.400 E1.5971
G1 F4800 E0.5971
G1 X102.100 Y120.400 F10800
G1 F4800 E1.5971
G1 X102.600 Y120.400 E1.6183 F5400
G1 X102.100 Y120.900 E1.6483
G1 F4800 E0.6483
G1 X102.100 Y124.000 F10800
G1 F4800 E1.6483
G1 X102.600 Y124.000 E1.6695 F5400
G1 X102.000 Y124.600 E1.7054
G1 X102.600 Y124.600 E1.7308
G1 F4800 E0.7308
G1 X99.969 Y124.039 F10800
G1 X97.338 Y123.478
G1 X94.707 Y122.917
G1 X53.255 Y113.807
G1 X52.450 Y114.382
G1 F4800 E1.7308
;segType:HShell
G1 X44.300 Y122.485 E2.3042 F3600
;segType:Perimeter
G1 X44.358 Y122.971 F10800
G1 X43.700 Y123.242 E2.3397 F2159
G1 X43.700 Y78.699 E4.5620
G1 X101.300 Y78.699 E7.4356
G1 X101.300 Y123.301 E9.6609
G1 X43.759 Y123.301 E12.5316
G1 X44.032 Y122.647
;segType:Loop
G1 X44.100 Y122.219 F10800
G1 X44.100 Y79.097 E14.6830 F3600
G1 X100.900 Y79.097 E17.5167
G1 X100.900 Y122.904 E19.7023
G1 X44.100 Y122.904 E22.5360
G1 X44.100 Y122.416 E22.5604
;segType:HShell
G1 X88.300 Y79.295 F10800
G1 X53.685 Y113.710 E24.9956 F3600
;segType:Perimeter
G1 X53.309 Y113.861 F10800
G1 X53.862 Y114.307 E25.0310 F2159
G1 X54.230 Y114.385 E25.0498
G1 X54.604 Y114.639 E25.0724
G1 X54.888 Y115.021 E25.0961
G1 X55.066 Y115.489 E25.1211
G1 X55.127 Y116.000 E25.1468
G1 X55.066 Y116.511 E25.1725
G1 X54.888 Y116.979 E25.1974
G1 X54.604 Y117.361 E25.2212
G1 X54.230 Y117.616 E25.2438
G1 X53.798 Y117.704 E25.2657
G1 X53.670 Y117.677 E25.2723
G1 X53.500 Y117.704 E25.2809
G1 X53.127 Y117.644 E25.2997
G1 X52.792 Y117.473 E25.3185
G1 X52.525 Y117.207 E25.3373
G1 X52.355 Y116.872 E25.3560
G1 X52.295 Y116.500 E25.3748
G1 X52.355 Y116.128 E25.3937
G1 X52.495 Y115.851 E25.4091
G1 X52.544 Y115.487 E25.4275
G1 X52.721 Y115.021 E25.4523
G1 X53.005 Y114.639 E25.4761
G1 X53.378 Y114.385 E25.4986
G1 X53.746 Y114.307 E25.5174
G1 X54.299 Y113.861
;segType:Loop
G1 X55.044 Y114.562 F10800
G1 X55.243 Y114.829 E25.5340 F3600
G1 X55.457 Y115.394 E25.5641
G1 X55.529 Y116.000 E25.5946
G1 X55.457 Y116.606 E25.6250
G1 X55.243 Y117.171 E25.6552
G1 X54.885 Y117.651 E25.6851
G1 X54.389 Y117.989 E25.7150
G1 X53.797 Y118.111 E25.7452
G1 X53.660 Y118.082 E25.7521
G1 X53.500 Y118.107 E25.7602
G1 X53.000 Y118.027 E25.7855
G1 X52.553 Y117.799 E25.8106
G1 X52.196 Y117.443 E25.8357
G1 X51.969 Y116.996 E25.8607
G1 X51.889 Y116.500 E25.8857
G1 X51.969 Y116.003 E25.9108
G1 X52.108 Y115.732 E25.9260
G1 X52.153 Y115.390 E25.9433
G1 X52.366 Y114.829 E25.9732
G1 X52.724 Y114.349 E26.0031
G1 X53.217 Y114.012 E26.0329
G1 X53.804 Y113.888 E26.0628
G1 X54.391 Y114.012 E26.0927
G1 X54.885 Y114.349 E26.1226
G1 X54.927 Y114.404 E26.1260
;segType:HShell
G1 X62.558 Y79.295 F10800
G1 X55.300 Y86.511 E26.6366 F3600
;segType:Perimeter
G1 X55.220 Y86.540 F10800
G1 X54.620 Y86.922 E26.6721 F2159
G1 X54.475 Y87.207 E26.6880
G1 X54.208 Y87.473 E26.7068
G1 X53.873 Y87.644 E26.7256
G1 X53.500 Y87.704 E26.7444
G1 X53.127 Y87.644 E26.7633
G1 X52.792 Y87.473 E26.7821
G1 X52.525 Y87.207 E26.8009
G1 X52.355 Y86.872 E26.8196
G1 X52.295 Y86.500 E26.8384
G1 X52.355 Y86.128 E26.8572
G1 X52.525 Y85.793 E26.8760
G1 X52.792 Y85.526 E26.8948
G1 X53.127 Y85.356 E26.9136
G1 X53.500 Y85.296 E26.9324
G1 X53.873 Y85.356 E26.9513
G1 X54.208 Y85.526 E26.9700
G1 X54.475 Y85.793 E26.9889
G1 X54.646 Y86.128 E27.0076
G1 X54.700 Y86.472 E27.0250
G1 X54.655 Y86.811 E27.0420
G1 X54.933 Y87.463
;segType:Loop
G1 X54.097 Y87.977 F10800
G1 X53.999 Y88.027 E27.0476 F3600
G1 X53.500 Y88.106 E27.0728
G1 X53.001 Y88.027 E27.0980
G1 X52.553 Y87.799 E27.1231
G1 X52.196 Y87.443 E27.1482
G1 X51.969 Y86.996 E27.1732
G1 X51.889 Y86.500 E27.1983
G1 X51.969 Y86.004 E27.2233
G1 X52.196 Y85.557 E27.2483
G1 X52.553 Y85.201 E27.2734
G1 X53.001 Y84.973 E27.2985
G1 X53.500 Y84.893 E27.3238
G1 X53.999 Y84.973 E27.3490
G1 X54.447 Y85.201 E27.3741
G1 X54.803 Y85.557 E27.3992
G1 X55.031 Y86.004 E27.4242
G1 X55.104 Y86.467 E27.4476
G1 X55.034 Y86.989 E27.4739
G1 X54.803 Y87.443 E27.4993
G1 X54.447 Y87.799 E27.5244
G1 X54.273 Y87.887 E27.5341
;segType:HShell
G1 X89.950 Y84.888 F10800
G1 X95.575 Y79.295 E27.9299 F3600
G1 X96.135 Y79.295
G1 X90.229 Y85.167 E28.3453
;segType:Perimeter
G1 X89.520 Y85.114 F10800
G1 X89.478 Y85.821 E28.3807 F2159
G1 X89.651 Y86.159 E28.3996
G1 X89.705 Y86.500 E28.4169
G1 X89.646 Y86.872 E28.4356
G1 X89.475 Y87.207 E28.4544
G1 X89.208 Y87.473 E28.4732
G1 X88.873 Y87.644 E28.4920
G1 X88.500 Y87.704 E28.5108
G1 X88.127 Y87.644 E28.5296
G1 X87.792 Y87.473 E28.5484
G1 X87.525 Y87.207 E28.5673
G1 X87.355 Y86.872 E28.5860
G1 X87.294 Y86.500 E28.6048
G1 X87.355 Y86.128 E28.6236
G1 X87.525 Y85.793 E28.6423
G1 X87.792 Y85.526 E28.6612
G1 X88.127 Y85.356 E28.6799
G1 X88.500 Y85.296 E28.6988
G1 X88.873 Y85.356 E28.7176
G1 X89.178 Y85.511 E28.7347
G1 X89.408 Y85.727 E28.7505
G1 X90.102 Y85.889
;segType:Loop
G1 X90.053 Y86.857 F10800
G1 X90.031 Y86.995 E28.7575 F3600
G1 X89.804 Y87.443 E28.7825
G1 X89.447 Y87.799 E28.8077
G1 X88.999 Y88.027 E28.8328
G1 X88.500 Y88.106 E28.8580
G1 X88.001 Y88.027 E28.8831
G1 X87.553 Y87.799 E28.9083
G1 X87.196 Y87.443 E28.9334
G1 X86.970 Y86.996 E28.9584
G1 X86.889 Y86.500 E28.9835
G1 X86.970 Y86.004 E29.0085
G1 X87.196 Y85.557 E29.0335
G1 X87.553 Y85.201 E29.0587
G1 X88.001 Y84.973 E29.0837
G1 X88.500 Y84.893 E29.1090
G1 X88.999 Y84.973 E29.1342
G1 X89.411 Y85.183 E29.1572
G1 X89.777 Y85.526 E29.1823
G1 X90.036 Y86.035 E29.2108
G1 X90.109 Y86.500 E29.2343
G1 X90.084 Y86.662 E29.2424
;segType:HShell
G1 X100.700 Y106.470 F10800
G1 X90.679 Y116.433 E29.9474 F3600
;segType:Perimeter
G1 X90.219 Y116.538 F10800
G1 X89.620 Y116.922 E29.9829 F2159
G1 X89.475 Y117.207 E29.9989
G1 X89.208 Y117.474 E30.0177
G1 X88.873 Y117.644 E30.0364
G1 X88.500 Y117.704 E30.0553
G1 X88.127 Y117.644 E30.0741
G1 X87.792 Y117.474 E30.0929
G1 X87.525 Y117.207 E30.1117
G1 X87.355 Y116.872 E30.1305
G1 X87.294 Y116.500 E30.1493
G1 X87.355 Y116.128 E30.1681
G1 X87.525 Y115.793 E30.1868
G1 X87.792 Y115.526 E30.2056
G1 X88.127 Y115.355 E30.2244
G1 X88.500 Y115.297 E30.2433
G1 X88.873 Y115.355 E30.2621
G1 X89.208 Y115.526 E30.2809
G1 X89.475 Y115.793 E30.2997
G1 X89.646 Y116.128 E30.3185
G1 X89.699 Y116.466 E30.3355
G1 X89.655 Y116.810 E30.3529
G1 X89.934 Y117.462
;segType:Loop
G1 X89.098 Y117.977 F10800
G1 X88.999 Y118.027 E30.3584 F3600
G1 X88.500 Y118.107 E30.3836
G1 X88.001 Y118.027 E30.4088
G1 X87.553 Y117.799 E30.4339
G1 X87.196 Y117.443 E30.4590
G1 X86.970 Y116.996 E30.4840
G1 X86.889 Y116.500 E30.5091
G1 X86.970 Y116.004 E30.5342
G1 X87.196 Y115.557 E30.5592
G1 X87.553 Y115.201 E30.5843
G1 X88.002 Y114.973 E30.6094
G1 X88.500 Y114.894 E30.6346
G1 X88.998 Y114.973 E30.6598
G1 X89.447 Y115.201 E30.6849
G1 X89.804 Y115.557 E30.7100
G1 X90.031 Y116.004 E30.7351
G1 X90.103 Y116.460 E30.7581
G1 X90.035 Y116.987 E30.7846
G1 X89.804 Y117.443 E30.8101
G1 X89.447 Y117.799 E30.8352
G1 X89.274 Y117.887 E30.8449
;segType:Infill
G1 X89.063 Y118.217 F10800
G1 X89.845 Y118.217 E30.8839 F5400
;segType:HShell
G1 X100.600 Y122.705 F10800
G1 X100.700 Y122.605 E30.8910 F3600
G1 X100.700 Y122.049
G1 X100.040 Y122.705 E30.9374
G1 X99.481 Y122.705
G1 X100.700 Y121.493 E31.0232
G1 X100.700 Y120.936
G1 X98.921 Y122.705 E31.1483
G1 X98.362 Y122.705
G1 X100.700 Y120.380 E31.3128
G1 X100.700 Y119.823
G1 X97.802 Y122.705 E31.5167
G1 X97.242 Y122.705
G1 X100.700 Y119.267 E31.7600
G1 X100.700 Y118.711
G1 X96.683 Y122.705 E32.0426
G1 X96.123 Y122.705
G1 X100.700 Y118.154 E32.3646
G1 X100.700 Y117.598
G1 X95.563 Y122.705 E32.7259
G1 X95.004 Y122.705
G1 X100.700 Y117.042 E33.1267
G1 X100.700 Y116.485
G1 X94.444 Y122.705 E33.5668
G1 X93.885 Y122.705
G1 X100.700 Y115.929 E34.0463
G1 X100.700 Y115.372
G1 X93.325 Y122.705 E34.5651
G1 X92.765 Y122.705
G1 X100.700 Y114.816 E35.1233
G1 X100.700 Y114.260
G1 X92.206 Y122.705 E35.7209
G1 X91.646 Y122.705
G1 X100.700 Y113.703 E36.3579
G1 X100.700 Y113.147
G1 X91.087 Y122.705 E37.0342
G1 X90.527 Y122.705
G1 X100.700 Y112.590 E37.7499
G1 X100.700 Y112.034
G1 X89.967 Y122.705 E38.5049
G1 X89.408 Y122.705
G1 X100.700 Y111.478 E39.2994
G1 X100.700 Y110.921
G1 X88.848 Y122.705 E40.1332
G1 X88.288 Y122.705
G1 X100.700 Y110.365 E41.0064
G1 X100.700 Y109.809
G1 X87.729 Y122.705 E41.9189
G1 X87.169 Y122.705
G1 X100.700 Y109.252 E42.8708
G1 X100.700 Y108.696
G1 X86.610 Y122.705 E43.8621
G1 X86.050 Y122.705
G1 X100.700 Y108.139 E44.8928
G1 X100.700 Y107.583
G1 X85.490 Y122.705 E45.9628
G1 X84.931 Y122.705
G1 X89.052 Y118.607 E46.2528
G1 X88.418 Y118.681
G1 X84.371 Y122.705 E46.5375
G1 X83.812 Y122.705
G1 X87.935 Y118.605 E46.8276
G1 X87.539 Y118.442
G1 X83.252 Y122.705 E47.1292
G1 X82.692 Y122.705
G1 X87.180 Y118.243 E47.4449
G1 X86.902 Y117.963
G1 X82.133 Y122.705 E47.7804
G1 X81.573 Y122.705
G1 X86.657 Y117.650 E48.1381
G1 X86.469 Y117.280
G1 X81.013 Y122.705 E48.5220
G1 X80.454 Y122.705
G1 X86.362 Y116.830 E48.9377
G1 X86.343 Y116.294
G1 X79.894 Y122.705 E49.3913
G1 X79.335 Y122.705
G1 X86.581 Y115.500 E49.9011
G1 X90.600 Y87.024 F10800
G1 X98.373 Y79.295 E50.4480 F3600
G1 X97.814 Y79.295
G1 X90.673 Y86.395 E50.9503
G1 X90.596 Y85.914
G1 X97.254 Y79.295 E51.4187
G1 X96.694 Y79.295
G1 X90.431 Y85.523 E51.8594
;segType:Infill
G1 X90.149 Y85.087 F10800
G1 X89.600 Y85.087 E51.8868 F5400
G1 X89.902 Y86.500 F10800
G1 X87.097 Y116.500
G1 X87.364 Y117.322
G1 X87.937 Y118.217
G1 X87.155 Y118.217 E51.9258 F5400
G1 X87.358 Y115.648 F10800
G1 X89.715 Y85.850
G1 X89.634 Y84.646
;segType:HShell
G1 X95.015 Y79.295 E52.3044 F3600
G1 X94.456 Y79.295
G1 X89.264 Y84.458 E52.6697
G1 X88.808 Y84.354
G1 X93.896 Y79.295 E53.0276
G1 X93.337 Y79.295
G1 X88.259 Y84.344 E53.3849
;segType:Infill
G1 X88.319 Y84.334 F10800
G1 X88.319 Y84.721 E53.4042 F5400
;segType:HShell
G1 X87.740 Y79.295 F10800
G1 X52.731 Y114.103 E55.8671 F3600
G1 X86.627 Y85.410 F10800
G1 X55.714 Y116.145 E58.0420 F3600
;segType:Infill
G1 X88.319 Y88.666 F10800
G1 X88.319 Y88.279 E58.0613 F5400
G1 X87.364 Y87.322 F10800
G1 X87.097 Y86.500
G1 X87.426 Y84.616
;segType:HShell
G1 X92.777 Y79.295 E58.4377 F3600
G1 X92.217 Y79.295
G1 X55.685 Y115.616 E61.0078
G1 X55.583 Y115.162
G1 X91.658 Y79.295 E63.5458
G1 X91.098 Y79.295
G1 X55.430 Y114.758 E66.0551
G1 X55.197 Y114.433
G1 X90.539 Y79.295 E68.5415
G1 X89.979 Y79.295
G1 X54.932 Y114.140 E71.0071
G1 X54.600 Y113.913
G1 X89.419 Y79.295 E73.4567
G1 X88.860 Y79.295
G1 X54.189 Y113.766 E75.8958
;segType:Infill
G1 X88.319 Y118.279 F10800
G1 X88.319 Y118.666 E75.9151 F5400
;segType:HShell
G1 X54.168 Y118.238 F10800
G1 X49.675 Y122.705 E76.2312 F3600
G1 X49.115 Y122.705
G1 X53.544 Y118.302 E76.5428
G1 X53.050 Y118.236
G1 X48.556 Y122.705 E76.8590
G1 X47.996 Y122.705
G1 X52.654 Y118.074 E77.1867
G1 X52.321 Y117.849
G1 X47.436 Y122.705 E77.5303
G1 X46.877 Y122.705
G1 X52.041 Y117.570 E77.8937
G1 X51.851 Y117.203
G1 X46.317 Y122.705 E78.2829
G1 X45.758 Y122.705
G1 X51.730 Y116.767 E78.7031
G1 X51.734 Y116.206
G1 X45.198 Y122.705 E79.1630
G1 X44.638 Y122.705
G1 X51.945 Y115.441 E79.6770
G1 X44.650 Y79.295 F10800
G1 X44.300 Y79.643 E79.7016 F3600
G1 X44.300 Y80.200
G1 X45.210 Y79.295 E79.7656
G1 X45.769 Y79.295
G1 X44.300 Y80.756 E79.8689
G1 X44.300 Y81.313
G1 X46.329 Y79.295 E80.0117
G1 X46.889 Y79.295
G1 X44.300 Y81.869 E80.1938
G1 X44.300 Y82.425
G1 X47.448 Y79.295 E80.4153
G1 X48.008 Y79.295
G1 X44.300 Y82.982 E80.6761
G1 X44.300 Y83.538
G1 X48.567 Y79.295 E80.9763
G1 X49.127 Y79.295
G1 X44.300 Y84.094 E81.3159
G1 X44.300 Y84.651
G1 X49.687 Y79.295 E81.6949
G1 X50.246 Y79.295
G1 X44.300 Y85.207 E82.1132
G1 X44.300 Y85.764
G1 X50.806 Y79.295 E82.5709
G1 X51.365 Y79.295
G1 X44.300 Y86.320 E83.0680
G1 X44.300 Y86.876
G1 X51.925 Y79.295 E83.6044
G1 X52.485 Y79.295
G1 X44.300 Y87.433 E84.1802
G1 X44.300 Y87.989
G1 X53.044 Y79.295 E84.7954
G1 X53.604 Y79.295
G1 X44.300 Y88.545 E85.4499
G1 X44.300 Y89.102
G1 X54.164 Y79.295 E86.1438
G1 X54.723 Y79.295
G1 X44.300 Y89.658 E86.8771
G1 X44.300 Y90.215
G1 X55.283 Y79.295 E87.6498
G1 X55.842 Y79.295
G1 X44.300 Y90.771 E88.4618
G1 X44.300 Y91.327
G1 X56.402 Y79.295 E89.3132
G1 X56.962 Y79.295
G1 X44.300 Y91.884 E90.2040
G1 X44.300 Y92.440
G1 X57.521 Y79.295 E91.1341
G1 X58.081 Y79.295
G1 X44.300 Y92.997 E92.1036
G1 X44.300 Y93.553
G1 X51.743 Y86.153 E92.6272
G1 X51.724 Y86.728
G1 X44.300 Y94.109 E93.1495
G1 X44.300 Y94.666
G1 X51.836 Y87.174 E93.6797
G1 X52.024 Y87.543
G1 X44.300 Y95.222 E94.2230
G1 X44.300 Y95.778
G1 X52.298 Y87.826 E94.7857
G1 X52.624 Y88.059
G1 X44.300 Y96.335 E95.3714
G1 X44.300 Y96.891
G1 X53.011 Y88.230 E95.9842
G1 X53.494 Y88.307
G1 X44.300 Y97.448 E96.6310
G1 X44.300 Y98.004
G1 X54.227 Y88.134 E97.3294
G1 X61.998 Y79.295 F10800
G1 X55.236 Y86.018 E97.8052 F3600
G1 X55.066 Y85.632
G1 X61.439 Y79.295 E98.2535
G1 X60.879 Y79.295
G1 X54.834 Y85.306 E98.6788
G1 X54.551 Y85.031
G1 X60.319 Y79.295 E99.0847
G1 X59.760 Y79.295
G1 X54.181 Y84.842 E99.4772
G1 X53.735 Y84.729
G1 X59.200 Y79.295 E99.8617
G1 X58.640 Y79.295
G1 X53.158 Y84.746 E100.2474
G1 X54.636 Y85.678 F10800
G1 X55.135 Y87.232
G1 X63.117 Y79.295 E100.8089 F3600
G1 X63.677 Y79.295
G1 X44.300 Y98.560 E102.1722
G1 X44.300 Y99.117
G1 X64.237 Y79.295 E103.5747
G1 X64.796 Y79.295
G1 X44.300 Y99.673 E105.0167
G1 X44.300 Y100.230
G1 X65.356 Y79.295 E106.4980
G1 X65.915 Y79.295
G1 X44.300 Y100.786 E108.0187
G1 X44.300 Y101.342
G1 X66.475 Y79.295 E109.5787
G1 X67.035 Y79.295
G1 X44.300 Y101.899 E111.1782
G1 X44.300 Y102.455
G1 X67.594 Y79.295 E112.8170
G1 X68.154 Y79.295
G1 X44.300 Y103.011 E114.4951
G1 X44.300 Y103.568
G1 X68.714 Y79.295 E116.2127
G1 X69.273 Y79.295
G1 X44.300 Y104.124 E117.9696
G1 X44.300 Y104.681
G1 X69.833 Y79.295 E119.7659
G1 X70.392 Y79.295
G1 X44.300 Y105.237 E121.6015
G1 X44.300 Y105.793
G1 X70.952 Y79.295 E123.4765
G1 X71.512 Y79.295
G1 X44.300 Y106.350 E125.3909
G1 X44.300 Y106.906
G1 X72.071 Y79.295 E127.3447
G1 X72.631 Y79.295
G1 X44.300 Y107.463 E129.3378
G1 X44.300 Y108.019
G1 X73.190 Y79.295 E131.3703
G1 X73.750 Y79.295
G1 X44.300 Y108.575 E133.4422
G1 X44.300 Y109.132
G1 X74.310 Y79.295 E135.5534
G1 X74.869 Y79.295
G1 X44.300 Y109.688 E137.7040
G1 X44.300 Y110.244
G1 X75.429 Y79.295 E139.8940
G1 X75.989 Y79.295
G1 X44.300 Y110.801 E142.1233
G1 X44.300 Y111.357
G1 X76.548 Y79.295 E144.3921
G1 X77.108 Y79.295
G1 X44.300 Y111.914 E146.7002
G1 X44.300 Y112.470
G1 X77.667 Y79.295 E149.0476
G1 X78.227 Y79.295
G1 X44.300 Y113.026 E151.4344
G1 X44.300 Y113.583
G1 X78.787 Y79.295 E153.8606
G1 X79.346 Y79.295
G1 X44.300 Y114.139 E156.3262
G1 X44.300 Y114.695
G1 X79.906 Y79.295 E158.8311
G1 X80.465 Y79.295
G1 X44.300 Y115.252 E161.3754
G1 X44.300 Y115.808
G1 X81.025 Y79.295 E163.9591
G1 X81.585 Y79.295
G1 X44.300 Y116.365 E166.5822
G1 X44.300 Y116.921
G1 X82.144 Y79.295 E169.2446
G1 X82.704 Y79.295
G1 X44.300 Y117.477 E171.9464
G1 X44.300 Y118.034
G1 X83.264 Y79.295 E174.6875
G1 X83.823 Y79.295
G1 X44.300 Y118.590 E177.4681
G1 X44.300 Y119.147
G1 X84.383 Y79.295 E180.2880
G1 X84.942 Y79.295
G1 X44.300 Y119.703 E183.1472
G1 X44.300 Y120.259
G1 X85.502 Y79.295 E186.0459
G1 X86.062 Y79.295
G1 X44.300 Y120.816 E188.9839
G1 X44.300 Y121.372
G1 X86.621 Y79.295 E191.9612
G1 X87.181 Y79.295
G1 X44.300 Y121.928 E194.9780
G1 X54.716 Y117.523 F10800
G1 X55.588 Y116.826
G1 X86.351 Y86.240 E197.1423 F3600
G1 X86.356 Y86.792
G1 X50.235 Y122.705 E199.6835
G1 X50.794 Y122.705
G1 X86.454 Y87.251 E202.1923
G1 X86.642 Y87.620
G1 X51.354 Y122.705 E204.6749
G1 X51.913 Y122.705
G1 X86.879 Y87.941 E207.1348
G1 X87.158 Y88.220
G1 X52.473 Y122.705 E209.5749
G1 X53.033 Y122.705
G1 X87.510 Y88.427 E212.0005
G1 X87.897 Y88.599
