; GCode generated by CraftWare

G28 X0 Y0
G28 Z0

M190 S60 ;set bed temp (wait)
M109 S215 ;set head temp (wait)
; ------------------------------------
; Layer #0
; ------------------------------------
G21 ; mm
G90 ; abs
G92 E0 ; reset extr
M106 S0
;segType:Skirt
G0 F4800 E-1.0000
G0 F300 Z0.100
G0 X91.380 Y111.060 F10800
G0 F4800 E0.0000
G1 X91.561 Y111.247 E0.0043 F600
G1 X91.802 Y111.371 E0.0088
G1 X117.876 Y111.371 E0.4424
G1 X118.298 Y111.309 E0.4495
G1 X120.954 Y108.568 E0.5130
G1 X120.954 Y92.118 E0.7866
G1 X120.894 Y91.683 E0.7939
G1 X118.238 Y88.941 E0.8574
G1 X91.681 Y88.941 E1.2990
G1 X89.026 Y91.683 E1.3625
G1 X88.965 Y92.118 E1.3698
G1 X88.965 Y108.568 E1.6434
G1 X91.380 Y111.060 E1.7011
G1 X91.380 Y111.434 E1.7073
G1 X91.561 Y111.621 E1.7116
G1 X91.802 Y111.745 E1.7161
G1 X117.876 Y111.745 E2.1497
G1 X118.298 Y111.683 E2.1568
G1 X121.316 Y108.568 E2.2290
G1 X121.316 Y92.118 E2.5025
G1 X121.256 Y91.683 E2.5098
G1 X118.238 Y88.567 E2.5820
G1 X91.681 Y88.567 E3.0236
G1 X88.784 Y91.558 E3.0928
G1 X88.603 Y91.869 E3.0988
G1 X88.603 Y108.568 E3.3765
G1 X91.380 Y111.434 E3.4429
G1 X91.500 Y111.932 E3.4514
G1 X91.681 Y112.119 E3.4557
G1 X118.117 Y112.119 E3.8954
G1 X118.362 Y111.968 E3.9001
G0 F4800 E2.9001
G0 X115.722 Y107.858 F10800
G0 X114.403 Y105.803
G0 X106.485 Y93.473
G0 F4800 E3.9001
;segType:HShell
G1 X93.559 Y106.817 E4.2091 F600
;segType:Perimeter
G0 X93.418 Y107.122 F10800
G1 X92.816 Y107.380 E4.2200 F360
G1 X92.816 Y92.854 E4.4615
G1 X117.234 Y92.854 E4.8676
G1 X117.234 Y107.436 E5.1101
G1 X92.870 Y107.436 E5.5153
G1 X93.120 Y106.814
;segType:Loop
G0 X93.216 Y106.407 F10800
G1 X93.216 Y93.267 E5.7338 F600
G1 X116.834 Y93.267 E6.1266
G1 X116.834 Y107.023 E6.3554
G1 X93.216 Y107.023 E6.7481
G1 X93.216 Y106.594 E6.7553
;segType:HShell
G0 X93.416 Y106.436 F10800
G1 X105.972 Y93.473 E7.0554 F600
G1 X105.459 Y93.473
G1 X93.416 Y105.907 E7.3433
G1 X93.416 Y105.377
G1 X104.947 Y93.473 E7.6189
G1 X104.434 Y93.473
G1 X93.416 Y104.848 E7.8822
G1 X93.416 Y104.319
G1 X103.921 Y93.473 E8.1333
G1 X103.409 Y93.473
G1 X93.416 Y103.790 E8.3722
G1 X93.416 Y103.260
G1 X102.896 Y93.473 E8.5988
G1 X102.383 Y93.473
G1 X93.416 Y102.731 E8.8131
G1 X93.416 Y102.202
G1 X101.871 Y93.473 E9.0152
G1 X101.358 Y93.473
G1 X93.416 Y101.673 E9.2051
G1 X93.416 Y101.144
G1 X100.845 Y93.473 E9.3827
G1 X100.333 Y93.473
G1 X93.416 Y100.614 E9.5480
G1 X93.416 Y100.085
G1 X99.820 Y93.473 E9.7011
G1 X99.307 Y93.473
G1 X93.416 Y99.556 E9.8419
G1 X93.416 Y99.027
G1 X98.795 Y93.473 E9.9705
G1 X98.282 Y93.473
G1 X93.416 Y98.497 E10.0868
G1 X93.416 Y97.968
G1 X97.769 Y93.473 E10.1909
G1 X97.257 Y93.473
G1 X93.416 Y97.439 E10.2827
G1 X93.416 Y96.910
G1 X96.744 Y93.473 E10.3622
G1 X96.232 Y93.473
G1 X93.416 Y96.380 E10.4295
G1 X93.416 Y95.851
G1 X95.719 Y93.473 E10.4846
G1 X95.206 Y93.473
G1 X93.416 Y95.322 E10.5274
G1 X93.416 Y94.793
G1 X94.694 Y93.473 E10.5579
G1 X94.181 Y93.473
G1 X93.416 Y94.264 E10.5762
G1 X93.416 Y93.734
G1 X93.668 Y93.473 E10.5823
G0 X106.997 Y93.473 F10800
G1 X94.072 Y106.817 E10.8912 F600
G1 X94.585 Y106.817
G1 X107.510 Y93.473 E11.2002
G1 X108.022 Y93.473
G1 X95.097 Y106.817 E11.5091
G1 X95.610 Y106.817
G1 X108.535 Y93.473 E11.8180
G1 X109.048 Y93.473
G1 X96.123 Y106.817 E12.1270
G1 X96.635 Y106.817
G1 X109.560 Y93.473 E12.4359
G1 X110.073 Y93.473
G1 X97.148 Y106.817 E12.7448
G1 X97.661 Y106.817
G1 X110.586 Y93.473 E13.0538
G1 X111.098 Y93.473
G1 X98.173 Y106.817 E13.3627
G1 X98.686 Y106.817
G1 X111.611 Y93.473 E13.6716
G1 X112.124 Y93.473
G1 X99.199 Y106.817 E13.9806
G1 X99.711 Y106.817
G1 X112.636 Y93.473 E14.2895
G1 X113.149 Y93.473
G1 X100.224 Y106.817 E14.5984
G1 X100.736 Y106.817
G1 X113.662 Y93.473 E14.9074
G1 X114.174 Y93.473
G1 X101.249 Y106.817 E15.2163
G1 X101.762 Y106.817
G1 X114.687 Y93.473 E15.5252
G1 X115.200 Y93.473
G1 X102.274 Y106.817 E15.8342
G1 X102.787 Y106.817
G1 X115.712 Y93.473 E16.1431
G1 X116.225 Y93.473
G1 X103.300 Y106.817 E16.4520
G1 X103.812 Y106.817
G1 X116.634 Y93.580 E16.7585
G1 X116.634 Y94.109
G1 X104.325 Y106.817 E17.0527
G1 X104.838 Y106.817
G1 X116.634 Y94.639 E17.3347
G1 X116.634 Y95.168
G1 X105.350 Y106.817 E17.6044
G1 X105.863 Y106.817
G1 X116.634 Y95.697 E17.8618
G1 X116.634 Y96.226
G1 X106.376 Y106.817 E18.1070
G1 X106.888 Y106.817
G1 X116.634 Y96.755 E18.3400
G1 X116.634 Y97.285
G1 X107.401 Y106.817 E18.5607
G1 X107.914 Y106.817
G1 X116.634 Y97.814 E18.7691
G1 X116.634 Y98.343
G1 X108.426 Y106.817 E18.9653
G1 X108.939 Y106.817
G1 X116.634 Y98.872 E19.1492
G1 X116.634 Y99.402
G1 X109.452 Y106.817 E19.3209
G1 X109.964 Y106.817
G1 X116.634 Y99.931 E19.4803
G1 X116.634 Y100.460
G1 X110.477 Y106.817 E19.6275
G1 X110.989 Y106.817
G1 X116.634 Y100.989 E19.7624
G1 X116.634 Y101.519
G1 X111.502 Y106.817 E19.8851
G1 X112.015 Y106.817
G1 X116.634 Y102.048 E19.9955
G1 X116.634 Y102.577
G1 X112.527 Y106.817 E20.0936
G1 X113.040 Y106.817
G1 X116.634 Y103.106 E20.1795
G1 X116.634 Y103.635
G1 X113.553 Y106.817 E20.2532
G1 X114.065 Y106.817
G1 X116.634 Y104.165 E20.3146
G1 X116.634 Y104.694
G1 X114.578 Y106.817 E20.3637
G1 X115.091 Y106.817
G1 X116.634 Y105.223 E20.4006
G1 X116.634 Y105.752
G1 X115.603 Y106.817 E20.4253
G1 X116.116 Y106.817
G1 X116.634 Y106.282 E20.4376
;segType:Support
G0 F4800 E19.4376
G0 X94.200 Y91.000 F10800
G0 F4800 E20.4376
G1 X117.600 Y91.000 E20.7684 F900
; ------------------------------------
; Layer #1
; ------------------------------------
G21 ; mm
G90 ; abs
G92 E0 ; reset extr
M106 S0
;segType:HShell
G0 F4800 E-1.0000
G0 F300 Z0.200
G0 X93.663 Y106.817 F10800
G0 F4800 E0.0000
G1 X93.410 Y106.556 E0.0061 F3600
;segType:Loop
G0 X93.210 Y106.407 F10800
G1 X93.210 Y93.268 E0.2246 F3600
G1 X116.829 Y93.268 E0.6173
G1 X116.829 Y107.023 E0.8461
G1 X93.210 Y107.023 E1.2389
G1 X93.210 Y106.594 E1.2460
;segType:Perimeter
G0 X93.413 Y107.123 F10800
G1 X92.810 Y107.380 E1.2569 F2160
G1 X92.810 Y92.854 E1.4985
G1 X117.229 Y92.854 E1.9046
G1 X117.229 Y107.436 E2.1471
G1 X92.864 Y107.436 E2.5523
G1 X93.114 Y106.814
G0 X99.911 Y100.670 F10800
G0 X100.542 Y99.629
;segType:HShell
G1 X107.505 Y106.817 E2.7187 F3600
G1 X106.992 Y106.817
G1 X100.542 Y100.158 E2.8729
;segType:Perimeter
G0 X100.397 Y99.449 F10800
G1 X99.959 Y99.949 E2.8839 F2160
G1 X99.942 Y100.129 E2.8869
G1 X99.873 Y100.355 E2.8908
G1 X99.762 Y100.564 E2.8948
G1 X99.612 Y100.746 E2.8987
G1 X99.431 Y100.895 E2.9026
G1 X99.225 Y101.005 E2.9065
G1 X99.002 Y101.073 E2.9104
G1 X98.770 Y101.096 E2.9142
G1 X98.537 Y101.073 E2.9181
G1 X98.314 Y101.006 E2.9220
G1 X98.107 Y100.895 E2.9259
G1 X97.926 Y100.746 E2.9298
G1 X97.776 Y100.565 E2.9337
G1 X97.665 Y100.357 E2.9376
G1 X97.596 Y100.130 E2.9416
G1 X97.573 Y99.895 E2.9455
G1 X97.596 Y99.658 E2.9495
G1 X97.665 Y99.432 E2.9534
G1 X97.776 Y99.224 E2.9573
G1 X97.925 Y99.042 E2.9612
G1 X98.106 Y98.893 E2.9651
G1 X98.313 Y98.782 E2.9690
G1 X98.536 Y98.714 E2.9729
G1 X98.768 Y98.691 E2.9768
G1 X99.001 Y98.714 E2.9807
G1 X99.224 Y98.782 E2.9846
G1 X99.430 Y98.892 E2.9884
G1 X99.612 Y99.041 E2.9923
G1 X99.761 Y99.223 E2.9963
G1 X99.873 Y99.431 E3.0002
G1 X99.942 Y99.657 E3.0041
G1 X99.959 Y99.837 E3.0071
G1 X100.397 Y100.337
;segType:Loop
G0 X99.821 Y101.102 F10800
G1 X99.650 Y101.243 E3.0108 F3600
G1 X99.375 Y101.390 E3.0160
G1 X99.078 Y101.480 E3.0212
G1 X98.770 Y101.511 E3.0263
G1 X98.462 Y101.481 E3.0315
G1 X98.164 Y101.391 E3.0366
G1 X97.889 Y101.243 E3.0418
G1 X97.647 Y101.045 E3.0470
G1 X97.446 Y100.800 E3.0523
G1 X97.296 Y100.520 E3.0576
G1 X97.203 Y100.214 E3.0629
G1 X97.171 Y99.895 E3.0682
G1 X97.202 Y99.575 E3.0736
G1 X97.295 Y99.269 E3.0789
G1 X97.445 Y98.988 E3.0842
G1 X97.645 Y98.744 E3.0894
G1 X97.888 Y98.545 E3.0947
G1 X98.163 Y98.397 E3.0999
G1 X98.460 Y98.307 E3.1050
G1 X98.768 Y98.277 E3.1102
G1 X99.076 Y98.307 E3.1153
G1 X99.373 Y98.397 E3.1205
G1 X99.649 Y98.543 E3.1257
G1 X99.892 Y98.743 E3.1309
G1 X100.092 Y98.987 E3.1362
G1 X100.242 Y99.268 E3.1415
G1 X100.335 Y99.574 E3.1468
G1 X100.367 Y99.893 E3.1521
G1 X100.335 Y100.212 E3.1574
G1 X100.243 Y100.518 E3.1627
G1 X100.093 Y100.799 E3.1680
G1 X100.093 Y100.799
G0 X109.629 Y101.216 F10800
G0 X110.891 Y102.374
;segType:HShell
G1 X115.195 Y106.817 E3.2709 F3600
G1 X115.707 Y106.817
G1 X110.667 Y101.614 E3.3914
;segType:Perimeter
G0 X110.731 Y102.053 F10800
G1 X110.294 Y102.553 E3.4024 F2160
G1 X110.277 Y102.732 E3.4054
G1 X110.209 Y102.958 E3.4093
G1 X110.098 Y103.165 E3.4132
G1 X109.949 Y103.347 E3.4171
G1 X109.769 Y103.495 E3.4210
G1 X109.563 Y103.605 E3.4249
G1 X109.341 Y103.673 E3.4288
G1 X109.109 Y103.696 E3.4326
G1 X108.878 Y103.673 E3.4365
G1 X108.655 Y103.606 E3.4404
G1 X108.449 Y103.496 E3.4443
G1 X108.269 Y103.348 E3.4481
G1 X108.120 Y103.167 E3.4521
G1 X108.008 Y102.960 E3.4560
G1 X107.940 Y102.734 E3.4599
G1 X107.917 Y102.499 E3.4638
G1 X107.940 Y102.264 E3.4677
G1 X108.008 Y102.038 E3.4717
G1 X108.119 Y101.831 E3.4756
G1 X108.267 Y101.649 E3.4795
G1 X108.448 Y101.501 E3.4834
G1 X108.654 Y101.391 E3.4872
G1 X108.876 Y101.323 E3.4911
G1 X109.107 Y101.300 E3.4950
G1 X109.338 Y101.323 E3.4988
G1 X109.561 Y101.390 E3.5027
G1 X109.767 Y101.500 E3.5066
G1 X109.948 Y101.648 E3.5105
G1 X110.097 Y101.829 E3.5144
G1 X110.208 Y102.036 E3.5183
G1 X110.277 Y102.262 E3.5222
G1 X110.294 Y102.441 E3.5252
G1 X110.732 Y102.941
;segType:Loop
G0 X110.159 Y103.703 F10800
G1 X109.987 Y103.843 E3.5289 F3600
G1 X109.713 Y103.990 E3.5341
G1 X109.417 Y104.080 E3.5392
G1 X109.110 Y104.111 E3.5443
G1 X108.802 Y104.081 E3.5495
G1 X108.506 Y103.991 E3.5546
G1 X108.231 Y103.845 E3.5598
G1 X107.989 Y103.646 E3.5650
G1 X107.789 Y103.403 E3.5703
G1 X107.639 Y103.123 E3.5755
G1 X107.546 Y102.818 E3.5808
G1 X107.515 Y102.499 E3.5862
G1 X107.546 Y102.181 E3.5915
G1 X107.638 Y101.875 E3.5968
G1 X107.787 Y101.596 E3.6021
G1 X107.987 Y101.351 E3.6073
G1 X108.229 Y101.153 E3.6125
G1 X108.503 Y101.006 E3.6177
G1 X108.800 Y100.915 E3.6228
G1 X109.107 Y100.885 E3.6280
G1 X109.414 Y100.915 E3.6331
G1 X109.711 Y101.005 E3.6383
G1 X109.985 Y101.151 E3.6434
G1 X110.227 Y101.350 E3.6486
G1 X110.428 Y101.593 E3.6539
G1 X110.577 Y101.873 E3.6592
G1 X110.670 Y102.178 E3.6645
G1 X110.702 Y102.497 E3.6698
G1 X110.671 Y102.815 E3.6751
G1 X110.579 Y103.120 E3.6804
G1 X110.429 Y103.401 E3.6857
G1 X110.429 Y103.401
;segType:HShell
G0 X108.589 Y104.231 F10800
G1 X111.093 Y106.817 E3.7456 F3600
G1 X111.606 Y106.817
G1 X109.179 Y104.311 E3.8036
G1 X109.617 Y104.235
G1 X112.119 Y106.817 E3.8634
G1 X112.631 Y106.817
G1 X109.980 Y104.080 E3.9267
G1 X110.283 Y103.864
G1 X113.144 Y106.817 E3.9951
G1 X113.657 Y106.817
G1 X110.533 Y103.593 E4.0698
G1 X110.729 Y103.266
G1 X114.169 Y106.817 E4.1520
G1 X114.682 Y106.817
G1 X110.862 Y102.874 E4.2433
G0 X116.111 Y93.474 F10800
G1 X116.629 Y94.008 E4.2557 F3600
G1 X116.629 Y94.538
G1 X115.598 Y93.474 E4.2803
G1 X115.086 Y93.474
G1 X116.629 Y95.067 E4.3172
G1 X116.629 Y95.596
G1 X114.573 Y93.474 E4.3663
G1 X114.060 Y93.474
G1 X116.629 Y96.125 E4.4277
G1 X116.629 Y96.655
G1 X113.548 Y93.474 E4.5013
G1 X113.035 Y93.474
G1 X116.629 Y97.184 E4.5872
G1 X116.629 Y97.713
G1 X112.523 Y93.474 E4.6854
G1 X112.010 Y93.474
G1 X116.629 Y98.242 E4.7958
G1 X116.629 Y98.771
G1 X111.497 Y93.474 E4.9184
G1 X110.985 Y93.474
G1 X116.629 Y99.301 E5.0533
G1 X116.629 Y99.830
G1 X110.472 Y93.474 E5.2005
G1 X109.959 Y93.474
G1 X116.629 Y100.359 E5.3599
G1 X116.629 Y100.888
G1 X109.447 Y93.474 E5.5316
G1 X108.934 Y93.474
G1 X116.629 Y101.418 E5.7155
G1 X116.629 Y101.947
G1 X108.421 Y93.474 E5.9117
G1 X107.909 Y93.474
G1 X116.629 Y102.476 E6.1201
G1 X116.629 Y103.005
G1 X107.396 Y93.474 E6.3408
G1 X106.883 Y93.474
G1 X116.629 Y103.534 E6.5737
G1 X116.629 Y104.064
G1 X106.371 Y93.474 E6.8189
G1 X105.858 Y93.474
G1 X116.629 Y104.593 E7.0763
G1 X116.629 Y105.122
G1 X105.345 Y93.474 E7.3460
G1 X104.833 Y93.474
G1 X116.629 Y105.651 E7.6280
G1 X116.629 Y106.181
G1 X104.320 Y93.474 E7.9222
G1 X103.807 Y93.474
G1 X116.629 Y106.710 E8.2286
G1 X116.220 Y106.817
G1 X103.295 Y93.474 E8.5376
G1 X102.782 Y93.474
G1 X110.003 Y100.928 E8.7102
G1 X109.262 Y100.693
G1 X102.269 Y93.474 E8.8773
G1 X101.757 Y93.474
G1 X108.767 Y100.711 E9.0449
G1 X108.379 Y100.840
G1 X101.244 Y93.474 E9.2154
G1 X100.732 Y93.474
G1 X108.054 Y101.033 E9.3904
G1 X107.782 Y101.282
G1 X100.219 Y93.474 E9.5712
G1 X99.706 Y93.474
G1 X107.564 Y101.586 E9.7590
G1 X107.406 Y101.951
G1 X99.194 Y93.474 E9.9553
G1 X98.681 Y93.474
G1 X107.324 Y102.396 E10.1619
G1 X107.390 Y102.994
G1 X98.168 Y93.474 E10.3823
G1 X97.656 Y93.474
G1 X110.581 Y106.817 E10.6912
G1 X110.068 Y106.817
G1 X97.143 Y93.474 E11.0001
G1 X96.630 Y93.474
G1 X109.555 Y106.817 E11.3091
G1 X109.043 Y106.817
G1 X96.118 Y93.474 E11.6180
G1 X95.605 Y93.474
G1 X108.530 Y106.817 E11.9270
G1 X108.018 Y106.817
G1 X95.092 Y93.474 E12.2359
G1 X94.580 Y93.474
G1 X99.059 Y98.098 E12.3429
G1 X98.540 Y98.092
G1 X94.067 Y93.474 E12.4499
G1 X93.554 Y93.474
G1 X98.126 Y98.193 E12.5591
G1 X97.783 Y98.368
G1 X93.410 Y93.854 E12.6636
G1 X93.410 Y94.383
G1 X97.498 Y98.604 E12.7614
G1 X97.267 Y98.894
G1 X93.410 Y94.913 E12.8535
G1 X93.410 Y95.442
G1 X97.093 Y99.244 E12.9416
G1 X96.992 Y99.669
G1 X93.410 Y95.971 E13.0272
G1 X93.410 Y96.500
G1 X97.001 Y100.207 E13.1130
G0 X94.176 Y106.817 F10800
G1 X93.410 Y106.026 E13.1313 F3600
G1 X93.410 Y105.497
G1 X94.689 Y106.817 E13.1619
G1 X95.201 Y106.817
G1 X93.410 Y104.968 E13.2047
G1 X93.410 Y104.439
G1 X95.714 Y106.817 E13.2598
G1 X96.227 Y106.817
G1 X93.410 Y103.909 E13.3271
G1 X93.410 Y103.380
G1 X96.739 Y106.817 E13.4066
G1 X97.252 Y106.817
G1 X93.410 Y102.851 E13.4985
G1 X93.410 Y102.322
G1 X97.765 Y106.817 E13.6025
G1 X98.277 Y106.817
G1 X93.410 Y101.793 E13.7189
G1 X93.410 Y101.263
G1 X98.790 Y106.817 E13.8475
G1 X99.302 Y106.817
G1 X93.410 Y100.734 E13.9883
G1 X93.410 Y100.205
G1 X99.815 Y106.817 E14.1414
G1 X100.328 Y106.817
G1 X93.410 Y99.676 E14.3067
G1 X93.410 Y99.146
G1 X100.840 Y106.817 E14.4843
G1 X101.353 Y106.817
G1 X93.410 Y98.617 E14.6742
G1 X93.410 Y98.088
G1 X101.866 Y106.817 E14.8763
G1 X102.378 Y106.817
G1 X93.410 Y97.559 E15.0907
G1 X93.410 Y97.029
G1 X102.891 Y106.817 E15.3173
G1 X103.404 Y106.817
G1 X98.433 Y101.685 E15.4361
G1 X98.959 Y101.699
G1 X103.916 Y106.817 E15.5546
G1 X104.429 Y106.817
G1 X99.379 Y101.604 E15.6753
G1 X99.727 Y101.434
G1 X104.942 Y106.817 E15.7999
G1 X105.454 Y106.817
G1 X100.018 Y101.205 E15.9298
G1 X100.255 Y100.921
G1 X105.967 Y106.817 E16.0664
G1 X106.480 Y106.817
G1 X100.434 Y100.576 E16.2109
;segType:SoftSupport
G0 F4800 E15.2109
G0 X99.138 Y100.000 F10800
G0 F4800 E16.2109
G1 X98.399 Y100.000 E16.2164 F5400
;segType:Support
G0 F4800 E15.2164
G0 X117.600 Y91.000 F10800
G0 F4800 E16.2164
G1 X94.200 Y91.000 E16.5472 F5400
; ------------------------------------
; Layer #2
; ------------------------------------
G21 ; mm
G90 ; abs
G92 E0 ; reset extr
M106 S0
;segType:Support
G0 F4800 E-1.0000
G0 F300 Z0.300
G0 X94.200 Y91.000 F10800
G0 F4800 E0.0000
G1 X117.600 Y91.000 E0.3308 F5400
;segType:SoftSupport
G0 F4800 E-0.6692
G0 X109.033 Y100.000 F10800
G0 F4800 E0.3308
G1 X108.600 Y100.000 E0.3340 F5400
G0 F4800 E-0.6660
G0 X106.451 Y100.974 F10800
G0 X93.558 Y106.818
G0 F4800 E0.3340
;segType:HShell
G1 X98.532 Y101.683 E0.4529 F3600
G1 X99.049 Y101.678
G1 X94.071 Y106.818 E0.5719
;segType:Perimeter
G0 X93.407 Y107.123 F10800
G1 X92.805 Y107.381 E0.5828 F2160
G1 X92.805 Y92.855 E0.8244
G1 X117.223 Y92.855 E1.2304
G1 X117.223 Y107.437 E1.4729
G1 X92.859 Y107.437 E1.8781
G1 X93.109 Y106.815
;segType:Loop
G0 X93.205 Y106.408 F10800
G1 X93.205 Y93.268 E2.0966 F3600
G1 X116.823 Y93.268 E2.4894
G1 X116.823 Y107.024 E2.7182
G1 X93.205 Y107.024 E3.1110
G1 X93.205 Y106.595 E3.1181
G0 X99.902 Y100.662 F10800
G0 X100.420 Y99.205
;segType:HShell
G1 X105.971 Y93.474 E3.2508 F3600
G1 X105.458 Y93.474
G1 X100.238 Y98.864 E3.3755
;segType:Perimeter
G0 X100.384 Y99.447 F10800
G1 X99.947 Y99.948 E3.3866 F2160
G1 X99.930 Y100.126 E3.3896
G1 X99.863 Y100.350 E3.3935
G1 X99.753 Y100.556 E3.3973
G1 X99.605 Y100.736 E3.4012
G1 X99.425 Y100.884 E3.4051
G1 X99.221 Y100.993 E3.4089
G1 X99.001 Y101.061 E3.4128
G1 X98.771 Y101.084 E3.4166
G1 X98.541 Y101.062 E3.4205
G1 X98.320 Y100.995 E3.4243
G1 X98.115 Y100.886 E3.4281
G1 X97.935 Y100.739 E3.4320
G1 X97.787 Y100.559 E3.4359
G1 X97.677 Y100.353 E3.4398
G1 X97.608 Y100.129 E3.4437
G1 X97.585 Y99.896 E3.4476
G1 X97.608 Y99.662 E3.4515
G1 X97.675 Y99.438 E3.4554
G1 X97.785 Y99.232 E3.4593
G1 X97.933 Y99.051 E3.4631
G1 X98.112 Y98.903 E3.4670
G1 X98.316 Y98.794 E3.4708
G1 X98.537 Y98.727 E3.4747
G1 X98.767 Y98.704 E3.4785
G1 X98.997 Y98.726 E3.4824
G1 X99.218 Y98.793 E3.4862
G1 X99.423 Y98.902 E3.4901
G1 X99.602 Y99.049 E3.4939
G1 X99.751 Y99.228 E3.4978
G1 X99.861 Y99.435 E3.5017
G1 X99.929 Y99.658 E3.5056
G1 X99.947 Y99.836 E3.5086
G1 X100.385 Y100.335
;segType:Loop
G0 X99.814 Y101.092 F10800
G1 X99.644 Y101.232 E3.5122 F3600
G1 X99.372 Y101.378 E3.5174
G1 X99.077 Y101.468 E3.5225
G1 X98.771 Y101.499 E3.5276
G1 X98.465 Y101.469 E3.5327
G1 X98.171 Y101.380 E3.5378
G1 X97.897 Y101.235 E3.5430
G1 X97.656 Y101.037 E3.5481
G1 X97.457 Y100.795 E3.5534
G1 X97.308 Y100.517 E3.5586
G1 X97.215 Y100.213 E3.5639
G1 X97.183 Y99.896 E3.5692
G1 X97.214 Y99.579 E3.5745
G1 X97.305 Y99.275 E3.5798
G1 X97.454 Y98.996 E3.5850
G1 X97.653 Y98.754 E3.5902
G1 X97.893 Y98.555 E3.5954
G1 X98.166 Y98.409 E3.6006
G1 X98.460 Y98.320 E3.6057
G1 X98.766 Y98.289 E3.6108
G1 X99.072 Y98.318 E3.6159
G1 X99.367 Y98.407 E3.6210
G1 X99.640 Y98.553 E3.6262
G1 X99.881 Y98.750 E3.6314
G1 X100.081 Y98.992 E3.6366
G1 X100.231 Y99.271 E3.6418
G1 X100.323 Y99.574 E3.6471
G1 X100.355 Y99.891 E3.6524
G1 X100.324 Y100.208 E3.6577
G1 X100.232 Y100.512 E3.6630
G1 X100.084 Y100.791 E3.6682
G1 X100.084 Y100.791
G0 X108.640 Y98.593 F10800
G0 X110.226 Y99.137
;segType:HShell
G1 X115.711 Y93.474 E3.7993 F3600
G1 X116.224 Y93.474
G1 X110.373 Y99.514 E3.9392
;segType:Perimeter
G0 X110.271 Y99.542 F10800
G1 X109.834 Y100.043 E3.9502 F2160
G1 X109.816 Y100.223 E3.9532
G1 X109.747 Y100.450 E3.9572
G1 X109.636 Y100.659 E3.9611
G1 X109.486 Y100.842 E3.9651
G1 X109.304 Y100.991 E3.9690
G1 X109.097 Y101.102 E3.9729
G1 X108.873 Y101.170 E3.9768
G1 X108.640 Y101.193 E3.9807
G1 X108.407 Y101.170 E3.9846
G1 X108.183 Y101.102 E3.9885
G1 X107.976 Y100.991 E3.9924
G1 X107.794 Y100.842 E3.9963
G1 X107.644 Y100.660 E4.0002
G1 X107.532 Y100.451 E4.0041
G1 X107.463 Y100.224 E4.0081
G1 X107.440 Y99.987 E4.0120
G1 X107.463 Y99.750 E4.0160
G1 X107.532 Y99.523 E4.0199
G1 X107.644 Y99.314 E4.0239
G1 X107.794 Y99.132 E4.0278
G1 X107.975 Y98.982 E4.0317
G1 X108.182 Y98.872 E4.0356
G1 X108.407 Y98.803 E4.0395
G1 X108.640 Y98.781 E4.0434
G1 X108.873 Y98.803 E4.0473
G1 X109.097 Y98.871 E4.0512
G1 X109.304 Y98.982 E4.0551
G1 X109.486 Y99.132 E4.0590
G1 X109.636 Y99.314 E4.0630
G1 X109.747 Y99.523 E4.0669
G1 X109.816 Y99.750 E4.0708
G1 X109.834 Y99.931 E4.0739
G1 X110.272 Y100.431
;segType:Loop
G0 X109.899 Y101.119 F10800
G1 X109.977 Y101.161 E4.0753 F3600
G1 X110.218 Y101.357 E4.0805
G1 X110.417 Y101.599 E4.0857
G1 X110.565 Y101.876 E4.0909
G1 X110.658 Y102.179 E4.0962
G1 X110.690 Y102.495 E4.1015
G1 X110.659 Y102.811 E4.1068
G1 X110.568 Y103.114 E4.1120
G1 X110.420 Y103.392 E4.1173
G1 X110.222 Y103.635 E4.1225
G1 X109.982 Y103.832 E4.1277
G1 X109.710 Y103.978 E4.1328
G1 X109.416 Y104.068 E4.1379
G1 X109.112 Y104.099 E4.1430
G1 X108.806 Y104.069 E4.1481
G1 X108.512 Y103.981 E4.1532
G1 X108.239 Y103.836 E4.1583
G1 X107.999 Y103.639 E4.1635
G1 X107.800 Y103.397 E4.1687
G1 X107.651 Y103.120 E4.1740
G1 X107.558 Y102.817 E4.1792
G1 X107.526 Y102.501 E4.1845
G1 X107.557 Y102.185 E4.1898
G1 X107.648 Y101.882 E4.1950
G1 X107.796 Y101.604 E4.2003
G1 X107.935 Y101.434 E4.2039
G1 X107.757 Y101.340 E4.2073
G1 X107.514 Y101.140 E4.2125
G1 X107.313 Y100.895 E4.2178
G1 X107.163 Y100.614 E4.2231
G1 X107.070 Y100.307 E4.2284
G1 X107.038 Y99.987 E4.2338
G1 X107.069 Y99.667 E4.2391
G1 X107.162 Y99.360 E4.2444
G1 X107.313 Y99.078 E4.2497
G1 X107.514 Y98.834 E4.2550
G1 X107.757 Y98.634 E4.2602
G1 X108.033 Y98.487 E4.2654
G1 X108.331 Y98.396 E4.2706
G1 X108.640 Y98.366 E4.2758
G1 X108.948 Y98.396 E4.2809
G1 X109.247 Y98.486 E4.2861
G1 X109.522 Y98.634 E4.2913
G1 X109.765 Y98.833 E4.2966
G1 X109.967 Y99.078 E4.3018
G1 X110.117 Y99.360 E4.3071
G1 X110.210 Y99.666 E4.3125
G1 X110.242 Y99.987 E4.3178
G1 X110.210 Y100.307 E4.3232
G1 X110.117 Y100.614 E4.3285
G1 X109.967 Y100.895 E4.3338
G1 X109.967 Y100.895
;segType:HShell
G0 X110.742 Y101.779 F10800
G1 X116.623 Y95.708 E4.4744 F3600
G1 X116.623 Y96.237
G1 X110.860 Y102.187 E4.6121
;segType:Perimeter
G0 X110.719 Y102.051 F10800
G1 X110.282 Y102.552 E4.6232 F2160
G1 X110.265 Y102.728 E4.6261
G1 X110.198 Y102.952 E4.6300
G1 X110.089 Y103.157 E4.6339
G1 X109.942 Y103.337 E4.6377
G1 X109.763 Y103.485 E4.6416
G1 X109.560 Y103.594 E4.6454
G1 X109.339 Y103.661 E4.6493
G1 X109.111 Y103.684 E4.6531
G1 X108.882 Y103.662 E4.6569
G1 X108.661 Y103.596 E4.6607
G1 X108.457 Y103.487 E4.6646
G1 X108.278 Y103.340 E4.6684
G1 X108.130 Y103.161 E4.6723
G1 X108.020 Y102.956 E4.6762
G1 X107.952 Y102.733 E4.6800
G1 X107.929 Y102.500 E4.6839
G1 X107.951 Y102.268 E4.6878
G1 X108.018 Y102.044 E4.6917
G1 X108.128 Y101.838 E4.6956
G1 X108.275 Y101.659 E4.6994
G1 X108.453 Y101.511 E4.7033
G1 X108.657 Y101.402 E4.7071
G1 X108.877 Y101.335 E4.7109
G1 X109.106 Y101.312 E4.7148
G1 X109.335 Y101.334 E4.7186
G1 X109.556 Y101.401 E4.7224
G1 X109.759 Y101.509 E4.7263
G1 X109.938 Y101.655 E4.7301
G1 X110.086 Y101.835 E4.7340
G1 X110.196 Y102.040 E4.7378
G1 X110.265 Y102.263 E4.7417
G1 X110.282 Y102.440 E4.7447
G1 X110.721 Y102.939
;segType:HShell
G0 X110.486 Y103.632 F10800
G1 X116.623 Y97.296 E4.8914 F3600
G1 X116.623 Y96.767
G1 X110.871 Y102.705 E5.0289
G0 X110.553 Y101.446 F10800
G1 X116.623 Y95.179 E5.1740 F3600
G1 X116.623 Y94.650
G1 X110.309 Y101.168 E5.3249
G1 X110.323 Y100.624
G1 X116.623 Y94.121 E5.4755
G1 X116.623 Y93.591
G1 X110.441 Y99.973 E5.6232
G0 X110.018 Y98.822 F10800
G1 X115.199 Y93.474 E5.7471 F3600
G1 X114.686 Y93.474
G1 X109.757 Y98.563 E5.8649
G1 X109.442 Y98.358
G1 X114.173 Y93.474 E5.9779
G1 X113.661 Y93.474
G1 X109.067 Y98.217 E6.0877
G1 X108.608 Y98.162
G1 X113.148 Y93.474 E6.1963
G1 X112.635 Y93.474
G1 X107.970 Y98.290 E6.3078
G0 X100.531 Y100.149 F10800
G1 X106.996 Y93.474 E6.4623 F3600
G1 X106.484 Y93.474
G1 X100.529 Y99.622 E6.6046
G0 X99.998 Y98.582 F10800
G1 X104.946 Y93.474 E6.7229 F3600
G1 X104.433 Y93.474
G1 X99.705 Y98.355 E6.8359
G1 X99.354 Y98.188
G1 X103.920 Y93.474 E6.9450
G1 X103.408 Y93.474
G1 X98.930 Y98.097 E7.0521
G1 X98.389 Y98.126
G1 X102.895 Y93.474 E7.1598
G1 X102.382 Y93.474
G1 X93.405 Y102.742 E7.3744
G1 X93.405 Y102.213
G1 X101.870 Y93.474 E7.5767
G1 X101.357 Y93.474
G1 X93.405 Y101.684 E7.7668
G1 X93.405 Y101.155
G1 X100.844 Y93.474 E7.9446
G1 X100.332 Y93.474
G1 X93.405 Y100.626 E8.1102
G1 X93.405 Y100.096
G1 X99.819 Y93.474 E8.2635
G1 X99.306 Y93.474
G1 X93.405 Y99.567 E8.4045
G1 X93.405 Y99.038
G1 X98.794 Y93.474 E8.5333
G1 X98.281 Y93.474
G1 X93.405 Y98.509 E8.6499
G1 X93.405 Y97.979
G1 X97.769 Y93.474 E8.7542
G1 X97.256 Y93.474
G1 X93.405 Y97.450 E8.8463
G1 X93.405 Y96.921
G1 X96.743 Y93.474 E8.9261
G1 X96.231 Y93.474
G1 X93.405 Y96.392 E8.9936
G1 X93.405 Y95.862
G1 X95.718 Y93.474 E9.0489
G1 X95.205 Y93.474
G1 X93.405 Y95.333 E9.0919
G1 X93.405 Y94.804
G1 X94.693 Y93.474 E9.1227
G1 X94.180 Y93.474
G1 X93.405 Y94.275 E9.1412
G1 X93.405 Y93.746
G1 X93.667 Y93.474 E9.1475
G0 X106.961 Y99.332 F10800
G1 X99.710 Y106.818 E9.3208 F3600
G1 X99.198 Y106.818
G1 X112.123 Y93.474 E9.6298
G1 X111.610 Y93.474
G1 X98.685 Y106.818 E9.9387
G1 X98.172 Y106.818
G1 X111.097 Y93.474 E10.2476
G1 X110.585 Y93.474
G1 X97.660 Y106.818 E10.5566
G1 X97.147 Y106.818
G1 X110.072 Y93.474 E10.8655
G1 X109.559 Y93.474
G1 X96.634 Y106.818 E11.1744
G1 X96.122 Y106.818
G1 X109.047 Y93.474 E11.4834
G1 X108.534 Y93.474
G1 X95.609 Y106.818 E11.7923
G1 X95.096 Y106.818
G1 X108.022 Y93.474 E12.1012
G1 X107.509 Y93.474
G1 X94.584 Y106.818 E12.4102
G0 X93.405 Y106.447 F10800
G1 X98.119 Y101.580 E12.5229 F3600
G1 X97.779 Y101.402
G1 X93.405 Y105.918 E12.6274
G1 X93.405 Y105.389
G1 X97.497 Y101.163 E12.7253
G1 X97.269 Y100.870
G1 X93.405 Y104.859 E12.8176
G1 X93.405 Y104.330
G1 X97.098 Y100.517 E12.9059
G1 X97.001 Y100.088
G1 X93.405 Y103.801 E12.9918
G1 X93.405 Y103.272
G1 X97.017 Y99.543 E13.0782
G0 X97.809 Y100.873 F10800
G0 X98.507 Y101.245
G0 X109.343 Y104.283
G1 X106.887 Y106.818 E13.1369 F3600
G1 X106.375 Y106.818
G1 X108.834 Y104.279 E13.1956
G1 X108.428 Y104.169
G1 X105.862 Y106.818 E13.2570
G1 X105.349 Y106.818
G1 X108.096 Y103.982 E13.3226
G1 X107.819 Y103.739
G1 X104.837 Y106.818 E13.3939
G1 X104.324 Y106.818
G1 X107.595 Y103.441 E13.4721
G1 X107.430 Y103.082
G1 X103.811 Y106.818 E13.5586
G1 X103.299 Y106.818
G1 X107.340 Y102.646 E13.6551
G1 X107.382 Y102.074
G1 X102.786 Y106.818 E13.7650
G1 X102.273 Y106.818
G1 X107.516 Y101.405 E13.8903
G1 X107.256 Y101.145
G1 X101.761 Y106.818 E14.0216
G1 X101.248 Y106.818
G1 X107.049 Y100.829 E14.1603
G1 X106.903 Y100.450
G1 X100.736 Y106.818 E14.3077
G1 X100.223 Y106.818
G1 X106.837 Y99.990 E14.4658
G0 X107.877 Y101.149 F10800
G0 X108.372 Y101.354
G0 X108.623 Y101.379
G0 X108.902 Y101.145
G0 X109.623 Y101.227
G0 X116.623 Y106.293
G1 X116.115 Y106.818 E14.4779 F3600
G1 X115.602 Y106.818
G1 X116.623 Y105.764 E14.5023
G1 X116.623 Y105.234
G1 X115.090 Y106.818 E14.5390
G1 X114.577 Y106.818
G1 X116.623 Y104.705 E14.5879
G1 X116.623 Y104.176
G1 X114.064 Y106.818 E14.6491
G1 X113.552 Y106.818
G1 X116.623 Y103.647 E14.7225
G1 X116.623 Y103.117
G1 X113.039 Y106.818 E14.8082
G1 X112.527 Y106.818
G1 X116.623 Y102.588 E14.9061
G1 X116.623 Y102.059
G1 X112.014 Y106.818 E15.0163
G1 X111.501 Y106.818
G1 X116.623 Y101.530 E15.1387
G1 X116.623 Y101.001
G1 X110.989 Y106.818 E15.2734
G1 X110.476 Y106.818
G1 X116.623 Y100.471 E15.4203
G1 X116.623 Y99.942
G1 X109.963 Y106.818 E15.5795
G1 X109.451 Y106.818
G1 X116.623 Y99.413 E15.7509
G1 X116.623 Y98.884
G1 X108.938 Y106.818 E15.9346
G1 X108.425 Y106.818
G1 X116.623 Y98.354 E16.1306
G1 X116.623 Y97.825
G1 X107.913 Y106.818 E16.3388
G1 X107.400 Y106.818
G1 X110.248 Y103.877 E16.4068
G0 F4800 E15.4068
G0 X108.460 Y104.117 F10800
G0 X100.794 Y100.945
G0 X98.412 Y100.000
G0 F4800 E16.4068
;segType:Support
G1 X99.126 Y100.000 E16.4169 F5400
; ------------------------------------
; Layer #3
; ------------------------------------
G21 ; mm
G90 ; abs
G92 E0 ; reset extr
M106 S255
;segType:Support
G0 F4800 E-1.0000
G0 F300 Z0.400
G0 X99.096 Y100.000 F10800
G0 F4800 E0.0000
G1 X98.425 Y100.000 E0.0095 F5400
G0 F4800 E-0.9905
G0 X96.683 Y102.136 F10800
G0 X93.199 Y106.408
G0 F4800 E0.0095
;segType:Loop
G1 X93.199 Y93.268 E0.2280 F3600
G1 X116.818 Y93.268 E0.6208
G1 X116.818 Y107.024 E0.8495
G1 X93.199 Y107.024 E1.2423
G1 X93.199 Y106.595 E1.2494
;segType:Perimeter
G0 X93.402 Y107.124 F10800
G1 X92.799 Y107.381 E1.2604 F2160
G1 X92.799 Y92.855 E1.5019
G1 X117.218 Y92.855 E1.9080
G1 X117.218 Y107.437 E2.1505
G1 X92.854 Y107.437 E2.5557
G1 X93.103 Y106.815
;segType:HShell
G0 X103.112 Y103.340 F10800
G1 X100.416 Y100.557 E2.6201 F3600
G1 X100.238 Y100.903
G1 X102.490 Y103.228 E2.6739
G1 X102.176 Y103.433
G1 X100.233 Y101.427 E2.7204
;segType:Perimeter
G0 X100.298 Y101.869 F10800
G1 X99.861 Y102.369 E2.7314 F2160
G1 X99.842 Y102.550 E2.7344
G1 X99.774 Y102.777 E2.7384
G1 X99.662 Y102.985 E2.7423
G1 X99.512 Y103.168 E2.7463
G1 X99.330 Y103.317 E2.7502
G1 X99.124 Y103.428 E2.7541
G1 X98.899 Y103.496 E2.7580
G1 X98.666 Y103.519 E2.7619
G1 X98.434 Y103.496 E2.7657
G1 X98.210 Y103.428 E2.7696
G1 X98.003 Y103.318 E2.7735
G1 X97.821 Y103.168 E2.7775
G1 X97.671 Y102.986 E2.7814
G1 X97.559 Y102.777 E2.7853
G1 X97.490 Y102.550 E2.7893
G1 X97.467 Y102.313 E2.7932
G1 X97.490 Y102.077 E2.7972
G1 X97.559 Y101.850 E2.8011
G1 X97.671 Y101.641 E2.8051
G1 X97.821 Y101.458 E2.8090
G1 X98.002 Y101.309 E2.8129
G1 X98.209 Y101.198 E2.8168
G1 X98.433 Y101.130 E2.8207
G1 X98.666 Y101.107 E2.8246
G1 X98.899 Y101.130 E2.8285
G1 X99.123 Y101.198 E2.8324
G1 X99.330 Y101.309 E2.8363
G1 X99.512 Y101.458 E2.8402
G1 X99.662 Y101.641 E2.8441
G1 X99.774 Y101.849 E2.8481
G1 X99.842 Y102.077 E2.8520
G1 X99.861 Y102.257 E2.8550
G1 X100.298 Y102.757
;segType:Loop
G0 X99.807 Y101.082 F10800
G1 X99.752 Y101.128 E2.8562 F3600
G1 X99.792 Y101.160 E2.8571
G1 X99.993 Y101.405 E2.8623
G1 X100.143 Y101.686 E2.8676
G1 X100.236 Y101.993 E2.8730
G1 X100.268 Y102.313 E2.8783
G1 X100.236 Y102.633 E2.8837
G1 X100.143 Y102.940 E2.8890
G1 X99.993 Y103.221 E2.8943
G1 X99.792 Y103.466 E2.8996
G1 X99.549 Y103.666 E2.9048
G1 X99.274 Y103.813 E2.9100
G1 X98.976 Y103.904 E2.9152
G1 X98.666 Y103.934 E2.9203
G1 X98.358 Y103.904 E2.9255
G1 X98.060 Y103.813 E2.9307
G1 X97.784 Y103.666 E2.9359
G1 X97.541 Y103.466 E2.9411
G1 X97.340 Y103.221 E2.9464
G1 X97.189 Y102.940 E2.9517
G1 X97.097 Y102.633 E2.9570
G1 X97.065 Y102.313 E2.9624
G1 X97.097 Y101.994 E2.9677
G1 X97.189 Y101.687 E2.9730
G1 X97.340 Y101.405 E2.9783
G1 X97.541 Y101.160 E2.9836
G1 X97.683 Y101.044 E2.9867
G1 X97.666 Y101.030 E2.9870
G1 X97.468 Y100.790 E2.9922
G1 X97.319 Y100.514 E2.9974
G1 X97.227 Y100.213 E3.0027
G1 X97.195 Y99.898 E3.0079
G1 X97.225 Y99.583 E3.0132
G1 X97.316 Y99.281 E3.0184
G1 X97.463 Y99.005 E3.0236
G1 X97.660 Y98.763 E3.0288
G1 X97.899 Y98.567 E3.0339
G1 X98.169 Y98.421 E3.0391
G1 X98.462 Y98.331 E3.0441
G1 X98.765 Y98.301 E3.0492
G1 X99.068 Y98.330 E3.0543
G1 X99.361 Y98.418 E3.0594
G1 X99.632 Y98.562 E3.0645
G1 X99.872 Y98.757 E3.0696
G1 X100.070 Y98.998 E3.0748
G1 X100.219 Y99.274 E3.0800
G1 X100.311 Y99.575 E3.0853
G1 X100.343 Y99.889 E3.0905
G1 X100.312 Y100.204 E3.0958
G1 X100.222 Y100.506 E3.1010
G1 X100.074 Y100.783 E3.1062
G1 X100.074 Y100.783
G0 X108.377 Y101.342 F10800
G0 X108.641 Y101.368
G0 X109.130 Y101.274
G0 X109.880 Y101.122
G1 X109.969 Y101.170 E3.1079 F3600
G1 X110.208 Y101.365 E3.1130
G1 X110.405 Y101.604 E3.1182
G1 X110.554 Y101.879 E3.1234
G1 X110.646 Y102.179 E3.1286
G1 X110.678 Y102.493 E3.1339
G1 X110.648 Y102.807 E3.1391
G1 X110.557 Y103.108 E3.1443
G1 X110.411 Y103.384 E3.1495
G1 X110.214 Y103.625 E3.1547
G1 X109.976 Y103.821 E3.1598
G1 X109.707 Y103.966 E3.1649
G1 X109.415 Y104.056 E3.1700
G1 X109.113 Y104.086 E3.1750
G1 X108.810 Y104.057 E3.1801
G1 X108.518 Y103.970 E3.1852
G1 X108.248 Y103.827 E3.1903
G1 X108.009 Y103.632 E3.1954
G1 X107.811 Y103.392 E3.2006
G1 X107.663 Y103.117 E3.2058
G1 X107.571 Y102.816 E3.2110
G1 X107.539 Y102.503 E3.2162
G1 X107.569 Y102.189 E3.2215
G1 X107.659 Y101.888 E3.2267
G1 X107.806 Y101.612 E3.2319
G1 X107.954 Y101.431 E3.2358
G1 X107.765 Y101.331 E3.2393
G1 X107.524 Y101.133 E3.2445
G1 X107.324 Y100.890 E3.2497
G1 X107.174 Y100.611 E3.2550
G1 X107.082 Y100.306 E3.2603
G1 X107.050 Y99.989 E3.2656
G1 X107.081 Y99.671 E3.2709
G1 X107.173 Y99.366 E3.2762
G1 X107.322 Y99.087 E3.2815
G1 X107.521 Y98.844 E3.2867
G1 X107.762 Y98.645 E3.2919
G1 X108.036 Y98.498 E3.2971
G1 X108.331 Y98.408 E3.3022
G1 X108.638 Y98.378 E3.3073
G1 X108.944 Y98.408 E3.3124
G1 X109.240 Y98.497 E3.3176
G1 X109.514 Y98.643 E3.3227
G1 X109.755 Y98.841 E3.3279
G1 X109.955 Y99.084 E3.3332
G1 X110.105 Y99.363 E3.3384
G1 X110.198 Y99.667 E3.3437
G1 X110.230 Y99.985 E3.3490
G1 X110.198 Y100.303 E3.3543
G1 X110.107 Y100.607 E3.3596
G1 X109.958 Y100.887 E3.3649
G1 X109.958 Y100.887
;segType:Perimeter
G0 X110.259 Y99.541 F10800
G1 X109.822 Y100.041 E3.3759 F2160
G1 X109.805 Y100.220 E3.3789
G1 X109.737 Y100.445 E3.3828
G1 X109.626 Y100.651 E3.3867
G1 X109.478 Y100.832 E3.3906
G1 X109.298 Y100.981 E3.3945
G1 X109.093 Y101.090 E3.3984
G1 X108.872 Y101.158 E3.4022
G1 X108.641 Y101.181 E3.4061
G1 X108.411 Y101.158 E3.4099
G1 X108.188 Y101.091 E3.4138
G1 X107.983 Y100.982 E3.4177
G1 X107.803 Y100.835 E3.4215
G1 X107.655 Y100.654 E3.4254
G1 X107.544 Y100.447 E3.4293
G1 X107.475 Y100.222 E3.4332
G1 X107.452 Y99.988 E3.4371
G1 X107.475 Y99.754 E3.4410
G1 X107.543 Y99.529 E3.4450
G1 X107.653 Y99.322 E3.4489
G1 X107.801 Y99.141 E3.4527
G1 X107.981 Y98.993 E3.4566
G1 X108.186 Y98.883 E3.4605
G1 X108.408 Y98.816 E3.4643
G1 X108.638 Y98.793 E3.4682
G1 X108.869 Y98.815 E3.4720
G1 X109.091 Y98.882 E3.4759
G1 X109.296 Y98.992 E3.4798
G1 X109.476 Y99.139 E3.4836
G1 X109.625 Y99.320 E3.4875
G1 X109.736 Y99.526 E3.4914
G1 X109.804 Y99.751 E3.4953
G1 X109.822 Y99.929 E3.4983
G1 X110.260 Y100.429
;segType:HShell
G0 X109.962 Y104.062 F10800
G1 X110.504 Y104.621 E3.5113 F3600
G1 X111.034 Y104.639
G1 X110.267 Y103.847 E3.5296
G1 X110.517 Y103.575
G1 X111.456 Y104.545 E3.5521
G1 X111.805 Y104.377
G1 X110.711 Y103.247 E3.5782
G1 X110.843 Y102.854
G1 X112.097 Y104.149 E3.6082
G1 X112.337 Y103.867
G1 X110.864 Y102.346 E3.6434
;segType:Perimeter
G0 X110.706 Y102.049 F10800
G1 X110.270 Y102.550 E3.6544 F2160
G1 X110.254 Y102.725 E3.6574
G1 X110.187 Y102.946 E3.6612
G1 X110.079 Y103.150 E3.6650
G1 X109.934 Y103.328 E3.6689
G1 X109.757 Y103.474 E3.6727
G1 X109.556 Y103.582 E3.6765
G1 X109.338 Y103.649 E3.6803
G1 X109.112 Y103.672 E3.6840
G1 X108.885 Y103.650 E3.6878
G1 X108.667 Y103.585 E3.6916
G1 X108.465 Y103.478 E3.6954
G1 X108.288 Y103.333 E3.6992
G1 X108.141 Y103.155 E3.7030
G1 X108.032 Y102.952 E3.7069
G1 X107.964 Y102.732 E3.7107
G1 X107.941 Y102.501 E3.7146
G1 X107.963 Y102.271 E3.7184
G1 X108.029 Y102.050 E3.7223
G1 X108.137 Y101.846 E3.7261
G1 X108.283 Y101.668 E3.7299
G1 X108.459 Y101.522 E3.7337
G1 X108.660 Y101.414 E3.7375
G1 X108.878 Y101.347 E3.7413
G1 X109.105 Y101.324 E3.7451
G1 X109.331 Y101.346 E3.7489
G1 X109.550 Y101.411 E3.7527
G1 X109.751 Y101.518 E3.7565
G1 X109.929 Y101.663 E3.7603
G1 X110.075 Y101.840 E3.7641
G1 X110.185 Y102.043 E3.7679
G1 X110.252 Y102.264 E3.7718
G1 X110.270 Y102.439 E3.7747
G1 X110.709 Y102.937
G0 X108.851 Y103.834 F10800
G0 X100.371 Y99.445
G1 X99.935 Y99.947 E3.7857 F2160
G1 X99.918 Y100.122 E3.7887
G1 X99.852 Y100.344 E3.7925
G1 X99.743 Y100.548 E3.7964
G1 X99.597 Y100.727 E3.8002
G1 X99.420 Y100.873 E3.8040
G1 X99.218 Y100.982 E3.8078
G1 X98.999 Y101.049 E3.8116
G1 X98.772 Y101.072 E3.8154
G1 X98.545 Y101.050 E3.8192
G1 X98.326 Y100.984 E3.8230
G1 X98.123 Y100.877 E3.8269
G1 X97.945 Y100.731 E3.8307
G1 X97.798 Y100.553 E3.8345
G1 X97.689 Y100.350 E3.8384
G1 X97.620 Y100.128 E3.8422
G1 X97.597 Y99.897 E3.8461
G1 X97.619 Y99.666 E3.8500
G1 X97.686 Y99.444 E3.8538
G1 X97.795 Y99.239 E3.8577
G1 X97.941 Y99.060 E3.8615
G1 X98.118 Y98.914 E3.8653
G1 X98.320 Y98.806 E3.8691
G1 X98.539 Y98.739 E3.8729
G1 X98.766 Y98.716 E3.8767
G1 X98.993 Y98.737 E3.8805
G1 X99.213 Y98.803 E3.8843
G1 X99.415 Y98.911 E3.8881
G1 X99.593 Y99.056 E3.8920
G1 X99.740 Y99.234 E3.8958
G1 X99.849 Y99.438 E3.8997
G1 X99.917 Y99.660 E3.9035
G1 X99.935 Y99.835 E3.9064
G1 X100.374 Y100.333
G0 X99.286 Y101.155 F10800
G0 X98.772 Y101.259
G0 X98.511 Y101.234
G0 X98.275 Y101.164
G0 X98.252 Y100.970
;segType:HShell
G1 X98.529 Y101.256 E3.9131 F3600
G1 X99.038 Y101.252
G1 X98.701 Y100.903 E3.9211
G0 F4800 E2.9211
G0 X100.937 Y100.438 F10800
G0 X108.638 Y98.606
G0 X109.942 Y98.748
G0 F4800 E3.9211
G1 X110.047 Y98.857 E3.9236 F3600
G1 X109.782 Y98.584
G1 X109.855 Y98.659 E3.9254
G0 X110.605 Y101.550 F10800
G1 X112.520 Y103.527 E3.9712 F3600
G1 X112.630 Y103.111
G1 X110.607 Y101.022 E4.0195
G1 X111.121 Y101.024
G1 X112.635 Y102.587 E4.0557
G0 X110.801 Y101.955 F10800
G0 X108.967 Y101.324
G0 X108.641 Y101.368
G0 X108.377 Y101.342
G0 X107.677 Y100.969
G0 X106.888 Y100.359
G1 X106.507 Y99.965 E4.0648 F3600
G0 X105.253 Y100.259 F10800
G1 X107.346 Y102.419 E4.1148 F3600
G1 X107.425 Y101.971
G1 X105.588 Y100.075 E4.1587
G1 X105.996 Y99.967
G1 X107.582 Y101.604 E4.1966
G0 X105.836 Y103.506 F10800
G1 X102.643 Y100.211 E4.2729 F3600
G1 X102.959 Y100.008
G1 X106.393 Y103.552 E4.3550
G1 X106.821 Y103.465
G1 X103.336 Y99.867 E4.4383
G1 X103.800 Y99.817
G1 X107.176 Y103.302 E4.5190
G1 X107.427 Y103.032
G1 X104.445 Y99.954 E4.5903
G0 X102.035 Y100.112 F10800
G1 X104.881 Y103.049 E4.6583 F3600
G0 X103.743 Y103.462 F10800
G1 X100.574 Y100.191 E4.7340 F3600
G1 X100.947 Y100.047
G1 X104.195 Y103.400 E4.8116
G1 X104.568 Y103.256
G1 X101.402 Y99.988 E4.8873
G0 X100.686 Y103.483 F10800
G1 X100.297 Y103.080 E4.8966 F3600
G1 X100.429 Y102.688
G1 X101.335 Y103.623 E4.9183
G1 X101.800 Y103.573
G1 X100.457 Y102.187 E4.9504
G0 X100.016 Y99.364 F10800
G0 X95.376 Y93.473
;segType:Infill
G1 X95.376 Y106.817 E5.1723 F5400
G0 X97.519 Y99.370 F10800
G0 X98.019 Y98.758
G0 X99.192 Y98.127
G1 X99.192 Y93.473 E5.2496 F5400
G0 X100.096 Y100.159 F10800
G0 X100.047 Y102.313
G0 X99.192 Y106.817
G1 X99.192 Y104.053 E5.2956 F5400
G0 X100.020 Y102.587 F10800
G0 X103.008 Y93.473
G1 X103.008 Y99.982 E5.4038 F5400
G0 X103.008 Y103.294 F10800
G1 X103.008 Y106.817 E5.4624 F5400
G0 X106.824 Y100.041 F10800
G1 X106.824 Y93.473 E5.5717 F5400
G0 X106.824 Y106.817 F10800
G1 X106.824 Y103.464 E5.6274 F5400
G0 X107.376 Y99.456 F10800
G0 X110.639 Y93.473
G1 X110.639 Y101.019 E5.7529 F5400
G0 X110.639 Y104.635 F10800
G1 X110.639 Y106.817 E5.7892 F5400
G0 X114.455 Y106.817 F10800
G1 X114.455 Y93.473 E6.0111 F5400
G0 X116.634 Y94.182 F10800
G1 X93.416 Y94.182 E6.3972 F5400
G0 X99.173 Y98.121 F10800
G1 X116.634 Y98.121 E6.6876 F5400
G0 X93.416 Y98.121 F10800
G1 X98.364 Y98.121 E6.7699 F5400
G0 X108.377 Y101.342 F10800
G0 X108.641 Y101.368
G0 X109.161 Y101.264
G0 X116.634 Y102.060
G1 X112.487 Y102.060 E6.8388 F5400
G0 X109.104 Y101.137 F10800
G0 X108.592 Y101.241
G0 X107.988 Y101.741
G0 X99.191 Y101.024
G0 X98.399 Y100.947
G0 X98.141 Y101.025
G0 X96.889 Y102.060
G1 X93.416 Y102.060 E6.8966 F5400
G0 X93.416 Y105.999 F10800
G1 X116.634 Y105.999 E7.2827 F5400
G0 F4800 E6.2827
G0 X110.921 Y101.500 F10800
G0 X109.017 Y100.000
G0 F4800 E7.2827
;segType:Support
G1 X108.600 Y100.000 E7.2886 F5400
G0 F4800 E6.2886
G0 X117.600 Y91.000 F10800
G0 F4800 E7.2886
G1 X94.200 Y91.000 E7.6194 F5400
; ------------------------------------
; Layer #4
; ------------------------------------
G21 ; mm
G90 ; abs
G92 E0 ; reset extr
M106 S255
;segType:Support
G0 F4800 E-1.0000
G0 F300 Z0.500
G0 X94.200 Y91.000 F10800
G0 F4800 E0.0000
G1 X117.600 Y91.000 E0.3308 F5400
G0 F4800 E-0.6692
G0 X98.454 Y100.000 F10800
G0 F4800 E0.3308
G1 X99.088 Y100.000 E0.3397 F5400
;segType:SoftSupport
G0 F4800 E-0.6603
G0 X103.405 Y101.800 F10800
G0 F4800 E0.3397
G1 X104.100 Y101.800 E0.3449 F5400
G1 X105.887 Y101.800 E0.3583
G1 X106.633 Y101.800 E0.3639
G1 X108.600 Y100.000 E0.3838
;segType:Support
G1 X108.989 Y100.000 E0.3893 F5400
G0 F4800 E-0.6107
G0 X107.318 Y100.375 F10800
G0 X105.604 Y100.133
G0 X104.829 Y100.773
G0 X104.667 Y101.078
G0 X104.580 Y101.354
G0 X105.490 Y101.696
G0 X105.459 Y101.986
G0 X105.358 Y102.320
G0 X104.411 Y103.271
G0 X93.194 Y106.409
G0 F4800 E0.3893
;segType:Loop
G1 X93.194 Y93.269 E0.6079 F3600
G1 X116.812 Y93.269 E1.0006
G1 X116.812 Y107.025 E1.2294
G1 X93.194 Y107.025 E1.6222
G1 X93.194 Y106.596 E1.6293
;segType:Perimeter
G0 X93.397 Y107.124 F10800
G1 X92.794 Y107.382 E1.6402 F2160
G1 X92.794 Y92.856 E1.8818
G1 X117.213 Y92.856 E2.2879
G1 X117.213 Y107.438 E2.5303
G1 X92.848 Y107.438 E2.9355
G1 X93.098 Y106.816
G0 X98.145 Y101.036 F10800
G0 X98.400 Y100.959
G0 X98.665 Y100.932
G0 X98.929 Y100.958
G0 X99.185 Y101.035
G0 X99.406 Y101.152
G0 X101.182 Y100.006
;segType:HShell
G1 X100.047 Y101.177 E2.9627 F3600
G1 X100.255 Y101.493
G1 X101.686 Y100.015 E2.9969
G1 X102.085 Y100.132
G1 X100.397 Y101.874 E3.0372
;segType:Loop
G0 X99.800 Y101.073 F10800
G1 X99.734 Y101.128 E3.0386 F3600
G1 X99.782 Y101.167 E3.0397
G1 X99.982 Y101.410 E3.0449
G1 X100.132 Y101.689 E3.0502
G1 X100.224 Y101.994 E3.0555
G1 X100.256 Y102.311 E3.0608
G1 X100.225 Y102.629 E3.0661
G1 X100.133 Y102.934 E3.0714
G1 X99.984 Y103.213 E3.0766
G1 X99.785 Y103.457 E3.0819
G1 X99.544 Y103.654 E3.0870
G1 X99.270 Y103.801 E3.0922
G1 X98.975 Y103.891 E3.0973
G1 X98.668 Y103.922 E3.1025
G1 X98.361 Y103.892 E3.1076
G1 X98.066 Y103.802 E3.1127
G1 X97.792 Y103.657 E3.1179
G1 X97.550 Y103.459 E3.1231
G1 X97.351 Y103.216 E3.1283
G1 X97.201 Y102.937 E3.1336
G1 X97.109 Y102.632 E3.1389
G1 X97.077 Y102.315 E3.1442
G1 X97.108 Y101.997 E3.1495
G1 X97.200 Y101.693 E3.1548
G1 X97.349 Y101.414 E3.1600
G1 X97.548 Y101.170 E3.1653
G1 X97.702 Y101.044 E3.1686
G1 X97.676 Y101.022 E3.1691
G1 X97.479 Y100.785 E3.1743
G1 X97.331 Y100.511 E3.1794
G1 X97.239 Y100.212 E3.1846
G1 X97.207 Y99.900 E3.1899
G1 X97.237 Y99.588 E3.1951
G1 X97.326 Y99.288 E3.2003
G1 X97.472 Y99.013 E3.2055
G1 X97.668 Y98.773 E3.2106
G1 X97.904 Y98.578 E3.2157
G1 X98.172 Y98.433 E3.2208
G1 X98.462 Y98.344 E3.2258
G1 X98.763 Y98.313 E3.2308
G1 X99.065 Y98.341 E3.2359
G1 X99.355 Y98.429 E3.2409
G1 X99.624 Y98.571 E3.2460
G1 X99.862 Y98.765 E3.2511
G1 X100.059 Y99.003 E3.2562
G1 X100.207 Y99.277 E3.2614
G1 X100.299 Y99.576 E3.2666
G1 X100.331 Y99.888 E3.2718
G1 X100.301 Y100.200 E3.2770
G1 X100.211 Y100.500 E3.2822
G1 X100.066 Y100.775 E3.2874
G1 X100.066 Y100.775
;segType:Perimeter
G0 X100.285 Y101.867 F10800
G1 X99.848 Y102.368 E3.2985 F2160
G1 X99.831 Y102.546 E3.3014
G1 X99.763 Y102.771 E3.3053
G1 X99.653 Y102.978 E3.3092
G1 X99.505 Y103.159 E3.3131
G1 X99.325 Y103.307 E3.3170
G1 X99.120 Y103.417 E3.3209
G1 X98.898 Y103.484 E3.3247
G1 X98.668 Y103.507 E3.3286
G1 X98.437 Y103.485 E3.3324
G1 X98.215 Y103.417 E3.3363
G1 X98.010 Y103.308 E3.3401
G1 X97.830 Y103.160 E3.3440
G1 X97.682 Y102.980 E3.3479
G1 X97.571 Y102.774 E3.3518
G1 X97.502 Y102.549 E3.3557
G1 X97.479 Y102.315 E3.3596
G1 X97.502 Y102.080 E3.3635
G1 X97.570 Y101.856 E3.3674
G1 X97.680 Y101.649 E3.3713
G1 X97.828 Y101.468 E3.3752
G1 X98.008 Y101.320 E3.3791
G1 X98.213 Y101.210 E3.3830
G1 X98.435 Y101.142 E3.3868
G1 X98.665 Y101.120 E3.3907
G1 X98.895 Y101.142 E3.3945
G1 X99.117 Y101.209 E3.3984
G1 X99.323 Y101.318 E3.4022
G1 X99.503 Y101.466 E3.4061
G1 X99.651 Y101.646 E3.4100
G1 X99.762 Y101.853 E3.4139
G1 X99.830 Y102.078 E3.4178
G1 X99.848 Y102.256 E3.4208
G1 X100.286 Y102.755
;segType:HShell
G0 X101.839 Y103.561 F10800
G1 X102.468 Y102.912 E3.4358 F3600
G1 X102.239 Y102.619
G1 X101.272 Y103.617 E3.4589
G1 X100.840 Y103.534
G1 X102.069 Y102.266 E3.4883
G0 X103.486 Y103.002 F10800
G0 X104.276 Y102.924
G0 X104.896 Y102.415
G0 X105.024 Y102.174
G0 X105.099 Y101.929
G0 X104.901 Y101.818
G0 X105.000 Y101.224
G0 X105.505 Y100.606
G0 X106.258 Y100.376
G0 X107.012 Y100.604
G0 X107.861 Y101.368
;segType:Loop
G1 X107.972 Y101.427 E3.4904 F3600
G1 X107.831 Y101.600 E3.4941
G1 X107.814 Y101.433 E3.4969
G1 X107.808 Y101.414 E3.4972
;segType:Perimeter
G0 X107.875 Y101.307 F10800
G1 X107.438 Y101.807 E3.5083 F2160
G1 X107.421 Y101.984 E3.5112
G1 X107.353 Y102.209 E3.5151
G1 X107.243 Y102.415 E3.5190
G1 X107.096 Y102.595 E3.5229
G1 X106.917 Y102.743 E3.5267
G1 X106.713 Y102.852 E3.5306
G1 X106.492 Y102.920 E3.5344
G1 X106.262 Y102.943 E3.5383
G1 X106.032 Y102.920 E3.5421
G1 X105.811 Y102.853 E3.5460
G1 X105.607 Y102.745 E3.5498
G1 X105.427 Y102.598 E3.5537
G1 X105.279 Y102.418 E3.5575
G1 X105.169 Y102.212 E3.5614
G1 X105.100 Y101.988 E3.5653
G1 X105.077 Y101.755 E3.5692
G1 X105.100 Y101.521 E3.5731
G1 X105.167 Y101.297 E3.5770
G1 X105.277 Y101.091 E3.5809
G1 X105.424 Y100.911 E3.5848
G1 X105.603 Y100.763 E3.5886
G1 X105.808 Y100.654 E3.5925
G1 X106.029 Y100.586 E3.5963
G1 X106.258 Y100.563 E3.6002
G1 X106.488 Y100.586 E3.6040
G1 X106.709 Y100.652 E3.6078
G1 X106.914 Y100.761 E3.6117
G1 X107.093 Y100.908 E3.6156
G1 X107.241 Y101.088 E3.6194
G1 X107.352 Y101.294 E3.6233
G1 X107.420 Y101.518 E3.6272
G1 X107.438 Y101.695 E3.6302
G1 X107.876 Y102.195
G0 F4800 E2.6302
G0 X109.124 Y101.263 F10800
G0 X109.767 Y100.750
G0 X109.997 Y99.984
G0 X110.639 Y93.474
G0 F4800 E3.6302
;segType:Infill
G1 X110.639 Y101.019 E3.7557 F5400
;segType:HShell
G0 X110.297 Y101.181 F10800
G1 X110.409 Y101.066 E3.7583 F3600
G1 X110.975 Y101.010
G1 X110.536 Y101.463 E3.7688
G1 X110.725 Y101.797
G1 X111.407 Y101.094 E3.7851
G1 X111.763 Y101.255
G1 X110.838 Y102.210 E3.8072
;segType:Perimeter
G0 X110.694 Y102.047 F10800
G1 X110.258 Y102.549 E3.8183 F2160
G1 X110.242 Y102.721 E3.8211
G1 X110.174 Y102.950 E3.8251
G1 X109.934 Y103.312 E3.8323
G1 X109.751 Y103.463 E3.8363
G1 X109.553 Y103.570 E3.8400
G1 X109.337 Y103.637 E3.8438
G1 X109.113 Y103.660 E3.8475
G1 X108.889 Y103.638 E3.8513
G1 X108.673 Y103.574 E3.8550
G1 X108.473 Y103.468 E3.8588
G1 X108.297 Y103.325 E3.8626
G1 X108.145 Y103.142 E3.8665
G1 X107.977 Y102.741 E3.8737
G1 X107.953 Y102.503 E3.8777
G1 X107.975 Y102.275 E3.8815
G1 X108.040 Y102.056 E3.8853
G1 X108.147 Y101.854 E3.8891
G1 X108.290 Y101.678 E3.8929
G1 X108.465 Y101.533 E3.8967
G1 X108.664 Y101.425 E3.9004
G1 X108.880 Y101.359 E3.9042
G1 X109.104 Y101.336 E3.9079
G1 X109.328 Y101.358 E3.9117
G1 X109.544 Y101.422 E3.9154
G1 X109.743 Y101.528 E3.9192
G1 X109.920 Y101.671 E3.9230
G1 X110.065 Y101.846 E3.9268
G1 X110.173 Y102.047 E3.9305
G1 X110.240 Y102.265 E3.9344
G1 X110.258 Y102.437 E3.9372
G1 X110.697 Y102.935
;segType:Loop
G0 X109.862 Y101.126 F10800
G1 X109.961 Y101.178 E3.9391 F3600
G1 X110.198 Y101.372 E3.9442
G1 X110.394 Y101.609 E3.9493
G1 X110.542 Y101.882 E3.9545
G1 X110.634 Y102.180 E3.9596
G1 X110.666 Y102.491 E3.9648
G1 X110.636 Y102.803 E3.9700
G1 X110.538 Y103.132 E3.9758
G1 X110.231 Y103.596 E3.9850
G1 X109.971 Y103.810 E3.9906
G1 X109.704 Y103.955 E3.9957
G1 X109.414 Y104.044 E4.0007
G1 X109.114 Y104.074 E4.0057
G1 X108.814 Y104.046 E4.0107
G1 X108.525 Y103.959 E4.0158
G1 X108.256 Y103.817 E4.0208
G1 X108.018 Y103.624 E4.0259
G1 X107.802 Y103.363 E4.0315
G1 X107.586 Y102.847 E4.0408
G1 X107.567 Y102.660 E4.0440
G1 X107.376 Y102.893 E4.0490
G1 X107.136 Y103.090 E4.0542
G1 X106.863 Y103.237 E4.0593
G1 X106.568 Y103.327 E4.0644
G1 X106.263 Y103.357 E4.0695
G1 X105.957 Y103.328 E4.0747
G1 X105.662 Y103.238 E4.0798
G1 X105.389 Y103.093 E4.0849
G1 X105.148 Y102.896 E4.0901
G1 X104.968 Y102.678 E4.0948
G1 X104.877 Y102.788 E4.0972
G1 X104.634 Y102.988 E4.1024
G1 X104.358 Y103.136 E4.1076
G1 X104.062 Y103.226 E4.1128
G1 X103.753 Y103.256 E4.1179
G1 X103.445 Y103.226 E4.1231
G1 X103.147 Y103.136 E4.1283
G1 X102.872 Y102.989 E4.1334
G1 X102.629 Y102.789 E4.1387
G1 X102.428 Y102.545 E4.1439
G1 X102.278 Y102.264 E4.1492
G1 X102.185 Y101.958 E4.1545
G1 X102.153 Y101.639 E4.1599
G1 X102.185 Y101.319 E4.1652
G1 X102.277 Y101.012 E4.1706
G1 X102.428 Y100.731 E4.1759
G1 X102.628 Y100.487 E4.1811
G1 X102.871 Y100.288 E4.1863
G1 X103.146 Y100.140 E4.1915
G1 X103.444 Y100.050 E4.1967
G1 X103.752 Y100.020 E4.2018
G1 X104.060 Y100.050 E4.2070
G1 X104.358 Y100.140 E4.2122
G1 X104.633 Y100.287 E4.2174
G1 X104.876 Y100.486 E4.2226
G1 X105.062 Y100.713 E4.2275
G1 X105.144 Y100.613 E4.2296
G1 X105.384 Y100.415 E4.2348
G1 X105.657 Y100.269 E4.2399
G1 X105.952 Y100.179 E4.2451
G1 X106.258 Y100.148 E4.2502
G1 X106.564 Y100.178 E4.2553
G1 X106.858 Y100.267 E4.2604
G1 X107.125 Y100.409 E4.2654
G1 X107.094 Y100.306 E4.2672
G1 X107.062 Y99.990 E4.2725
G1 X107.092 Y99.675 E4.2778
G1 X107.184 Y99.372 E4.2830
G1 X107.331 Y99.095 E4.2883
G1 X107.528 Y98.853 E4.2935
G1 X107.768 Y98.656 E4.2986
G1 X108.039 Y98.510 E4.3037
G1 X108.332 Y98.421 E4.3088
G1 X108.636 Y98.390 E4.3139
G1 X108.940 Y98.419 E4.3190
G1 X109.234 Y98.508 E4.3241
G1 X109.506 Y98.652 E4.3292
G1 X109.746 Y98.848 E4.3344
G1 X109.945 Y99.089 E4.3396
G1 X110.093 Y99.366 E4.3448
G1 X110.186 Y99.668 E4.3500
G1 X110.217 Y99.983 E4.3553
G1 X110.187 Y100.298 E4.3606
G1 X110.096 Y100.601 E4.3658
G1 X109.949 Y100.878 E4.3710
G1 X109.949 Y100.878
;segType:Perimeter
G0 X110.246 Y99.539 F10800
G1 X109.810 Y100.040 E4.3821 F2160
G1 X109.793 Y100.216 E4.3850
G1 X109.726 Y100.439 E4.3889
G1 X109.617 Y100.644 E4.3928
G1 X109.471 Y100.823 E4.3966
G1 X109.293 Y100.970 E4.4005
G1 X109.090 Y101.079 E4.4043
G1 X108.870 Y101.146 E4.4081
G1 X108.642 Y101.169 E4.4119
G1 X108.414 Y101.147 E4.4157
G1 X108.194 Y101.081 E4.4195
G1 X107.991 Y100.973 E4.4234
G1 X107.813 Y100.827 E4.4272
G1 X107.665 Y100.648 E4.4310
G1 X107.556 Y100.444 E4.4349
G1 X107.487 Y100.221 E4.4388
G1 X107.464 Y99.989 E4.4426
G1 X107.486 Y99.758 E4.4465
G1 X107.553 Y99.535 E4.4504
G1 X107.662 Y99.330 E4.4543
G1 X107.809 Y99.150 E4.4581
G1 X107.987 Y99.004 E4.4619
G1 X108.189 Y98.895 E4.4658
G1 X108.409 Y98.828 E4.4696
G1 X108.637 Y98.805 E4.4734
G1 X108.865 Y98.827 E4.4772
G1 X109.085 Y98.893 E4.4810
G1 X109.288 Y99.001 E4.4849
G1 X109.467 Y99.147 E4.4887
G1 X109.614 Y99.325 E4.4925
G1 X109.724 Y99.530 E4.4964
G1 X109.792 Y99.752 E4.5003
G1 X109.810 Y99.928 E4.5032
G1 X110.249 Y100.427
G0 X109.118 Y101.265 F10800
G0 X108.643 Y101.356
G0 X108.437 Y101.337
G0 X106.522 Y100.402
G0 X105.740 Y100.480
G0 X105.127 Y100.985
G0 X105.000 Y101.224
G0 X104.931 Y101.449
G0 X105.119 Y101.504
G0 X105.024 Y102.174
G0 X104.514 Y102.797
G0 X103.753 Y103.028
G0 X102.992 Y102.797
G0 X101.972 Y101.837
;segType:HShell
G1 X100.483 Y103.374 E4.5388 F3600
G1 X100.318 Y103.015
G1 X101.986 Y101.292 E4.5787
;segType:Perimeter
G0 X102.124 Y102.083 F10800
G1 X102.561 Y101.583 E4.5897 F2160
G1 X102.579 Y101.402 E4.5927
G1 X102.647 Y101.176 E4.5967
G1 X102.759 Y100.967 E4.6006
G1 X102.908 Y100.785 E4.6045
G1 X103.089 Y100.636 E4.6084
G1 X103.296 Y100.525 E4.6123
G1 X103.520 Y100.457 E4.6162
G1 X103.752 Y100.434 E4.6201
G1 X103.984 Y100.457 E4.6240
G1 X104.208 Y100.525 E4.6279
G1 X104.415 Y100.635 E4.6318
G1 X104.596 Y100.784 E4.6357
G1 X104.746 Y100.966 E4.6396
G1 X104.857 Y101.175 E4.6435
G1 X104.926 Y101.401 E4.6475
G1 X104.950 Y101.637 E4.6514
G1 X104.926 Y101.874 E4.6554
G1 X104.858 Y102.100 E4.6593
G1 X104.746 Y102.309 E4.6632
G1 X104.597 Y102.491 E4.6671
G1 X104.416 Y102.640 E4.6710
G1 X104.209 Y102.750 E4.6749
G1 X103.985 Y102.818 E4.6788
G1 X103.753 Y102.841 E4.6827
G1 X103.520 Y102.819 E4.6866
G1 X103.297 Y102.751 E4.6905
G1 X103.090 Y102.640 E4.6944
G1 X102.909 Y102.491 E4.6983
G1 X102.759 Y102.309 E4.7022
G1 X102.648 Y102.101 E4.7061
G1 X102.579 Y101.874 E4.7101
G1 X102.561 Y101.694 E4.7131
G1 X102.123 Y101.194
G0 X100.359 Y99.444 F10800
G1 X99.923 Y99.945 E4.7241 F2160
G1 X99.907 Y100.118 E4.7270
G1 X99.841 Y100.338 E4.7308
G1 X99.734 Y100.540 E4.7346
G1 X99.590 Y100.717 E4.7384
G1 X99.414 Y100.862 E4.7422
G1 X99.215 Y100.970 E4.7460
G1 X98.998 Y101.037 E4.7498
G1 X98.773 Y101.060 E4.7535
G1 X98.548 Y101.038 E4.7573
G1 X98.331 Y100.973 E4.7610
G1 X98.131 Y100.867 E4.7648
G1 X97.954 Y100.724 E4.7686
G1 X97.809 Y100.548 E4.7724
G1 X97.700 Y100.346 E4.7762
G1 X97.633 Y100.127 E4.7800
G1 X97.609 Y99.898 E4.7838
G1 X97.631 Y99.669 E4.7877
G1 X97.697 Y99.449 E4.7915
G1 X97.804 Y99.247 E4.7953
G1 X97.948 Y99.070 E4.7991
G1 X98.124 Y98.925 E4.8029
G1 X98.323 Y98.817 E4.8066
G1 X98.539 Y98.751 E4.8104
G1 X98.765 Y98.728 E4.8142
G1 X98.990 Y98.749 E4.8179
G1 X99.207 Y98.814 E4.8217
G1 X99.407 Y98.920 E4.8255
G1 X99.583 Y99.064 E4.8293
G1 X99.729 Y99.240 E4.8330
G1 X99.838 Y99.441 E4.8369
G1 X99.905 Y99.661 E4.8407
G1 X99.923 Y99.834 E4.8436
G1 X100.362 Y100.332
;segType:Infill
G0 X99.192 Y106.817 F10800
G1 X99.192 Y104.053 E4.8895 F5400
G0 X100.009 Y102.583 F10800
G0 X99.883 Y100.646
G0 X100.110 Y99.889
G0 X99.878 Y99.133
G0 X99.192 Y98.127
G1 X99.192 Y93.474 E4.9669 F5400
G0 X116.629 Y94.182 F10800
G1 X93.410 Y94.182 E5.3530 F5400
G0 X98.364 Y98.121 F10800
G1 X93.410 Y98.121 E5.4354 F5400
G0 X95.376 Y93.474 F10800
G1 X95.376 Y106.817 E5.6573 F5400
G0 X97.530 Y99.377 F10800
G0 X98.024 Y98.768
G0 X99.173 Y98.121
G1 X116.629 Y98.121 E5.9476 F5400
G0 X112.487 Y102.060 F10800
G1 X116.629 Y102.060 E6.0165 F5400
G0 X106.824 Y93.474 F10800
G1 X106.824 Y100.060 E6.1260 F5400
G0 X103.008 Y100.002 F10800
G1 X103.008 Y93.474 E6.2346 F5400
;segType:HShell
G0 X100.454 Y102.346 F10800
G1 X102.415 Y100.321 E6.2815 F3600
G0 X99.185 Y101.035 F10800
G0 X98.929 Y100.958
G0 X98.665 Y100.932
G0 X98.400 Y100.959
G0 X98.145 Y101.036
G0 X96.889 Y102.060
;segType:Infill
G1 X93.410 Y102.060 E6.3393 F5400
G0 X93.410 Y105.999 F10800
G1 X116.629 Y105.999 E6.7255 F5400
;segType:HShell
G0 X111.825 Y104.366 F10800
G1 X112.380 Y103.794 E6.7387 F3600
G0 X108.872 Y103.825 F10800
G0 X103.008 Y103.294
;segType:Infill
G1 X103.008 Y106.817 E6.7973 F5400
G0 X106.824 Y103.464 F10800
G1 X106.824 Y106.817 E6.8531 F5400
G0 X110.639 Y104.635 F10800
G1 X110.639 Y106.817 E6.8893 F5400
G0 X114.455 Y106.817 F10800
G1 X114.455 Y93.474 E7.1112 F5400
;segType:HShell
G0 X110.844 Y102.733 F10800
G1 X112.062 Y101.476 E7.1404 F3600
G1 X112.307 Y101.751
G1 X109.820 Y104.319 E7.1998
G1 X110.150 Y104.508
G1 X112.499 Y102.083 E7.2560
G1 X112.624 Y102.483
G1 X110.548 Y104.626 E7.3056
G1 X111.050 Y104.637
G1 X112.642 Y102.994 E7.3436
; ------------------------------------
; Layer #5
; ------------------------------------
G21 ; mm
G90 ; abs
G92 E0 ; reset extr
M106 S255
;segType:Support
G0 F4800 E-1.0000
G0 F300 Z0.600
G0 X108.993 Y100.000 F10800
G0 F4800 E0.0000
G1 X108.600 Y100.000 E0.0056 F5400
G1 X106.615 Y101.800 E0.0434
G1 X105.909 Y101.800 E0.0534
G1 X104.081 Y101.800 E0.0793
G1 X103.424 Y101.800 E0.0885
G1 X101.003 Y101.800 E0.1228
;segType:SoftSupport
G1 X101.767 Y101.800 E0.1285 F5400
G0 F4800 E-0.8715
G0 X100.142 Y103.199 F10800
G0 X98.722 Y104.053
G0 X93.189 Y106.409
G0 F4800 E0.1285
;segType:Loop
G1 X93.189 Y93.269 E0.3470 F3600
G1 X116.807 Y93.269 E0.7398
G1 X116.807 Y107.025 E0.9685
G1 X93.189 Y107.025 E1.3613
G1 X93.189 Y106.596 E1.3684
;segType:Perimeter
G0 X93.391 Y107.125 F10800
G1 X92.789 Y107.382 E1.3794 F2160
G1 X92.789 Y92.856 E1.6209
G1 X117.207 Y92.856 E2.0270
G1 X117.207 Y107.438 E2.2695
G1 X92.843 Y107.438 E2.6747
G1 X93.093 Y106.816
G0 X98.149 Y101.048 F10800
G0 X98.926 Y100.970
G0 X99.707 Y101.121
;segType:Loop
G1 X99.706 Y101.121 E2.6747 F3600
G1 X99.772 Y101.175 E2.6761
G1 X99.878 Y101.303 E2.6789
G1 X99.913 Y101.184 E2.6809
G1 X100.063 Y100.903 E2.6862
G1 X100.263 Y100.660 E2.6914
G1 X100.505 Y100.461 E2.6967
G1 X100.780 Y100.314 E2.7018
G1 X101.076 Y100.224 E2.7070
G1 X101.383 Y100.193 E2.7121
G1 X101.691 Y100.223 E2.7173
G1 X101.987 Y100.313 E2.7224
G1 X102.263 Y100.459 E2.7276
G1 X102.505 Y100.658 E2.7328
G1 X102.508 Y100.662 E2.7329
G1 X102.639 Y100.502 E2.7363
G1 X102.879 Y100.304 E2.7415
G1 X103.151 Y100.158 E2.7466
G1 X103.445 Y100.068 E2.7518
G1 X103.749 Y100.038 E2.7568
G1 X104.054 Y100.067 E2.7619
G1 X104.348 Y100.155 E2.7670
G1 X104.621 Y100.301 E2.7722
G1 X104.861 Y100.497 E2.7773
G1 X105.060 Y100.739 E2.7825
G1 X105.062 Y100.742 E2.7826
G1 X105.155 Y100.628 E2.7851
G1 X105.392 Y100.432 E2.7902
G1 X105.662 Y100.286 E2.7953
G1 X105.953 Y100.198 E2.8003
G1 X106.255 Y100.167 E2.8054
G1 X106.558 Y100.196 E2.8104
G1 X106.849 Y100.283 E2.8155
G1 X107.119 Y100.426 E2.8206
G1 X107.151 Y100.452 E2.8213
G1 X107.106 Y100.305 E2.8238
G1 X107.074 Y99.992 E2.8290
G1 X107.104 Y99.679 E2.8343
G1 X107.194 Y99.379 E2.8395
G1 X107.340 Y99.104 E2.8447
G1 X107.536 Y98.863 E2.8498
G1 X107.773 Y98.667 E2.8549
G1 X108.042 Y98.522 E2.8600
G1 X108.332 Y98.433 E2.8651
G1 X108.635 Y98.402 E2.8701
G1 X108.936 Y98.431 E2.8752
G1 X109.228 Y98.518 E2.8802
G1 X109.498 Y98.661 E2.8853
G1 X109.736 Y98.856 E2.8904
G1 X109.933 Y99.094 E2.8956
G1 X110.081 Y99.368 E2.9007
G1 X110.174 Y99.668 E2.9060
G1 X110.205 Y99.982 E2.9112
G1 X110.175 Y100.295 E2.9164
G1 X110.085 Y100.595 E2.9216
G1 X109.940 Y100.870 E2.9268
G1 X109.762 Y101.087 E2.9315
G1 X110.194 Y101.373 E2.9401
G1 X110.539 Y101.882 E2.9503
G1 X110.663 Y102.489 E2.9606
G1 X110.545 Y103.099 E2.9710
G1 X110.206 Y103.611 E2.9812
G1 X109.705 Y103.951 E2.9912
G1 X109.117 Y104.071 E3.0012
G1 X108.527 Y103.957 E3.0112
G1 X108.022 Y103.623 E3.0213
G1 X107.678 Y103.114 E3.0315
G1 X107.575 Y102.611 E3.0400
G1 X107.561 Y102.638 E3.0405
G1 X107.365 Y102.878 E3.0457
G1 X107.128 Y103.074 E3.0508
G1 X106.858 Y103.219 E3.0559
G1 X106.567 Y103.308 E3.0610
G1 X106.265 Y103.339 E3.0660
G1 X105.963 Y103.310 E3.0711
G1 X105.671 Y103.223 E3.0761
G1 X105.401 Y103.080 E3.0812
G1 X105.162 Y102.885 E3.0863
G1 X104.968 Y102.649 E3.0914
G1 X104.866 Y102.774 E3.0941
G1 X104.626 Y102.971 E3.0993
G1 X104.354 Y103.118 E3.1044
G1 X104.060 Y103.208 E3.1095
G1 X103.755 Y103.238 E3.1146
G1 X103.451 Y103.209 E3.1197
G1 X103.156 Y103.120 E3.1248
G1 X102.884 Y102.975 E3.1299
G1 X102.648 Y102.782 E3.1350
G1 X102.507 Y102.954 E3.1387
G1 X102.265 Y103.153 E3.1439
G1 X101.990 Y103.300 E3.1491
G1 X101.693 Y103.390 E3.1543
G1 X101.386 Y103.421 E3.1594
G1 X101.078 Y103.391 E3.1645
G1 X100.782 Y103.301 E3.1697
G1 X100.507 Y103.155 E3.1749
G1 X100.265 Y102.956 E3.1801
G1 X100.154 Y102.822 E3.1830
G1 X100.123 Y102.927 E3.1848
G1 X99.975 Y103.205 E3.1900
G1 X99.777 Y103.447 E3.1952
G1 X99.538 Y103.644 E3.2004
G1 X99.267 Y103.789 E3.2055
G1 X98.974 Y103.879 E3.2106
G1 X98.670 Y103.909 E3.2157
G1 X98.366 Y103.880 E3.2208
G1 X98.072 Y103.792 E3.2259
G1 X97.800 Y103.647 E3.2310
G1 X97.561 Y103.451 E3.2361
G1 X97.362 Y103.211 E3.2413
G1 X97.213 Y102.934 E3.2465
G1 X97.121 Y102.632 E3.2518
G1 X97.089 Y102.317 E3.2571
G1 X97.119 Y102.001 E3.2623
G1 X97.210 Y101.699 E3.2676
G1 X97.358 Y101.422 E3.2728
G1 X97.555 Y101.180 E3.2780
G1 X97.717 Y101.046 E3.2815
G1 X97.679 Y101.021 E3.2822
G1 X97.334 Y100.512 E3.2925
G1 X97.210 Y99.901 E3.3028
G1 X97.328 Y99.290 E3.3132
G1 X97.668 Y98.777 E3.3234
G1 X98.172 Y98.437 E3.3335
G1 X98.762 Y98.316 E3.3435
G1 X99.352 Y98.431 E3.3535
G1 X99.859 Y98.766 E3.3636
G1 X100.204 Y99.276 E3.3739
G1 X100.328 Y99.886 E3.3842
G1 X100.210 Y100.497 E3.3946
G1 X99.870 Y101.011 E3.4048
G1 X99.858 Y101.018 E3.4051
;segType:Perimeter
G0 X99.836 Y102.366 F10800
G1 X99.819 Y102.542 E3.4080 F2160
G1 X99.752 Y102.765 E3.4119
G1 X99.644 Y102.970 E3.4157
G1 X99.497 Y103.149 E3.4196
G1 X99.319 Y103.296 E3.4234
G1 X99.117 Y103.405 E3.4272
G1 X98.897 Y103.472 E3.4310
G1 X98.669 Y103.495 E3.4349
G1 X98.441 Y103.473 E3.4387
G1 X98.221 Y103.407 E3.4425
G1 X98.018 Y103.299 E3.4463
G1 X97.839 Y103.153 E3.4501
G1 X97.692 Y102.975 E3.4540
G1 X97.582 Y102.770 E3.4578
G1 X97.515 Y102.547 E3.4617
G1 X97.491 Y102.316 E3.4656
G1 X97.513 Y102.084 E3.4695
G1 X97.580 Y101.861 E3.4733
G1 X97.689 Y101.656 E3.4772
G1 X97.836 Y101.477 E3.4810
G1 X98.014 Y101.330 E3.4849
G1 X98.216 Y101.222 E3.4887
G1 X98.435 Y101.155 E3.4925
G1 X98.664 Y101.131 E3.4963
G1 X98.892 Y101.154 E3.5001
G1 X99.112 Y101.220 E3.5040
G1 X99.315 Y101.327 E3.5078
G1 X99.493 Y101.473 E3.5116
G1 X99.640 Y101.652 E3.5155
G1 X99.750 Y101.856 E3.5193
G1 X99.818 Y102.079 E3.5232
G1 X99.836 Y102.255 E3.5261
G1 X100.275 Y102.754
G0 X106.525 Y103.085 F10800
G0 X107.211 Y102.715
G0 X107.935 Y101.498
;segType:Loop
G1 X107.820 Y101.672 E3.5296 F3600
G1 X107.796 Y101.435 E3.5336
G1 X107.750 Y101.286 E3.5362
G1 X107.782 Y101.312 E3.5368
G1 X107.906 Y101.378 E3.5392
G0 F4800 E2.5392
G0 X107.856 Y101.304 F10800
G0 F4800 E3.5392
;segType:Perimeter
G1 X107.420 Y101.805 E3.5502 F2160
G1 X107.403 Y101.979 E3.5531
G1 X107.337 Y102.200 E3.5570
G1 X107.229 Y102.403 E3.5608
G1 X107.084 Y102.581 E3.5646
G1 X106.908 Y102.727 E3.5684
G1 X106.708 Y102.835 E3.5722
G1 X106.490 Y102.901 E3.5760
G1 X106.264 Y102.925 E3.5798
G1 X106.038 Y102.903 E3.5835
G1 X105.820 Y102.838 E3.5873
G1 X105.618 Y102.731 E3.5911
G1 X105.441 Y102.586 E3.5949
G1 X105.295 Y102.409 E3.5987
G1 X105.186 Y102.207 E3.6026
G1 X105.118 Y101.986 E3.6064
G1 X105.095 Y101.757 E3.6102
G1 X105.117 Y101.527 E3.6141
G1 X105.183 Y101.306 E3.6179
G1 X105.291 Y101.102 E3.6217
G1 X105.436 Y100.925 E3.6256
G1 X105.612 Y100.779 E3.6294
G1 X105.813 Y100.671 E3.6331
G1 X106.030 Y100.605 E3.6369
G1 X106.256 Y100.581 E3.6407
G1 X106.483 Y100.603 E3.6445
G1 X106.700 Y100.668 E3.6483
G1 X106.902 Y100.775 E3.6521
G1 X107.079 Y100.919 E3.6559
G1 X107.225 Y101.096 E3.6597
G1 X107.334 Y101.299 E3.6635
G1 X107.402 Y101.519 E3.6673
G1 X107.420 Y101.693 E3.6702
G1 X107.859 Y102.192
G0 F4800 E2.6702
G0 X110.380 Y100.259 F10800
G0 F4800 E3.6702
;segType:HShell
G1 X112.635 Y102.587 E3.7241 F3600
G1 X112.630 Y103.111
G1 X110.270 Y100.675 E3.7805
G1 X110.081 Y101.008
G1 X110.199 Y101.130 E3.7834
G1 X110.450 Y101.390
G1 X112.520 Y103.527 E3.8329
G1 X112.337 Y103.867
G1 X110.831 Y102.312 E3.8688
;segType:Perimeter
G0 X110.654 Y102.022 F10800
G1 X110.244 Y102.547 E3.8799 F2160
G1 X110.169 Y102.936 E3.8865
G1 X109.921 Y103.311 E3.8940
G1 X109.551 Y103.561 E3.9014
G1 X109.114 Y103.651 E3.9088
G1 X108.677 Y103.566 E3.9162
G1 X108.304 Y103.320 E3.9236
G1 X108.053 Y102.947 E3.9311
G1 X107.962 Y102.504 E3.9386
G1 X108.048 Y102.060 E3.9462
G1 X108.296 Y101.685 E3.9536
G1 X108.666 Y101.435 E3.9611
G1 X109.102 Y101.345 E3.9685
G1 X109.539 Y101.430 E3.9759
G1 X109.912 Y101.676 E3.9833
G1 X110.164 Y102.049 E3.9908
G1 X110.243 Y102.437 E3.9974
G1 X110.659 Y102.956
;segType:HShell
G0 X109.972 Y97.721 F10800
G1 X112.395 Y100.222 E4.0553 F3600
G1 X112.177 Y100.527
G1 X109.669 Y97.937 E4.1152
G1 X109.425 Y98.214
G1 X111.906 Y100.776 E4.1746
G1 X111.582 Y100.970
G1 X110.381 Y99.731 E4.2033
;segType:Perimeter
G0 X110.234 Y99.537 F10800
G1 X109.798 Y100.039 E4.2143 F2160
G1 X109.781 Y100.212 E4.2172
G1 X109.715 Y100.433 E4.2210
G1 X109.608 Y100.636 E4.2249
G1 X109.463 Y100.814 E4.2287
G1 X109.287 Y100.959 E4.2325
G1 X109.086 Y101.067 E4.2363
G1 X108.869 Y101.134 E4.2400
G1 X108.644 Y101.157 E4.2438
G1 X108.418 Y101.135 E4.2476
G1 X108.200 Y101.070 E4.2514
G1 X107.999 Y100.963 E4.2551
G1 X107.822 Y100.819 E4.2589
G1 X107.676 Y100.642 E4.2627
G1 X107.567 Y100.440 E4.2666
G1 X107.499 Y100.220 E4.2704
G1 X107.476 Y99.991 E4.2742
G1 X107.498 Y99.761 E4.2781
G1 X107.564 Y99.541 E4.2819
G1 X107.672 Y99.338 E4.2857
G1 X107.817 Y99.160 E4.2895
G1 X107.993 Y99.014 E4.2933
G1 X108.193 Y98.907 E4.2971
G1 X108.410 Y98.840 E4.3009
G1 X108.636 Y98.817 E4.3047
G1 X108.862 Y98.838 E4.3084
G1 X109.079 Y98.903 E4.3122
G1 X109.280 Y99.010 E4.3160
G1 X109.457 Y99.154 E4.3198
G1 X109.603 Y99.331 E4.3236
G1 X109.712 Y99.533 E4.3274
G1 X109.780 Y99.753 E4.3313
G1 X109.798 Y99.927 E4.3342
G1 X110.237 Y100.425
G0 X108.904 Y101.317 F10800
G0 X108.644 Y101.344
G0 X107.205 Y100.785
G0 X106.516 Y100.419
G0 X104.013 Y100.291
G0 X103.233 Y100.369
G0 X102.623 Y100.873
G0 X102.423 Y101.352
G0 X102.579 Y101.584
G1 X102.596 Y101.407 E4.3371 F2160
G1 X102.663 Y101.184 E4.3410
G1 X102.773 Y100.979 E4.3449
G1 X102.919 Y100.799 E4.3487
G1 X103.098 Y100.652 E4.3526
G1 X103.301 Y100.543 E4.3564
G1 X103.521 Y100.475 E4.3602
G1 X103.750 Y100.453 E4.3641
G1 X103.979 Y100.475 E4.3679
G1 X104.199 Y100.541 E4.3717
G1 X104.403 Y100.649 E4.3755
G1 X104.582 Y100.796 E4.3794
G1 X104.730 Y100.975 E4.3832
G1 X104.840 Y101.180 E4.3871
G1 X104.908 Y101.403 E4.3910
G1 X104.931 Y101.636 E4.3949
G1 X104.909 Y101.868 E4.3988
G1 X104.841 Y102.092 E4.4027
G1 X104.732 Y102.297 E4.4065
G1 X104.586 Y102.477 E4.4104
G1 X104.407 Y102.624 E4.4142
G1 X104.204 Y102.733 E4.4181
G1 X103.983 Y102.800 E4.4219
G1 X103.755 Y102.823 E4.4257
G1 X103.526 Y102.801 E4.4295
G1 X103.305 Y102.735 E4.4334
G1 X103.102 Y102.626 E4.4372
G1 X102.923 Y102.480 E4.4411
G1 X102.775 Y102.301 E4.4449
G1 X102.665 Y102.096 E4.4488
G1 X102.597 Y101.873 E4.4527
G1 X102.579 Y101.696 E4.4556
G0 X102.560 Y101.627 F10800
G1 X102.578 Y101.806 E4.4586 F2160
G1 X102.554 Y102.041 E4.4625
G1 X102.486 Y102.267 E4.4665
G1 X102.375 Y102.475 E4.4704
G1 X102.227 Y102.657 E4.4743
G1 X102.046 Y102.805 E4.4782
G1 X101.840 Y102.915 E4.4821
G1 X101.617 Y102.983 E4.4859
G1 X101.385 Y103.006 E4.4898
G1 X101.154 Y102.983 E4.4937
G1 X100.931 Y102.916 E4.4975
G1 X100.725 Y102.806 E4.5014
G1 X100.544 Y102.658 E4.5053
G1 X100.395 Y102.476 E4.5092
G1 X100.284 Y102.269 E4.5131
G1 X100.215 Y102.043 E4.5171
G1 X100.192 Y101.808 E4.5210
G1 X100.215 Y101.573 E4.5249
G1 X100.283 Y101.347 E4.5288
G1 X100.394 Y101.139 E4.5328
G1 X100.543 Y100.957 E4.5367
G1 X100.724 Y100.809 E4.5406
G1 X100.930 Y100.698 E4.5444
G1 X101.152 Y100.631 E4.5483
G1 X101.384 Y100.608 E4.5522
G1 X101.615 Y100.631 E4.5561
G1 X101.838 Y100.698 E4.5599
G1 X102.044 Y100.808 E4.5638
G1 X102.225 Y100.956 E4.5677
G1 X102.374 Y101.138 E4.5716
G1 X102.485 Y101.345 E4.5755
G1 X102.538 Y101.517 E4.5785
G0 F4800 E3.5785
G0 X102.732 Y101.533 F10800
G0 X102.652 Y101.272
G0 X102.524 Y101.031
G0 X100.319 Y99.419
G0 F4800 E4.5785
G1 X99.909 Y99.943 E4.5896 F2160
G1 X99.833 Y100.333 E4.5962
G1 X99.584 Y100.710 E4.6037
G1 X99.212 Y100.961 E4.6112
G1 X98.774 Y101.050 E4.6186
G1 X98.336 Y100.965 E4.6260
G1 X97.962 Y100.718 E4.6335
G1 X97.709 Y100.344 E4.6410
G1 X97.618 Y99.899 E4.6485
G1 X97.705 Y99.454 E4.6561
G1 X97.954 Y99.078 E4.6636
G1 X98.326 Y98.826 E4.6711
G1 X98.763 Y98.737 E4.6785
G1 X99.202 Y98.822 E4.6859
G1 X99.576 Y99.069 E4.6934
G1 X99.829 Y99.444 E4.7009
G1 X99.908 Y99.833 E4.7075
G1 X100.323 Y100.353
G0 F4800 E3.7075
G0 X100.024 Y100.301 F10800
G0 X99.995 Y99.369
G0 X99.702 Y98.935
G0 X99.269 Y98.648
G0 X94.860 Y98.121
G0 F4800 E4.7075
;segType:Infill
G1 X93.405 Y98.121 E4.7317 F5400
G0 X93.405 Y102.060 F10800
G1 X96.889 Y102.060 E4.7896 F5400
G0 X98.149 Y101.048 F10800
G0 X98.926 Y100.970
G0 X101.384 Y100.421
G0 X103.750 Y100.266
G0 X106.824 Y100.041
G1 X106.824 Y93.474 E4.8989 F5400
;segType:HShell
G0 X96.571 Y97.117 F10800
G1 X97.832 Y98.419 E4.9290 F3600
G1 X97.523 Y98.630
G1 X96.089 Y97.149 E4.9633
G1 X95.706 Y97.283
G1 X97.315 Y98.944 E5.0018
G1 X97.127 Y99.279
G1 X95.384 Y97.480 E5.0434
G1 X95.117 Y97.733
G1 X97.041 Y99.720 E5.0894
G1 X97.086 Y100.295
G1 X94.903 Y98.041 E5.1416
G1 X94.749 Y98.411
G1 X96.940 Y100.673 E5.1939
G1 X96.499 Y100.747
G1 X94.672 Y98.862 E5.2376
G1 X94.759 Y99.481
G1 X95.890 Y100.648 E5.2646
;segType:Infill
G0 X95.376 Y97.487 F10800
G1 X95.376 Y93.474 E5.3313 F5400
G0 X95.376 Y100.370 F10800
G1 X95.376 Y106.818 E5.4386 F5400
G0 X93.405 Y105.999 F10800
G1 X116.623 Y105.999 E5.8247 F5400
G0 X112.487 Y102.060 F10800
G1 X116.623 Y102.060 E5.8935 F5400
G0 X116.623 Y98.121 F10800
G1 X112.200 Y98.121 E5.9670 F5400
G0 X110.541 Y99.660 F10800
G0 X108.882 Y101.200
G0 X108.169 Y101.552
G0 X106.824 Y103.464
G1 X106.824 Y106.818 E6.0228 F5400
;segType:HShell
G0 X110.504 Y104.621 F10800
G1 X109.940 Y104.038 E6.0363 F3600
G1 X110.250 Y103.829
G1 X111.034 Y104.639 E6.0550
G1 X111.456 Y104.545
G1 X110.490 Y103.548 E6.0781
G1 X110.698 Y103.234
G1 X111.805 Y104.377 E6.1046
G1 X112.097 Y104.149
G1 X110.804 Y102.814 E6.1355
G0 X112.569 Y98.814 F10800
G1 X111.364 Y97.570 E6.1643 F3600
G1 X110.774 Y97.491
G1 X112.635 Y99.412 E6.2088
G1 X112.553 Y99.856
G1 X110.335 Y97.567 E6.2618
;segType:Infill
G0 X109.496 Y98.121 F10800
G1 X99.052 Y98.121 E6.4355 F5400
G1 X99.192 Y98.152 E6.4378
G1 X99.192 Y93.474 E6.5156
G0 X103.008 Y93.474 F10800
G1 X103.008 Y99.982 E6.6239 F5400
;segType:HShell
G0 X98.059 Y98.124 F10800
G1 X97.271 Y97.311 E6.6427 F3600
;segType:Infill
G0 X98.493 Y98.121 F10800
G1 X98.057 Y98.121 E6.6499 F5400
G0 X93.405 Y94.182 F10800
G1 X116.623 Y94.182 E7.0361 F5400
G0 X110.639 Y97.504 F10800
G1 X110.639 Y93.474 E7.1031 F5400
G0 X114.455 Y93.474 F10800
G1 X114.455 Y106.818 E7.3250 F5400
G0 X110.639 Y106.818 F10800
G1 X110.639 Y104.635 E7.3613 F5400
G0 X103.008 Y106.818 F10800
G1 X103.008 Y103.294 E7.4199 F5400
G0 X99.192 Y104.053 F10800
G1 X99.192 Y106.818 E7.4658 F5400
G0 F4800 E6.4658
G0 X100.386 Y102.309 F10800
G0 X100.087 Y101.332
G0 X98.994 Y100.602
G0 X98.458 Y100.000
G0 F4800 E7.4658
;segType:Support
G1 X99.081 Y100.000 E7.4746 F5400
G0 F4800 E6.4746
G0 X94.200 Y91.000 F10800
G0 F4800 E7.4746
G1 X117.600 Y91.000 E7.8054 F5400
; ------------------------------------
; Layer #6
; ------------------------------------
G21 ; mm
G90 ; abs
G92 E0 ; reset extr
M106 S255
;segType:Support
G0 F4800 E-1.0000
G0 F300 Z0.700
G0 X108.955 Y100.000 F10800
G0 F4800 E0.0000
G1 X108.600 Y100.000 E0.0050 F5400
G0 F4800 E-0.9950
G0 X117.600 Y91.000 F10800
G0 F4800 E0.0050
G1 X94.200 Y91.000 E0.3358 F5400
G0 F4800 E-0.6642
G0 X99.070 Y100.000 F10800
G0 F4800 E0.3358
G1 X98.469 Y100.000 E0.3443 F5400
G0 F4800 E-0.6557
G0 X101.035 Y101.800 F10800
G0 F4800 E0.3443
G1 X101.737 Y101.800 E0.3542 F5400
G1 X103.448 Y101.800 E0.3784
G1 X104.035 Y101.800 E0.3867
G1 X105.950 Y101.800 E0.4137
G1 X106.571 Y101.800 E0.4225
G0 F4800 E-0.5775
G0 X104.862 Y102.944 F10800
G0 X93.183 Y106.410
G0 F4800 E0.4225
;segType:Loop
G1 X93.183 Y93.270 E0.6410 F3600
G1 X116.802 Y93.270 E1.0338
G1 X116.802 Y107.026 E1.2626
G1 X93.183 Y107.026 E1.6554
G1 X93.183 Y106.597 E1.6625
;segType:Perimeter
G0 X93.386 Y107.125 F10800
G1 X92.783 Y107.383 E1.6734 F2160
G1 X92.783 Y92.857 E1.9150
G1 X117.202 Y92.857 E2.3210
G1 X117.202 Y107.439 E2.5635
G1 X92.838 Y107.439 E2.9687
G1 X93.087 Y106.817
G0 X98.152 Y101.060 F10800
G0 X98.922 Y100.981
G0 X99.692 Y101.116
;segType:Loop
G1 X99.686 Y101.120 E2.9688 F3600
G1 X99.763 Y101.182 E2.9705
G1 X99.887 Y101.333 E2.9737
G1 X99.929 Y101.193 E2.9762
G1 X100.077 Y100.916 E2.9814
G1 X100.274 Y100.674 E2.9866
G1 X100.513 Y100.477 E2.9917
G1 X100.784 Y100.332 E2.9968
G1 X101.077 Y100.242 E3.0019
G1 X101.381 Y100.211 E3.0070
G1 X101.685 Y100.241 E3.0121
G1 X101.979 Y100.329 E3.0172
G1 X102.250 Y100.474 E3.0223
G1 X102.490 Y100.669 E3.0275
G1 X102.508 Y100.691 E3.0279
G1 X102.650 Y100.516 E3.0317
G1 X102.887 Y100.320 E3.0368
G1 X103.156 Y100.176 E3.0419
G1 X103.446 Y100.087 E3.0469
G1 X103.747 Y100.056 E3.0519
G1 X104.049 Y100.084 E3.0570
G1 X104.339 Y100.172 E3.0620
G1 X104.609 Y100.314 E3.0671
G1 X104.847 Y100.508 E3.0722
G1 X105.044 Y100.746 E3.0773
G1 X105.063 Y100.782 E3.0780
G1 X105.159 Y100.636 E3.0809
G1 X105.663 Y100.297 E3.0910
G1 X106.253 Y100.176 E3.1010
G1 X106.844 Y100.291 E3.1110
G1 X107.183 Y100.515 E3.1178
G1 X107.077 Y99.994 E3.1266
G1 X107.196 Y99.382 E3.1370
G1 X107.537 Y98.866 E3.1473
G1 X108.041 Y98.526 E3.1574
G1 X108.604 Y98.411 E3.1670
G1 X108.962 Y98.445 E3.1729
G1 X109.466 Y98.652 E3.1820
G1 X109.750 Y98.882 E3.1881
G1 X110.078 Y99.368 E3.1978
G1 X110.203 Y99.979 E3.2082
G1 X110.084 Y100.592 E3.2186
G1 X109.751 Y101.094 E3.2286
G1 X110.167 Y101.369 E3.2369
G1 X110.248 Y101.326 E3.2384
G1 X110.546 Y101.235 E3.2436
G1 X110.855 Y101.205 E3.2488
G1 X111.163 Y101.235 E3.2539
G1 X111.462 Y101.326 E3.2591
G1 X111.738 Y101.474 E3.2643
G1 X111.981 Y101.673 E3.2695
G1 X112.182 Y101.918 E3.2748
G1 X112.333 Y102.200 E3.2801
G1 X112.426 Y102.507 E3.2855
G1 X112.457 Y102.827 E3.2908
G1 X112.426 Y103.147 E3.2962
G1 X112.333 Y103.454 E3.3015
G1 X112.182 Y103.735 E3.3068
G1 X111.981 Y103.981 E3.3121
G1 X111.738 Y104.180 E3.3173
G1 X111.462 Y104.328 E3.3225
G1 X111.164 Y104.418 E3.3277
G1 X110.855 Y104.449 E3.3329
G1 X110.545 Y104.418 E3.3380
G1 X110.248 Y104.328 E3.3432
G1 X109.972 Y104.181 E3.3484
G1 X109.728 Y103.981 E3.3536
G1 X109.695 Y103.940 E3.3545
G1 X109.118 Y104.059 E3.3643
G1 X108.534 Y103.947 E3.3742
G1 X108.031 Y103.616 E3.3842
G1 X107.690 Y103.111 E3.3943
G1 X107.574 Y102.547 E3.4039
G1 X107.361 Y102.869 E3.4103
G1 X106.857 Y103.209 E3.4204
G1 X106.268 Y103.330 E3.4304
G1 X105.677 Y103.215 E3.4405
G1 X105.170 Y102.880 E3.4506
G1 X104.983 Y102.602 E3.4561
G1 X104.855 Y102.759 E3.4595
G1 X104.618 Y102.955 E3.4646
G1 X104.349 Y103.100 E3.4697
G1 X104.059 Y103.189 E3.4747
G1 X103.758 Y103.220 E3.4798
G1 X103.456 Y103.191 E3.4848
G1 X103.166 Y103.104 E3.4899
G1 X102.896 Y102.961 E3.4949
G1 X102.658 Y102.767 E3.5000
G1 X102.647 Y102.754 E3.5003
G1 X102.495 Y102.940 E3.5043
G1 X102.256 Y103.136 E3.5095
G1 X101.985 Y103.283 E3.5146
G1 X101.692 Y103.372 E3.5197
G1 X101.388 Y103.403 E3.5248
G1 X101.085 Y103.374 E3.5298
G1 X100.791 Y103.285 E3.5349
G1 X100.519 Y103.141 E3.5400
G1 X100.279 Y102.945 E3.5452
G1 X100.151 Y102.790 E3.5485
G1 X100.112 Y102.921 E3.5508
G1 X99.966 Y103.196 E3.5560
G1 X99.770 Y103.437 E3.5612
G1 X99.533 Y103.633 E3.5663
G1 X99.264 Y103.778 E3.5714
G1 X98.974 Y103.867 E3.5764
G1 X98.671 Y103.898 E3.5815
G1 X98.370 Y103.869 E3.5865
G1 X98.079 Y103.782 E3.5915
G1 X97.809 Y103.639 E3.5966
G1 X97.570 Y103.444 E3.6017
G1 X97.373 Y103.206 E3.6069
G1 X97.225 Y102.931 E3.6121
G1 X97.133 Y102.631 E3.6173
G1 X97.101 Y102.319 E3.6225
G1 X97.131 Y102.006 E3.6277
G1 X97.221 Y101.705 E3.6330
G1 X97.367 Y101.429 E3.6382
G1 X97.563 Y101.190 E3.6433
G1 X97.737 Y101.046 E3.6471
G1 X97.689 Y101.014 E3.6480
G1 X97.346 Y100.508 E3.6582
G1 X97.222 Y99.903 E3.6684
G1 X97.339 Y99.297 E3.6787
G1 X97.675 Y98.787 E3.6889
G1 X98.174 Y98.449 E3.6989
G1 X98.760 Y98.329 E3.7088
G1 X99.346 Y98.442 E3.7188
G1 X99.849 Y98.773 E3.7288
G1 X100.192 Y99.279 E3.7390
G1 X100.316 Y99.884 E3.7492
G1 X100.199 Y100.490 E3.7595
G1 X99.863 Y101.001 E3.7696
G1 X99.843 Y101.014 E3.7700
;segType:Perimeter
G0 X99.824 Y102.365 F10800
G1 X99.808 Y102.539 E3.7729 F2160
G1 X99.742 Y102.759 E3.7768
G1 X99.634 Y102.962 E3.7806
G1 X99.489 Y103.140 E3.7844
G1 X99.313 Y103.285 E3.7882
G1 X99.113 Y103.393 E3.7920
G1 X98.896 Y103.460 E3.7957
G1 X98.670 Y103.483 E3.7995
G1 X98.444 Y103.461 E3.8033
G1 X98.227 Y103.396 E3.8071
G1 X98.026 Y103.290 E3.8109
G1 X97.849 Y103.145 E3.8147
G1 X97.703 Y102.969 E3.8185
G1 X97.594 Y102.767 E3.8223
G1 X97.527 Y102.547 E3.8261
G1 X97.503 Y102.317 E3.8299
G1 X97.525 Y102.088 E3.8338
G1 X97.591 Y101.867 E3.8376
G1 X97.699 Y101.664 E3.8414
G1 X97.843 Y101.487 E3.8452
G1 X98.019 Y101.341 E3.8490
G1 X98.220 Y101.233 E3.8528
G1 X98.437 Y101.167 E3.8566
G1 X98.662 Y101.144 E3.8604
G1 X98.888 Y101.165 E3.8641
G1 X99.106 Y101.230 E3.8679
G1 X99.307 Y101.337 E3.8717
G1 X99.484 Y101.481 E3.8755
G1 X99.630 Y101.658 E3.8793
G1 X99.739 Y101.860 E3.8831
G1 X99.806 Y102.080 E3.8869
G1 X99.824 Y102.253 E3.8898
G1 X100.263 Y102.752
G0 X106.267 Y103.096 F10800
G0 X106.772 Y102.993
G0 X107.491 Y102.265
G0 X107.951 Y101.495
;segType:Loop
G1 X107.811 Y101.707 E3.8941 F3600
G1 X107.713 Y101.227 E3.9022
G1 X107.926 Y101.368 E3.9065
G0 F4800 E2.9065
G0 X107.810 Y101.278 F10800
G0 F4800 E3.9065
;segType:Perimeter
G1 X107.400 Y101.802 E3.9175 F2160
G1 X107.324 Y102.192 E3.9241
G1 X107.075 Y102.569 E3.9316
G1 X106.703 Y102.820 E3.9391
G1 X106.266 Y102.909 E3.9465
G1 X105.827 Y102.824 E3.9540
G1 X105.453 Y102.577 E3.9614
G1 X105.201 Y102.203 E3.9689
G1 X105.110 Y101.758 E3.9765
G1 X105.196 Y101.314 E3.9840
G1 X105.445 Y100.937 E3.9915
G1 X105.817 Y100.686 E3.9990
G1 X106.255 Y100.596 E4.0064
G1 X106.693 Y100.682 E4.0138
G1 X107.067 Y100.929 E4.0213
G1 X107.320 Y101.303 E4.0288
G1 X107.399 Y101.692 E4.0354
G1 X107.814 Y102.212
G0 F4800 E3.0354
G0 X109.957 Y101.234 F10800
G0 F4800 E4.0354
G1 X110.108 Y101.889 E4.0466 F2160
G1 X110.190 Y101.822 E4.0483
G1 X110.397 Y101.711 E4.0523
G1 X110.622 Y101.643 E4.0562
G1 X110.855 Y101.620 E4.0600
G1 X111.088 Y101.643 E4.0639
G1 X111.312 Y101.711 E4.0678
G1 X111.519 Y101.822 E4.0717
G1 X111.701 Y101.971 E4.0757
G1 X111.851 Y102.154 E4.0796
G1 X111.963 Y102.363 E4.0835
G1 X112.032 Y102.590 E4.0875
G1 X112.055 Y102.827 E4.0914
G1 X112.032 Y103.064 E4.0954
G1 X111.963 Y103.291 E4.0993
G1 X111.851 Y103.500 E4.1033
G1 X111.701 Y103.683 E4.1072
G1 X111.519 Y103.832 E4.1111
G1 X111.312 Y103.943 E4.1150
G1 X111.088 Y104.011 E4.1189
G1 X110.855 Y104.034 E4.1228
G1 X110.621 Y104.011 E4.1267
G1 X110.397 Y103.943 E4.1306
G1 X110.190 Y103.832 E4.1345
G1 X110.008 Y103.683 E4.1385
G1 X109.858 Y103.500 E4.1424
G1 X109.795 Y103.382 E4.1446
G1 X109.547 Y103.550 E4.1496
G1 X109.115 Y103.638 E4.1569
G1 X108.683 Y103.555 E4.1642
G1 X108.314 Y103.312 E4.1716
G1 X108.064 Y102.943 E4.1790
G1 X107.974 Y102.505 E4.1864
G1 X108.058 Y102.066 E4.1939
G1 X108.303 Y101.694 E4.2013
G1 X108.669 Y101.446 E4.2086
G1 X109.101 Y101.358 E4.2160
G1 X109.533 Y101.441 E4.2233
G1 X109.903 Y101.684 E4.2306
G1 X110.034 Y101.878 E4.2345
G1 X110.359 Y101.294
;segType:Infill
G0 X110.639 Y93.475 F10800
G1 X110.639 Y97.504 E4.3015 F5400
;segType:HShell
G0 X110.798 Y97.488 F10800
G1 X109.723 Y98.598 E4.3272 F3600
G1 X109.980 Y98.862
G1 X111.261 Y97.539 E4.3578
G1 X111.638 Y97.679
G1 X110.191 Y99.174 E4.3924
;segType:Perimeter
G0 X110.194 Y99.512 F10800
G1 X109.784 Y100.036 E4.4035 F2160
G1 X109.708 Y100.428 E4.4101
G1 X109.457 Y100.806 E4.4177
G1 X109.084 Y101.058 E4.4252
G1 X108.645 Y101.148 E4.4326
G1 X108.205 Y101.062 E4.4401
G1 X107.829 Y100.814 E4.4476
G1 X107.576 Y100.438 E4.4551
G1 X107.485 Y99.992 E4.4627
G1 X107.572 Y99.545 E4.4702
G1 X107.822 Y99.167 E4.4778
G1 X108.195 Y98.916 E4.4853
G1 X108.625 Y98.828 E4.4926
G1 X108.868 Y98.851 E4.4966
G1 X109.265 Y99.013 E4.5037
G1 X109.456 Y99.169 E4.5078
G1 X109.704 Y99.536 E4.5152
G1 X109.783 Y99.926 E4.5218
G1 X110.198 Y100.447
G0 X108.680 Y101.331 F10800
G0 X107.415 Y101.117
G0 X106.760 Y100.508
G0 X106.254 Y100.409
G0 X104.490 Y100.506
G0 X103.748 Y100.284
G0 X103.007 Y100.511
G0 X102.513 Y101.120
G0 X102.440 Y101.357
G0 X102.597 Y101.586
G1 X102.613 Y101.413 E4.5247 F2160
G1 X102.679 Y101.193 E4.5285
G1 X102.787 Y100.991 E4.5324
G1 X102.931 Y100.813 E4.5362
G1 X103.106 Y100.668 E4.5400
G1 X103.307 Y100.560 E4.5437
G1 X103.523 Y100.494 E4.5475
G1 X103.748 Y100.471 E4.5513
G1 X103.974 Y100.492 E4.5550
G1 X104.191 Y100.557 E4.5588
G1 X104.392 Y100.663 E4.5626
G1 X104.568 Y100.807 E4.5664
G1 X104.714 Y100.983 E4.5702
G1 X104.823 Y101.185 E4.5740
G1 X104.890 Y101.405 E4.5778
G1 X104.913 Y101.634 E4.5816
G1 X104.892 Y101.863 E4.5854
G1 X104.826 Y102.083 E4.5893
G1 X104.718 Y102.285 E4.5931
G1 X104.574 Y102.463 E4.5969
G1 X104.398 Y102.608 E4.6007
G1 X104.198 Y102.715 E4.6044
G1 X103.982 Y102.782 E4.6082
G1 X103.757 Y102.805 E4.6120
G1 X103.531 Y102.784 E4.6157
G1 X103.314 Y102.719 E4.6195
G1 X103.114 Y102.612 E4.6233
G1 X102.937 Y102.468 E4.6271
G1 X102.791 Y102.292 E4.6309
G1 X102.683 Y102.091 E4.6347
G1 X102.615 Y101.871 E4.6385
G1 X102.597 Y101.698 E4.6414
G0 X102.542 Y101.629 F10800
G1 X102.559 Y101.804 E4.6443 F2160
G1 X102.537 Y102.036 E4.6482
G1 X102.470 Y102.259 E4.6521
G1 X102.361 Y102.463 E4.6559
G1 X102.215 Y102.642 E4.6598
G1 X102.037 Y102.789 E4.6636
G1 X101.835 Y102.898 E4.6674
G1 X101.615 Y102.965 E4.6712
G1 X101.387 Y102.988 E4.6751
G1 X101.159 Y102.966 E4.6789
G1 X100.940 Y102.900 E4.6827
G1 X100.737 Y102.792 E4.6865
G1 X100.558 Y102.646 E4.6903
G1 X100.411 Y102.468 E4.6942
G1 X100.302 Y102.264 E4.6980
G1 X100.233 Y102.041 E4.7019
G1 X100.210 Y101.810 E4.7058
G1 X100.232 Y101.578 E4.7096
G1 X100.299 Y101.356 E4.7135
G1 X100.408 Y101.151 E4.7174
G1 X100.555 Y100.972 E4.7212
G1 X100.732 Y100.825 E4.7250
G1 X100.935 Y100.716 E4.7289
G1 X101.154 Y100.649 E4.7327
G1 X101.382 Y100.626 E4.7365
G1 X101.610 Y100.648 E4.7403
G1 X101.830 Y100.714 E4.7441
G1 X102.033 Y100.822 E4.7479
G1 X102.211 Y100.968 E4.7518
G1 X102.358 Y101.146 E4.7556
G1 X102.468 Y101.350 E4.7595
G1 X102.520 Y101.519 E4.7624
G0 F4800 E3.7624
G0 X102.713 Y101.535 F10800
G0 X102.634 Y101.276
G0 X102.507 Y101.039
G0 X100.306 Y99.417
G0 F4800 E4.7624
G1 X99.897 Y99.942 E4.7735 F2160
G1 X99.822 Y100.327 E4.7800
G1 X99.577 Y100.701 E4.7874
G1 X99.209 Y100.950 E4.7948
G1 X98.776 Y101.038 E4.8022
G1 X98.342 Y100.955 E4.8095
G1 X97.971 Y100.710 E4.8169
G1 X97.721 Y100.340 E4.8243
G1 X97.630 Y99.901 E4.8318
G1 X97.715 Y99.460 E4.8393
G1 X97.961 Y99.087 E4.8467
G1 X98.329 Y98.838 E4.8541
G1 X98.762 Y98.749 E4.8614
G1 X99.196 Y98.833 E4.8688
G1 X99.567 Y99.077 E4.8762
G1 X99.817 Y99.447 E4.8836
G1 X99.896 Y99.832 E4.8901
G1 X100.312 Y100.351
G0 F4800 E3.8901
G0 X103.409 Y100.334 F10800
G0 X106.824 Y100.041
G0 F4800 E4.8901
;segType:Infill
G1 X106.824 Y93.475 E4.9993 F5400
;segType:HShell
G0 X107.950 Y98.312 F10800
G1 X107.867 Y98.397 E5.0013 F3600
G0 X109.400 Y98.402 F10800
G1 X110.154 Y97.624 E5.0193 F3600
;segType:Infill
G0 X109.496 Y98.121 F10800
G1 X99.052 Y98.121 E5.1930 F5400
G1 X98.493 Y98.121 E5.2023
G1 X98.057 Y98.121 E5.2095
;segType:HShell
G0 X98.307 Y98.211 F10800
G1 X98.372 Y98.144 E5.2111 F3600
;segType:Infill
G0 X99.192 Y98.152 F10800
G1 X99.192 Y93.475 E5.2889 F5400
G0 X103.008 Y93.475 F10800
G1 X103.008 Y99.982 E5.3971 F5400
;segType:HShell
G0 X100.453 Y100.229 F10800
G1 X100.517 Y100.163 E5.3986 F3600
G0 X100.059 Y101.522 F10800
G0 X99.626 Y104.170
G0 X99.192 Y106.818
;segType:Infill
G1 X99.192 Y104.053 E5.4446 F5400
;segType:HShell
G0 X99.369 Y103.994 F10800
G1 X99.451 Y103.910 E5.4466 F3600
;segType:Infill
G0 X93.399 Y102.060 F10800
G1 X96.889 Y102.060 E5.5046 F5400
G0 X95.376 Y106.818 F10800
G1 X95.376 Y100.370 E5.6118 F5400
G0 X98.152 Y101.060 F10800
G0 X98.922 Y100.981
G0 X99.610 Y101.346
G0 X100.432 Y102.781
G0 X101.126 Y103.150
G0 X103.008 Y103.294
G1 X103.008 Y106.818 E5.6704 F5400
G0 X99.984 Y102.042 F10800
G0 X99.610 Y101.346
G0 X98.922 Y100.981
G0 X98.152 Y101.060
G0 X97.136 Y100.478
;segType:HShell
G1 X96.950 Y100.670 E5.6749 F3600
G1 X96.368 Y100.741
G1 X97.046 Y100.042 E5.6911
G1 X97.105 Y99.451
G1 X95.933 Y100.661 E5.7191
G1 X95.573 Y100.504
G1 X97.997 Y98.001 E5.7770
G1 X97.778 Y97.698
G1 X95.273 Y100.285 E5.8369
G1 X95.025 Y100.012
G1 X97.505 Y97.451 E5.8962
G1 X97.177 Y97.261
G1 X94.831 Y99.682 E5.9522
G1 X94.701 Y99.287
G1 X96.783 Y97.138 E6.0020
G1 X96.284 Y97.124
G1 X94.680 Y98.779 E6.0403
;segType:Infill
G0 X94.860 Y98.121 F10800
G1 X93.399 Y98.121 E6.0646 F5400
;segType:HShell
G0 X95.522 Y97.381 F10800
G1 X94.928 Y97.994 E6.0788 F3600
;segType:Infill
G0 X95.376 Y97.487 F10800
G1 X95.376 Y93.475 E6.1456 F5400
G0 X93.399 Y94.182 F10800
G1 X116.618 Y94.182 E6.5317 F5400
G0 X116.618 Y98.121 F10800
G1 X112.200 Y98.121 E6.6051 F5400
G0 X114.455 Y93.475 F10800
G1 X114.455 Y106.818 E6.8270 F5400
G0 X116.618 Y105.999 F10800
G1 X93.399 Y105.999 E7.2132 F5400
G0 X106.824 Y103.464 F10800
G1 X106.824 Y106.818 E7.2689 F5400
G0 X110.639 Y106.818 F10800
G1 X110.639 Y104.635 E7.3053 F5400
G0 X112.001 Y103.606 F10800
G0 X112.487 Y102.060
G1 X116.618 Y102.060 E7.3740 F5400
;segType:HShell
G0 X112.529 Y99.934 F10800
G1 X111.485 Y101.013 E7.3989 F3600
G0 X112.643 Y99.288 F10800
G1 X110.975 Y101.010 E7.4388 F3600
G1 X110.409 Y101.066
G1 X112.574 Y98.830 E7.4905
G1 X112.425 Y98.454
G1 X110.265 Y100.685 E7.5422
G0 X109.870 Y99.461 F10800
G0 X109.355 Y98.851
G0 X108.616 Y98.641
G0 X107.040 Y99.251
G1 X106.980 Y99.313 E7.5436 F3600
G0 X108.616 Y98.641 F10800
G0 X109.588 Y99.040
G0 X110.323 Y99.566
G1 X111.954 Y97.883 E7.5826 F3600
G1 X112.216 Y98.141
G1 X110.400 Y100.016 E7.6260
G0 X109.065 Y101.174 F10800
G0 X108.601 Y101.273
G0 X108.176 Y101.561
G0 X107.464 Y103.046
G1 X107.281 Y103.236 E7.6304 F3600
; ------------------------------------
; Layer #7
; ------------------------------------
G21 ; mm
G90 ; abs
G92 E0 ; reset extr
M106 S255
;segType:Support
G0 F4800 E-1.0000
G0 F300 Z0.800
G0 X99.056 Y100.000 F10800
G0 F4800 E0.0000
G1 X98.481 Y100.000 E0.0081 F5400
G0 F4800 E-0.9919
G0 X96.713 Y102.137 F10800
G0 X93.178 Y106.410
G0 F4800 E0.0081
;segType:Loop
G1 X93.178 Y93.270 E0.2266 F3600
G1 X116.796 Y93.270 E0.6194
G1 X116.796 Y107.026 E0.8482
G1 X93.178 Y107.026 E1.2409
G1 X93.178 Y106.597 E1.2481
;segType:Perimeter
G0 X93.381 Y107.125 F10800
G1 X92.778 Y107.383 E1.2590 F2160
G1 X92.778 Y92.857 E1.5005
G1 X117.196 Y92.857 E1.9066
G1 X117.196 Y107.439 E2.1491
G1 X92.832 Y107.439 E2.5543
G1 X93.082 Y106.817
G0 X97.924 Y101.193 F10800
G0 X98.402 Y100.992
G0 X99.677 Y101.112
;segType:Loop
G1 X99.664 Y101.121 E2.5546 F3600
G1 X99.759 Y101.184 E2.5565
G1 X99.892 Y101.380 E2.5604
G1 X99.945 Y101.203 E2.5635
G1 X100.090 Y100.928 E2.5686
G1 X100.285 Y100.689 E2.5738
G1 X100.521 Y100.494 E2.5789
G1 X100.788 Y100.349 E2.5839
G1 X101.078 Y100.260 E2.5890
G1 X101.379 Y100.229 E2.5940
G1 X101.679 Y100.258 E2.5990
G1 X101.969 Y100.344 E2.6040
G1 X102.238 Y100.487 E2.6091
G1 X102.475 Y100.680 E2.6142
G1 X102.518 Y100.732 E2.6153
G1 X102.654 Y100.525 E2.6194
G1 X103.156 Y100.186 E2.6295
G1 X103.744 Y100.065 E2.6395
G1 X104.333 Y100.179 E2.6494
G1 X104.839 Y100.513 E2.6595
G1 X105.053 Y100.830 E2.6659
G1 X105.171 Y100.651 E2.6694
G1 X105.667 Y100.314 E2.6794
G1 X106.250 Y100.194 E2.6893
G1 X106.834 Y100.306 E2.6992
G1 X107.202 Y100.549 E2.7065
G1 X107.089 Y99.996 E2.7159
G1 X107.206 Y99.388 E2.7262
G1 X107.544 Y98.876 E2.7364
G1 X108.045 Y98.538 E2.7465
G1 X108.631 Y98.418 E2.7564
G1 X109.219 Y98.531 E2.7664
G1 X109.723 Y98.864 E2.7764
G1 X110.066 Y99.371 E2.7866
G1 X110.190 Y99.978 E2.7969
G1 X110.073 Y100.586 E2.8072
G1 X109.736 Y101.097 E2.8174
G1 X109.734 Y101.098 E2.8174
G1 X110.164 Y101.380 E2.8260
G1 X110.250 Y101.335 E2.8276
G1 X110.546 Y101.245 E2.8327
G1 X110.853 Y101.214 E2.8379
G1 X111.160 Y101.244 E2.8430
G1 X111.457 Y101.334 E2.8482
G1 X111.731 Y101.480 E2.8533
G1 X111.974 Y101.679 E2.8585
G1 X112.174 Y101.922 E2.8638
G1 X112.324 Y102.202 E2.8691
G1 X112.417 Y102.507 E2.8744
G1 X112.449 Y102.825 E2.8797
G1 X112.417 Y103.144 E2.8850
G1 X112.325 Y103.449 E2.8903
G1 X112.175 Y103.729 E2.8956
G1 X111.976 Y103.973 E2.9008
G1 X111.734 Y104.172 E2.9060
G1 X111.460 Y104.319 E2.9112
G1 X111.163 Y104.409 E2.9164
G1 X110.856 Y104.440 E2.9215
G1 X110.548 Y104.410 E2.9266
G1 X110.252 Y104.320 E2.9318
G1 X109.978 Y104.174 E2.9370
G1 X109.735 Y103.975 E2.9422
G1 X109.696 Y103.927 E2.9432
G1 X109.120 Y104.047 E2.9530
G1 X108.540 Y103.936 E2.9628
G1 X108.041 Y103.608 E2.9727
G1 X107.702 Y103.109 E2.9828
G1 X107.578 Y102.510 E2.9929
G1 X107.578 Y102.508 E2.9930
G1 X107.350 Y102.855 E2.9999
G1 X106.853 Y103.192 E3.0099
G1 X106.270 Y103.311 E3.0198
G1 X105.687 Y103.200 E3.0296
G1 X105.185 Y102.869 E3.0396
G1 X104.976 Y102.561 E3.0458
G1 X104.850 Y102.751 E3.0496
G1 X104.348 Y103.090 E3.0597
G1 X103.761 Y103.210 E3.0697
G1 X103.172 Y103.097 E3.0796
G1 X102.666 Y102.763 E3.0897
G1 X102.644 Y102.729 E3.0904
G1 X102.484 Y102.925 E3.0946
G1 X102.248 Y103.121 E3.0997
G1 X101.981 Y103.265 E3.1047
G1 X101.692 Y103.354 E3.1098
G1 X101.391 Y103.385 E3.1148
G1 X101.090 Y103.356 E3.1198
G1 X100.800 Y103.269 E3.1249
G1 X100.532 Y103.127 E3.1299
G1 X100.294 Y102.934 E3.1350
G1 X100.143 Y102.751 E3.1389
G1 X100.110 Y102.918 E3.1418
G1 X99.769 Y103.433 E3.1521
G1 X99.265 Y103.774 E3.1622
G1 X98.674 Y103.894 E3.1722
G1 X98.110 Y103.785 E3.1817
G1 X97.790 Y103.615 E3.1878
G1 X97.376 Y103.205 E3.1975
G1 X97.136 Y102.632 E3.2078
G1 X97.133 Y102.008 E3.2182
G1 X97.368 Y101.433 E3.2285
G1 X97.754 Y101.044 E3.2376
G1 X97.698 Y101.007 E3.2387
G1 X97.358 Y100.505 E3.2488
G1 X97.234 Y99.905 E3.2590
G1 X97.349 Y99.303 E3.2692
G1 X97.683 Y98.796 E3.2793
G1 X98.178 Y98.461 E3.2892
G1 X98.758 Y98.341 E3.2991
G1 X99.340 Y98.452 E3.3089
G1 X99.839 Y98.781 E3.3189
G1 X100.180 Y99.282 E3.3290
G1 X100.304 Y99.882 E3.3392
G1 X100.189 Y100.484 E3.3493
G1 X99.855 Y100.991 E3.3594
G1 X99.829 Y101.009 E3.3600
G0 X100.220 Y101.839 F10800
;segType:Perimeter
G1 X99.810 Y102.363 E3.3710 F2160
G1 X99.734 Y102.755 E3.3777
G1 X99.484 Y103.132 E3.3852
G1 X99.111 Y103.384 E3.3927
G1 X98.672 Y103.474 E3.4001
G1 X98.241 Y103.390 E3.4074
G1 X98.025 Y103.275 E3.4115
G1 X97.711 Y102.965 E3.4188
G1 X97.536 Y102.546 E3.4264
G1 X97.534 Y102.091 E3.4340
G1 X97.706 Y101.670 E3.4415
G1 X98.023 Y101.350 E3.4490
G1 X98.437 Y101.176 E3.4565
G1 X98.875 Y101.174 E3.4638
G1 X99.110 Y101.244 E3.4678
G1 X99.477 Y101.487 E3.4752
G1 X99.730 Y101.862 E3.4827
G1 X99.809 Y102.253 E3.4893
G1 X100.224 Y102.773
G0 X106.269 Y103.078 F10800
G0 X106.767 Y102.975
G0 X107.475 Y102.256
G0 X107.967 Y101.492
;segType:Loop
G1 X107.800 Y101.746 E3.4944 F3600
G1 X107.801 Y101.742 E3.4945
G1 X107.688 Y101.196 E3.5037
G1 X107.941 Y101.364 E3.5088
G0 F4800 E2.5088
G0 X109.953 Y101.249 F10800
G0 F4800 E3.5088
;segType:Perimeter
G1 X110.104 Y101.904 E3.5200 F2160
G1 X110.194 Y101.830 E3.5219
G1 X110.400 Y101.719 E3.5258
G1 X110.622 Y101.652 E3.5297
G1 X110.854 Y101.629 E3.5335
G1 X111.085 Y101.651 E3.5374
G1 X111.308 Y101.719 E3.5413
G1 X111.513 Y101.829 E3.5451
G1 X111.694 Y101.977 E3.5490
G1 X111.843 Y102.158 E3.5529
G1 X111.954 Y102.365 E3.5568
G1 X112.023 Y102.591 E3.5608
G1 X112.046 Y102.826 E3.5647
G1 X112.023 Y103.061 E3.5686
G1 X111.955 Y103.286 E3.5725
G1 X111.844 Y103.494 E3.5764
G1 X111.696 Y103.675 E3.5803
G1 X111.515 Y103.824 E3.5842
G1 X111.309 Y103.934 E3.5881
G1 X111.087 Y104.002 E3.5920
G1 X110.856 Y104.025 E3.5958
G1 X110.624 Y104.002 E3.5997
G1 X110.401 Y103.935 E3.6036
G1 X110.196 Y103.825 E3.6075
G1 X110.015 Y103.677 E3.6113
G1 X109.866 Y103.496 E3.6152
G1 X109.797 Y103.366 E3.6177
G1 X109.543 Y103.538 E3.6228
G1 X109.117 Y103.626 E3.6300
G1 X108.689 Y103.544 E3.6373
G1 X108.323 Y103.304 E3.6445
G1 X108.076 Y102.940 E3.6519
G1 X107.986 Y102.507 E3.6592
G1 X108.069 Y102.072 E3.6666
G1 X108.311 Y101.704 E3.6739
G1 X108.673 Y101.458 E3.6812
G1 X109.100 Y101.370 E3.6884
G1 X109.528 Y101.452 E3.6957
G1 X109.893 Y101.692 E3.7030
G1 X110.030 Y101.893 E3.7070
G1 X110.355 Y101.309
;segType:HShell
G0 X109.972 Y97.721 F10800
G1 X112.395 Y100.222 E3.7649 F3600
G1 X112.177 Y100.527
G1 X109.669 Y97.937 E3.8249
G1 X109.425 Y98.214
G1 X111.906 Y100.776 E3.8842
G1 X111.582 Y100.970
G1 X110.335 Y99.683 E3.9140
;segType:Perimeter
G0 X110.181 Y99.511 F10800
G1 X109.772 Y100.035 E3.9251 F2160
G1 X109.697 Y100.422 E3.9316
G1 X109.450 Y100.797 E3.9391
G1 X109.081 Y101.046 E3.9465
G1 X108.646 Y101.135 E3.9539
G1 X108.211 Y101.051 E3.9612
G1 X107.839 Y100.806 E3.9687
G1 X107.588 Y100.434 E3.9761
G1 X107.497 Y99.993 E3.9836
G1 X107.583 Y99.551 E3.9911
G1 X107.830 Y99.177 E3.9985
G1 X108.199 Y98.927 E4.0060
G1 X108.633 Y98.838 E4.0133
G1 X109.069 Y98.922 E4.0207
G1 X109.441 Y99.168 E4.0281
G1 X109.692 Y99.539 E4.0356
G1 X109.771 Y99.925 E4.0421
G1 X110.186 Y100.445
G0 X107.790 Y101.275 F10800
G1 X107.382 Y101.800 E4.0532 F2160
G1 X107.308 Y102.183 E4.0597
G1 X107.064 Y102.555 E4.0671
G1 X106.698 Y102.802 E4.0744
G1 X106.268 Y102.891 E4.0817
G1 X105.836 Y102.808 E4.0890
G1 X105.467 Y102.566 E4.0964
G1 X105.218 Y102.198 E4.1038
G1 X105.128 Y101.761 E4.1112
G1 X105.212 Y101.322 E4.1186
G1 X105.457 Y100.951 E4.1260
G1 X105.822 Y100.703 E4.1333
G1 X106.252 Y100.615 E4.1407
G1 X106.684 Y100.697 E4.1480
G1 X107.053 Y100.940 E4.1553
G1 X107.302 Y101.308 E4.1627
G1 X107.381 Y101.690 E4.1692
G1 X107.797 Y102.209
G0 F4800 E3.1692
G0 X107.304 Y102.523 F10800
G0 X106.767 Y102.975
G0 X106.269 Y103.078
G0 X105.770 Y102.982
G0 X105.342 Y102.701
G0 X105.070 Y102.305
G0 X102.617 Y101.589
G0 F4800 E4.1692
G1 X102.692 Y101.201 E4.1758 F2160
G1 X102.940 Y100.826 E4.1832
G1 X103.310 Y100.575 E4.1907
G1 X103.746 Y100.486 E4.1981
G1 X104.183 Y100.570 E4.2055
G1 X104.556 Y100.817 E4.2129
G1 X104.808 Y101.189 E4.2204
G1 X104.898 Y101.632 E4.2279
G1 X104.812 Y102.075 E4.2354
G1 X104.565 Y102.450 E4.2429
G1 X104.194 Y102.701 E4.2503
G1 X103.759 Y102.790 E4.2577
G1 X103.322 Y102.705 E4.2651
G1 X102.949 Y102.459 E4.2725
G1 X102.697 Y102.087 E4.2800
G1 X102.618 Y101.699 E4.2866
G0 X102.491 Y101.048 F10800
G0 X102.617 Y101.281
G0 X102.691 Y101.517
G0 X102.524 Y101.630
G1 X102.541 Y101.802 E4.2895 F2160
G1 X102.520 Y102.031 E4.2933
G1 X102.454 Y102.250 E4.2971
G1 X102.347 Y102.452 E4.3009
G1 X102.203 Y102.628 E4.3047
G1 X102.029 Y102.773 E4.3085
G1 X101.830 Y102.880 E4.3122
G1 X101.614 Y102.947 E4.3160
G1 X101.389 Y102.970 E4.3197
G1 X101.165 Y102.949 E4.3235
G1 X100.948 Y102.884 E4.3272
G1 X100.749 Y102.778 E4.3310
G1 X100.572 Y102.635 E4.3348
G1 X100.427 Y102.459 E4.3386
G1 X100.319 Y102.258 E4.3424
G1 X100.252 Y102.040 E4.3462
G1 X100.228 Y101.812 E4.3500
G1 X100.250 Y101.583 E4.3538
G1 X100.315 Y101.364 E4.3576
G1 X100.422 Y101.162 E4.3614
G1 X100.566 Y100.986 E4.3652
G1 X100.741 Y100.841 E4.3689
G1 X100.940 Y100.734 E4.3727
G1 X101.156 Y100.667 E4.3765
G1 X101.380 Y100.644 E4.3802
G1 X101.605 Y100.666 E4.3840
G1 X101.821 Y100.730 E4.3877
G1 X102.021 Y100.836 E4.3915
G1 X102.197 Y100.979 E4.3953
G1 X102.342 Y101.155 E4.3990
G1 X102.451 Y101.356 E4.4028
G1 X102.501 Y101.521 E4.4057
G0 F4800 E3.4057
G0 X102.710 Y101.666 F10800
G0 X102.695 Y101.536
G0 X102.617 Y101.281
G0 X102.491 Y101.048
G0 X100.501 Y99.587
G0 F4800 E4.4057
;segType:HShell
G1 X100.433 Y99.516 E4.4074 F3600
;segType:Perimeter
G0 X100.293 Y99.415 F10800
G1 X99.885 Y99.940 E4.4184 F2160
G1 X99.812 Y100.321 E4.4249
G1 X99.569 Y100.691 E4.4322
G1 X99.205 Y100.938 E4.4395
G1 X98.777 Y101.026 E4.4468
G1 X98.348 Y100.944 E4.4541
G1 X97.980 Y100.703 E4.4614
G1 X97.732 Y100.337 E4.4687
G1 X97.643 Y99.902 E4.4761
G1 X97.726 Y99.466 E4.4835
G1 X97.969 Y99.096 E4.4909
G1 X98.332 Y98.850 E4.4982
G1 X98.761 Y98.761 E4.5054
G1 X99.190 Y98.843 E4.5127
G1 X99.557 Y99.085 E4.5200
G1 X99.805 Y99.450 E4.5274
G1 X99.884 Y99.830 E4.5338
G1 X100.300 Y100.349
G0 F4800 E3.5338
G0 X99.192 Y98.190 F10800
G0 F4800 E4.5338
;segType:Infill
G1 X99.192 Y93.475 E4.6122 F5400
;segType:HShell
G0 X97.271 Y97.311 F10800
G1 X98.059 Y98.124 E4.6310 F3600
G1 X97.849 Y98.437
G1 X96.571 Y97.117 E4.6616
G1 X96.089 Y97.149
G1 X97.540 Y98.646 E4.6963
G1 X97.332 Y98.961
G1 X95.706 Y97.283 E4.7351
G1 X95.384 Y97.480
G1 X97.146 Y99.299 E4.7773
G1 X97.062 Y99.741
G1 X95.117 Y97.733 E4.8237
G1 X94.903 Y98.041
G1 X97.117 Y100.327 E4.8766
G1 X96.940 Y100.673
G1 X94.749 Y98.411 E4.9290
G1 X94.672 Y98.862
G1 X96.499 Y100.747 E4.9727
G1 X95.890 Y100.648
G1 X94.759 Y99.481 E4.9997
;segType:Infill
G0 X95.376 Y100.370 F10800
G1 X95.376 Y101.602 E5.0202 F5400
G0 X98.057 Y98.121 F10800
G1 X98.688 Y98.121 E5.0307 F5400
G1 X98.837 Y98.121 E5.0331
G1 X109.496 Y98.121 E5.2104
;segType:HShell
G0 X108.969 Y98.273 F10800
G1 X108.907 Y98.209 E5.2119 F3600
;segType:Infill
G0 X116.612 Y102.060 F10800
G1 X112.487 Y102.060 E5.2805 F5400
;segType:HShell
G0 X110.335 Y97.567 F10800
G1 X112.553 Y99.856 E5.3335 F3600
G1 X112.635 Y99.412
G1 X110.774 Y97.491 E5.3780
G1 X111.364 Y97.570
G1 X112.569 Y98.814 E5.4068
;segType:Infill
G0 X112.200 Y98.121 F10800
G1 X116.612 Y98.121 E5.4801 F5400
G0 X110.639 Y106.818 F10800
G1 X110.639 Y104.635 E5.5165 F5400
G0 X106.824 Y103.464 F10800
G1 X106.824 Y106.818 E5.5722 F5400
;segType:HShell
G0 X105.836 Y103.506 F10800
G1 X105.755 Y103.423 E5.5742 F3600
G0 X105.052 Y102.272 F10800
G0 X104.947 Y101.762
G0 X105.045 Y101.250
G0 X105.329 Y100.818
G0 X106.588 Y100.049
G1 X106.507 Y99.965 E5.5761 F3600
;segType:Infill
G0 X103.008 Y99.982 F10800
G1 X103.008 Y93.475 E5.6843 F5400
;segType:HShell
G0 X102.035 Y100.112 F10800
G1 X102.106 Y100.185 E5.6860 F3600
G0 X100.642 Y100.685 F10800
G0 X99.836 Y101.692
G0 X100.002 Y102.307
G0 X99.901 Y102.827
G0 X99.179 Y103.557
G0 X93.394 Y105.999
;segType:Infill
G1 X116.612 Y105.999 E6.0721 F5400
G0 X108.623 Y103.719 F10800
G0 X108.198 Y103.439
G0 X107.910 Y103.015
G0 X107.468 Y101.234
G0 X107.179 Y100.805
G0 X106.751 Y100.523
G0 X104.591 Y100.104
;segType:HShell
G1 X104.445 Y99.954 E6.0756 F3600
;segType:Infill
G0 X106.824 Y100.041 F10800
G1 X106.824 Y93.475 E6.1848 F5400
G0 X110.639 Y93.475 F10800
G1 X110.639 Y97.504 E6.2518 F5400
;segType:HShell
G0 X110.347 Y100.225 F10800
G1 X111.130 Y101.034 E6.2705 F3600
G1 X110.615 Y101.030
G1 X110.261 Y100.666 E6.2790
G1 X110.054 Y100.981
G1 X110.213 Y101.145 E6.2828
G0 X111.612 Y101.671 F10800
G0 X112.121 Y102.292
G0 X114.455 Y106.818
;segType:Infill
G1 X114.455 Y93.475 E6.5047 F5400
G0 X116.612 Y94.182 F10800
G1 X93.394 Y94.182 E6.8908 F5400
G0 X95.376 Y93.475 F10800
G1 X95.376 Y97.487 E6.9575 F5400
G0 X93.394 Y98.121 F10800
G1 X94.860 Y98.121 E6.9819 F5400
G0 X95.376 Y106.818 F10800
G1 X95.376 Y104.659 E7.0178 F5400
G0 X93.394 Y102.060 F10800
G1 X94.904 Y102.060 E7.0429 F5400
G0 X98.182 Y103.567 F10800
G0 X98.673 Y103.661
G0 X100.686 Y103.483
;segType:HShell
G1 X100.604 Y103.398 E7.0449 F3600
;segType:Infill
G0 X99.192 Y104.028 F10800
G1 X99.192 Y106.818 E7.0913 F5400
;segType:HShell
G0 X94.612 Y103.563 F10800
G1 X95.892 Y104.884 E7.1219 F3600
G1 X96.460 Y104.942
G1 X94.569 Y102.989 E7.1671
G1 X94.657 Y102.551
G1 X96.893 Y104.859 E7.2205
G1 X97.251 Y104.699
G1 X94.821 Y102.190 E7.2786
G1 X95.043 Y101.890
G1 X97.551 Y104.479 E7.3385
G1 X97.796 Y104.204
G1 X95.318 Y101.645 E7.3978
G1 X95.648 Y101.456
G1 X97.018 Y102.871 E7.4305
G1 X96.934 Y102.256
G1 X96.046 Y101.338 E7.4518
G1 X96.548 Y101.328
G1 X97.003 Y101.797 E7.4626
G0 X97.924 Y101.193 F10800
G0 X98.402 Y100.992
G0 X99.184 Y101.073
G0 X99.602 Y101.352
G0 X100.552 Y102.857
G0 X101.390 Y103.157
G0 X103.008 Y103.294
;segType:Infill
G1 X103.008 Y106.818 E7.5213 F5400
;segType:HShell
G0 X103.112 Y103.340 F10800
G1 X103.009 Y103.234 E7.5237 F3600
;segType:Support
G0 F4800 E6.5237
G0 X101.731 Y101.800 F10800
G0 F4800 E7.5237
G1 X101.049 Y101.800 E7.5334 F5400
G1 X103.492 Y101.800 E7.5679
G1 X104.014 Y101.800 E7.5753
G0 F4800 E6.5753
G0 X108.959 Y100.000 F10800
G0 F4800 E7.5753
G1 X108.600 Y100.000 E7.5803 F5400
G1 X106.555 Y101.800 E7.6189
G1 X105.967 Y101.800 E7.6272
G0 F4800 E6.6272
G0 X117.600 Y91.000 F10800
G0 F4800 E7.6272
G1 X94.200 Y91.000 E7.9579 F5400
; ------------------------------------
; Layer #8
; ------------------------------------
G21 ; mm
G90 ; abs
G92 E0 ; reset extr
M106 S255
;segType:Support
G0 F4800 E-1.0000
G0 F300 Z0.900
G0 X94.200 Y91.000 F10800
G0 F4800 E0.0000
G1 X117.600 Y91.000 E0.3308 F5400
G0 F4800 E-0.6692
G0 X98.496 Y100.000 F10800
G0 F4800 E0.3308
G1 X99.039 Y100.000 E0.3385 F5400
G1 X101.082 Y101.800 E0.3769
G1 X101.708 Y101.800 E0.3858
G1 X103.520 Y101.800 E0.4114
G1 X103.985 Y101.800 E0.4180
G1 X105.983 Y101.800 E0.4462
G1 X106.538 Y101.800 E0.4541
G0 F4800 E-0.5459
G0 X108.600 Y100.000 F10800
G0 F4800 E0.4541
G1 X108.932 Y100.000 E0.4588 F5400
G0 F4800 E-0.5412
G0 X107.228 Y100.411 F10800
G0 X105.620 Y100.202
G0 X104.778 Y101.016
G0 X105.379 Y101.922
G0 X105.298 Y102.283
G0 X104.935 Y102.836
G0 X93.556 Y106.820
G0 F4800 E0.4588
;segType:HShell
G1 X97.132 Y103.129 E0.5442 F3600
G1 X96.997 Y102.739
G1 X93.372 Y106.480 E0.6309
