; GCode generated by CraftWare

G28 X0 Y0
G28 Z0

M190 S60 ;set bed temp (wait)
M109 S215 ;set head temp (wait)
; ------------------------------------
; Layer #0
; ------------------------------------
G21 ; mm
G90 ; abs
G92 E0 ; reset extr
M106 S0
;segType:Skirt
G0 F4800 E-1.0000
G0 F300 Z0.200
G0 X91.380 Y111.060 F10800
G0 F4800 E0.0000
G1 X91.561 Y111.247 E0.0086 F600
G1 X91.802 Y111.371 E0.0177
G1 X117.876 Y111.371 E0.8845
G1 X118.298 Y111.309 E0.8986
G1 X120.954 Y108.568 E1.0255
G1 X120.954 Y92.118 E1.5724
G1 X120.894 Y91.683 E1.5870
G1 X118.238 Y88.941 E1.7139
G1 X91.681 Y88.941 E2.5967
G1 X89.026 Y91.683 E2.7236
G1 X88.965 Y92.118 E2.7382
G1 X88.965 Y108.568 E3.2851
G1 X91.380 Y111.060 E3.4004
G1 X91.380 Y111.434 E3.4128
G1 X91.561 Y111.621 E3.4215
G1 X91.802 Y111.745 E3.4305
G1 X117.876 Y111.745 E4.2973
G1 X118.298 Y111.683 E4.3115
G1 X121.316 Y108.568 E4.4557
G1 X121.316 Y92.118 E5.0025
G1 X121.256 Y91.683 E5.0171
G1 X118.238 Y88.567 E5.1613
G1 X91.681 Y88.567 E6.0442
G1 X88.784 Y91.558 E6.1826
G1 X88.603 Y91.869 E6.1945
G1 X88.603 Y108.568 E6.7497
G1 X91.380 Y111.434 E6.8823
G1 X91.500 Y111.932 E6.8994
G1 X91.681 Y112.119 E6.9080
G1 X118.117 Y112.119 E7.7868
G1 X118.362 Y111.968 E7.7964
G0 F4800 E6.7964
G0 X98.519 Y107.847 F10800
G0 X96.039 Y107.332
G0 X93.559 Y106.817
G0 F4800 E7.7964
;segType:HShell
G1 X98.522 Y101.694 E8.0335 F600
G1 X99.036 Y101.692
G1 X94.072 Y106.817 E8.2707
;segType:Perimeter
G0 X93.413 Y107.123 F10800
G1 X92.810 Y107.380 E8.2925 F360
G1 X92.810 Y92.854 E8.7754
G1 X117.229 Y92.854 E9.5872
G1 X117.229 Y107.436 E10.0719
G1 X92.864 Y107.436 E10.8819
G1 X93.114 Y106.814
;segType:Loop
G0 X93.210 Y106.407 F10800
G1 X93.210 Y93.268 E11.3187 F600
G1 X116.829 Y93.268 E12.1038
G1 X116.829 Y107.023 E12.5611
G1 X93.210 Y107.023 E13.3463
G1 X93.210 Y106.594 E13.3606
G0 X99.911 Y100.670 F10800
G0 X100.540 Y99.610
;segType:HShell
G1 X106.484 Y93.474 E13.6446 F600
G1 X106.997 Y93.474
G1 X100.544 Y100.135 E13.9529
;segType:Perimeter
G0 X100.397 Y99.449 F10800
G1 X99.959 Y99.949 E13.9750 F360
G1 X99.942 Y100.129 E13.9810
G1 X99.873 Y100.355 E13.9888
G1 X99.762 Y100.564 E13.9967
G1 X99.612 Y100.746 E14.0045
G1 X99.431 Y100.895 E14.0123
G1 X99.225 Y101.005 E14.0201
G1 X99.002 Y101.073 E14.0279
G1 X98.770 Y101.096 E14.0356
G1 X98.537 Y101.073 E14.0434
G1 X98.314 Y101.006 E14.0511
G1 X98.107 Y100.895 E14.0589
G1 X97.926 Y100.746 E14.0667
G1 X97.776 Y100.565 E14.0745
G1 X97.665 Y100.357 E14.0824
G1 X97.596 Y100.130 E14.0902
G1 X97.573 Y99.895 E14.0981
G1 X97.596 Y99.658 E14.1060
G1 X97.665 Y99.432 E14.1139
G1 X97.776 Y99.224 E14.1217
G1 X97.925 Y99.042 E14.1295
G1 X98.106 Y98.893 E14.1373
G1 X98.313 Y98.782 E14.1451
G1 X98.536 Y98.714 E14.1529
G1 X98.768 Y98.691 E14.1606
G1 X99.001 Y98.714 E14.1684
G1 X99.224 Y98.782 E14.1762
G1 X99.430 Y98.892 E14.1839
G1 X99.612 Y99.041 E14.1917
G1 X99.761 Y99.223 E14.1996
G1 X99.873 Y99.431 E14.2074
G1 X99.942 Y99.657 E14.2153
G1 X99.959 Y99.837 E14.2213
G1 X100.397 Y100.337
;segType:Loop
G0 X99.821 Y101.102 F10800
G1 X99.650 Y101.243 E14.2287 F600
G1 X99.375 Y101.390 E14.2390
G1 X99.078 Y101.480 E14.2494
G1 X98.770 Y101.511 E14.2596
G1 X98.462 Y101.481 E14.2699
G1 X98.164 Y101.391 E14.2803
G1 X97.889 Y101.243 E14.2906
G1 X97.647 Y101.045 E14.3011
G1 X97.446 Y100.800 E14.3116
G1 X97.296 Y100.520 E14.3222
G1 X97.203 Y100.214 E14.3328
G1 X97.171 Y99.895 E14.3434
G1 X97.202 Y99.575 E14.3541
G1 X97.295 Y99.269 E14.3648
G1 X97.445 Y98.988 E14.3753
G1 X97.645 Y98.744 E14.3858
G1 X97.888 Y98.545 E14.3963
G1 X98.163 Y98.397 E14.4067
G1 X98.460 Y98.307 E14.4170
G1 X98.768 Y98.277 E14.4273
G1 X99.076 Y98.307 E14.4376
G1 X99.373 Y98.397 E14.4479
G1 X99.649 Y98.543 E14.4582
G1 X99.892 Y98.743 E14.4687
G1 X100.092 Y98.987 E14.4792
G1 X100.242 Y99.268 E14.4898
G1 X100.335 Y99.574 E14.5004
G1 X100.367 Y99.893 E14.5111
G1 X100.335 Y100.212 E14.5217
G1 X100.243 Y100.518 E14.5324
G1 X100.093 Y100.799 E14.5429
G1 X100.093 Y100.799
G0 X109.629 Y101.216 F10800
G0 X110.871 Y102.176
;segType:HShell
G1 X116.629 Y96.232 E14.8180 F600
G1 X116.629 Y95.703
G1 X110.751 Y101.770 E15.0989
;segType:Perimeter
G0 X110.731 Y102.053 F10800
G1 X110.294 Y102.553 E15.1210 F360
G1 X110.277 Y102.732 E15.1269
G1 X110.209 Y102.958 E15.1348
G1 X110.098 Y103.165 E15.1426
G1 X109.949 Y103.347 E15.1504
G1 X109.769 Y103.495 E15.1582
G1 X109.563 Y103.605 E15.1659
G1 X109.341 Y103.673 E15.1737
G1 X109.109 Y103.696 E15.1814
G1 X108.878 Y103.673 E15.1891
G1 X108.655 Y103.606 E15.1969
G1 X108.449 Y103.496 E15.2046
G1 X108.269 Y103.348 E15.2124
G1 X108.120 Y103.167 E15.2202
G1 X108.008 Y102.960 E15.2280
G1 X107.940 Y102.734 E15.2358
G1 X107.917 Y102.499 E15.2437
G1 X107.940 Y102.264 E15.2515
G1 X108.008 Y102.038 E15.2594
G1 X108.119 Y101.831 E15.2672
G1 X108.267 Y101.649 E15.2750
G1 X108.448 Y101.501 E15.2828
G1 X108.654 Y101.391 E15.2905
G1 X108.876 Y101.323 E15.2983
G1 X109.107 Y101.300 E15.3060
G1 X109.338 Y101.323 E15.3137
G1 X109.561 Y101.390 E15.3214
G1 X109.767 Y101.500 E15.3292
G1 X109.948 Y101.648 E15.3370
G1 X110.097 Y101.829 E15.3448
G1 X110.208 Y102.036 E15.3526
G1 X110.277 Y102.262 E15.3604
G1 X110.294 Y102.441 E15.3664
G1 X110.732 Y102.941
;segType:Loop
G0 X110.159 Y103.703 F10800
G1 X109.987 Y103.843 E15.3738 F600
G1 X109.713 Y103.990 E15.3841
G1 X109.417 Y104.080 E15.3944
G1 X109.110 Y104.111 E15.4047
G1 X108.802 Y104.081 E15.4149
G1 X108.506 Y103.991 E15.4252
G1 X108.231 Y103.845 E15.4356
G1 X107.989 Y103.646 E15.4460
G1 X107.789 Y103.403 E15.4565
G1 X107.639 Y103.123 E15.4670
G1 X107.546 Y102.818 E15.4776
G1 X107.515 Y102.499 E15.4883
G1 X107.546 Y102.181 E15.4989
G1 X107.638 Y101.875 E15.5095
G1 X107.787 Y101.596 E15.5200
G1 X107.987 Y101.351 E15.5305
G1 X108.229 Y101.153 E15.5409
G1 X108.503 Y101.006 E15.5513
G1 X108.800 Y100.915 E15.5616
G1 X109.107 Y100.885 E15.5718
G1 X109.414 Y100.915 E15.5821
G1 X109.711 Y101.005 E15.5924
G1 X109.985 Y101.151 E15.6027
G1 X110.227 Y101.350 E15.6132
G1 X110.428 Y101.593 E15.6236
G1 X110.577 Y101.873 E15.6342
G1 X110.670 Y102.178 E15.6448
G1 X110.702 Y102.497 E15.6554
G1 X110.671 Y102.815 E15.6661
G1 X110.579 Y103.120 E15.6767
G1 X110.429 Y103.401 E15.6872
G1 X110.429 Y103.401
G0 X110.375 Y101.963 F10800
G0 X109.865 Y101.343
G0 X108.675 Y100.738
;segType:HShell
G1 X115.712 Y93.474 E16.0234 F600
G1 X116.224 Y93.474
G1 X109.234 Y100.690 E16.3574
G1 X109.664 Y100.776
G1 X116.629 Y93.586 E16.6902
G1 X116.629 Y94.115
G1 X110.020 Y100.937 E17.0060
G1 X110.317 Y101.160
G1 X116.629 Y94.644 E17.3075
G1 X116.629 Y95.173
G1 X110.561 Y101.437 E17.5974
G0 X110.884 Y102.692 F10800
G1 X116.629 Y96.761 E17.8719 F600
G1 X116.629 Y97.290
G1 X110.585 Y103.529 E18.1607
G0 X109.109 Y103.883 F10800
G0 X108.351 Y103.653
G0 X93.668 Y93.474
G1 X93.410 Y93.740 E18.1730 F600
G1 X93.410 Y94.269
G1 X94.180 Y93.474 E18.2098
G1 X94.693 Y93.474
G1 X93.410 Y94.798 E18.2711
G1 X93.410 Y95.328
G1 X95.206 Y93.474 E18.3569
G1 X95.718 Y93.474
G1 X93.410 Y95.857 E18.4672
G1 X93.410 Y96.386
G1 X96.231 Y93.474 E18.6020
G1 X96.744 Y93.474
G1 X93.410 Y96.915 E18.7612
G1 X93.410 Y97.445
G1 X97.256 Y93.474 E18.9450
G1 X97.769 Y93.474
G1 X93.410 Y97.974 E19.1533
G1 X93.410 Y98.503
G1 X98.282 Y93.474 E19.3860
G1 X98.794 Y93.474
G1 X93.410 Y99.032 E19.6433
G1 X93.410 Y99.561
G1 X99.307 Y93.474 E19.9250
G1 X99.820 Y93.474
G1 X93.410 Y100.091 E20.2313
G1 X93.410 Y100.620
G1 X100.332 Y93.474 E20.5620
G1 X100.845 Y93.474
G1 X93.410 Y101.149 E20.9173
G1 X93.410 Y101.678
G1 X101.358 Y93.474 E21.2970
G1 X101.870 Y93.474
G1 X93.410 Y102.208 E21.7012
G1 X93.410 Y102.737
G1 X102.383 Y93.474 E22.1299
G1 X102.896 Y93.474
G1 X98.407 Y98.108 E22.3444
G1 X98.940 Y98.086
G1 X103.408 Y93.474 E22.5579
G1 X103.921 Y93.474
G1 X99.363 Y98.179 E22.7756
G1 X99.714 Y98.346
G1 X104.433 Y93.474 E23.0011
G1 X104.946 Y93.474
G1 X100.006 Y98.573 E23.2371
G1 X100.246 Y98.855
G1 X105.459 Y93.474 E23.4862
G1 X105.971 Y93.474
G1 X100.430 Y99.195 E23.7510
G0 X99.035 Y98.531 F10800
G0 X98.245 Y98.609
G0 X97.003 Y99.557
G1 X93.410 Y103.266 E23.9226 F600
G1 X93.410 Y103.795
G1 X96.990 Y100.099 E24.0937
G1 X97.088 Y100.527
G1 X93.410 Y104.325 E24.2694
G1 X93.410 Y104.854
G1 X97.260 Y100.880 E24.4534
G1 X97.489 Y101.172
G1 X93.410 Y105.383 E24.6482
G1 X93.410 Y105.912
G1 X97.771 Y101.410 E24.8566
G1 X98.110 Y101.589
G1 X93.410 Y106.441 E25.0812
G0 X94.584 Y106.817 F10800
G1 X107.509 Y93.474 E25.6987 F600
G1 X108.022 Y93.474
G1 X95.097 Y106.817 E26.3163
G1 X95.610 Y106.817
G1 X108.535 Y93.474 E26.9339
G1 X109.047 Y93.474
G1 X96.122 Y106.817 E27.5514
G1 X96.635 Y106.817
G1 X109.560 Y93.474 E28.1690
G1 X110.073 Y93.474
G1 X97.147 Y106.817 E28.7865
G1 X97.660 Y106.817
G1 X110.585 Y93.474 E29.4041
G1 X111.098 Y93.474
G1 X98.173 Y106.817 E30.0217
G1 X98.685 Y106.817
G1 X111.611 Y93.474 E30.6392
G1 X112.123 Y93.474
G1 X99.198 Y106.817 E31.2568
G1 X99.711 Y106.817
G1 X112.636 Y93.474 E31.8743
G1 X113.149 Y93.474
G1 X100.223 Y106.817 E32.4919
G1 X100.736 Y106.817
G1 X113.661 Y93.474 E33.1094
G1 X114.174 Y93.474
G1 X101.249 Y106.817 E33.7270
G1 X101.761 Y106.817
G1 X114.686 Y93.474 E34.3446
G1 X115.199 Y93.474
G1 X102.274 Y106.817 E34.9621
G1 X102.787 Y106.817
G1 X107.363 Y102.093 E35.1808
G1 X107.329 Y102.657
G1 X103.299 Y106.817 E35.3733
G1 X103.812 Y106.817
G1 X107.420 Y103.092 E35.5457
G1 X107.586 Y103.450
G1 X104.325 Y106.817 E35.7015
G1 X104.837 Y106.817
G1 X107.810 Y103.748 E35.8436
G1 X108.088 Y103.991
G1 X105.350 Y106.817 E35.9744
G1 X105.863 Y106.817
G1 X108.419 Y104.177 E36.0966
G1 X108.823 Y104.290
G1 X106.375 Y106.817 E36.2135
G1 X106.888 Y106.817
G1 X109.329 Y104.296 E36.3302
G0 X110.174 Y103.954 F10800
G1 X107.400 Y106.817 E36.4627 F600
G1 X107.913 Y106.817
G1 X116.629 Y97.820 E36.8791
G1 X116.629 Y98.349
G1 X108.426 Y106.817 E37.2710
G1 X108.938 Y106.817
G1 X116.629 Y98.878 E37.6385
G1 X116.629 Y99.407
G1 X109.451 Y106.817 E37.9814
G1 X109.964 Y106.817
G1 X116.629 Y99.936 E38.2999
G1 X116.629 Y100.466
G1 X110.476 Y106.817 E38.5939
G1 X110.989 Y106.817
G1 X116.629 Y100.995 E38.8633
G1 X116.629 Y101.524
G1 X111.502 Y106.817 E39.1083
G1 X112.014 Y106.817
G1 X116.629 Y102.053 E39.3288
G1 X116.629 Y102.583
G1 X112.527 Y106.817 E39.5248
G1 X113.040 Y106.817
G1 X116.629 Y103.112 E39.6962
G1 X116.629 Y103.641
G1 X113.552 Y106.817 E39.8432
G1 X114.065 Y106.817
G1 X116.629 Y104.170 E39.9657
G1 X116.629 Y104.700
G1 X114.578 Y106.817 E40.0637
G1 X115.090 Y106.817
G1 X116.629 Y105.229 E40.1373
G1 X116.629 Y105.758
G1 X115.603 Y106.817 E40.1863
G1 X116.116 Y106.817
G1 X116.629 Y106.287 E40.2108
;segType:Support
G0 F4800 E39.2108
G0 X117.600 Y91.000 F10800
G0 F4800 E40.2108
G1 X94.200 Y91.000 E40.8720 F900
G0 F4800 E39.8720
G0 X98.399 Y100.000 F10800
G0 F4800 E40.8720
G1 X99.138 Y100.000 E40.8929 F900
; ------------------------------------
; Layer #1
; ------------------------------------
G21 ; mm
G90 ; abs
G92 E0 ; reset extr
M106 S0
;segType:Support
G0 F4800 E-1.0000
G0 F300 Z0.400
G0 X99.096 Y100.000 F10800
G0 F4800 E0.0000
G1 X98.425 Y100.000 E0.0190 F5400
G0 F4800 E-0.9810
G0 X97.753 Y100.810 F10800
G0 X96.923 Y102.313
G0 X96.228 Y106.818
G0 F4800 E0.0190
;segType:HShell
G1 X93.399 Y103.898 E0.1541 F3600
G1 X93.399 Y104.428
G1 X95.715 Y106.818 E0.2647
G1 X95.202 Y106.818
G1 X93.399 Y104.957 E0.3509
G1 X93.399 Y105.486
G1 X94.690 Y106.818 E0.4125
G1 X94.177 Y106.818
G1 X93.399 Y106.015 E0.4497
G1 X93.399 Y106.544
G1 X93.664 Y106.818 E0.4623
;segType:Perimeter
G0 X93.402 Y107.124 F10800
G1 X92.799 Y107.381 E0.4841 F2160
G1 X92.799 Y92.855 E0.9670
G1 X117.218 Y92.855 E1.7788
G1 X117.218 Y107.437 E2.2635
G1 X92.854 Y107.437 E3.0735
G1 X93.103 Y106.815
;segType:Loop
G0 X93.199 Y106.408 F10800
G1 X93.199 Y93.268 E3.5103 F3600
G1 X116.818 Y93.268 E4.2955
G1 X116.818 Y107.024 E4.7528
G1 X93.199 Y107.024 E5.5379
G1 X93.199 Y106.595 E5.5522
G0 X99.429 Y103.474 F10800
G0 X99.940 Y102.850
G0 X100.233 Y101.427
;segType:HShell
G1 X105.455 Y106.818 E5.8017 F3600
G1 X105.968 Y106.818
G1 X100.238 Y100.903 E6.0755
;segType:Perimeter
G0 X100.298 Y101.869 F10800
G1 X99.861 Y102.369 E6.0975 F2160
G1 X99.842 Y102.550 E6.1036
G1 X99.774 Y102.777 E6.1115
G1 X99.662 Y102.985 E6.1193
G1 X99.512 Y103.168 E6.1272
G1 X99.330 Y103.317 E6.1350
G1 X99.124 Y103.428 E6.1428
G1 X98.899 Y103.496 E6.1506
G1 X98.666 Y103.519 E6.1584
G1 X98.434 Y103.496 E6.1661
G1 X98.210 Y103.428 E6.1739
G1 X98.003 Y103.318 E6.1817
G1 X97.821 Y103.168 E6.1896
G1 X97.671 Y102.986 E6.1974
G1 X97.559 Y102.777 E6.2053
G1 X97.490 Y102.550 E6.2132
G1 X97.467 Y102.313 E6.2211
G1 X97.490 Y102.077 E6.2290
G1 X97.559 Y101.850 E6.2369
G1 X97.671 Y101.641 E6.2447
G1 X97.821 Y101.458 E6.2526
G1 X98.002 Y101.309 E6.2604
G1 X98.209 Y101.198 E6.2682
G1 X98.433 Y101.130 E6.2760
G1 X98.666 Y101.107 E6.2838
G1 X98.899 Y101.130 E6.2915
G1 X99.123 Y101.198 E6.2993
G1 X99.330 Y101.309 E6.3071
G1 X99.512 Y101.458 E6.3150
G1 X99.662 Y101.641 E6.3228
G1 X99.774 Y101.849 E6.3307
G1 X99.842 Y102.077 E6.3386
G1 X99.861 Y102.257 E6.3446
G1 X100.298 Y102.757
;segType:Loop
G0 X99.807 Y101.083 F10800
G1 X99.752 Y101.128 E6.3470 F3600
G1 X99.792 Y101.160 E6.3487
G1 X99.993 Y101.405 E6.3592
G1 X100.143 Y101.686 E6.3698
G1 X100.236 Y101.993 E6.3805
G1 X100.268 Y102.313 E6.3912
G1 X100.236 Y102.633 E6.4019
G1 X100.143 Y102.940 E6.4125
G1 X99.993 Y103.221 E6.4231
G1 X99.792 Y103.466 E6.4336
G1 X99.549 Y103.666 E6.4441
G1 X99.274 Y103.813 E6.4545
G1 X98.976 Y103.904 E6.4648
G1 X98.666 Y103.934 E6.4752
G1 X98.358 Y103.904 E6.4855
G1 X98.060 Y103.813 E6.4958
G1 X97.784 Y103.666 E6.5062
G1 X97.541 Y103.466 E6.5167
G1 X97.340 Y103.221 E6.5272
G1 X97.189 Y102.940 E6.5378
G1 X97.097 Y102.633 E6.5485
G1 X97.065 Y102.313 E6.5591
G1 X97.097 Y101.994 E6.5698
G1 X97.189 Y101.687 E6.5805
G1 X97.340 Y101.405 E6.5911
G1 X97.541 Y101.160 E6.6016
G1 X97.683 Y101.044 E6.6077
G1 X97.666 Y101.030 E6.6085
G1 X97.468 Y100.790 E6.6188
G1 X97.319 Y100.514 E6.6292
G1 X97.227 Y100.213 E6.6397
G1 X97.195 Y99.898 E6.6502
G1 X97.225 Y99.583 E6.6607
G1 X97.316 Y99.281 E6.6712
G1 X97.463 Y99.005 E6.6816
G1 X97.660 Y98.763 E6.6920
G1 X97.899 Y98.567 E6.7023
G1 X98.169 Y98.421 E6.7125
G1 X98.462 Y98.331 E6.7227
G1 X98.765 Y98.301 E6.7328
G1 X99.068 Y98.330 E6.7429
G1 X99.361 Y98.418 E6.7531
G1 X99.632 Y98.562 E6.7633
G1 X99.872 Y98.757 E6.7736
G1 X100.070 Y98.998 E6.7839
G1 X100.219 Y99.274 E6.7944
G1 X100.311 Y99.575 E6.8048
G1 X100.343 Y99.889 E6.8153
G1 X100.312 Y100.204 E6.8258
G1 X100.222 Y100.506 E6.8363
G1 X100.075 Y100.783 E6.8467
G1 X100.075 Y100.783
G0 X100.016 Y99.364 F10800
G0 X95.093 Y93.475
;segType:HShell
G1 X108.018 Y106.818 E7.4643 F3600
G1 X107.506 Y106.818
G1 X100.515 Y99.601 E7.7983
;segType:Perimeter
G0 X100.371 Y99.445 F10800
G1 X99.935 Y99.947 E7.8204 F2160
G1 X99.918 Y100.122 E7.8263
G1 X99.852 Y100.344 E7.8340
G1 X99.743 Y100.548 E7.8417
G1 X99.597 Y100.727 E7.8493
G1 X99.420 Y100.873 E7.8570
G1 X99.218 Y100.982 E7.8646
G1 X98.999 Y101.049 E7.8722
G1 X98.772 Y101.072 E7.8798
G1 X98.545 Y101.050 E7.8874
G1 X98.326 Y100.984 E7.8950
G1 X98.123 Y100.877 E7.9026
G1 X97.945 Y100.731 E7.9103
G1 X97.798 Y100.553 E7.9179
G1 X97.689 Y100.350 E7.9256
G1 X97.620 Y100.128 E7.9333
G1 X97.597 Y99.897 E7.9411
G1 X97.619 Y99.666 E7.9488
G1 X97.686 Y99.444 E7.9565
G1 X97.795 Y99.239 E7.9642
G1 X97.940 Y99.060 E7.9719
G1 X98.118 Y98.914 E7.9795
G1 X98.320 Y98.806 E7.9871
G1 X98.539 Y98.739 E7.9947
G1 X98.766 Y98.716 E8.0023
G1 X98.993 Y98.737 E8.0099
G1 X99.213 Y98.803 E8.0175
G1 X99.415 Y98.911 E8.0251
G1 X99.593 Y99.056 E8.0328
G1 X99.740 Y99.234 E8.0405
G1 X99.849 Y99.438 E8.0481
G1 X99.917 Y99.660 E8.0559
G1 X99.935 Y99.835 E8.0617
G1 X100.374 Y100.333
;segType:Loop
G0 X107.592 Y98.785 F10800
G1 X107.762 Y98.645 E8.0690 F3600
G1 X108.036 Y98.498 E8.0794
G1 X108.331 Y98.408 E8.0896
G1 X108.638 Y98.378 E8.0999
G1 X108.944 Y98.408 E8.1101
G1 X109.240 Y98.497 E8.1204
G1 X109.514 Y98.643 E8.1307
G1 X109.755 Y98.841 E8.1411
G1 X109.955 Y99.084 E8.1515
G1 X110.105 Y99.363 E8.1621
G1 X110.198 Y99.667 E8.1726
G1 X110.230 Y99.985 E8.1833
G1 X110.198 Y100.303 E8.1939
G1 X110.107 Y100.607 E8.2045
G1 X109.958 Y100.887 E8.2150
G1 X109.800 Y101.080 E8.2233
G1 X109.969 Y101.169 E8.2296
G1 X110.208 Y101.364 E8.2399
G1 X110.405 Y101.604 E8.2502
G1 X110.554 Y101.879 E8.2606
G1 X110.646 Y102.179 E8.2710
G1 X110.678 Y102.493 E8.2815
G1 X110.648 Y102.807 E8.2920
G1 X110.557 Y103.108 E8.3024
G1 X110.411 Y103.384 E8.3128
G1 X110.214 Y103.625 E8.3232
G1 X109.976 Y103.821 E8.3334
G1 X109.707 Y103.966 E8.3436
G1 X109.415 Y104.056 E8.3538
G1 X109.113 Y104.086 E8.3639
G1 X108.810 Y104.057 E8.3740
G1 X108.518 Y103.970 E8.3841
G1 X108.248 Y103.827 E8.3943
G1 X108.009 Y103.632 E8.4045
G1 X107.811 Y103.392 E8.4149
G1 X107.663 Y103.117 E8.4253
G1 X107.571 Y102.816 E8.4357
G1 X107.539 Y102.503 E8.4462
G1 X107.569 Y102.189 E8.4567
G1 X107.659 Y101.887 E8.4671
G1 X107.806 Y101.612 E8.4775
G1 X107.953 Y101.431 E8.4853
G1 X107.765 Y101.331 E8.4924
G1 X107.524 Y101.133 E8.5027
G1 X107.324 Y100.890 E8.5132
G1 X107.174 Y100.611 E8.5237
G1 X107.082 Y100.306 E8.5343
G1 X107.050 Y99.989 E8.5449
G1 X107.081 Y99.671 E8.5555
G1 X107.173 Y99.366 E8.5661
G1 X107.322 Y99.087 E8.5766
G1 X107.322 Y99.087
;segType:HShell
G0 X106.888 Y100.359 F10800
G1 X100.220 Y93.475 E8.8952 F3600
G1 X100.732 Y93.475
G1 X106.866 Y99.807 E9.1883
;segType:Perimeter
G0 X107.021 Y100.433 F10800
G1 X107.457 Y99.932 E9.2104 F2160
G1 X107.475 Y99.754 E9.2163
G1 X107.543 Y99.529 E9.2242
G1 X107.653 Y99.322 E9.2319
G1 X107.801 Y99.141 E9.2397
G1 X107.981 Y98.993 E9.2475
G1 X108.186 Y98.883 E9.2552
G1 X108.408 Y98.816 E9.2629
G1 X108.638 Y98.793 E9.2706
G1 X108.869 Y98.815 E9.2783
G1 X109.091 Y98.882 E9.2860
G1 X109.296 Y98.992 E9.2938
G1 X109.476 Y99.139 E9.3015
G1 X109.625 Y99.320 E9.3093
G1 X109.736 Y99.526 E9.3171
G1 X109.804 Y99.751 E9.3249
G1 X109.828 Y99.985 E9.3327
G1 X109.805 Y100.220 E9.3405
G1 X109.737 Y100.445 E9.3483
G1 X109.626 Y100.651 E9.3561
G1 X109.478 Y100.832 E9.3639
G1 X109.299 Y100.981 E9.3716
G1 X109.093 Y101.091 E9.3794
G1 X108.872 Y101.158 E9.3871
G1 X108.641 Y101.181 E9.3948
G1 X108.411 Y101.158 E9.4025
G1 X108.188 Y101.091 E9.4102
G1 X107.983 Y100.982 E9.4179
G1 X107.803 Y100.835 E9.4257
G1 X107.655 Y100.654 E9.4334
G1 X107.544 Y100.447 E9.4412
G1 X107.475 Y100.222 E9.4491
G1 X107.457 Y100.044 E9.4550
G1 X107.020 Y99.544
G0 X107.885 Y101.139 F10800
G0 X108.377 Y101.342
G0 X108.641 Y101.368
G0 X109.105 Y101.282
G0 X110.041 Y101.516
G0 X110.864 Y102.346
;segType:HShell
G1 X115.196 Y106.818 E9.6620 F3600
G1 X114.683 Y106.818
G1 X110.843 Y102.854 E9.8454
;segType:Perimeter
G0 X110.706 Y102.049 F10800
G1 X110.270 Y102.550 E9.8675 F2160
G1 X110.254 Y102.725 E9.8733
G1 X110.187 Y102.946 E9.8810
G1 X110.079 Y103.150 E9.8887
G1 X109.934 Y103.328 E9.8963
G1 X109.757 Y103.474 E9.9040
G1 X109.556 Y103.582 E9.9115
G1 X109.338 Y103.649 E9.9191
G1 X109.112 Y103.672 E9.9267
G1 X108.885 Y103.650 E9.9343
G1 X108.667 Y103.585 E9.9418
G1 X108.465 Y103.478 E9.9494
G1 X108.288 Y103.333 E9.9570
G1 X108.141 Y103.155 E9.9647
G1 X108.032 Y102.952 E9.9724
G1 X107.964 Y102.732 E9.9800
G1 X107.941 Y102.501 E9.9877
G1 X107.963 Y102.271 E9.9954
G1 X108.029 Y102.050 E10.0031
G1 X108.137 Y101.847 E10.0108
G1 X108.282 Y101.668 E10.0184
G1 X108.459 Y101.522 E10.0260
G1 X108.660 Y101.414 E10.0336
G1 X108.878 Y101.347 E10.0412
G1 X109.105 Y101.324 E10.0487
G1 X109.331 Y101.346 E10.0563
G1 X109.550 Y101.411 E10.0639
G1 X109.751 Y101.518 E10.0715
G1 X109.929 Y101.663 E10.0791
G1 X110.075 Y101.840 E10.0867
G1 X110.185 Y102.043 E10.0944
G1 X110.252 Y102.264 E10.1021
G1 X110.270 Y102.439 E10.1079
G1 X110.709 Y102.937
;segType:HShell
G0 X110.711 Y103.247 F10800
G1 X114.170 Y106.818 E10.2732 F3600
G1 X113.658 Y106.818
G1 X110.517 Y103.575 E10.4233
G1 X110.267 Y103.847
G1 X113.145 Y106.818 E10.5608
G1 X112.632 Y106.818
G1 X109.962 Y104.062 E10.6884
G1 X109.598 Y104.215
G1 X112.120 Y106.818 E10.8088
G1 X111.607 Y106.818
G1 X109.158 Y104.289 E10.9259
G1 X108.554 Y104.196
G1 X111.094 Y106.818 E11.0472
G1 X110.582 Y106.818
G1 X97.657 Y93.475 E11.6648
G1 X97.144 Y93.475
G1 X110.069 Y106.818 E12.2823
G1 X109.556 Y106.818
G1 X96.631 Y93.475 E12.8999
G1 X96.119 Y93.475
G1 X109.044 Y106.818 E13.5175
G1 X108.531 Y106.818
G1 X95.606 Y93.475 E14.1350
G0 X100.016 Y99.364 F10800
G0 X100.416 Y100.557
G1 X106.481 Y106.818 E14.4248 F3600
G1 X106.993 Y106.818
G1 X100.520 Y100.136 E14.7341
G0 X99.084 Y98.124 F10800
G1 X94.581 Y93.475 E14.9492 F3600
G1 X94.068 Y93.475
G1 X98.562 Y98.114 E15.1640
G1 X98.145 Y98.213
G1 X93.555 Y93.475 E15.3833
G1 X93.399 Y93.843
G1 X97.801 Y98.387 E15.5936
G1 X97.515 Y98.621
G1 X93.399 Y94.372 E15.7902
G1 X93.399 Y94.901
G1 X97.284 Y98.912 E15.9758
G1 X97.112 Y99.263
G1 X93.399 Y95.431 E16.1532
G1 X93.399 Y95.960
G1 X97.014 Y99.691 E16.3259
G1 X97.028 Y100.235
G1 X93.399 Y96.489 E16.4993
G1 X93.399 Y97.018
G1 X97.340 Y101.086 E16.6875
G1 X97.120 Y101.389
G1 X93.399 Y97.548 E16.8653
G1 X93.399 Y98.077
G1 X96.960 Y101.753 E17.0355
G1 X96.876 Y102.195
G1 X93.399 Y98.606 E17.2016
G1 X93.399 Y99.135
G1 X96.932 Y102.782 E17.3704
G0 X96.740 Y106.818 F10800
G1 X93.399 Y103.369 E17.5300 F3600
G1 X93.399 Y102.840
G1 X97.253 Y106.818 E17.7141
G1 X97.765 Y106.818
G1 X93.399 Y102.311 E17.9227
G1 X93.399 Y101.781
G1 X98.278 Y106.818 E18.1558
G1 X98.791 Y106.818
G1 X93.399 Y101.252 E18.4134
G1 X93.399 Y100.723
G1 X99.303 Y106.818 E18.6955
G1 X99.816 Y106.818
G1 X93.399 Y100.194 E19.0021
G1 X93.399 Y99.664
G1 X100.329 Y106.818 E19.3332
G1 X100.841 Y106.818
G1 X98.172 Y104.063 E19.4607
G1 X98.753 Y104.133
G1 X101.354 Y106.818 E19.5850
G1 X101.867 Y106.818
G1 X99.189 Y104.054 E19.7130
G1 X99.550 Y103.897
G1 X102.379 Y106.818 E19.8481
G1 X102.892 Y106.818
G1 X99.853 Y103.680 E19.9933
G1 X100.102 Y103.408
G1 X103.405 Y106.818 E20.1512
G1 X103.917 Y106.818
G1 X100.297 Y103.080 E20.3242
G1 X100.429 Y102.688
G1 X104.430 Y106.818 E20.5153
G1 X104.943 Y106.818
G1 X100.457 Y102.187 E20.7296
G0 X107.427 Y103.032 F10800
G1 X98.169 Y93.475 E21.1720 F3600
G1 X98.682 Y93.475
G1 X107.346 Y102.419 E21.5859
G1 X107.425 Y101.971
G1 X99.195 Y93.475 E21.9791
G1 X99.707 Y93.475
G1 X107.582 Y101.604 E22.3554
G0 F4800 E21.3554
G0 X108.887 Y101.364 F10800
G0 F4800 E22.3554
G1 X108.712 Y101.183 E22.3638 F3600
G1 X109.166 Y101.123
G1 X109.269 Y101.229 E22.3687
G0 X109.179 Y101.256 F10800
G0 X108.641 Y101.368
G0 X108.377 Y101.342
G0 X107.677 Y100.969
G0 X106.961 Y99.375
G1 X101.245 Y93.475 E22.6418 F3600
G1 X101.758 Y93.475
G1 X107.129 Y99.020 E22.8984
G1 X107.356 Y98.725
G1 X102.270 Y93.475 E23.1414
G1 X102.783 Y93.475
G1 X107.636 Y98.485 E23.3733
G1 X107.972 Y98.302
G1 X103.296 Y93.475 E23.5967
G1 X103.808 Y93.475
G1 X108.382 Y98.196 E23.8152
G1 X108.894 Y98.195
G1 X104.321 Y93.475 E24.0337
G1 X104.834 Y93.475
G1 X109.855 Y98.659 E24.2736
G1 X109.942 Y98.748
G1 X116.618 Y105.640 E24.5926
G1 X116.618 Y105.111
G1 X105.346 Y93.475 E25.1312
G1 X105.859 Y93.475
G1 X116.618 Y104.582 E25.6452
G1 X116.618 Y104.053
G1 X106.372 Y93.475 E26.1348
G1 X106.884 Y93.475
G1 X116.618 Y103.523 E26.5999
G1 X116.618 Y102.994
G1 X107.397 Y93.475 E27.0404
G1 X107.910 Y93.475
G1 X116.618 Y102.465 E27.4565
G1 X116.618 Y101.936
G1 X108.422 Y93.475 E27.8481
G1 X108.935 Y93.475
G1 X116.618 Y101.406 E28.2152
G1 X116.618 Y100.877
G1 X109.448 Y93.475 E28.5578
G1 X109.960 Y93.475
G1 X116.618 Y100.348 E28.8759
G1 X116.618 Y99.819
G1 X110.473 Y93.475 E29.1695
G1 X110.985 Y93.475
G1 X116.618 Y99.289 E29.4386
G1 X116.618 Y98.760
G1 X111.498 Y93.475 E29.6832
G1 X112.011 Y93.475
G1 X116.618 Y98.231 E29.9034
G1 X116.618 Y97.702
G1 X112.523 Y93.475 E30.0990
G1 X113.036 Y93.475
G1 X116.618 Y97.173 E30.2701
G1 X116.618 Y96.643
G1 X113.549 Y93.475 E30.4168
G1 X114.061 Y93.475
G1 X116.618 Y96.114 E30.5389
G1 X116.618 Y95.585
G1 X114.574 Y93.475 E30.6366
G1 X115.087 Y93.475
G1 X116.618 Y95.056 E30.7098
G1 X116.618 Y94.526
G1 X115.599 Y93.475 E30.7584
G1 X116.112 Y93.475
G1 X116.618 Y93.997 E30.7826
G0 X110.408 Y99.759 F10800
G1 X116.618 Y106.169 E31.0793 F3600
G1 X116.618 Y106.699
G1 X110.402 Y100.281 E31.3763
G1 X110.289 Y100.694
G1 X116.221 Y106.818 E31.6598
G1 X115.708 Y106.818
G1 X110.605 Y101.550 E31.9036
;segType:SoftSupport
G0 F4800 E30.9036
G0 X109.017 Y100.000 F10800
G0 F4800 E31.9036
G1 X108.600 Y100.000 E31.9098 F5400
;segType:Support
G0 F4800 E30.9098
G0 X117.600 Y91.000 F10800
G0 F4800 E31.9098
G1 X94.200 Y91.000 E32.5710 F5400
; ------------------------------------
; Layer #2
; ------------------------------------
G21 ; mm
G90 ; abs
G92 E0 ; reset extr
M106 S0
;segType:Support
G0 F4800 E-1.0000
G0 F300 Z0.600
G0 X94.200 Y91.000 F10800
G0 F4800 E0.0000
G1 X117.600 Y91.000 E0.6612 F5400
G0 F4800 E-0.3388
G0 X98.458 Y100.000 F10800
G0 F4800 E0.6612
G1 X99.081 Y100.000 E0.6788 F5400
G1 X101.003 Y101.800 E0.7532
;segType:SoftSupport
G1 X101.767 Y101.800 E0.7646 F5400
G1 X103.424 Y101.800 E0.7894
G1 X104.075 Y101.800 E0.7992
G1 X105.909 Y101.800 E0.8266
G1 X106.593 Y101.800 E0.8368
G1 X108.600 Y100.000 E0.8772
;segType:Support
G1 X108.993 Y100.000 E0.8883 F5400
G0 F4800 E-0.1117
G0 X107.043 Y100.219 F10800
G0 X105.315 Y100.309
G0 X104.875 Y100.742
G0 X105.407 Y101.171
G0 X105.441 Y101.289
G0 X105.475 Y101.634
G0 X105.442 Y101.980
G0 X105.342 Y102.311
G0 X104.087 Y103.351
G0 X102.545 Y102.883
G0 X102.328 Y102.620
G0 X102.190 Y102.368
G0 X103.053 Y102.276
G0 X102.986 Y102.487
G0 X101.720 Y103.534
G0 X98.391 Y104.032
G0 X97.577 Y103.728
G0 F4800 E0.8883
;segType:HShell
G1 X94.582 Y106.819 E1.0313 F3600
G1 X94.070 Y106.819
G1 X97.313 Y103.470 E1.1863
G1 X97.104 Y103.157
G1 X93.557 Y106.819 E1.3558
;segType:Perimeter
G0 X93.391 Y107.125 F10800
G1 X92.789 Y107.382 E1.3776 F2160
G1 X92.789 Y92.856 E1.8605
G1 X117.207 Y92.856 E2.6723
G1 X117.207 Y107.438 E3.1570
G1 X92.843 Y107.438 E3.9670
G1 X93.093 Y106.816
;segType:Loop
G0 X93.189 Y106.409 F10800
G1 X93.189 Y93.269 E4.4038 F3600
G1 X116.807 Y93.269 E5.1889
G1 X116.807 Y107.025 E5.6462
G1 X93.189 Y107.025 E6.4314
G1 X93.189 Y106.596 E6.4457
G0 X98.148 Y101.048 F10800
G0 X98.926 Y100.970
G0 X99.707 Y101.121
G1 X99.706 Y101.121 E6.4457 F3600
G1 X99.772 Y101.175 E6.4485
G1 X99.878 Y101.303 E6.4540
G1 X99.913 Y101.184 E6.4581
G1 X100.063 Y100.903 E6.4687
G1 X100.263 Y100.660 E6.4792
G1 X100.505 Y100.461 E6.4896
G1 X100.780 Y100.314 E6.4999
G1 X101.076 Y100.224 E6.5102
G1 X101.383 Y100.193 E6.5205
G1 X101.691 Y100.223 E6.5308
G1 X101.987 Y100.313 E6.5411
G1 X102.262 Y100.459 E6.5514
G1 X102.505 Y100.658 E6.5619
G1 X102.508 Y100.662 E6.5620
G1 X102.639 Y100.502 E6.5689
G1 X102.879 Y100.304 E6.5792
G1 X103.151 Y100.158 E6.5895
G1 X103.445 Y100.068 E6.5997
G1 X103.749 Y100.038 E6.6099
G1 X104.054 Y100.067 E6.6200
G1 X104.348 Y100.155 E6.6303
G1 X104.621 Y100.301 E6.6405
G1 X104.861 Y100.497 E6.6509
G1 X105.060 Y100.739 E6.6613
G1 X105.062 Y100.742 E6.6614
G1 X105.155 Y100.628 E6.6663
G1 X105.393 Y100.431 E6.6765
G1 X105.662 Y100.286 E6.6867
G1 X105.953 Y100.197 E6.6968
G1 X106.255 Y100.167 E6.7069
G1 X106.557 Y100.195 E6.7170
G1 X106.849 Y100.283 E6.7271
G1 X107.119 Y100.426 E6.7373
G1 X107.151 Y100.452 E6.7387
G1 X107.106 Y100.305 E6.7438
G1 X107.074 Y99.992 E6.7542
G1 X107.104 Y99.679 E6.7647
G1 X107.194 Y99.379 E6.7751
G1 X107.340 Y99.103 E6.7855
G1 X107.536 Y98.863 E6.7958
G1 X107.773 Y98.667 E6.8060
G1 X108.042 Y98.522 E6.8161
G1 X108.333 Y98.433 E6.8263
G1 X108.635 Y98.402 E6.8363
G1 X108.936 Y98.431 E6.8464
G1 X109.228 Y98.518 E6.8565
G1 X109.498 Y98.661 E6.8667
G1 X109.736 Y98.856 E6.8769
G1 X109.933 Y99.095 E6.8872
G1 X110.081 Y99.368 E6.8976
G1 X110.174 Y99.668 E6.9080
G1 X110.205 Y99.982 E6.9185
G1 X110.176 Y100.294 E6.9289
G1 X110.086 Y100.595 E6.9393
G1 X109.939 Y100.871 E6.9497
G1 X109.763 Y101.087 E6.9590
G1 X110.195 Y101.373 E6.9762
G1 X110.539 Y101.882 E6.9966
G1 X110.663 Y102.489 E7.0173
G1 X110.545 Y103.099 E7.0379
G1 X110.207 Y103.611 E7.0583
G1 X109.705 Y103.951 E7.0785
G1 X109.117 Y104.071 E7.0984
G1 X108.527 Y103.957 E7.1184
G1 X108.022 Y103.623 E7.1385
G1 X107.678 Y103.114 E7.1589
G1 X107.575 Y102.611 E7.1760
G1 X107.561 Y102.638 E7.1770
G1 X107.365 Y102.878 E7.1873
G1 X107.128 Y103.074 E7.1975
G1 X106.858 Y103.219 E7.2077
G1 X106.567 Y103.308 E7.2178
G1 X106.265 Y103.339 E7.2279
G1 X105.963 Y103.310 E7.2380
G1 X105.671 Y103.223 E7.2481
G1 X105.401 Y103.080 E7.2583
G1 X105.162 Y102.885 E7.2685
G1 X104.968 Y102.649 E7.2787
G1 X104.865 Y102.774 E7.2840
G1 X104.626 Y102.971 E7.2944
G1 X104.354 Y103.118 E7.3046
G1 X104.060 Y103.207 E7.3148
G1 X103.756 Y103.238 E7.3250
G1 X103.451 Y103.209 E7.3352
G1 X103.156 Y103.120 E7.3454
G1 X102.884 Y102.975 E7.3557
G1 X102.648 Y102.782 E7.3658
G1 X102.507 Y102.954 E7.3732
G1 X102.265 Y103.153 E7.3836
G1 X101.990 Y103.300 E7.3940
G1 X101.693 Y103.390 E7.4043
G1 X101.386 Y103.421 E7.4146
G1 X101.078 Y103.391 E7.4248
G1 X100.782 Y103.301 E7.4352
G1 X100.507 Y103.155 E7.4455
G1 X100.265 Y102.956 E7.4559
G1 X100.154 Y102.822 E7.4617
G1 X100.123 Y102.927 E7.4654
G1 X99.975 Y103.205 E7.4758
G1 X99.777 Y103.447 E7.4862
G1 X99.538 Y103.644 E7.4965
G1 X99.267 Y103.789 E7.5067
G1 X98.974 Y103.879 E7.5169
G1 X98.670 Y103.909 E7.5271
G1 X98.366 Y103.880 E7.5372
G1 X98.072 Y103.792 E7.5474
G1 X97.800 Y103.647 E7.5577
G1 X97.561 Y103.451 E7.5680
G1 X97.362 Y103.211 E7.5783
G1 X97.213 Y102.934 E7.5888
G1 X97.121 Y102.632 E7.5993
G1 X97.089 Y102.317 E7.6098
G1 X97.119 Y102.001 E7.6203
G1 X97.210 Y101.699 E7.6308
G1 X97.358 Y101.422 E7.6413
G1 X97.555 Y101.180 E7.6517
G1 X97.717 Y101.047 E7.6586
G1 X97.679 Y101.021 E7.6601
G1 X97.334 Y100.512 E7.6806
G1 X97.210 Y99.901 E7.7013
G1 X97.328 Y99.290 E7.7220
G1 X97.668 Y98.777 E7.7425
G1 X98.172 Y98.437 E7.7627
G1 X98.762 Y98.316 E7.7827
G1 X99.352 Y98.431 E7.8027
G1 X99.859 Y98.766 E7.8229
G1 X100.204 Y99.276 E7.8433
G1 X100.328 Y99.886 E7.8640
G1 X100.210 Y100.497 E7.8847
G1 X99.870 Y101.011 E7.9052
G1 X99.858 Y101.018 E7.9057
;segType:Perimeter
G0 X99.836 Y102.366 F10800
G1 X99.819 Y102.542 E7.9115 F2160
G1 X99.752 Y102.765 E7.9193
G1 X99.644 Y102.970 E7.9270
G1 X99.497 Y103.149 E7.9347
G1 X99.319 Y103.296 E7.9423
G1 X99.117 Y103.405 E7.9500
G1 X98.897 Y103.472 E7.9576
G1 X98.669 Y103.495 E7.9652
G1 X98.441 Y103.473 E7.9728
G1 X98.221 Y103.407 E7.9805
G1 X98.018 Y103.299 E7.9881
G1 X97.839 Y103.153 E7.9958
G1 X97.692 Y102.975 E8.0035
G1 X97.582 Y102.770 E8.0112
G1 X97.514 Y102.547 E8.0189
G1 X97.491 Y102.316 E8.0267
G1 X97.513 Y102.084 E8.0344
G1 X97.580 Y101.861 E8.0421
G1 X97.689 Y101.656 E8.0499
G1 X97.836 Y101.477 E8.0576
G1 X98.014 Y101.331 E8.0652
G1 X98.216 Y101.222 E8.0729
G1 X98.435 Y101.155 E8.0805
G1 X98.664 Y101.131 E8.0881
G1 X98.892 Y101.154 E8.0957
G1 X99.112 Y101.220 E8.1034
G1 X99.315 Y101.327 E8.1110
G1 X99.493 Y101.473 E8.1187
G1 X99.640 Y101.652 E8.1264
G1 X99.750 Y101.856 E8.1341
G1 X99.818 Y102.079 E8.1418
G1 X99.836 Y102.255 E8.1477
G1 X100.275 Y102.754
G0 X104.272 Y102.906 F10800
G0 X104.871 Y102.418
G0 X105.016 Y101.233
G0 X105.513 Y100.622
G0 X106.256 Y100.394
G0 X107.000 Y100.618
G0 X107.827 Y101.336
;segType:Loop
G1 X107.986 Y101.421 E8.1537 F3600
G1 X107.820 Y101.672 E8.1637
G1 X107.796 Y101.435 E8.1717
G1 X107.778 Y101.376 E8.1737
;segType:Perimeter
G0 X107.046 Y100.436 F10800
G1 X107.481 Y99.935 E8.1958 F2160
G1 X107.498 Y99.761 E8.2016
G1 X107.564 Y99.541 E8.2092
G1 X107.672 Y99.337 E8.2169
G1 X107.817 Y99.160 E8.2245
G1 X107.992 Y99.014 E8.2321
G1 X108.193 Y98.906 E8.2397
G1 X108.410 Y98.840 E8.2472
G1 X108.636 Y98.817 E8.2548
G1 X108.862 Y98.838 E8.2623
G1 X109.079 Y98.903 E8.2698
G1 X109.280 Y99.010 E8.2774
G1 X109.457 Y99.154 E8.2850
G1 X109.603 Y99.331 E8.2926
G1 X109.712 Y99.533 E8.3003
G1 X109.780 Y99.753 E8.3079
G1 X109.803 Y99.983 E8.3156
G1 X109.781 Y100.212 E8.3232
G1 X109.715 Y100.433 E8.3309
G1 X109.608 Y100.636 E8.3385
G1 X109.463 Y100.814 E8.3462
G1 X109.287 Y100.959 E8.3537
G1 X109.087 Y101.067 E8.3613
G1 X108.869 Y101.134 E8.3689
G1 X108.644 Y101.157 E8.3764
G1 X108.418 Y101.135 E8.3840
G1 X108.200 Y101.070 E8.3915
G1 X107.999 Y100.964 E8.3991
G1 X107.822 Y100.819 E8.4067
G1 X107.676 Y100.642 E8.4143
G1 X107.567 Y100.440 E8.4219
G1 X107.499 Y100.220 E8.4296
G1 X107.482 Y100.047 E8.4354
G1 X107.043 Y99.548
;segType:HShell
G0 X107.026 Y99.265 F10800
G1 X106.345 Y99.968 E8.4679 F3600
G1 X106.890 Y99.935
G1 X106.781 Y100.047 E8.4731
;segType:Perimeter
G0 X106.775 Y100.159 F10800
G1 X106.945 Y100.810 E8.4955 F2160
G1 X107.079 Y100.919 E8.5012
G1 X107.225 Y101.096 E8.5088
G1 X107.334 Y101.299 E8.5165
G1 X107.402 Y101.519 E8.5242
G1 X107.425 Y101.749 E8.5318
G1 X107.403 Y101.979 E8.5395
G1 X107.337 Y102.200 E8.5472
G1 X107.229 Y102.403 E8.5548
G1 X107.085 Y102.581 E8.5625
G1 X106.908 Y102.727 E8.5701
G1 X106.708 Y102.835 E8.5776
G1 X106.490 Y102.901 E8.5852
G1 X106.264 Y102.925 E8.5927
G1 X106.038 Y102.903 E8.6003
G1 X105.820 Y102.838 E8.6079
G1 X105.618 Y102.731 E8.6155
G1 X105.441 Y102.586 E8.6231
G1 X105.295 Y102.409 E8.6307
G1 X105.186 Y102.207 E8.6383
G1 X105.118 Y101.986 E8.6460
G1 X105.095 Y101.757 E8.6537
G1 X105.117 Y101.527 E8.6613
G1 X105.183 Y101.306 E8.6690
G1 X105.291 Y101.103 E8.6767
G1 X105.436 Y100.925 E8.6843
G1 X105.612 Y100.779 E8.6919
G1 X105.813 Y100.671 E8.6995
G1 X106.030 Y100.604 E8.7070
G1 X106.256 Y100.581 E8.7146
G1 X106.482 Y100.603 E8.7221
G1 X106.700 Y100.668 E8.7297
G1 X106.854 Y100.749 E8.7355
G1 X107.497 Y100.639
G0 F4800 E7.7355
G0 X110.725 Y101.797 F10800
G0 F4800 E8.7355
;segType:HShell
G1 X116.607 Y95.725 E9.0165 F3600
G1 X116.607 Y96.254
G1 X110.815 Y102.234 E9.2933
;segType:Perimeter
G0 X110.654 Y102.022 F10800
G1 X110.244 Y102.547 E9.3154 F2160
G1 X110.169 Y102.935 E9.3285
G1 X109.921 Y103.311 E9.3435
G1 X109.551 Y103.561 E9.3583
G1 X109.114 Y103.651 E9.3731
G1 X108.677 Y103.566 E9.3880
G1 X108.304 Y103.320 E9.4028
G1 X108.053 Y102.947 E9.4178
G1 X107.962 Y102.504 E9.4328
G1 X108.048 Y102.060 E9.4478
G1 X108.296 Y101.685 E9.4628
G1 X108.666 Y101.435 E9.4776
G1 X109.102 Y101.345 E9.4924
G1 X109.539 Y101.430 E9.5072
G1 X109.912 Y101.676 E9.5221
G1 X110.164 Y102.049 E9.5370
G1 X110.243 Y102.437 E9.5502
G1 X110.659 Y102.957
G0 X109.115 Y103.838 F10800
G0 X105.753 Y103.011
G0 X105.146 Y102.516
G0 X105.086 Y101.365
G0 X104.708 Y100.661
G0 X104.013 Y100.291
G0 X103.233 Y100.369
G0 X102.623 Y100.873
G0 X102.505 Y101.094
G0 X102.612 Y101.354
G1 X102.663 Y101.184 E9.5561 F2160
G1 X102.773 Y100.979 E9.5638
G1 X102.919 Y100.799 E9.5715
G1 X103.098 Y100.652 E9.5792
G1 X103.301 Y100.543 E9.5869
G1 X103.522 Y100.475 E9.5946
G1 X103.750 Y100.453 E9.6022
G1 X103.979 Y100.475 E9.6098
G1 X104.199 Y100.541 E9.6175
G1 X104.403 Y100.649 E9.6252
G1 X104.582 Y100.796 E9.6329
G1 X104.730 Y100.975 E9.6406
G1 X104.840 Y101.180 E9.6483
G1 X104.908 Y101.403 E9.6561
G1 X104.931 Y101.636 E9.6638
G1 X104.909 Y101.868 E9.6716
G1 X104.842 Y102.091 E9.6794
G1 X104.733 Y102.297 E9.6871
G1 X104.585 Y102.477 E9.6948
G1 X104.407 Y102.624 E9.7025
G1 X104.204 Y102.733 E9.7102
G1 X103.983 Y102.800 E9.7178
G1 X103.755 Y102.823 E9.7255
G1 X103.526 Y102.801 E9.7331
G1 X103.305 Y102.735 E9.7408
G1 X103.102 Y102.626 E9.7484
G1 X102.923 Y102.480 E9.7561
G1 X102.775 Y102.301 E9.7638
G1 X102.665 Y102.096 E9.7716
G1 X102.597 Y101.873 E9.7793
G1 X102.573 Y101.640 E9.7871
G1 X102.590 Y101.463 E9.7930
G1 X102.259 Y100.883
;segType:HShell
G0 X100.398 Y99.227 F10800
G1 X105.970 Y93.476 E10.0592 F3600
G1 X105.457 Y93.476
G1 X100.197 Y98.906 E10.3105
;segType:Perimeter
G0 X100.319 Y99.419 F10800
G1 X99.909 Y99.943 E10.3326 F2160
G1 X99.833 Y100.333 E10.3458
G1 X99.584 Y100.710 E10.3608
G1 X99.212 Y100.961 E10.3758
G1 X98.774 Y101.051 E10.3906
G1 X98.336 Y100.965 E10.4055
G1 X97.962 Y100.718 E10.4204
G1 X97.709 Y100.344 E10.4354
G1 X97.618 Y99.899 E10.4505
G1 X97.705 Y99.454 E10.4656
G1 X97.954 Y99.078 E10.4806
G1 X98.326 Y98.826 E10.4955
G1 X98.763 Y98.737 E10.5103
G1 X99.202 Y98.822 E10.5252
G1 X99.576 Y99.069 E10.5401
G1 X99.829 Y99.444 E10.5551
G1 X99.908 Y99.833 E10.5683
G1 X100.323 Y100.353
G0 F4800 E9.5683
G0 X100.056 Y102.852 F10800
G0 F4800 E10.5683
G1 X100.268 Y102.215 E10.5907 F2160
G1 X100.215 Y102.043 E10.5966
G1 X100.192 Y101.808 E10.6045
G1 X100.215 Y101.573 E10.6124
G1 X100.283 Y101.347 E10.6202
G1 X100.394 Y101.139 E10.6280
G1 X100.543 Y100.957 E10.6358
G1 X100.724 Y100.809 E10.6436
G1 X100.930 Y100.698 E10.6514
G1 X101.152 Y100.631 E10.6591
G1 X101.384 Y100.608 E10.6668
G1 X101.615 Y100.631 E10.6746
G1 X101.838 Y100.698 E10.6823
G1 X102.044 Y100.808 E10.6901
G1 X102.225 Y100.956 E10.6979
G1 X102.374 Y101.138 E10.7057
G1 X102.485 Y101.345 E10.7135
G1 X102.554 Y101.571 E10.7213
G1 X102.578 Y101.806 E10.7292
G1 X102.554 Y102.041 E10.7371
G1 X102.486 Y102.267 E10.7449
G1 X102.375 Y102.475 E10.7527
G1 X102.227 Y102.657 E10.7605
G1 X102.046 Y102.805 E10.7683
G1 X101.840 Y102.915 E10.7761
G1 X101.617 Y102.983 E10.7838
G1 X101.386 Y103.006 E10.7916
G1 X101.154 Y102.984 E10.7993
G1 X100.931 Y102.916 E10.8070
G1 X100.725 Y102.806 E10.8148
G1 X100.544 Y102.658 E10.8226
G1 X100.395 Y102.476 E10.8304
G1 X100.310 Y102.318 E10.8364
G0 F4800 E9.8364
G0 X99.424 Y103.938 F10800
G0 F4800 E10.8364
;segType:HShell
G1 X96.633 Y106.819 E10.9697 F3600
G1 X96.120 Y106.819
G1 X98.745 Y104.109 E11.0951
G1 X98.273 Y104.067
G1 X95.608 Y106.819 E11.2225
G1 X95.095 Y106.819
G1 X97.894 Y103.930 E11.3562
G0 X99.418 Y103.453 F10800
G0 X99.919 Y102.838
G0 X99.996 Y102.041
G0 X100.469 Y100.213
G1 X106.995 Y93.476 E11.6680 F3600
G1 X106.482 Y93.476
G1 X100.487 Y99.665 E11.9545
G0 X99.980 Y98.601 F10800
G1 X104.944 Y93.476 E12.1917 F3600
G1 X104.432 Y93.476
G1 X99.667 Y98.394 E12.4193
G1 X99.327 Y98.216
G1 X103.919 Y93.476 E12.6387
G1 X103.406 Y93.476
G1 X98.896 Y98.132 E12.8542
G1 X98.321 Y98.196
G1 X102.894 Y93.476 E13.0727
G1 X102.381 Y93.476
G1 X93.389 Y102.759 E13.5023
G1 X93.389 Y102.230
G1 X101.868 Y93.476 E13.9075
G1 X101.356 Y93.476
G1 X93.389 Y101.701 E14.2881
G1 X93.389 Y101.171
G1 X100.843 Y93.476 E14.6443
G1 X100.330 Y93.476
G1 X93.389 Y100.642 E14.9760
G1 X93.389 Y100.113
G1 X99.818 Y93.476 E15.2832
G1 X99.305 Y93.476
G1 X93.389 Y99.584 E15.5658
G1 X93.389 Y99.054
G1 X98.792 Y93.476 E15.8240
G1 X98.280 Y93.476
G1 X93.389 Y98.525 E16.0577
G1 X93.389 Y97.996
G1 X97.767 Y93.476 E16.2669
G1 X97.254 Y93.476
G1 X93.389 Y97.467 E16.4516
G1 X93.389 Y96.937
G1 X96.742 Y93.476 E16.6118
G1 X96.229 Y93.476
G1 X93.389 Y96.408 E16.7476
G1 X93.389 Y95.879
G1 X95.717 Y93.476 E16.8588
G1 X95.204 Y93.476
G1 X93.389 Y95.350 E16.9455
G1 X93.389 Y94.821
G1 X94.691 Y93.476 E17.0078
G1 X94.179 Y93.476
G1 X93.389 Y94.291 E17.0455
G1 X93.389 Y93.762
G1 X93.666 Y93.476 E17.0588
G0 X97.090 Y99.467 F10800
G1 X93.389 Y103.288 E17.2356 F3600
G1 X93.389 Y103.817
G1 X97.036 Y100.052 E17.4099
G1 X97.125 Y100.489
G1 X93.389 Y104.347 E17.5884
G1 X93.389 Y104.876
G1 X97.297 Y100.841 E17.7752
G1 X97.011 Y101.666
G1 X93.389 Y105.405 E17.9482
G1 X93.389 Y105.934
G1 X96.888 Y102.322 E18.1155
G1 X96.956 Y102.780
G1 X93.389 Y106.464 E18.2859
G0 X100.483 Y103.374 F10800
G1 X97.146 Y106.819 E18.4454 F3600
G1 X97.658 Y106.819
G1 X100.840 Y103.534 E18.5974
G1 X101.272 Y103.617
G1 X98.171 Y106.819 E18.7456
G1 X98.684 Y106.819
G1 X101.839 Y103.561 E18.8964
G0 X102.653 Y102.341 F10800
G0 X102.732 Y101.533
G0 X102.652 Y101.272
G0 X102.533 Y101.047
G0 X102.415 Y100.321
G1 X109.045 Y93.476 E19.2132 F3600
G1 X108.533 Y93.476
G1 X102.085 Y100.132 E19.5212
G1 X101.686 Y100.015
G1 X108.020 Y93.476 E19.8239
G1 X107.507 Y93.476
G1 X101.182 Y100.006 E20.1261
G0 X103.354 Y99.880 F10800
G1 X109.558 Y93.476 E20.4225 F3600
G1 X110.071 Y93.476
G1 X103.901 Y99.845 E20.7173
G1 X104.327 Y99.934
G1 X110.583 Y93.476 E21.0162
G1 X111.096 Y93.476
G1 X104.680 Y100.100 E21.3228
G1 X104.973 Y100.326
G1 X111.609 Y93.476 E21.6398
G1 X112.121 Y93.476
G1 X105.763 Y100.040 E21.9436
G0 X107.895 Y98.368 F10800
G1 X112.634 Y93.476 E22.1701 F3600
G1 X113.147 Y93.476
G1 X108.569 Y98.201 E22.3888
G1 X109.038 Y98.247
G1 X113.659 Y93.476 E22.6096
G1 X114.172 Y93.476
G1 X109.416 Y98.386 E22.8368
G1 X109.732 Y98.589
G1 X114.685 Y93.476 E23.0735
G1 X115.197 Y93.476
G1 X109.993 Y98.848 E23.3221
G1 X110.200 Y99.164
G1 X115.710 Y93.476 E23.5854
G1 X116.223 Y93.476
G1 X110.345 Y99.543 E23.8662
G1 X110.403 Y100.012
G1 X116.607 Y93.608 E24.1626
G1 X116.607 Y94.137
G1 X110.267 Y100.683 E24.4656
G1 X110.289 Y101.189
G1 X116.607 Y94.666 E24.7675
G1 X116.607 Y95.196
G1 X110.515 Y101.485 E25.0586
G0 X110.814 Y102.764 F10800
G1 X116.607 Y96.783 E25.3354 F3600
G1 X116.607 Y97.312
G1 X107.399 Y106.819 E25.7754
G1 X107.911 Y106.819
G1 X116.607 Y97.842 E26.1909
G1 X116.607 Y98.371
G1 X108.424 Y106.819 E26.5819
G1 X108.937 Y106.819
G1 X116.607 Y98.900 E26.9484
G1 X116.607 Y99.429
G1 X109.449 Y106.819 E27.2904
G1 X109.962 Y106.819
G1 X116.607 Y99.959 E27.6079
G1 X116.607 Y100.488
G1 X110.474 Y106.819 E27.9010
G1 X110.987 Y106.819
G1 X116.607 Y101.017 E28.1695
G1 X116.607 Y101.546
G1 X111.500 Y106.819 E28.4135
G1 X112.012 Y106.819
G1 X116.607 Y102.076 E28.6331
G1 X116.607 Y102.605
G1 X112.525 Y106.819 E28.8281
G1 X113.038 Y106.819
G1 X116.607 Y103.134 E28.9987
G1 X116.607 Y103.663
G1 X113.550 Y106.819 E29.1447
G1 X114.063 Y106.819
G1 X116.607 Y104.192 E29.2663
G1 X116.607 Y104.722
G1 X114.576 Y106.819 E29.3634
G1 X115.088 Y106.819
G1 X116.607 Y105.251 E29.4359
G1 X116.607 Y105.780
G1 X115.601 Y106.819 E29.4840
G1 X116.114 Y106.819
G1 X116.607 Y106.309 E29.5076
G0 X109.400 Y104.224 F10800
G1 X106.886 Y106.819 E29.6277 F3600
G1 X106.373 Y106.819
G1 X108.877 Y104.235 E29.7473
G1 X108.447 Y104.149
G1 X105.861 Y106.819 E29.8709
G1 X105.348 Y106.819
G1 X108.134 Y103.942 E30.0041
G1 X107.841 Y103.716
G1 X104.835 Y106.819 E30.1477
G1 X104.323 Y106.819
G1 X107.630 Y103.404 E30.3057
G1 X107.398 Y103.115
G1 X103.810 Y106.819 E30.4771
G1 X103.297 Y106.819
G1 X106.489 Y103.524 E30.6296
G1 X105.981 Y103.519
G1 X102.785 Y106.819 E30.7823
G1 X102.272 Y106.819
G1 X105.578 Y103.406 E30.9403
G1 X105.249 Y103.216
G1 X101.759 Y106.819 E31.1071
G1 X101.247 Y106.819
G1 X104.974 Y102.971 E31.2851
G0 X104.029 Y103.418 F10800
G1 X100.734 Y106.819 E31.4426 F3600
G1 X100.221 Y106.819
G1 X103.512 Y103.422 E31.5998
G1 X103.100 Y103.318
G1 X99.709 Y106.819 E31.7618
G1 X99.196 Y106.819
G1 X102.762 Y103.138 E31.9322
; ------------------------------------
; Layer #3
; ------------------------------------
G21 ; mm
G90 ; abs
G92 E0 ; reset extr
M106 S255
;segType:Support
G0 F4800 E-1.0000
G0 F300 Z0.800
G0 X103.492 Y101.800 F10800
G0 F4800 E0.0000
G1 X104.014 Y101.800 E0.0147 F5400
G1 X105.966 Y101.800 E0.0699
G1 X106.555 Y101.800 E0.0865
G1 X108.600 Y100.000 E0.1635
G1 X108.959 Y100.000 E0.1737
G0 F4800 E-0.8263
G0 X117.600 Y91.000 F10800
G0 F4800 E0.1737
G1 X94.200 Y91.000 E0.8349 F5400
G0 F4800 E-0.1651
G0 X98.481 Y100.000 F10800
G0 F4800 E0.8349
G1 X99.056 Y100.000 E0.8511 F5400
G0 F4800 E-0.1489
G0 X101.731 Y101.800 F10800
G0 F4800 E0.8511
G1 X101.049 Y101.800 E0.8704 F5400
G0 F4800 E-0.1296
G0 X100.272 Y102.847 F10800
G0 X99.035 Y103.992
G0 X93.666 Y106.820
G0 F4800 E0.8704
;segType:HShell
G1 X93.378 Y106.522 E0.8842 F3600
;segType:Loop
G0 X93.178 Y106.410 F10800
G1 X93.178 Y93.270 E1.3210 F3600
G1 X116.796 Y93.270 E2.1061
G1 X116.796 Y107.026 E2.5634
G1 X93.178 Y107.026 E3.3486
G1 X93.178 Y106.597 E3.3629
;segType:Perimeter
G0 X93.381 Y107.125 F10800
G1 X92.778 Y107.383 E3.3847 F2160
G1 X92.778 Y92.857 E3.8675
G1 X117.196 Y92.857 E4.6793
G1 X117.196 Y107.439 E5.1640
G1 X92.832 Y107.439 E5.9740
G1 X93.082 Y106.817
G0 X97.924 Y101.193 F10800
G0 X98.402 Y100.992
G0 X99.677 Y101.112
;segType:Loop
G1 X99.664 Y101.121 E5.9745 F3600
G1 X99.759 Y101.184 E5.9783
G1 X99.892 Y101.380 E5.9862
G1 X99.945 Y101.203 E5.9923
G1 X100.090 Y100.928 E6.0026
G1 X100.285 Y100.689 E6.0129
G1 X100.521 Y100.494 E6.0231
G1 X100.789 Y100.349 E6.0332
G1 X101.078 Y100.260 E6.0433
G1 X101.378 Y100.229 E6.0533
G1 X101.679 Y100.258 E6.0633
G1 X101.969 Y100.345 E6.0734
G1 X102.238 Y100.487 E6.0835
G1 X102.475 Y100.680 E6.0937
G1 X102.518 Y100.732 E6.0959
G1 X102.654 Y100.525 E6.1042
G1 X103.157 Y100.186 E6.1243
G1 X103.744 Y100.065 E6.1442
G1 X104.333 Y100.179 E6.1642
G1 X104.839 Y100.513 E6.1843
G1 X105.053 Y100.830 E6.1970
G1 X105.171 Y100.651 E6.2041
G1 X105.667 Y100.314 E6.2241
G1 X106.250 Y100.194 E6.2439
G1 X106.834 Y100.306 E6.2636
G1 X107.202 Y100.549 E6.2783
G1 X107.089 Y99.996 E6.2971
G1 X107.206 Y99.388 E6.3176
G1 X107.544 Y98.876 E6.3380
G1 X108.045 Y98.538 E6.3581
G1 X108.631 Y98.418 E6.3780
G1 X109.219 Y98.531 E6.3979
G1 X109.723 Y98.864 E6.4180
G1 X110.066 Y99.371 E6.4384
G1 X110.190 Y99.978 E6.4589
G1 X110.073 Y100.586 E6.4795
G1 X109.736 Y101.097 E6.4999
G1 X109.734 Y101.098 E6.4999
G1 X110.165 Y101.380 E6.5171
G1 X110.250 Y101.335 E6.5203
G1 X110.546 Y101.245 E6.5306
G1 X110.853 Y101.214 E6.5408
G1 X111.160 Y101.244 E6.5511
G1 X111.457 Y101.334 E6.5614
G1 X111.731 Y101.480 E6.5717
G1 X111.974 Y101.679 E6.5821
G1 X112.174 Y101.922 E6.5926
G1 X112.324 Y102.202 E6.6032
G1 X112.417 Y102.507 E6.6138
G1 X112.448 Y102.825 E6.6244
G1 X112.417 Y103.144 E6.6351
G1 X112.325 Y103.450 E6.6457
G1 X112.175 Y103.729 E6.6562
G1 X111.976 Y103.973 E6.6667
G1 X111.734 Y104.172 E6.6771
G1 X111.460 Y104.319 E6.6874
G1 X111.163 Y104.409 E6.6977
G1 X110.856 Y104.440 E6.7080
G1 X110.548 Y104.410 E6.7183
G1 X110.252 Y104.320 E6.7286
G1 X109.978 Y104.174 E6.7389
G1 X109.735 Y103.975 E6.7493
G1 X109.696 Y103.927 E6.7514
G1 X109.120 Y104.047 E6.7709
G1 X108.540 Y103.936 E6.7906
G1 X108.041 Y103.608 E6.8104
G1 X107.702 Y103.109 E6.8305
G1 X107.578 Y102.510 E6.8508
G1 X107.578 Y102.508 E6.8509
G1 X107.350 Y102.855 E6.8647
G1 X106.853 Y103.192 E6.8846
G1 X106.270 Y103.312 E6.9044
G1 X105.687 Y103.200 E6.9242
G1 X105.185 Y102.869 E6.9441
G1 X104.976 Y102.561 E6.9565
G1 X104.851 Y102.751 E6.9641
G1 X104.348 Y103.090 E6.9842
G1 X103.761 Y103.210 E7.0042
G1 X103.172 Y103.096 E7.0241
G1 X102.666 Y102.763 E7.0442
G1 X102.644 Y102.729 E7.0456
G1 X102.484 Y102.925 E7.0540
G1 X102.248 Y103.121 E7.0642
G1 X101.981 Y103.265 E7.0743
G1 X101.692 Y103.354 E7.0843
G1 X101.391 Y103.385 E7.0944
G1 X101.090 Y103.356 E7.1044
G1 X100.800 Y103.269 E7.1145
G1 X100.532 Y103.127 E7.1246
G1 X100.294 Y102.934 E7.1348
G1 X100.148 Y102.758 E7.1424
G1 X100.101 Y102.915 E7.1478
G1 X99.942 Y103.216 E7.1591
G1 X99.533 Y103.629 E7.1784
G1 X99.002 Y103.852 E7.1976
G1 X98.645 Y103.888 E7.2095
G1 X98.110 Y103.785 E7.2276
G1 X97.790 Y103.615 E7.2397
G1 X97.399 Y103.227 E7.2580
G1 X97.222 Y102.900 E7.2703
G1 X97.104 Y102.320 E7.2900
G1 X97.217 Y101.740 E7.3097
G1 X97.390 Y101.411 E7.3221
G1 X97.754 Y101.044 E7.3392
G1 X97.698 Y101.007 E7.3415
G1 X97.358 Y100.505 E7.3616
G1 X97.234 Y99.905 E7.3820
G1 X97.349 Y99.303 E7.4024
G1 X97.683 Y98.797 E7.4225
G1 X98.178 Y98.460 E7.4424
G1 X98.758 Y98.340 E7.4621
G1 X99.340 Y98.452 E7.4818
G1 X99.839 Y98.781 E7.5017
G1 X100.180 Y99.282 E7.5218
G1 X100.304 Y99.883 E7.5422
G1 X100.189 Y100.484 E7.5626
G1 X99.855 Y100.991 E7.5827
G1 X99.828 Y101.009 E7.5838
G0 X100.210 Y101.819 F10800
;segType:Perimeter
G1 X99.813 Y102.353 E7.6060 F2160
G1 X99.796 Y102.535 E7.6120
G1 X99.731 Y102.754 E7.6196
G1 X99.620 Y102.963 E7.6275
G1 X99.310 Y103.277 E7.6422
G1 X98.905 Y103.447 E7.6568
G1 X98.662 Y103.472 E7.6649
G1 X98.241 Y103.390 E7.6791
G1 X98.025 Y103.275 E7.6873
G1 X97.719 Y102.972 E7.7016
G1 X97.601 Y102.754 E7.7098
G1 X97.512 Y102.318 E7.7246
G1 X97.597 Y101.882 E7.7394
G1 X97.713 Y101.663 E7.7476
G1 X98.023 Y101.350 E7.7623
G1 X98.437 Y101.176 E7.7772
G1 X98.875 Y101.174 E7.7918
G1 X99.110 Y101.244 E7.7999
G1 X99.477 Y101.487 E7.8145
G1 X99.730 Y101.862 E7.8296
G1 X99.807 Y102.242 E7.8425
G1 X100.259 Y102.728
G0 X104.263 Y102.874 F10800
G0 X104.947 Y102.203
G0 X105.045 Y101.250
G0 X105.329 Y100.818
G0 X105.753 Y100.530
G0 X106.251 Y100.428
G0 X106.751 Y100.523
G0 X107.765 Y101.247
;segType:Loop
G1 X108.018 Y101.414 E7.8526 F3600
G1 X107.800 Y101.746 E7.8658
G1 X107.801 Y101.742 E7.8659
G1 X107.707 Y101.288 E7.8813
;segType:Perimeter
G0 X107.098 Y100.463 F10800
G1 X107.508 Y99.938 E7.9034 F2160
G1 X107.583 Y99.551 E7.9166
G1 X107.830 Y99.177 E7.9315
G1 X108.199 Y98.927 E7.9463
G1 X108.633 Y98.838 E7.9610
G1 X109.069 Y98.922 E7.9758
G1 X109.441 Y99.168 E7.9906
G1 X109.692 Y99.539 E8.0055
G1 X109.782 Y99.980 E8.0205
G1 X109.697 Y100.422 E8.0354
G1 X109.450 Y100.797 E8.0503
G1 X109.081 Y101.046 E8.0651
G1 X108.646 Y101.135 E8.0799
G1 X108.211 Y101.051 E8.0946
G1 X107.839 Y100.806 E8.1095
G1 X107.588 Y100.435 E8.1244
G1 X107.509 Y100.048 E8.1375
G1 X107.093 Y99.529
;segType:HShell
G0 X106.912 Y99.855 F10800
G1 X100.734 Y93.477 E8.4326 F3600
G1 X101.247 Y93.477
G1 X106.997 Y99.413 E8.7074
;segType:Perimeter
G0 X107.007 Y100.318 F10800
G1 X107.084 Y100.986 E8.7298 F2160
G1 X107.302 Y101.308 E8.7427
G1 X107.392 Y101.745 E8.7575
G1 X107.308 Y102.184 E8.7724
G1 X107.064 Y102.555 E8.7871
G1 X106.698 Y102.803 E8.8018
G1 X106.268 Y102.891 E8.8164
G1 X105.836 Y102.808 E8.8310
G1 X105.467 Y102.566 E8.8457
G1 X105.218 Y102.198 E8.8605
G1 X105.128 Y101.761 E8.8753
G1 X105.212 Y101.322 E8.8902
G1 X105.457 Y100.951 E8.9049
G1 X105.822 Y100.703 E8.9196
G1 X106.252 Y100.615 E8.9342
G1 X106.684 Y100.697 E8.9488
G1 X107.007 Y100.910 E8.9617
G1 X107.658 Y100.962
G0 F4800 E7.9617
G0 X110.167 Y101.633 F10800
G0 X111.119 Y101.468
G0 X111.820 Y101.842
G0 X116.596 Y106.147
G0 F4800 E8.9617
;segType:HShell
G1 X110.335 Y99.683 E9.2609 F3600
G1 X110.347 Y100.225
G1 X111.130 Y101.034 E9.2983
G1 X110.615 Y101.030
G1 X110.262 Y100.666 E9.3152
G1 X110.054 Y100.981
G1 X110.213 Y101.145 E9.3228
;segType:Perimeter
G0 X109.953 Y101.249 F10800
G1 X110.104 Y101.904 E9.3451 F2160
G1 X110.194 Y101.830 E9.3490
G1 X110.400 Y101.719 E9.3568
G1 X110.622 Y101.652 E9.3645
G1 X110.854 Y101.629 E9.3722
G1 X111.085 Y101.651 E9.3799
G1 X111.308 Y101.719 E9.3877
G1 X111.513 Y101.829 E9.3954
G1 X111.694 Y101.977 E9.4032
G1 X111.843 Y102.158 E9.4110
G1 X111.954 Y102.365 E9.4188
G1 X112.023 Y102.591 E9.4267
G1 X112.046 Y102.826 E9.4345
G1 X112.023 Y103.061 E9.4424
G1 X111.955 Y103.287 E9.4502
G1 X111.844 Y103.494 E9.4580
G1 X111.696 Y103.675 E9.4658
G1 X111.515 Y103.824 E9.4736
G1 X111.309 Y103.934 E9.4813
G1 X111.087 Y104.002 E9.4891
G1 X110.856 Y104.025 E9.4968
G1 X110.624 Y104.002 E9.5045
G1 X110.401 Y103.935 E9.5123
G1 X110.196 Y103.825 E9.5200
G1 X110.015 Y103.677 E9.5278
G1 X109.866 Y103.496 E9.5356
G1 X109.797 Y103.366 E9.5405
G1 X109.544 Y103.538 E9.5506
G1 X109.117 Y103.626 E9.5651
G1 X108.689 Y103.544 E9.5796
G1 X108.323 Y103.304 E9.5942
G1 X108.076 Y102.940 E9.6088
G1 X107.986 Y102.507 E9.6235
G1 X108.069 Y102.072 E9.6382
G1 X108.311 Y101.704 E9.6529
G1 X108.673 Y101.458 E9.6674
G1 X109.100 Y101.370 E9.6819
G1 X109.528 Y101.452 E9.6964
G1 X109.893 Y101.692 E9.7109
G1 X110.030 Y101.893 E9.7190
G1 X110.355 Y101.309
G0 X109.149 Y101.219 F10800
G0 X108.647 Y101.322
G0 X108.144 Y101.225
G0 X106.751 Y100.523
G0 X103.745 Y100.299
G0 X103.242 Y100.402
G0 X102.813 Y100.692
G0 X102.525 Y101.128
G0 X102.440 Y101.552
G0 X102.617 Y101.589
G1 X102.692 Y101.201 E9.7322 F2160
G1 X102.940 Y100.825 E9.7471
G1 X103.311 Y100.575 E9.7620
G1 X103.746 Y100.486 E9.7768
G1 X104.183 Y100.570 E9.7916
G1 X104.556 Y100.817 E9.8064
G1 X104.808 Y101.189 E9.8214
G1 X104.898 Y101.632 E9.8364
G1 X104.812 Y102.075 E9.8514
G1 X104.565 Y102.450 E9.8663
G1 X104.194 Y102.701 E9.8812
G1 X103.759 Y102.790 E9.8960
G1 X103.322 Y102.705 E9.9108
G1 X102.949 Y102.459 E9.9256
G1 X102.697 Y102.087 E9.9406
G1 X102.618 Y101.699 E9.9537
G0 X102.068 Y100.650 F10800
G0 X100.469 Y100.083
;segType:HShell
G1 X100.600 Y100.218 E9.9600 F3600
G1 X100.975 Y100.076
G1 X100.433 Y99.516 E9.9859
;segType:Perimeter
G0 X100.294 Y99.416 F10800
G1 X99.885 Y99.941 E10.0080 F2160
G1 X99.812 Y100.321 E10.0209
G1 X99.569 Y100.691 E10.0356
G1 X99.205 Y100.938 E10.0502
G1 X98.777 Y101.026 E10.0648
G1 X98.348 Y100.944 E10.0793
G1 X97.980 Y100.703 E10.0939
G1 X97.732 Y100.337 E10.1086
G1 X97.642 Y99.902 E10.1234
G1 X97.726 Y99.466 E10.1381
G1 X97.969 Y99.096 E10.1528
G1 X98.332 Y98.850 E10.1674
G1 X98.761 Y98.761 E10.1820
G1 X99.190 Y98.843 E10.1965
G1 X99.557 Y99.085 E10.2111
G1 X99.806 Y99.450 E10.2258
G1 X99.884 Y99.831 E10.2387
G1 X100.300 Y100.350
G0 F4800 E9.2387
G0 X100.093 Y102.843 F10800
G0 F4800 E10.2387
G1 X100.302 Y102.205 E10.2610 F2160
G1 X100.252 Y102.040 E10.2668
G1 X100.228 Y101.812 E10.2744
G1 X100.250 Y101.583 E10.2820
G1 X100.315 Y101.364 E10.2896
G1 X100.422 Y101.162 E10.2972
G1 X100.566 Y100.986 E10.3048
G1 X100.741 Y100.841 E10.3124
G1 X100.940 Y100.734 E10.3199
G1 X101.156 Y100.667 E10.3274
G1 X101.380 Y100.644 E10.3349
G1 X101.605 Y100.665 E10.3424
G1 X101.821 Y100.730 E10.3499
G1 X102.021 Y100.836 E10.3574
G1 X102.197 Y100.979 E10.3649
G1 X102.342 Y101.155 E10.3725
G1 X102.451 Y101.356 E10.3801
G1 X102.518 Y101.574 E10.3877
G1 X102.541 Y101.802 E10.3953
G1 X102.520 Y102.031 E10.4030
G1 X102.454 Y102.250 E10.4106
G1 X102.347 Y102.452 E10.4182
G1 X102.203 Y102.628 E10.4257
G1 X102.029 Y102.773 E10.4333
G1 X101.830 Y102.880 E10.4408
G1 X101.614 Y102.947 E10.4483
G1 X101.389 Y102.970 E10.4558
G1 X101.165 Y102.949 E10.4633
G1 X100.949 Y102.884 E10.4708
G1 X100.749 Y102.778 E10.4783
G1 X100.572 Y102.635 E10.4859
G1 X100.427 Y102.460 E10.4934
G1 X100.345 Y102.308 E10.4992
G0 F4800 E9.4992
G0 X100.074 Y102.078 F10800
G0 X100.447 Y102.770
G0 X101.131 Y103.132
G0 X103.008 Y103.234
G0 F4800 E10.4992
;segType:HShell
G1 X106.482 Y106.820 E10.6651 F3600
G1 X105.970 Y106.820
G1 X102.466 Y103.203 E10.8325
G1 X102.150 Y103.406
G1 X105.457 Y106.820 E10.9905
G1 X104.944 Y106.820
G1 X101.772 Y103.545 E11.1421
G1 X101.296 Y103.583
G1 X104.432 Y106.820 E11.2919
G1 X103.919 Y106.820
G1 X100.604 Y103.397 E11.4503
G1 X100.070 Y103.375
G1 X103.406 Y106.820 E11.6097
G1 X102.894 Y106.820
G1 X99.811 Y103.637 E11.7570
G1 X99.514 Y103.860
G1 X102.381 Y106.820 E11.8940
G1 X101.868 Y106.820
G1 X99.149 Y104.013 E12.0239
G1 X98.711 Y104.089
G1 X101.356 Y106.820 E12.1503
G1 X100.843 Y106.820
G1 X98.106 Y103.994 E12.2811
G0 X94.179 Y106.820 F10800
G1 X93.378 Y105.993 E12.3194 F3600
G1 X93.378 Y105.464
G1 X94.691 Y106.820 E12.3821
G1 X95.204 Y106.820
G1 X93.378 Y104.935 E12.4694
G1 X93.378 Y104.405
G1 X95.717 Y106.820 E12.5811
G1 X96.229 Y106.820
G1 X93.378 Y103.876 E12.7174
G1 X93.378 Y103.347
G1 X96.742 Y106.820 E12.8781
G1 X97.254 Y106.820
G1 X93.378 Y102.818 E13.0633
G1 X93.378 Y102.288
G1 X97.767 Y106.820 E13.2730
G1 X98.280 Y106.820
G1 X93.378 Y101.759 E13.5072
G1 X93.378 Y101.230
G1 X98.792 Y106.820 E13.7660
G1 X99.305 Y106.820
G1 X93.378 Y100.701 E14.0492
G1 X93.378 Y100.172
G1 X96.227 Y103.113 E14.1853
G0 X97.382 Y101.130 F10800
G1 X93.378 Y96.996 E14.3766 F3600
G1 X93.378 Y97.525
G1 X97.155 Y101.425 E14.5571
G1 X97.002 Y101.796
G1 X93.378 Y98.055 E14.7303
G1 X93.378 Y98.584
G1 X96.916 Y102.237 E14.8993
G1 X97.010 Y102.863
G1 X93.378 Y99.113 E15.0729
G1 X93.378 Y99.642
G1 X100.330 Y106.820 E15.4051
G1 X99.818 Y106.820
G1 X96.344 Y103.234 E15.5710
G0 X97.117 Y100.327 F10800
G1 X93.378 Y96.467 E15.7497 F3600
G1 X93.378 Y95.938
G1 X97.062 Y99.741 E15.9257
G1 X97.146 Y99.299
G1 X93.378 Y95.408 E16.1057
G1 X93.378 Y94.879
G1 X97.332 Y98.961 E16.2946
G1 X97.540 Y98.647
G1 X93.378 Y94.350 E16.4935
G1 X93.378 Y93.821
G1 X97.849 Y98.437 E16.7071
G1 X98.180 Y98.249
G1 X93.557 Y93.477 E16.9280
G1 X94.070 Y93.477
G1 X98.607 Y98.161 E17.1448
G1 X99.166 Y98.209
G1 X94.583 Y93.477 E17.3638
G1 X95.095 Y93.477
G1 X101.441 Y100.028 E17.6670
G1 X102.106 Y100.185
G1 X95.608 Y93.477 E17.9775
G1 X96.121 Y93.477
G1 X102.687 Y100.256 E18.2913
G1 X102.997 Y100.047
G1 X96.633 Y93.477 E18.5953
G1 X97.146 Y93.477
G1 X103.394 Y99.927 E18.8938
G1 X103.859 Y99.877
G1 X97.658 Y93.477 E19.1901
G1 X98.171 Y93.477
G1 X104.591 Y100.104 E19.4968
G1 X105.305 Y100.313
G1 X98.684 Y93.477 E19.8132
G1 X99.196 Y93.477
G1 X105.624 Y100.112 E20.1203
G1 X106.052 Y100.024
G1 X99.709 Y93.477 E20.4233
G1 X100.222 Y93.477
G1 X106.588 Y100.049 E20.7275
G0 X107.176 Y99.068 F10800
G1 X101.760 Y93.477 E20.9863 F3600
G1 X102.272 Y93.477
G1 X107.383 Y98.753 E21.2305
G1 X107.684 Y98.535
G1 X102.785 Y93.477 E21.4646
G1 X103.298 Y93.477
G1 X108.004 Y98.336 E21.6894
G1 X108.432 Y98.248
G1 X103.810 Y93.477 E21.9103
G1 X104.323 Y93.477
G1 X108.969 Y98.273 E22.1322
G0 X116.114 Y93.477 F10800
G1 X116.596 Y93.975 E22.1553 F3600
G1 X116.596 Y94.504
G1 X115.601 Y93.477 E22.2028
G1 X115.089 Y93.477
G1 X116.596 Y95.033 E22.2749
G1 X116.596 Y95.563
G1 X114.576 Y93.477 E22.3714
G1 X114.063 Y93.477
G1 X116.596 Y96.092 E22.4925
G1 X116.596 Y96.621
G1 X113.551 Y93.477 E22.6380
G1 X113.038 Y93.477
G1 X116.596 Y97.150 E22.8080
G1 X116.596 Y97.680
G1 X112.525 Y93.477 E23.0025
G1 X112.013 Y93.477
G1 X116.596 Y98.209 E23.2215
G1 X116.596 Y98.738
G1 X111.500 Y93.477 E23.4651
G1 X110.987 Y93.477
G1 X116.596 Y99.267 E23.7331
G1 X116.596 Y99.797
G1 X110.475 Y93.477 E24.0255
G1 X109.962 Y93.477
G1 X116.596 Y100.326 E24.3425
G1 X116.596 Y100.855
G1 X109.449 Y93.477 E24.6840
G1 X108.937 Y93.477
G1 X116.596 Y101.384 E25.0500
G1 X116.596 Y101.913
G1 X108.424 Y93.477 E25.4405
G1 X107.911 Y93.477
G1 X116.596 Y102.443 E25.8554
G1 X116.596 Y102.972
G1 X107.399 Y93.477 E26.2949
G1 X106.886 Y93.477
G1 X116.596 Y103.501 E26.7588
G1 X116.596 Y104.030
G1 X106.374 Y93.477 E27.2473
G1 X105.861 Y93.477
G1 X116.596 Y104.560 E27.7602
G1 X116.596 Y105.089
G1 X105.348 Y93.477 E28.2977
G1 X104.836 Y93.477
G1 X116.596 Y105.618 E28.8596
G0 X112.625 Y102.576 F10800
G1 X116.596 Y106.677 E29.0494 F3600
G1 X116.223 Y106.820
G1 X112.622 Y103.103 E29.2214
G1 X112.513 Y103.519
G1 X115.710 Y106.820 E29.3741
G1 X115.197 Y106.820
G1 X112.330 Y103.860 E29.5111
G1 X112.091 Y104.142
G1 X114.685 Y106.820 E29.6351
G1 X114.172 Y106.820
G1 X111.799 Y104.370 E29.7484
G1 X111.449 Y104.538
G1 X113.659 Y106.820 E29.8541
G1 X113.147 Y106.820
G1 X111.026 Y104.630 E29.9554
G1 X110.491 Y104.608
G1 X112.634 Y106.820 E30.0578
G1 X112.121 Y106.820
G1 X109.553 Y104.168 E30.1805
G1 X109.125 Y104.256
G1 X111.609 Y106.820 E30.2992
G1 X111.096 Y106.820
G1 X108.498 Y104.138 E30.4233
G0 X107.128 Y103.252 F10800
G1 X110.583 Y106.820 E30.5884 F3600
G1 X110.071 Y106.820
G1 X106.776 Y103.418 E30.7458
G1 X106.348 Y103.506
G1 X109.558 Y106.820 E30.8992
G1 X109.045 Y106.820
G1 X105.755 Y103.423 E31.0564
G0 X104.838 Y103.006 F10800
G1 X108.533 Y106.820 E31.2329 F3600
G1 X108.020 Y106.820
G1 X104.528 Y103.215 E31.3998
G1 X104.140 Y103.343
G1 X107.507 Y106.820 E31.5607
G1 X106.995 Y106.820
G1 X103.689 Y103.407 E31.7186
; ------------------------------------
; Layer #4
; ------------------------------------
G21 ; mm
G90 ; abs
G92 E0 ; reset extr
M106 S255
;segType:SoftSupport
G0 F4800 E-1.0000
G0 F300 Z1.000
G0 X103.544 Y101.800 F10800
G0 F4800 E0.0000
G1 X103.961 Y101.800 E0.0062 F5400
G1 X106.000 Y101.800 E0.0367
G1 X106.521 Y101.800 E0.0445
G0 F4800 E-0.9555
G0 X108.600 Y100.000 F10800
G0 F4800 E0.0445
G1 X108.921 Y100.000 E0.0494 F5400
;segType:Support
G0 F4800 E-0.9506
G0 X117.600 Y91.000 F10800
G0 F4800 E0.0494
G1 X94.200 Y91.000 E0.7106 F5400
;segType:HShell
G0 F4800 E-0.2894
G0 X93.555 Y106.821 F10800
G0 F4800 E0.7106
G1 X97.140 Y103.120 E0.8818 F3600
G1 X97.007 Y102.728
G1 X93.367 Y106.486 E1.0557
;segType:Perimeter
G0 X93.370 Y107.126 F10800
G1 X92.767 Y107.384 E1.0775 F2160
G1 X92.767 Y92.858 E1.5604
G1 X117.186 Y92.858 E2.3722
G1 X117.186 Y107.440 E2.8569
G1 X92.821 Y107.440 E3.6669
G1 X93.071 Y106.818
;segType:Loop
G0 X93.167 Y106.411 F10800
G1 X93.167 Y93.271 E4.1037 F3600
G1 X116.786 Y93.271 E4.8888
G1 X116.786 Y107.027 E5.3461
G1 X93.167 Y107.027 E6.1313
G1 X93.167 Y106.598 E6.1456
;segType:HShell
G0 X99.573 Y103.784 F10800
G1 X96.631 Y106.821 E6.2861 F3600
G1 X97.144 Y106.821
G1 X100.543 Y103.312 E6.4485
G1 X100.134 Y103.204
G1 X100.230 Y103.106 E6.4531
G0 X99.873 Y101.794 F10800
G0 X99.583 Y101.367
G0 X99.156 Y101.086
G0 X98.657 Y100.990
G0 X98.226 Y101.075
G0 X97.253 Y100.313
;segType:Loop
G1 X97.065 Y100.414 E6.4602 F3600
G1 X96.770 Y100.504 E6.4704
G1 X96.464 Y100.534 E6.4806
G1 X96.158 Y100.504 E6.4909
G1 X95.863 Y100.415 E6.5011
G1 X95.590 Y100.270 E6.5114
G1 X95.349 Y100.072 E6.5218
G1 X95.149 Y99.830 E6.5322
G1 X95.000 Y99.552 E6.5427
G1 X94.907 Y99.248 E6.5532
G1 X94.876 Y98.931 E6.5638
G1 X94.906 Y98.614 E6.5744
G1 X94.998 Y98.310 E6.5850
G1 X95.147 Y98.031 E6.5955
G1 X95.346 Y97.788 E6.6059
G1 X95.586 Y97.589 E6.6163
G1 X95.859 Y97.443 E6.6266
G1 X96.154 Y97.353 E6.6368
G1 X96.460 Y97.323 E6.6471
G1 X96.766 Y97.353 E6.6573
G1 X97.061 Y97.442 E6.6675
G1 X97.334 Y97.587 E6.6778
G1 X97.576 Y97.784 E6.6882
G1 X97.775 Y98.027 E6.6986
G1 X97.925 Y98.305 E6.7091
G1 X98.014 Y98.600 E6.7194
G1 X98.184 Y98.484 E6.7262
G1 X98.754 Y98.365 E6.7456
G1 X99.327 Y98.473 E6.7650
G1 X99.819 Y98.795 E6.7845
G1 X100.156 Y99.288 E6.8043
G1 X100.280 Y99.878 E6.8244
G1 X100.168 Y100.472 E6.8445
G1 X99.841 Y100.971 E6.8643
G1 X99.622 Y101.120 E6.8731
G1 X99.739 Y101.198 E6.8778
G1 X99.921 Y101.465 E6.8885
G1 X99.968 Y101.218 E6.8969
G1 X100.301 Y100.712 E6.9170
G1 X100.794 Y100.377 E6.9368
G1 X101.373 Y100.257 E6.9565
G1 X101.954 Y100.368 E6.9761
G1 X102.452 Y100.696 E6.9960
G1 X102.519 Y100.794 E6.9999
G1 X102.676 Y100.554 E7.0094
G1 X103.165 Y100.221 E7.0291
G1 X103.739 Y100.102 E7.0486
G1 X104.314 Y100.211 E7.0681
G1 X104.809 Y100.535 E7.0877
G1 X105.053 Y100.893 E7.1021
G1 X105.192 Y100.681 E7.1106
G1 X105.676 Y100.349 E7.1301
G1 X106.245 Y100.230 E7.1494
G1 X106.815 Y100.338 E7.1687
G1 X107.257 Y100.627 E7.1862
G1 X107.237 Y100.596 E7.1875
G1 X107.113 Y99.999 E7.2077
G1 X107.227 Y99.400 E7.2280
G1 X107.559 Y98.896 E7.2481
G1 X108.050 Y98.562 E7.2678
G1 X108.627 Y98.442 E7.2874
G1 X109.206 Y98.552 E7.3070
G1 X109.387 Y98.671 E7.3142
G1 X109.526 Y98.410 E7.3240
G1 X109.725 Y98.166 E7.3345
G1 X109.967 Y97.967 E7.3449
G1 X110.240 Y97.821 E7.3552
G1 X110.536 Y97.731 E7.3655
G1 X110.843 Y97.700 E7.3757
G1 X111.149 Y97.730 E7.3860
G1 X111.445 Y97.819 E7.3963
G1 X111.720 Y97.966 E7.4066
G1 X111.961 Y98.164 E7.4170
G1 X112.161 Y98.406 E7.4274
G1 X112.311 Y98.686 E7.4379
G1 X112.403 Y98.991 E7.4485
G1 X112.435 Y99.308 E7.4591
G1 X112.404 Y99.626 E7.4698
G1 X112.312 Y99.931 E7.4804
G1 X112.163 Y100.210 E7.4909
G1 X111.964 Y100.454 E7.5014
G1 X111.722 Y100.652 E7.5117
G1 X111.449 Y100.799 E7.5221
G1 X111.152 Y100.889 E7.5323
G1 X110.846 Y100.919 E7.5426
G1 X110.539 Y100.890 E7.5528
G1 X110.244 Y100.800 E7.5631
G1 X109.991 Y100.666 E7.5726
G1 X109.721 Y101.077 E7.5890
G1 X109.691 Y101.098 E7.5902
G1 X110.155 Y101.402 E7.6086
G1 X110.157 Y101.405 E7.6088
G1 X110.254 Y101.352 E7.6124
G1 X110.547 Y101.263 E7.6226
G1 X110.851 Y101.232 E7.6328
G1 X111.155 Y101.261 E7.6429
G1 X111.448 Y101.350 E7.6531
G1 X111.719 Y101.494 E7.6633
G1 X111.959 Y101.690 E7.6736
G1 X112.158 Y101.930 E7.6840
G1 X112.306 Y102.206 E7.6944
G1 X112.399 Y102.508 E7.7049
G1 X112.430 Y102.823 E7.7154
G1 X112.400 Y103.138 E7.7259
G1 X112.309 Y103.440 E7.7364
G1 X112.162 Y103.717 E7.7468
G1 X111.965 Y103.959 E7.7572
G1 X111.726 Y104.156 E7.7675
G1 X111.455 Y104.301 E7.7777
G1 X111.162 Y104.391 E7.7879
G1 X110.858 Y104.421 E7.7980
G1 X110.555 Y104.392 E7.8082
G1 X110.261 Y104.304 E7.8184
G1 X109.990 Y104.159 E7.8286
G1 X109.751 Y103.965 E7.8388
G1 X109.697 Y103.900 E7.8416
G1 X109.692 Y103.903 E7.8418
G1 X109.124 Y104.023 E7.8611
G1 X108.553 Y103.915 E7.8805
G1 X108.061 Y103.594 E7.9000
G1 X107.725 Y103.103 E7.9198
G1 X107.602 Y102.514 E7.9398
G1 X107.630 Y102.363 E7.9449
G1 X107.328 Y102.825 E7.9632
G1 X106.844 Y103.156 E7.9827
G1 X106.276 Y103.275 E8.0020
G1 X105.706 Y103.168 E8.0213
G1 X105.215 Y102.848 E8.0408
G1 X104.975 Y102.497 E8.0549
G1 X104.829 Y102.721 E8.0638
G1 X104.340 Y103.054 E8.0835
G1 X103.766 Y103.174 E8.1030
G1 X103.191 Y103.065 E8.1224
G1 X102.696 Y102.741 E8.1421
G1 X102.634 Y102.651 E8.1457
G1 X102.469 Y102.902 E8.1557
G1 X101.975 Y103.237 E8.1756
G1 X101.396 Y103.357 E8.1952
G1 X100.816 Y103.246 E8.2149
G1 X100.317 Y102.918 E8.2347
G1 X100.137 Y102.654 E8.2454
G1 X100.089 Y102.906 E8.2539
G1 X99.755 Y103.413 E8.2741
G1 X99.259 Y103.750 E8.2940
G1 X98.677 Y103.870 E8.3138
G1 X98.094 Y103.758 E8.3335
G1 X97.593 Y103.429 E8.3534
G1 X97.252 Y102.926 E8.3736
G1 X97.128 Y102.324 E8.3940
G1 X97.244 Y101.721 E8.4145
G1 X97.578 Y101.213 E8.4347
G1 X97.812 Y101.054 E8.4441
G1 X97.718 Y100.992 E8.4478
G1 X97.382 Y100.499 E8.4677
G1 X97.353 Y100.361 E8.4724
G0 F4800 E7.4724
G0 X98.078 Y98.482 F10800
G0 F4800 E8.4724
;segType:Perimeter
G1 X97.641 Y98.982 E8.4945 F2160
G1 X97.624 Y99.160 E8.5004
G1 X97.556 Y99.385 E8.5082
G1 X97.446 Y99.591 E8.5160
G1 X97.299 Y99.772 E8.5237
G1 X97.119 Y99.919 E8.5314
G1 X96.915 Y100.029 E8.5391
G1 X96.694 Y100.097 E8.5468
G1 X96.464 Y100.119 E8.5545
G1 X96.234 Y100.097 E8.5622
G1 X96.013 Y100.030 E8.5699
G1 X95.808 Y99.921 E8.5776
G1 X95.628 Y99.774 E8.5853
G1 X95.480 Y99.594 E8.5931
G1 X95.370 Y99.388 E8.6008
G1 X95.301 Y99.164 E8.6086
G1 X95.278 Y98.930 E8.6164
G1 X95.300 Y98.697 E8.6242
G1 X95.368 Y98.472 E8.6320
G1 X95.478 Y98.266 E8.6398
G1 X95.626 Y98.085 E8.6476
G1 X95.805 Y97.937 E8.6553
G1 X96.009 Y97.828 E8.6630
G1 X96.231 Y97.760 E8.6707
G1 X96.460 Y97.738 E8.6784
G1 X96.690 Y97.760 E8.6860
G1 X96.912 Y97.827 E8.6937
G1 X97.116 Y97.936 E8.7014
G1 X97.296 Y98.083 E8.7092
G1 X97.444 Y98.263 E8.7169
G1 X97.555 Y98.469 E8.7247
G1 X97.623 Y98.693 E8.7325
G1 X97.641 Y98.871 E8.7384
G0 F4800 E7.7384
G0 X100.448 Y99.705 F10800
G0 F4800 E8.7384
;segType:HShell
G1 X106.480 Y93.478 E9.0266 F3600
G1 X105.968 Y93.478
G1 X100.357 Y99.270 E9.2947
;segType:Perimeter
G0 X100.268 Y99.412 F10800
G1 X99.861 Y99.938 E9.3168 F2160
G1 X99.791 Y100.310 E9.3294
G1 X99.554 Y100.672 E9.3438
G1 X99.199 Y100.915 E9.3581
G1 X98.780 Y101.002 E9.3723
G1 X98.359 Y100.923 E9.3866
G1 X98.000 Y100.688 E9.4008
G1 X97.755 Y100.330 E9.4152
G1 X97.667 Y99.905 E9.4297
G1 X97.747 Y99.477 E9.4441
G1 X97.984 Y99.115 E9.4585
G1 X98.339 Y98.873 E9.4728
G1 X98.758 Y98.785 E9.4870
G1 X99.179 Y98.865 E9.5013
G1 X99.538 Y99.100 E9.5155
G1 X99.782 Y99.457 E9.5299
G1 X99.860 Y99.828 E9.5425
G1 X100.277 Y100.346
G0 F4800 E8.5425
G0 X103.741 Y100.335 F10800
G0 X106.733 Y100.555
G0 X108.001 Y101.482
G0 F4800 E9.5425
;segType:Loop
G1 X107.736 Y101.888 E9.5586 F3600
G1 X107.764 Y101.737 E9.5637
G1 X107.641 Y101.149 E9.5837
G1 X107.627 Y101.128 E9.5845
G1 X107.981 Y101.361 E9.5986
G0 F4800 E8.5986
G0 X109.943 Y101.279 F10800
G0 F4800 E9.5986
;segType:Perimeter
G1 X110.096 Y101.934 E9.6210 F2160
G1 X110.203 Y101.846 E9.6256
G1 X110.405 Y101.737 E9.6332
G1 X110.624 Y101.670 E9.6408
G1 X110.852 Y101.647 E9.6484
G1 X111.080 Y101.669 E9.6560
G1 X111.299 Y101.735 E9.6636
G1 X111.502 Y101.842 E9.6713
G1 X111.680 Y101.988 E9.6789
G1 X111.827 Y102.167 E9.6866
G1 X111.937 Y102.371 E9.6943
G1 X112.005 Y102.593 E9.7020
G1 X112.028 Y102.824 E9.7098
G1 X112.006 Y103.055 E9.7175
G1 X111.939 Y103.278 E9.7252
G1 X111.830 Y103.482 E9.7329
G1 X111.684 Y103.661 E9.7406
G1 X111.507 Y103.808 E9.7483
G1 X111.304 Y103.917 E9.7559
G1 X111.085 Y103.984 E9.7635
G1 X110.857 Y104.007 E9.7711
G1 X110.630 Y103.985 E9.7787
G1 X110.410 Y103.919 E9.7863
G1 X110.207 Y103.811 E9.7940
G1 X110.029 Y103.666 E9.8016
G1 X109.882 Y103.487 E9.8093
G1 X109.800 Y103.335 E9.8151
G1 X109.536 Y103.514 E9.8257
G1 X109.120 Y103.602 E9.8398
G1 X108.701 Y103.523 E9.8540
G1 X108.342 Y103.289 E9.8682
G1 X108.099 Y102.933 E9.8826
G1 X108.010 Y102.509 E9.8970
G1 X108.090 Y102.084 E9.9114
G1 X108.326 Y101.723 E9.9257
G1 X108.680 Y101.481 E9.9399
G1 X109.097 Y101.394 E9.9541
G1 X109.516 Y101.473 E9.9683
G1 X109.874 Y101.707 E9.9825
G1 X110.022 Y101.923 E9.9912
G1 X110.346 Y101.338
G0 F4800 E8.9912
G0 X112.516 Y99.949 F10800
G0 F4800 E9.9912
;segType:HShell
G1 X116.586 Y95.747 E10.1857 F3600
G1 X116.586 Y95.218
G1 X112.635 Y99.296 E10.3744
;segType:Perimeter
G0 X112.519 Y99.197 F10800
G1 X111.994 Y99.596 E10.3964 F2160
G1 X111.942 Y99.768 E10.4023
G1 X111.832 Y99.975 E10.4101
G1 X111.684 Y100.156 E10.4179
G1 X111.503 Y100.304 E10.4257
G1 X111.298 Y100.414 E10.4334
G1 X111.076 Y100.482 E10.4411
G1 X110.846 Y100.505 E10.4488
G1 X110.615 Y100.482 E10.4565
G1 X110.393 Y100.415 E10.4642
G1 X110.187 Y100.306 E10.4720
G1 X110.007 Y100.158 E10.4797
G1 X109.859 Y99.978 E10.4875
G1 X109.747 Y99.771 E10.4953
G1 X109.679 Y99.546 E10.5031
G1 X109.656 Y99.311 E10.5110
G1 X109.678 Y99.077 E10.5188
G1 X109.747 Y98.852 E10.5266
G1 X109.857 Y98.644 E10.5344
G1 X110.005 Y98.463 E10.5422
G1 X110.186 Y98.315 E10.5500
G1 X110.390 Y98.206 E10.5577
G1 X110.612 Y98.138 E10.5654
G1 X110.843 Y98.115 E10.5731
G1 X111.074 Y98.137 E10.5808
G1 X111.296 Y98.204 E10.5885
G1 X111.501 Y98.314 E10.5963
G1 X111.681 Y98.462 E10.6040
G1 X111.830 Y98.642 E10.6118
G1 X111.941 Y98.849 E10.6196
G1 X112.010 Y99.074 E10.6274
G1 X112.033 Y99.308 E10.6352
G1 X112.016 Y99.487 E10.6412
G1 X112.347 Y100.067
G0 X108.650 Y101.298 F10800
G0 X108.156 Y101.204
G0 X107.124 Y100.466
G1 X107.532 Y99.941 E10.6633 F2160
G1 X107.604 Y99.563 E10.6761
G1 X107.845 Y99.196 E10.6907
G1 X108.206 Y98.951 E10.7052
G1 X108.631 Y98.862 E10.7196
G1 X109.057 Y98.944 E10.7341
G1 X109.422 Y99.183 E10.7486
G1 X109.668 Y99.546 E10.7631
G1 X109.758 Y99.978 E10.7778
G1 X109.676 Y100.411 E10.7925
G1 X109.434 Y100.778 E10.8071
G1 X109.074 Y101.023 E10.8216
G1 X108.649 Y101.111 E10.8360
G1 X108.222 Y101.030 E10.8504
G1 X107.858 Y100.790 E10.8649
G1 X107.611 Y100.428 E10.8795
G1 X107.533 Y100.051 E10.8923
G1 X107.116 Y99.532
;segType:HShell
G0 X107.177 Y99.110 F10800
G1 X106.287 Y100.028 E10.9348 F3600
G1 X106.720 Y100.110
G1 X106.929 Y99.894 E10.9448
;segType:Perimeter
G0 X106.976 Y100.341 F10800
G1 X107.056 Y101.009 E10.9672 F2160
G1 X107.267 Y101.318 E10.9796
G1 X107.356 Y101.741 E10.9940
G1 X107.276 Y102.166 E11.0084
G1 X107.041 Y102.526 E11.0227
G1 X106.688 Y102.767 E11.0369
G1 X106.272 Y102.855 E11.0510
G1 X105.854 Y102.776 E11.0652
G1 X105.496 Y102.543 E11.0794
G1 X105.253 Y102.188 E11.0937
G1 X105.164 Y101.765 E11.1080
G1 X105.244 Y101.340 E11.1224
G1 X105.479 Y100.980 E11.1367
G1 X105.832 Y100.738 E11.1509
G1 X106.249 Y100.651 E11.1651
G1 X106.667 Y100.730 E11.1792
G1 X106.979 Y100.933 E11.1916
G1 X107.629 Y100.982
G0 F4800 E10.1916
G0 X107.062 Y100.766 F10800
G0 X106.247 Y100.464
G0 X105.763 Y100.565
G0 X105.202 Y101.070
G0 X102.653 Y101.593
G0 F4800 E11.1916
G1 X102.724 Y101.218 E11.2043 F2160
G1 X102.963 Y100.854 E11.2188
G1 X103.321 Y100.610 E11.2331
G1 X103.742 Y100.522 E11.2475
G1 X104.166 Y100.602 E11.2618
G1 X104.528 Y100.839 E11.2762
G1 X104.773 Y101.199 E11.2906
G1 X104.862 Y101.628 E11.3052
G1 X104.780 Y102.058 E11.3197
G1 X104.542 Y102.422 E11.3342
G1 X104.184 Y102.666 E11.3486
G1 X103.763 Y102.754 E11.3629
G1 X103.339 Y102.673 E11.3772
G1 X102.977 Y102.436 E11.3916
G1 X102.732 Y102.076 E11.4061
G1 X102.654 Y101.703 E11.4188
G0 X101.871 Y100.585 F10800
G0 X101.375 Y100.490
G0 X100.880 Y100.593
G0 X100.460 Y100.879
G0 X100.177 Y101.308
G0 X100.087 Y101.764
G0 X100.195 Y101.835
G1 X99.786 Y102.360 E11.4409 F2160
G1 X99.713 Y102.743 E11.4539
G1 X99.469 Y103.113 E11.4686
G1 X99.104 Y103.361 E11.4832
G1 X98.674 Y103.449 E11.4978
G1 X98.243 Y103.367 E11.5124
G1 X97.875 Y103.125 E11.5271
G1 X97.626 Y102.758 E11.5418
G1 X97.536 Y102.321 E11.5566
G1 X97.620 Y101.884 E11.5714
G1 X97.864 Y101.513 E11.5862
G1 X98.229 Y101.266 E11.6008
G1 X98.658 Y101.177 E11.6154
G1 X99.089 Y101.260 E11.6300
G1 X99.457 Y101.502 E11.6447
G1 X99.707 Y101.869 E11.6594
G1 X99.785 Y102.250 E11.6724
G1 X100.201 Y102.769
G0 X100.163 Y102.843 F10800
G1 X100.340 Y102.194 E11.6947 F2160
G1 X100.261 Y101.816 E11.7076
G1 X100.344 Y101.380 E11.7223
G1 X100.587 Y101.012 E11.7369
G1 X100.949 Y100.766 E11.7515
G1 X101.376 Y100.678 E11.7660
G1 X101.805 Y100.760 E11.7805
G1 X102.171 Y101.000 E11.7951
G1 X102.418 Y101.365 E11.8097
G1 X102.508 Y101.798 E11.8244
G1 X102.425 Y102.233 E11.8392
G1 X102.183 Y102.602 E11.8538
G1 X101.820 Y102.848 E11.8684
G1 X101.393 Y102.936 E11.8829
G1 X100.965 Y102.855 E11.8974
G1 X100.599 Y102.614 E11.9120
G1 X100.382 Y102.295 E11.9248
G1 X99.802 Y101.987
G0 F4800 E10.9248
G0 X97.045 Y100.170 F10800
G0 X96.200 Y100.281
G0 X95.502 Y99.909
G0 X95.123 Y99.202
G0 X94.950 Y97.972
G0 F4800 E11.9248
;segType:HShell
G1 X93.367 Y99.606 E12.0004 F3600
G1 X93.367 Y100.135
G1 X94.690 Y98.769 E12.0636
G1 X94.709 Y99.279
G1 X93.367 Y100.664 E12.1277
G1 X93.367 Y101.194
G1 X94.838 Y99.675 E12.1980
G1 X95.031 Y100.005
G1 X93.367 Y101.723 E12.2775
G1 X93.367 Y102.252
G1 X95.279 Y100.278 E12.3689
G1 X95.580 Y100.497
G1 X93.367 Y102.781 E12.4746
G1 X93.367 Y103.311
G1 X95.941 Y100.654 E12.5976
G1 X96.377 Y100.733
G1 X93.367 Y103.840 E12.7414
G1 X93.367 Y104.369
G1 X96.965 Y100.655 E12.9133
G1 X97.341 Y100.796
G1 X93.367 Y104.898 E13.1032
G1 X93.367 Y105.428
G1 X97.096 Y101.578 E13.2813
G0 X98.599 Y101.158 F10800
G0 X99.268 Y101.087
G0 X100.409 Y100.275
G1 X106.993 Y93.478 E13.5959 F3600
G1 X107.506 Y93.478
G1 X101.085 Y100.106 E13.9027
G1 X101.611 Y100.092
G1 X108.018 Y93.478 E14.2089
G1 X108.531 Y93.478
G1 X102.039 Y100.179 E14.5190
G1 X102.352 Y100.385
G1 X109.044 Y93.478 E14.8387
G1 X109.556 Y93.478
G1 X103.244 Y99.994 E15.1403
G1 X103.838 Y99.910
G1 X110.069 Y93.478 E15.4380
G1 X110.581 Y93.478
G1 X104.271 Y99.992 E15.7396
G1 X104.617 Y100.164
G1 X111.094 Y93.478 E16.0490
G1 X111.607 Y93.478
G1 X104.931 Y100.370 E16.3680
G1 X105.665 Y100.141
G1 X112.119 Y93.478 E16.6764
G1 X112.632 Y93.478
G1 X107.747 Y98.521 E16.9098
G0 X107.340 Y99.997 F10800
G0 X107.434 Y100.467
G0 X107.501 Y103.009
G1 X103.808 Y106.821 E17.0862 F3600
G1 X104.321 Y106.821
G1 X107.663 Y103.370 E17.2459
G1 X107.875 Y103.681
G1 X104.834 Y106.821 E17.3913
G1 X105.346 Y106.821
G1 X108.168 Y103.908 E17.5261
G1 X108.483 Y104.112
G1 X105.859 Y106.821 E17.6514
G1 X106.372 Y106.821
G1 X108.917 Y104.193 E17.7730
G1 X109.460 Y104.161
G1 X106.884 Y106.821 E17.8961
G1 X107.397 Y106.821
G1 X109.840 Y104.299 E18.0128
G1 X110.169 Y104.488
G1 X107.910 Y106.821 E18.1208
G1 X108.422 Y106.821
G1 X110.572 Y104.601 E18.2235
G1 X111.080 Y104.607
G1 X108.935 Y106.821 E18.3260
G1 X109.448 Y106.821
G1 X111.961 Y104.226 E18.4461
G0 X112.182 Y102.554 F10800
G0 X111.806 Y101.854
G0 X109.875 Y100.335
G0 X109.835 Y99.471
G0 X109.547 Y99.048
G0 X108.518 Y98.254
G1 X113.145 Y93.478 E18.6671 F3600
G1 X113.657 Y93.478
G1 X108.980 Y98.307 E18.8906
G0 X110.133 Y97.646 F10800
G1 X114.170 Y93.478 E19.0835 F3600
G1 X114.683 Y93.478
G1 X110.788 Y97.498 E19.2696
G1 X111.254 Y97.546
G1 X115.195 Y93.478 E19.4579
G1 X115.708 Y93.478
G1 X111.631 Y97.686 E19.6527
G1 X111.948 Y97.889
G1 X116.221 Y93.478 E19.8568
G1 X116.586 Y93.630
G1 X112.210 Y98.147 E20.0659
G1 X112.419 Y98.461
G1 X116.586 Y94.159 E20.2650
G1 X116.586 Y94.689
G1 X112.567 Y98.838 E20.4570
G0 X112.612 Y103.025 F10800
G1 X116.586 Y98.923 E20.6469 F3600
G1 X116.586 Y98.393
G1 X112.600 Y102.508 E20.8373
G1 X112.479 Y102.103
G1 X116.586 Y97.864 E21.0335
G1 X116.586 Y97.335
G1 X112.289 Y101.771 E21.2388
G1 X112.043 Y101.495
G1 X116.586 Y96.806 E21.4559
G1 X116.586 Y96.276
G1 X111.744 Y101.275 E21.6872
G1 X111.385 Y101.116
G1 X111.498 Y101.000 E21.6926
G0 X116.112 Y106.821 F10800
G1 X116.586 Y106.332 E21.7152 F3600
G1 X116.586 Y105.803
G1 X115.599 Y106.821 E21.7623
G1 X115.087 Y106.821
G1 X116.586 Y105.273 E21.8340
G1 X116.586 Y104.744
G1 X114.574 Y106.821 E21.9301
G1 X114.061 Y106.821
G1 X116.586 Y104.215 E22.0507
G1 X116.586 Y103.686
G1 X113.549 Y106.821 E22.1958
G1 X113.036 Y106.821
G1 X116.586 Y103.156 E22.3654
G1 X116.586 Y102.627
G1 X112.523 Y106.821 E22.5595
G1 X112.011 Y106.821
G1 X116.586 Y102.098 E22.7780
G1 X116.586 Y101.569
G1 X111.498 Y106.821 E23.0211
G1 X110.985 Y106.821
G1 X116.586 Y101.039 E23.2887
G1 X116.586 Y100.510
G1 X110.473 Y106.821 E23.5808
G1 X109.960 Y106.821
G1 X116.586 Y99.981 E23.8973
G1 X116.586 Y99.452
G1 X112.259 Y103.918 E24.1040
G0 X110.596 Y104.169 F10800
G0 X106.590 Y103.420
G1 X103.296 Y106.821 E24.2614 F3600
G1 X102.783 Y106.821
G1 X106.054 Y103.444 E24.4177
G1 X105.624 Y103.359
G1 X102.270 Y106.821 E24.5779
G1 X101.758 Y106.821
G1 X105.310 Y103.154 E24.7476
G1 X105.021 Y102.923
G1 X101.245 Y106.821 E24.9280
G1 X100.732 Y106.821
G1 X104.135 Y103.308 E25.0906
G1 X103.582 Y103.349
G1 X100.220 Y106.821 E25.2513
G1 X99.707 Y106.821
G1 X103.149 Y103.267 E25.4158
G1 X102.827 Y103.071
G1 X99.195 Y106.821 E25.5893
G1 X98.682 Y106.821
G1 X101.943 Y103.454 E25.7451
G1 X101.333 Y103.555
G1 X98.169 Y106.821 E25.8962
G1 X97.657 Y106.821
G1 X100.900 Y103.472 E26.0512
G0 X98.797 Y104.056 F10800
G1 X96.119 Y106.821 E26.1792 F3600
G1 X95.606 Y106.821
G1 X98.326 Y104.013 E26.3092
G1 X97.928 Y103.894
G1 X95.093 Y106.821 E26.4446
G1 X94.581 Y106.821
G1 X97.615 Y103.688 E26.5896
G1 X97.351 Y103.432
G1 X94.068 Y106.821 E26.7465
G0 X95.201 Y98.399 F10800
G0 X96.274 Y97.134
G1 X99.816 Y93.478 E26.9157 F3600
G1 X100.328 Y93.478
G1 X96.775 Y97.146 E27.0854
G1 X97.170 Y97.268
G1 X100.841 Y93.478 E27.2609
G1 X101.354 Y93.478
G1 X97.498 Y97.458 E27.4451
G1 X97.772 Y97.704
G1 X101.866 Y93.478 E27.6407
G1 X102.379 Y93.478
G1 X97.990 Y98.009 E27.8504
G1 X98.262 Y98.257
G1 X102.892 Y93.478 E28.0716
G1 X103.404 Y93.478
G1 X98.855 Y98.174 E28.2889
G1 X99.289 Y98.256
G1 X103.917 Y93.478 E28.5101
G1 X104.430 Y93.478
G1 X99.634 Y98.429 E28.7392
G1 X99.947 Y98.634
G1 X104.942 Y93.478 E28.9779
G1 X105.455 Y93.478
G1 X100.163 Y98.941 E29.2307
G0 X93.367 Y93.784 F10800
G1 X93.664 Y93.478 E29.2449 F3600
G1 X94.177 Y93.478
G1 X93.367 Y94.314 E29.2836
G1 X93.367 Y94.843
G1 X94.689 Y93.478 E29.3468
G1 X95.202 Y93.478
G1 X93.367 Y95.372 E29.4345
G1 X93.367 Y95.901
G1 X95.715 Y93.478 E29.5466
G1 X96.227 Y93.478
G1 X93.367 Y96.431 E29.6833
G1 X93.367 Y96.960
G1 X96.740 Y93.478 E29.8445
G1 X97.253 Y93.478
G1 X93.367 Y97.489 E30.0301
G1 X93.367 Y98.018
G1 X97.765 Y93.478 E30.2403
G1 X98.278 Y93.478
G1 X93.367 Y98.548 E30.4749
G1 X93.367 Y99.077
G1 X98.791 Y93.478 E30.7340
G1 X99.303 Y93.478
G1 X95.502 Y97.402 E30.9157
G0 X95.096 Y98.931 F10800
G0 X95.331 Y99.701
G0 X96.933 Y102.275
G1 X93.367 Y105.957 E31.0861 F3600
G0 F4800 E30.0861
G0 X96.797 Y101.986 F10800
G0 X98.512 Y100.000
G0 F4800 E31.0861
;segType:SoftSupport
G1 X99.023 Y100.000 E31.0937 F5400
G0 F4800 E30.0937
G0 X101.099 Y101.800 F10800
G0 F4800 E31.0937
G1 X101.671 Y101.800 E31.1023 F5400
; ------------------------------------
; Layer #5
; ------------------------------------
G21 ; mm
G90 ; abs
G92 E0 ; reset extr
M106 S255
G0 F4800 E-1.0000
G0 F300 Z1.199
G0 X100.546 Y100.089 F10800
G0 X99.422 Y98.378
G0 F4800 E0.0000
;segType:SoftSupport
G1 X97.978 Y98.378 E0.0216 F3066
G0 F4800 E-0.9784
G0 X101.400 Y96.400 F10800
G0 F4800 E0.0216
G1 X106.800 Y96.400 E0.1024 F3066
;segType:Support
G0 F4800 E-0.8976
G0 X117.422 Y92.622 F10800
G0 F4800 E0.1024
G1 X94.378 Y92.622 E0.7536 F3066
G1 X94.378 Y91.178 E0.7944
G1 X117.422 Y91.178 E1.4455
G0 F4800 E0.4455
G0 X112.594 Y97.266 F10800
G0 X110.984 Y99.295
G0 F4800 E1.4455
;segType:HShell
G1 X110.875 Y99.183 E1.4507 F2044
;segType:Loop
G0 X110.829 Y99.644 F10800
G1 X110.771 Y99.644 E1.4526 F2044
G1 X110.638 Y99.589 E1.4575
G1 X110.491 Y99.373 E1.4661
G1 X110.539 Y99.129 E1.4744
G1 X110.636 Y99.031 E1.4790
G1 X110.769 Y98.976 E1.4838
G1 X110.917 Y98.975 E1.4887
G1 X111.051 Y99.031 E1.4935
G1 X111.198 Y99.246 E1.5022
G1 X111.150 Y99.491 E1.5105
G1 X111.053 Y99.588 E1.5151
G1 X111.053 Y99.588
;segType:Perimeter
G0 X111.163 Y98.986 F10800
G1 X111.577 Y99.507 E1.5372 F1226
G1 X111.486 Y99.729 E1.5451
G1 X111.275 Y99.941 E1.5551
G1 X110.998 Y100.057 E1.5651
G1 X110.695 Y100.057 E1.5751
G1 X110.417 Y99.943 E1.5851
G1 X110.205 Y99.732 E1.5951
G1 X110.091 Y99.459 E1.6049
G1 X110.090 Y99.164 E1.6147
G1 X110.203 Y98.891 E1.6245
G1 X110.413 Y98.679 E1.6345
G1 X110.691 Y98.563 E1.6445
G1 X110.994 Y98.562 E1.6545
G1 X111.272 Y98.677 E1.6646
G1 X111.484 Y98.887 E1.6745
G1 X111.598 Y99.160 E1.6843
G1 X111.599 Y99.399 E1.6922
G1 X111.021 Y99.713
;segType:Loop
G0 F4800 E0.6922
G0 X108.721 Y99.761 F10800
G0 F4800 E1.6922
G1 X108.841 Y99.809 E1.6965 F2044
G1 X108.917 Y99.984 E1.7029
G1 X108.845 Y100.161 E1.7092
G1 X108.643 Y100.246 E1.7165
G1 X108.439 Y100.165 E1.7238
G1 X108.362 Y99.989 E1.7302
G1 X108.435 Y99.813 E1.7365
G1 X108.435 Y99.813
;segType:Perimeter
G0 X108.474 Y100.359 F10800
G1 X107.964 Y99.939 E1.7585 F1226
G1 X108.003 Y99.736 E1.7654
G1 X108.147 Y99.514 E1.7742
G1 X108.368 Y99.362 E1.7831
G1 X108.632 Y99.307 E1.7921
G1 X108.898 Y99.357 E1.8010
G1 X109.122 Y99.503 E1.8099
G1 X109.271 Y99.722 E1.8188
G1 X109.325 Y99.979 E1.8275
G1 X109.277 Y100.238 E1.8362
G1 X109.132 Y100.460 E1.8450
G1 X108.911 Y100.611 E1.8539
G1 X108.647 Y100.666 E1.8629
G1 X108.382 Y100.617 E1.8719
G1 X108.158 Y100.470 E1.8808
G1 X108.008 Y100.251 E1.8896
G1 X107.966 Y100.049 E1.8965
G1 X108.467 Y99.618
;segType:SoftSupport
G0 F4800 E0.8965
G0 X109.720 Y98.200 F10800
G0 F4800 E1.8965
G1 X108.600 Y98.200 E1.9132 F3066
G0 F4800 E0.9132
G0 X109.746 Y100.553 F10800
G0 X110.893 Y102.905
G0 F4800 E1.9132
;segType:HShell
G1 X110.762 Y102.770 E1.9195 F2044
;segType:Loop
G0 X110.882 Y102.507 F10800
G1 X110.923 Y102.507 E1.9209 F2044
G1 X111.052 Y102.560 E1.9255
G1 X111.194 Y102.766 E1.9338
G1 X111.147 Y102.999 E1.9417
G1 X111.055 Y103.092 E1.9461
G1 X110.927 Y103.146 E1.9507
G1 X110.794 Y103.147 E1.9551
G1 X110.650 Y103.088 E1.9603
G1 X110.507 Y102.868 E1.9690
G1 X110.497 Y102.767 E1.9724
G1 X110.628 Y102.575 E1.9801
G1 X110.628 Y102.575
;segType:Perimeter
G0 X110.587 Y103.049 F10800
G1 X110.073 Y102.634 E2.0021 F1226
G1 X110.148 Y102.562 E2.0055
G1 X110.318 Y102.303 E2.0158
G1 X110.423 Y102.216 E2.0204
G1 X110.713 Y102.094 E2.0308
G1 X111.000 Y102.094 E2.0404
G1 X111.273 Y102.206 E2.0502
G1 X111.481 Y102.412 E2.0599
G1 X111.593 Y102.679 E2.0696
G1 X111.594 Y102.968 E2.0792
G1 X111.484 Y103.237 E2.0888
G1 X111.278 Y103.445 E2.0985
G1 X111.006 Y103.559 E2.1083
G1 X110.719 Y103.561 E2.1179
G1 X110.429 Y103.442 E2.1283
G1 X110.228 Y103.242 E2.1377
G1 X110.116 Y102.974 E2.1474
G1 X110.100 Y102.821 E2.1525
G1 X110.056 Y102.722 E2.1561
G1 X110.684 Y102.540
G0 F4800 E1.1561
G0 X109.093 Y101.277 F10800
G0 X107.789 Y101.851
G0 F4800 E2.1561
;segType:SoftSupport
G1 X107.706 Y101.847 E2.1573 F3066
;segType:Loop
G0 F4800 E1.1573
G0 X109.046 Y102.717 F10800
G0 F4800 E2.1573
G1 X109.006 Y102.717 E2.1586 F2044
G1 X108.869 Y102.586 E2.1650
G1 X108.867 Y102.416 E2.1706
G1 X109.001 Y102.281 E2.1769
G1 X109.210 Y102.279 E2.1839
G1 X109.347 Y102.410 E2.1902
G1 X109.375 Y102.541 E2.1947
G1 X109.224 Y102.706 E2.2021
G0 F4800 E1.2021
G0 X109.274 Y102.284 F10800
G0 F4800 E2.2021
;segType:Perimeter
G1 X109.809 Y102.670 E2.2240 F1226
G1 X109.735 Y102.728 E2.2271
G1 X109.587 Y102.956 E2.2362
G1 X109.373 Y103.103 E2.2448
G1 X109.117 Y103.157 E2.2535
G1 X108.859 Y103.109 E2.2622
G1 X108.641 Y102.968 E2.2709
G1 X108.496 Y102.756 E2.2794
G1 X108.443 Y102.506 E2.2879
G1 X108.489 Y102.256 E2.2964
G1 X108.629 Y102.040 E2.3049
G1 X108.844 Y101.893 E2.3136
G1 X109.100 Y101.838 E2.3223
G1 X109.357 Y101.886 E2.3310
G1 X109.575 Y102.028 E2.3396
G1 X109.721 Y102.240 E2.3482
G1 X109.777 Y102.507 E2.3572
G1 X109.825 Y102.588 E2.3604
G1 X109.189 Y102.741
;segType:SoftSupport
G0 F4800 E1.3604
G0 X101.400 Y107.200 F10800
G0 F4800 E2.3604
G1 X103.200 Y107.200 E2.3873 F3066
G1 X103.200 Y105.400 E2.4142
G1 X101.400 Y105.400 E2.4411
G0 F4800 E1.4411
G0 X101.334 Y103.501 F10800
G0 X101.268 Y101.603
G0 F4800 E2.4411
;segType:Loop
G1 X101.382 Y101.555 E2.4452 F2044
G1 X101.581 Y101.633 E2.4523
G1 X101.655 Y101.804 E2.4585
G1 X101.585 Y101.976 E2.4647
G1 X101.388 Y102.059 E2.4718
G1 X101.189 Y101.981 E2.4789
G1 X101.114 Y101.810 E2.4851
G1 X101.149 Y101.724 E2.4882
G0 F4800 E1.4882
G0 X101.377 Y102.194 F10800
G0 F4800 E2.4882
;segType:Perimeter
G1 X100.748 Y102.014 E2.5099 F1226
G1 X100.706 Y101.815 E2.5167
G1 X100.754 Y101.559 E2.5254
G1 X100.897 Y101.339 E2.5341
G1 X101.116 Y101.189 E2.5429
G1 X101.377 Y101.134 E2.5518
G1 X101.639 Y101.183 E2.5607
G1 X101.862 Y101.328 E2.5695
G1 X102.010 Y101.545 E2.5782
G1 X102.063 Y101.799 E2.5869
G1 X102.016 Y102.055 E2.5955
G1 X101.872 Y102.275 E2.6042
G1 X101.654 Y102.425 E2.6130
G1 X101.392 Y102.480 E2.6219
G1 X101.130 Y102.431 E2.6308
G1 X100.908 Y102.286 E2.6396
G1 X100.791 Y102.115 E2.6465
G1 X101.087 Y101.515
;segType:SoftSupport
G0 F4800 E1.6465
G0 X106.800 Y94.600 F10800
G0 F4800 E2.6465
G1 X101.400 Y94.600 E2.7273 F3066
G0 F4800 E1.7273
G0 X103.022 Y99.155 F10800
G0 X103.834 Y101.433
G0 F4800 E2.7273
;segType:Loop
G1 X103.939 Y101.474 E2.7310 F2044
G1 X104.009 Y101.635 E2.7368
G1 X103.943 Y101.797 E2.7427
G1 X103.756 Y101.876 E2.7494
G1 X103.566 Y101.802 E2.7562
G1 X103.496 Y101.641 E2.7620
G1 X103.562 Y101.479 E2.7679
G1 X103.562 Y101.479
;segType:Perimeter
G0 X103.609 Y102.010 F10800
G1 X103.098 Y101.591 E2.7898 F1226
G1 X103.134 Y101.396 E2.7964
G1 X103.274 Y101.180 E2.8050
G1 X103.488 Y101.033 E2.8136
G1 X103.744 Y100.979 E2.8223
G1 X104.001 Y101.027 E2.8310
G1 X104.219 Y101.168 E2.8396
G1 X104.364 Y101.380 E2.8482
G1 X104.418 Y101.629 E2.8566
G1 X104.371 Y101.880 E2.8651
G1 X104.231 Y102.095 E2.8737
G1 X104.017 Y102.242 E2.8823
G1 X103.761 Y102.297 E2.8910
G1 X103.504 Y102.249 E2.8997
G1 X103.286 Y102.107 E2.9083
G1 X103.141 Y101.896 E2.9169
G1 X103.099 Y101.701 E2.9235
G1 X103.599 Y101.268
;segType:Loop
G0 F4800 E1.9235
G0 X106.358 Y101.938 F10800
G0 F4800 E2.9235
G1 X106.264 Y101.977 E2.9269 F2044
G1 X106.084 Y101.907 E2.9333
G1 X106.017 Y101.756 E2.9388
G1 X106.079 Y101.604 E2.9442
G1 X106.256 Y101.528 E2.9506
G1 X106.436 Y101.599 E2.9571
G1 X106.503 Y101.750 E2.9626
G1 X106.476 Y101.816 E2.9649
G0 F4800 E1.9649
G0 X106.101 Y101.424 F10800
G0 F4800 E2.9649
;segType:Perimeter
G1 X106.748 Y101.338 E2.9866 F1226
G1 X106.859 Y101.499 E2.9931
G1 X106.911 Y101.744 E3.0014
G1 X106.866 Y101.989 E3.0097
G1 X106.730 Y102.200 E3.0181
G1 X106.520 Y102.344 E3.0265
G1 X106.270 Y102.398 E3.0351
G1 X106.018 Y102.352 E3.0436
G1 X105.804 Y102.214 E3.0520
G1 X105.661 Y102.006 E3.0604
G1 X105.609 Y101.762 E3.0687
G1 X105.654 Y101.517 E3.0770
G1 X105.791 Y101.306 E3.0854
G1 X106.000 Y101.161 E3.0938
G1 X106.250 Y101.108 E3.1023
G1 X106.503 Y101.154 E3.1109
G1 X106.670 Y101.263 E3.1175
G1 X106.625 Y101.935
;segType:SoftSupport
G0 F4800 E2.1175
G0 X108.050 Y103.535 F10800
G0 F4800 E3.1175
G1 X106.800 Y103.600 E3.1362 F3066
G1 X99.649 Y103.456 E3.2432
;segType:Loop
G0 F4800 E2.2432
G0 X98.585 Y102.550 F10800
G0 F4800 E3.2432
G1 X98.457 Y102.500 E3.2478 F2044
G1 X98.377 Y102.315 E3.2545
G1 X98.453 Y102.131 E3.2611
G1 X98.664 Y102.042 E3.2687
G1 X98.876 Y102.127 E3.2763
G1 X98.956 Y102.311 E3.2830
G1 X98.880 Y102.496 E3.2896
G1 X98.880 Y102.496
;segType:Perimeter
G0 X98.844 Y101.941 F10800
G1 X99.353 Y102.362 E3.3116 F1226
G1 X99.314 Y102.570 E3.3186
G1 X99.167 Y102.795 E3.3276
G1 X98.942 Y102.949 E3.3366
G1 X98.673 Y103.005 E3.3457
G1 X98.403 Y102.954 E3.3549
G1 X98.176 Y102.805 E3.3639
G1 X98.024 Y102.582 E3.3729
G1 X97.969 Y102.319 E3.3818
G1 X98.019 Y102.057 E3.3907
G1 X98.166 Y101.831 E3.3996
G1 X98.391 Y101.678 E3.4087
G1 X98.660 Y101.622 E3.4178
G1 X98.929 Y101.673 E3.4269
G1 X99.157 Y101.822 E3.4360
G1 X99.309 Y102.045 E3.4449
G1 X99.352 Y102.252 E3.4520
G1 X98.851 Y102.683
;segType:Loop
G0 F4800 E2.4520
G0 X98.688 Y100.103 F10800
G0 F4800 E3.4520
G1 X98.579 Y100.061 E3.4559 F2044
G1 X98.508 Y99.897 E3.4618
G1 X98.575 Y99.731 E3.4678
G1 X98.766 Y99.651 E3.4746
G1 X98.958 Y99.727 E3.4815
G1 X99.030 Y99.891 E3.4875
G1 X98.963 Y100.056 E3.4934
G1 X98.963 Y100.056
;segType:Perimeter
G0 X98.917 Y99.522 F10800
G1 X99.428 Y99.941 E3.5154 F1226
G1 X99.392 Y100.138 E3.5221
G1 X99.251 Y100.355 E3.5307
G1 X99.035 Y100.503 E3.5394
G1 X98.778 Y100.557 E3.5481
G1 X98.518 Y100.509 E3.5569
G1 X98.299 Y100.366 E3.5656
G1 X98.152 Y100.153 E3.5742
G1 X98.099 Y99.902 E3.5827
G1 X98.146 Y99.650 E3.5912
G1 X98.287 Y99.433 E3.5998
G1 X98.503 Y99.285 E3.6085
G1 X98.761 Y99.230 E3.6173
G1 X99.019 Y99.278 E3.6260
G1 X99.239 Y99.421 E3.6348
G1 X99.385 Y99.634 E3.6434
G1 X99.427 Y99.831 E3.6500
G1 X98.927 Y100.263
;segType:Loop
G0 F4800 E2.6500
G0 X96.585 Y99.238 F10800
G0 F4800 E3.6500
G1 X96.537 Y99.258 E3.6518 F2044
G1 X96.390 Y99.259 E3.6566
G1 X96.258 Y99.204 E3.6614
G1 X96.112 Y98.992 E3.6699
G1 X96.161 Y98.750 E3.6781
G1 X96.256 Y98.653 E3.6827
G1 X96.388 Y98.598 E3.6874
G1 X96.534 Y98.598 E3.6923
G1 X96.666 Y98.653 E3.6970
G1 X96.812 Y98.865 E3.7056
G1 X96.764 Y99.107 E3.7138
G1 X96.764 Y99.107
;segType:Perimeter
G0 X96.633 Y98.525 F10800
G1 X97.212 Y98.836 E3.7356 F1226
G1 X97.212 Y99.073 E3.7435
G1 X97.101 Y99.345 E3.7533
G1 X96.891 Y99.556 E3.7632
G1 X96.615 Y99.671 E3.7731
G1 X96.314 Y99.672 E3.7831
G1 X96.037 Y99.558 E3.7931
G1 X95.826 Y99.349 E3.8030
G1 X95.713 Y99.077 E3.8127
G1 X95.712 Y98.784 E3.8225
G1 X95.824 Y98.512 E3.8323
G1 X96.033 Y98.301 E3.8422
G1 X96.310 Y98.186 E3.8521
G1 X96.610 Y98.185 E3.8621
G1 X96.887 Y98.299 E3.8721
G1 X97.098 Y98.508 E3.8819
G1 X97.190 Y98.728 E3.8899
G1 X96.779 Y99.251
;segType:HShell
G0 F4800 E2.8899
G0 X96.370 Y103.261 F10800
G0 F4800 E3.8899
G1 X96.286 Y103.174 E3.8939 F2044
G1 X96.272 Y103.159
G1 X96.206 Y103.092 E3.8970
;segType:Loop
G0 X96.365 Y102.782 F10800
G1 X96.428 Y102.782 E3.8991 F2044
G1 X96.567 Y102.840 E3.9041
G1 X96.667 Y102.940 E3.9088
G1 X96.719 Y103.195 E3.9175
G1 X96.668 Y103.320 E3.9220
G1 X96.567 Y103.420 E3.9267
G1 X96.429 Y103.478 E3.9317
G1 X96.275 Y103.478 E3.9368
G1 X96.136 Y103.421 E3.9418
G1 X96.036 Y103.320 E3.9465
G1 X95.984 Y103.065 E3.9552
G1 X96.035 Y102.941 E3.9596
G1 X96.136 Y102.840 E3.9644
G1 X96.136 Y102.840
;segType:Perimeter
G0 X96.018 Y103.451 F10800
G1 X95.605 Y102.930 E3.9865 F1226
G1 X95.699 Y102.703 E3.9946
G1 X95.913 Y102.487 E4.0048
G1 X96.197 Y102.370 E4.0149
G1 X96.504 Y102.369 E4.0252
G1 X96.788 Y102.486 E4.0354
G1 X97.003 Y102.701 E4.0455
G1 X97.119 Y102.979 E4.0555
G1 X97.119 Y103.279 E4.0655
G1 X97.004 Y103.558 E4.0755
G1 X96.790 Y103.773 E4.0856
G1 X96.506 Y103.891 E4.0958
G1 X96.199 Y103.891 E4.1060
G1 X95.915 Y103.774 E4.1162
G1 X95.700 Y103.560 E4.1263
G1 X95.584 Y103.281 E4.1363
G1 X95.584 Y103.037 E4.1445
G1 X96.162 Y102.725
; ------------------------------------
; Layer #6
; ------------------------------------
G21 ; mm
G90 ; abs
G92 E0 ; reset extr
M106 S255
;segType:Loop
G0 F4800 E-1.0000
G0 F300 Z1.399
G0 X96.368 Y102.800 F10800
G0 F4800 E0.0000
G1 X96.423 Y102.800 E0.0018 F1837
G1 X96.556 Y102.854 E0.0066
G1 X96.701 Y103.067 E0.0152
G1 X96.653 Y103.309 E0.0234
G1 X96.557 Y103.405 E0.0279
G1 X96.426 Y103.460 E0.0326
G1 X96.280 Y103.461 E0.0375
G1 X96.147 Y103.406 E0.0422
G1 X96.002 Y103.193 E0.0508
G1 X96.050 Y102.952 E0.0590
G1 X96.145 Y102.856 E0.0635
G1 X96.145 Y102.856
;segType:Perimeter
G0 X96.037 Y103.455 F10800
G1 X95.623 Y102.934 E0.0856 F1102
G1 X95.713 Y102.714 E0.0935
G1 X95.922 Y102.503 E0.1034
G1 X96.199 Y102.388 E0.1134
G1 X96.499 Y102.387 E0.1234
G1 X96.777 Y102.501 E0.1333
G1 X96.987 Y102.710 E0.1432
G1 X97.101 Y102.981 E0.1530
G1 X97.102 Y103.274 E0.1627
G1 X96.990 Y103.547 E0.1725
G1 X96.780 Y103.757 E0.1824
G1 X96.504 Y103.873 E0.1923
G1 X96.204 Y103.874 E0.2023
G1 X95.926 Y103.760 E0.2123
G1 X95.716 Y103.551 E0.2222
G1 X95.602 Y103.279 E0.2320
G1 X95.601 Y103.042 E0.2398
G1 X96.179 Y102.728
G0 F4800 E-0.7602
G0 X99.043 Y103.476 F10800
G0 X107.983 Y103.395
G0 F4800 E0.2398
;segType:Support
G1 X106.800 Y103.600 E0.2737 F2756
G1 X101.400 Y103.600 E0.4263
;segType:Loop
G0 F4800 E-0.5737
G0 X98.585 Y102.527 F10800
G0 F4800 E0.4263
G1 X98.474 Y102.483 E0.4303 F1837
G1 X98.401 Y102.316 E0.4364
G1 X98.470 Y102.148 E0.4424
G1 X98.663 Y102.067 E0.4494
G1 X98.859 Y102.143 E0.4564
G1 X98.931 Y102.311 E0.4624
G1 X98.863 Y102.479 E0.4684
G1 X98.863 Y102.479
;segType:Perimeter
G0 X98.819 Y101.941 F10800
G1 X99.330 Y102.360 E0.4904 F1102
G1 X99.293 Y102.559 E0.4971
G1 X99.151 Y102.777 E0.5058
G1 X98.934 Y102.926 E0.5145
G1 X98.675 Y102.980 E0.5233
G1 X98.414 Y102.932 E0.5321
G1 X98.194 Y102.788 E0.5409
G1 X98.046 Y102.574 E0.5495
G1 X97.993 Y102.321 E0.5581
G1 X98.040 Y102.068 E0.5667
G1 X98.182 Y101.849 E0.5753
G1 X98.399 Y101.701 E0.5841
G1 X98.658 Y101.646 E0.5929
G1 X98.919 Y101.694 E0.6017
G1 X99.139 Y101.838 E0.6104
G1 X99.286 Y102.052 E0.6191
G1 X99.328 Y102.250 E0.6258
G1 X98.828 Y102.683
;segType:Loop
G0 F4800 E-0.3742
G0 X101.293 Y101.628 F10800
G0 F4800 E0.6258
G1 X101.381 Y101.591 E0.6290 F1837
G1 X101.555 Y101.659 E0.6352
G1 X101.619 Y101.804 E0.6404
G1 X101.560 Y101.950 E0.6457
G1 X101.389 Y102.023 E0.6519
G1 X101.215 Y101.955 E0.6581
G1 X101.151 Y101.810 E0.6633
G1 X101.151 Y101.810
;segType:Perimeter
G0 X101.412 Y102.180 F10800
G1 X100.782 Y102.003 E0.6851 F1102
G1 X100.742 Y101.817 E0.6914
G1 X100.787 Y101.575 E0.6996
G1 X100.921 Y101.367 E0.7078
G1 X101.127 Y101.224 E0.7162
G1 X101.375 Y101.171 E0.7246
G1 X101.623 Y101.216 E0.7330
G1 X101.834 Y101.352 E0.7413
G1 X101.975 Y101.556 E0.7496
G1 X102.027 Y101.797 E0.7578
G1 X101.983 Y102.039 E0.7659
G1 X101.848 Y102.248 E0.7742
G1 X101.642 Y102.390 E0.7825
G1 X101.395 Y102.443 E0.7909
G1 X101.146 Y102.398 E0.7993
G1 X100.935 Y102.262 E0.8077
G1 X100.826 Y102.103 E0.8141
G1 X101.119 Y101.502
;segType:Support
G0 F4800 E-0.1859
G0 X101.400 Y105.400 F10800
G0 F4800 E0.8141
G1 X103.200 Y105.400 E0.8649 F2756
G0 F4800 E-0.1351
G0 X103.517 Y103.434 F10800
G0 X103.833 Y101.469
G0 F4800 E0.8649
;segType:Loop
G1 X103.913 Y101.499 E0.8678 F1837
G1 X103.973 Y101.635 E0.8727
G1 X103.918 Y101.771 E0.8776
G1 X103.756 Y101.840 E0.8834
G1 X103.592 Y101.776 E0.8893
G1 X103.532 Y101.641 E0.8942
G1 X103.587 Y101.505 E0.8991
G1 X103.587 Y101.505
;segType:Perimeter
G0 X103.647 Y102.010 F10800
G1 X103.134 Y101.593 E0.9210 F1102
G1 X103.167 Y101.412 E0.9272
G1 X103.298 Y101.208 E0.9353
G1 X103.500 Y101.068 E0.9434
G1 X103.742 Y101.015 E0.9516
G1 X103.985 Y101.059 E0.9599
G1 X104.192 Y101.192 E0.9680
G1 X104.330 Y101.392 E0.9761
G1 X104.381 Y101.627 E0.9841
G1 X104.338 Y101.864 E0.9921
G1 X104.207 Y102.068 E1.0002
G1 X104.005 Y102.208 E1.0083
G1 X103.763 Y102.260 E1.0166
G1 X103.520 Y102.216 E1.0248
G1 X103.313 Y102.083 E1.0330
G1 X103.175 Y101.884 E1.0410
G1 X103.136 Y101.703 E1.0472
G1 X103.634 Y101.268
G0 F4800 E0.0472
G0 X106.680 Y100.662 F10800
G0 X107.752 Y101.965
G0 F4800 E1.0472
;segType:Support
G1 X107.652 Y101.948 E1.0500 F2756
;segType:Loop
G0 F4800 E0.0500
G0 X109.027 Y102.680 F10800
G0 F4800 E1.0500
G1 X108.939 Y102.645 E1.0532 F1837
G1 X108.875 Y102.501 E1.0584
G1 X108.934 Y102.356 E1.0637
G1 X109.104 Y102.283 E1.0698
G1 X109.277 Y102.351 E1.0760
G1 X109.341 Y102.495 E1.0812
G1 X109.282 Y102.640 E1.0864
G1 X109.282 Y102.640
;segType:Perimeter
G0 X109.227 Y102.126 F10800
G1 X109.739 Y102.543 E1.1084 F1102
G1 X109.705 Y102.730 E1.1147
G1 X109.571 Y102.938 E1.1229
G1 X109.365 Y103.080 E1.1313
G1 X109.118 Y103.133 E1.1396
G1 X108.870 Y103.088 E1.1480
G1 X108.659 Y102.952 E1.1564
G1 X108.519 Y102.748 E1.1646
G1 X108.467 Y102.508 E1.1728
G1 X108.511 Y102.266 E1.1809
G1 X108.645 Y102.058 E1.1892
G1 X108.851 Y101.916 E1.1975
G1 X109.098 Y101.863 E1.2059
G1 X109.346 Y101.908 E1.2143
G1 X109.557 Y102.044 E1.2226
G1 X109.698 Y102.248 E1.2308
G1 X109.738 Y102.433 E1.2371
G1 X109.239 Y102.867
;segType:Loop
G0 F4800 E0.2371
G0 X110.937 Y102.555 F10800
G0 F4800 E1.2371
G1 X111.089 Y102.617 E1.2426 F1837
G1 X111.178 Y102.825 E1.2501
G1 X111.092 Y103.035 E1.2577
G1 X110.857 Y103.132 E1.2661
G1 X110.620 Y103.037 E1.2746
G1 X110.531 Y102.829 E1.2821
G1 X110.617 Y102.619 E1.2897
G1 X110.617 Y102.619
;segType:Perimeter
G0 X110.641 Y103.198 F10800
G1 X110.133 Y102.776 E1.3116 F1102
G1 X110.176 Y102.555 E1.3191
G1 X110.332 Y102.319 E1.3285
G1 X110.568 Y102.159 E1.3380
G1 X110.850 Y102.101 E1.3476
G1 X111.133 Y102.155 E1.3572
G1 X111.371 Y102.313 E1.3667
G1 X111.530 Y102.547 E1.3761
G1 X111.587 Y102.823 E1.3854
G1 X111.534 Y103.099 E1.3948
G1 X111.378 Y103.335 E1.4042
G1 X111.141 Y103.495 E1.4137
G1 X110.859 Y103.553 E1.4232
G1 X110.576 Y103.498 E1.4328
G1 X110.338 Y103.341 E1.4423
G1 X110.179 Y103.107 E1.4517
G1 X110.134 Y102.886 E1.4592
G1 X110.637 Y102.457
;segType:Loop
G0 F4800 E0.4592
G0 X108.721 Y99.785 F10800
G0 F4800 E1.4592
G1 X108.824 Y99.825 E1.4629 F1837
G1 X108.893 Y99.984 E1.4686
G1 X108.828 Y100.144 E1.4744
G1 X108.643 Y100.222 E1.4810
G1 X108.456 Y100.148 E1.4877
G1 X108.386 Y99.990 E1.4935
G1 X108.451 Y99.830 E1.4992
G1 X108.451 Y99.830
;segType:Perimeter
G0 X108.500 Y100.359 F10800
G1 X107.988 Y99.940 E1.5212 F1102
G1 X108.024 Y99.746 E1.5277
G1 X108.163 Y99.532 E1.5362
G1 X108.376 Y99.386 E1.5448
G1 X108.631 Y99.331 E1.5535
G1 X108.887 Y99.379 E1.5621
G1 X109.104 Y99.519 E1.5707
G1 X109.249 Y99.730 E1.5792
G1 X109.301 Y99.978 E1.5877
G1 X109.255 Y100.227 E1.5961
G1 X109.116 Y100.442 E1.6046
G1 X108.903 Y100.588 E1.6132
G1 X108.649 Y100.642 E1.6218
G1 X108.393 Y100.595 E1.6305
G1 X108.176 Y100.454 E1.6391
G1 X108.031 Y100.243 E1.6476
G1 X107.990 Y100.050 E1.6541
G1 X108.490 Y99.618
;segType:Support
G0 F4800 E0.6541
G0 X108.600 Y98.200 F10800
G0 F4800 E1.6541
G1 X109.733 Y98.200 E1.6862 F2756
;segType:Loop
G0 F4800 E0.6862
G0 X110.825 Y99.622 F10800
G0 F4800 E1.6862
G1 X110.735 Y99.620 E1.6892 F1837
G1 X110.599 Y99.531 E1.6946
G1 X110.506 Y99.311 E1.7025
G1 X110.597 Y99.091 E1.7104
G1 X110.707 Y99.017 E1.7148
G1 X110.843 Y98.989 E1.7194
