; GCode generated by CraftWare

; filename = composition.3w 
; machine = daVinciF10 
; material = abs 
; extruder = 1 
M140 S90 ; Bed (no wait) 
M106 S255 ; Start fan 
G90 ; set absolute coordinates 
G28 ; home all axis 
M190 S90 ; Bed (wait) 
M104 S210 ; Extruder (no wait) 
M109 S210 ; Extruder (wait) 
M117 Start 
M117 Cleaning 
M100 ; Cleaning 
M117 Printing 
M109 S220 ;set head temp (wait)
M190 S75 ;set bed temp (wait)
; ------------------------------------
; Layer #0
; ------------------------------------
G21 ; mm
G90 ; abs
G92 E0 ; reset extr
M106 S0
;segType:Skirt
G1 F4800 E-1.0000
G1 F300 Z0.300
G1 X26.499 Y124.297 F10800
G1 F4800 E0.0000
G1 X30.441 Y128.183 E0.2761 F600
G1 X30.703 Y128.313 E0.2908
G1 X30.966 Y128.442 E0.3054
G1 X31.229 Y128.442 E0.3185
G1 X31.360 Y128.572 E0.3277
G1 X31.623 Y128.572 E0.3408
G1 X31.754 Y128.701 E0.3500
G1 X32.280 Y128.701 E0.3762
G1 X32.674 Y128.831 E0.3969
G1 X167.210 Y128.831 E7.1090
G1 X167.736 Y128.831 E7.1352
G1 X168.130 Y128.701 E7.1559
G1 X168.590 Y128.637 E7.1790
G1 X169.378 Y128.378 E7.2204
G1 X170.035 Y127.989 E7.2585
G1 X173.976 Y124.103 E7.5347
G1 X174.108 Y123.714 E7.5551
G1 X174.305 Y123.390 E7.5741
G1 X174.436 Y123.001 E7.5945
G1 X174.502 Y122.548 E7.6174
G1 X174.633 Y122.419 E7.6266
G1 X174.633 Y59.203 E10.7804
G1 X174.502 Y58.297 E10.8261
G1 X174.370 Y58.167 E10.8353
G1 X174.370 Y57.908 E10.8483
G1 X173.780 Y56.937 E10.9050
G1 X169.838 Y53.050 E11.1811
G1 X169.444 Y52.921 E11.2018
G1 X169.115 Y52.726 E11.2209
G1 X168.721 Y52.597 E11.2416
G1 X168.261 Y52.532 E11.2647
G1 X168.130 Y52.403 E11.2739
G1 X33.594 Y52.403 E17.9860
G1 X33.441 Y52.403 E17.9936
G1 F4800 E16.9936
G1 X164.867 Y57.094 F10800
G1 X167.496 Y57.188
G1 F4800 E17.9936
;segType:HShell
G1 X163.985 Y60.649 E18.2396 F600
G1 X164.275 Y60.913
G1 X167.898 Y57.341 E18.4934
;segType:Perimeter
G1 X167.216 Y57.016 F10800
G1 X167.831 Y56.665 E18.5287 F359
G1 X168.563 Y56.983 E18.5686
G1 X168.785 Y57.133 E18.5819
G1 X169.541 Y57.786 E18.6317
G1 X169.749 Y58.042 E18.6482
G1 X170.103 Y58.583 E18.6805
G1 X170.166 Y58.725 E18.6882
G1 X170.454 Y59.548 E18.7317
G1 X170.504 Y59.817 E18.7454
G1 X170.556 Y60.425 E18.7758
G1 X170.559 Y98.034 E20.6521
G1 X170.561 Y120.679 E21.7819
G1 X170.508 Y121.314 E21.8137
G1 X170.419 Y121.730 E21.8349
G1 X170.286 Y122.130 E21.8559
G1 X169.834 Y122.964 E21.9033
G1 X169.514 Y123.358 E21.9286
G1 X168.968 Y123.856 E21.9654
G1 X168.491 Y124.161 E21.9937
G1 X168.126 Y124.313 E22.0134
G1 X167.559 Y124.525 E22.0436
G1 X167.232 Y124.581 E22.0602
G1 X166.595 Y124.644 E22.0921
G1 X33.816 Y124.644 E28.7165
G1 X33.093 Y124.571 E28.7527
G1 X32.796 Y124.508 E28.7679
G1 X32.175 Y124.289 E28.8007
G1 X31.677 Y124.019 E28.8290
G1 X31.191 Y123.648 E28.8595
G1 X30.706 Y123.137 E28.8946
G1 X30.575 Y122.964 E28.9055
G1 X30.280 Y122.473 E28.9341
G1 X30.066 Y121.962 E28.9617
G1 X29.901 Y121.311 E28.9952
G1 X29.849 Y120.679 E29.0268
G1 X29.849 Y60.493 E32.0295
G1 X29.865 Y60.200 E32.0441
G1 X30.017 Y59.315 E32.0889
G1 X30.143 Y58.946 E32.1084
G1 X30.456 Y58.325 E32.1431
G1 X30.818 Y57.828 E32.1738
G1 X31.221 Y57.425 E32.2022
G1 X31.604 Y57.131 E32.2263
G1 X32.044 Y56.875 E32.2517
G1 X32.767 Y56.601 E32.2903
G1 X33.324 Y56.491 E32.3186
G1 X33.812 Y56.460 E32.3430
G1 X166.593 Y56.460 E38.9674
G1 X167.093 Y56.499 E38.9925
G1 X167.719 Y56.630 E39.0244
G1 X168.010 Y57.268
;segType:Loop
G1 X168.523 Y57.434 F10800
G1 X168.539 Y57.446 E39.0254 F600
G1 X169.251 Y58.060 E39.0723
G1 X169.425 Y58.273 E39.0860
G1 X169.750 Y58.770 E39.1156
G1 X170.066 Y59.648 E39.1622
G1 X170.107 Y59.869 E39.1734
G1 X170.156 Y60.441 E39.2020
G1 X170.159 Y98.034 E41.0775
G1 X170.161 Y120.663 E42.2065
G1 X170.112 Y121.257 E42.2362
G1 X170.032 Y121.628 E42.2552
G1 X169.917 Y121.975 E42.2734
G1 X169.499 Y122.746 E42.3172
G1 X169.220 Y123.088 E42.3392
G1 X168.722 Y123.543 E42.3729
G1 X168.303 Y123.812 E42.3977
G1 X167.453 Y124.143 E42.4432
G1 X167.178 Y124.190 E42.4571
G1 X166.574 Y124.250 E42.4874
G1 X33.836 Y124.250 E49.1097
G1 X33.156 Y124.181 E49.1438
G1 X32.906 Y124.128 E49.1566
G1 X32.340 Y123.928 E49.1865
G1 X31.897 Y123.688 E49.2116
G1 X31.462 Y123.356 E49.2390
G1 X31.014 Y122.883 E49.2714
G1 X30.908 Y122.744 E49.2801
G1 X30.639 Y122.296 E49.3062
G1 X30.447 Y121.838 E49.3310
G1 X30.297 Y121.246 E49.3615
G1 X30.249 Y120.663 E49.3907
G1 X30.249 Y60.504 E52.3920
G1 X30.263 Y60.244 E52.4050
G1 X30.407 Y59.411 E52.4472
G1 X30.513 Y59.097 E52.4637
G1 X30.799 Y58.529 E52.4954
G1 X31.125 Y58.083 E52.5230
G1 X31.488 Y57.721 E52.5486
G1 X31.829 Y57.458 E52.5701
G1 X32.219 Y57.232 E52.5925
G1 X32.879 Y56.981 E52.6278
G1 X33.376 Y56.883 E52.6531
G1 X33.825 Y56.855 E52.6755
G1 X166.577 Y56.855 E59.2985
G1 X167.036 Y56.890 E59.3215
G1 X167.653 Y57.019 E59.3530
G1 X168.359 Y57.326 E59.3914
G1 F4800 E58.3914
G1 X158.843 Y60.815 F10800
G1 X156.774 Y62.694
G1 X155.171 Y65.554
G1 X142.546 Y99.890
G1 X123.672 Y124.053
G1 F4800 E59.3914
;segType:HShell
G1 X162.159 Y86.106 E62.0878 F600
;segType:Perimeter
G1 X161.715 Y86.166 F10800
G1 X161.148 Y85.745 E62.1230 F359
G1 X158.940 Y85.120 E62.2375
G1 X156.929 Y83.291 E62.3731
G1 X155.353 Y80.477 E62.5340
G1 X154.347 Y76.951 E62.7170
G1 X154.001 Y73.052 E62.9122
G1 X154.347 Y69.154 E63.1075
G1 X155.353 Y65.628 E63.2904
G1 X156.929 Y62.814 E63.4513
G1 X158.940 Y60.985 E63.5869
G1 X161.204 Y60.344 E63.7044
G1 X163.469 Y60.985 E63.8218
G1 X165.480 Y62.814 E63.9574
G1 X167.056 Y65.628 E64.1183
G1 X168.062 Y69.154 E64.3012
G1 X168.408 Y73.052 E64.4965
G1 X168.062 Y76.951 E64.6917
G1 X167.056 Y80.477 E64.8747
G1 X165.480 Y83.291 E65.0356
G1 X163.469 Y85.120 E65.1712
G1 X161.261 Y85.745 E65.2857
G1 X160.694 Y86.166
;segType:Loop
G1 X160.051 Y85.845 F10800
G1 X158.738 Y85.473 E65.3537 F600
G1 X156.610 Y83.537 E65.4973
G1 X154.981 Y80.628 E65.6636
G1 X153.952 Y77.022 E65.8507
G1 X153.599 Y73.052 E66.0495
G1 X153.952 Y69.083 E66.2484
G1 X154.981 Y65.477 E66.4354
G1 X156.610 Y62.568 E66.6018
G1 X158.738 Y60.632 E66.7453
G1 X161.204 Y59.934 E66.8732
G1 X163.671 Y60.632 E67.0011
G1 X165.799 Y62.568 E67.1446
G1 X167.428 Y65.477 E67.3110
G1 X168.457 Y69.083 E67.4980
G1 X168.810 Y73.052 E67.6969
G1 X168.457 Y77.022 E67.8957
G1 X167.428 Y80.628 E68.0828
G1 X165.799 Y83.537 E68.2491
G1 X163.671 Y85.473 E68.3927
G1 X161.204 Y86.171 E68.5205
G1 X160.241 Y85.899 E68.5705
;segType:HShell
G1 X166.337 Y101.242 F10800
G1 X169.959 Y97.670 E68.8243 F600
G1 X169.959 Y97.120
G1 X166.042 Y100.982 E69.0987
;segType:Perimeter
G1 X165.783 Y101.620 E69.1337 F359
G1 X165.521 Y101.750 E69.1483
G1 X162.596 Y101.750 E69.2943
G1 X162.280 Y101.588 E69.3120
G1 X162.551 Y101.360 E69.3296
G1 X163.072 Y101.243 E69.3563
G1 X163.690 Y101.196 E69.3872
G1 X164.505 Y101.196 E69.4279
G1 X165.129 Y101.243 E69.4591
G1 X165.574 Y101.362 E69.4820
G1 X165.792 Y101.555 E69.4966
G1 X165.910 Y102.245
;segType:Loop
G1 X164.788 Y102.144 F10800
G1 X162.498 Y102.144 E69.6108 F600
G1 X161.568 Y101.667 E69.6630
G1 X162.366 Y100.997 E69.7150
G1 X163.011 Y100.852 E69.7480
G1 X163.675 Y100.802 E69.7812
G1 X164.520 Y100.802 E69.8234
G1 X165.197 Y100.853 E69.8572
G1 X165.770 Y101.006 E69.8868
G1 X166.540 Y101.686 E69.9380
G1 X165.616 Y102.144 E69.9895
G1 X164.985 Y102.144 E70.0209
;segType:HShell
G1 X147.107 Y124.053 F10800
G1 X167.405 Y104.040 E71.4430 F600
;segType:Perimeter
G1 X167.479 Y103.597 F10800
G1 X168.185 Y103.673 E71.4785 F359
G1 X168.388 Y103.858 E71.4922
G1 X168.492 Y104.098 E71.5052
G1 X168.641 Y104.709 E71.5366
G1 X168.697 Y105.383 E71.5704
G1 X168.697 Y114.545 E72.0274
G1 X168.652 Y115.163 E72.0583
G1 X168.512 Y115.773 E72.0896
G1 X168.391 Y116.081 E72.1061
G1 X168.146 Y116.315 E72.1230
G1 X168.005 Y116.010 E72.1397
G1 X168.005 Y103.936 E72.7421
G1 X168.117 Y103.686 E72.7558
G1 X168.736 Y103.343
;segType:Loop
G1 X168.994 Y104.470 F10800
G1 X169.037 Y104.646 E72.7648 F600
G1 X169.097 Y105.367 E72.8009
G1 X169.097 Y114.559 E73.2595
G1 X169.049 Y115.221 E73.2926
G1 X168.896 Y115.888 E73.3268
G1 X168.732 Y116.304 E73.3491
G1 X168.019 Y116.986 E73.3983
G1 X167.605 Y116.096 E73.4473
G1 X167.605 Y103.852 E74.0581
G1 X168.004 Y102.970 E74.1064
G1 X168.723 Y103.626 E74.1550
G1 X168.873 Y103.974 E74.1739
G1 X168.948 Y104.281 E74.1897
G1 X168.550 Y103.746 F10800
G1 X168.102 Y103.442
G1 X76.803 Y124.053
;segType:HShell
G1 X121.403 Y80.079 E77.3144 F600
;segType:Perimeter
G1 X121.406 Y79.621 F10800
G1 X122.062 Y79.353 E77.3498 F359
G1 X142.406 Y79.353 E78.3648
G1 X142.406 Y99.753 E79.3825
G1 X122.003 Y99.753 E80.4005
G1 X122.003 Y79.412 E81.4153
G1 X122.274 Y78.765
;segType:Loop
G1 X123.088 Y78.959 F10800
G1 X142.806 Y78.959 E82.3991 F600
G1 X142.806 Y100.147 E83.4562
G1 X121.602 Y100.147 E84.5140
G1 X121.602 Y78.959 E85.5711
G1 X122.890 Y78.959 E85.6354
;segType:HShell
G1 X121.622 Y78.762 F10800
G1 X143.641 Y57.052 E87.1781 F600
G1 X144.199 Y57.052
G1 X122.180 Y78.762 E88.7208
G1 X122.738 Y78.762
G1 X144.757 Y57.052 E90.2635
G1 X145.315 Y57.052
G1 X123.296 Y78.762 E91.8062
G1 X123.854 Y78.762
G1 X145.873 Y57.052 E93.3489
G1 X146.431 Y57.052
G1 X124.412 Y78.762 E94.8916
G1 X124.970 Y78.762
G1 X146.989 Y57.052 E96.4343
G1 X147.547 Y57.052
G1 X125.528 Y78.762 E97.9770
G1 X126.086 Y78.762
G1 X148.105 Y57.052 E99.5197
G1 X148.663 Y57.052
G1 X126.644 Y78.762 E101.0624
G1 X127.202 Y78.762
G1 X149.221 Y57.052 E102.6051
G1 X149.779 Y57.052
G1 X127.760 Y78.762 E104.1478
G1 X128.318 Y78.762
G1 X150.337 Y57.052 E105.6905
G1 X150.895 Y57.052
G1 X128.876 Y78.762 E107.2332
G1 X129.434 Y78.762
G1 X151.453 Y57.052 E108.7759
G1 X152.011 Y57.052
G1 X129.992 Y78.762 E110.3186
G1 X130.550 Y78.762
G1 X152.569 Y57.052 E111.8613
G1 X153.127 Y57.052
G1 X131.108 Y78.762 E113.4040
G1 X131.666 Y78.762
G1 X153.685 Y57.052 E114.9467
G1 X154.243 Y57.052
G1 X132.224 Y78.762 E116.4894
G1 X132.782 Y78.762
G1 X154.801 Y57.052 E118.0321
G1 X155.359 Y57.052
G1 X133.340 Y78.762 E119.5748
G1 X133.898 Y78.762
G1 X155.917 Y57.052 E121.1175
G1 X156.474 Y57.052
G1 X134.456 Y78.762 E122.6602
G1 X135.013 Y78.762
G1 X157.032 Y57.052 E124.2029
G1 X157.590 Y57.052
G1 X135.571 Y78.762 E125.7456
G1 X136.129 Y78.762
G1 X158.148 Y57.052 E127.2883
G1 X158.706 Y57.052
G1 X136.687 Y78.762 E128.8310
G1 X137.245 Y78.762
G1 X159.264 Y57.052 E130.3737
G1 X159.822 Y57.052
G1 X137.803 Y78.762 E131.9164
G1 X138.361 Y78.762
G1 X160.380 Y57.052 E133.4591
G1 X160.938 Y57.052
G1 X138.919 Y78.762 E135.0018
G1 X139.477 Y78.762
G1 X161.496 Y57.052 E136.5445
G1 X162.054 Y57.052
G1 X158.183 Y60.868 E136.8157
G1 X159.371 Y60.248 F10800
G1 X162.612 Y57.052 E137.0428 F600
G1 X163.170 Y57.052
G1 X160.153 Y60.026 E137.2541
G1 X160.936 Y59.805
G1 X163.728 Y57.052 E137.4498
G1 X164.286 Y57.052
G1 X161.489 Y59.809 E137.6457
G1 X161.923 Y59.932
G1 X164.844 Y57.052 E137.8504
G1 X165.402 Y57.052
G1 X162.356 Y60.055 E138.0638
G1 X162.790 Y60.177
G1 X165.960 Y57.052 E138.2859
G1 X166.518 Y57.052
G1 X163.223 Y60.300 E138.5167
G1 X163.657 Y60.423
G1 X167.035 Y57.092 E138.7534
G1 X168.283 Y57.512 F10800
G1 X164.565 Y61.177 E139.0139 F600
G1 X164.856 Y61.441
G1 X168.594 Y57.755 E139.2758
G1 X168.892 Y58.012
G1 X165.146 Y61.706 E139.5383
G1 X165.436 Y61.970
G1 X169.176 Y58.282 E139.8003
G1 X169.405 Y58.606
G1 X165.726 Y62.234 E140.0580
G1 X165.998 Y62.516
G1 X169.605 Y58.959 E140.3108
G1 X169.752 Y59.365
G1 X166.196 Y62.870 E140.5599
G1 X166.395 Y63.225
G1 X169.887 Y59.781 E140.8045
G1 X169.941 Y60.278
G1 X166.594 Y63.579 E141.0391
G1 X166.792 Y63.933
G1 X169.956 Y60.814 E141.2608
G1 X169.956 Y61.364
G1 X166.991 Y64.288 E141.4686
G1 X167.189 Y64.642
G1 X169.956 Y61.914 E141.6625
G1 X169.956 Y62.464
G1 X167.388 Y64.997 E141.8424
G1 X167.586 Y65.351
G1 X169.956 Y63.014 E142.0085
G1 X169.956 Y63.564
G1 X167.720 Y65.769 E142.1652
G1 X167.842 Y66.199
G1 X169.957 Y64.114 E142.3133
G1 X169.957 Y64.664
G1 X167.965 Y66.628 E142.4529
G1 X168.087 Y67.057
G1 X169.957 Y65.214 E142.5839
G1 X169.957 Y65.764
G1 X168.210 Y67.487 E142.7063
G1 X168.332 Y67.916
G1 X169.957 Y66.315 E142.8201
G1 X169.957 Y66.865
G1 X168.455 Y68.346 E142.9253
G1 X168.577 Y68.775
G1 X169.957 Y67.415 E143.0220
G1 X169.957 Y67.965
G1 X168.671 Y69.232 E143.1120
G1 X168.716 Y69.738
G1 X169.957 Y68.515 E143.1990
G1 X169.957 Y69.065
G1 X168.761 Y70.244 E143.2828
G1 X168.806 Y70.750
G1 X169.957 Y69.615 E143.3634
G1 X169.957 Y70.165
G1 X168.851 Y71.256 E143.4409
G1 X168.896 Y71.762
G1 X169.957 Y70.715 E143.5152
G1 X169.957 Y71.265
G1 X168.941 Y72.267 E143.5864
G1 X168.986 Y72.773
G1 X169.957 Y71.815 E143.6545
G1 X169.957 Y72.366
G1 X168.986 Y73.323 E143.7225
G1 X168.933 Y73.926
G1 X169.957 Y72.916 E143.7943
G1 X169.957 Y73.466
G1 X168.879 Y74.528 E143.8698
G1 X168.826 Y75.131
G1 X169.957 Y74.016 E143.9491
G1 X169.957 Y74.566
G1 X168.772 Y75.734 E144.0321
G1 X168.719 Y76.337
G1 X169.957 Y75.116 E144.1189
G1 X169.957 Y75.666
G1 X168.665 Y76.940 E144.2094
G1 X168.479 Y77.674
G1 X169.957 Y76.216 E144.3130
G1 X169.957 Y76.766
G1 X168.261 Y78.439 E144.4318
G1 X168.042 Y79.205
G1 X169.958 Y77.316 E144.5660
G1 X169.958 Y77.867
G1 X167.824 Y79.970 E144.7155
G1 X166.897 Y81.985 F10800
G1 X169.958 Y78.967 E144.9300 F600
G1 X169.958 Y78.417
G1 X167.585 Y80.756 E145.0962
G1 X164.536 Y84.414 F10800
G1 X162.941 Y85.885
G1 X124.230 Y124.053 E147.8083 F600
G1 X124.788 Y124.053
G1 X163.724 Y85.664 E150.5362
G1 X166.208 Y83.214 F10800
G1 X169.958 Y79.517 E150.7989 F600
G1 X169.958 Y80.067
G1 X125.346 Y124.053 E153.9245
G1 X125.904 Y124.053
G1 X169.958 Y80.617 E157.0110
G1 X169.958 Y81.167
G1 X126.462 Y124.053 E160.0584
G1 X127.020 Y124.053
G1 X169.958 Y81.717 E163.0667
G1 X169.958 Y82.267
G1 X127.578 Y124.053 E166.0360
G1 X128.136 Y124.053
G1 X169.958 Y82.817 E168.9661
G1 X169.958 Y83.368
G1 X128.694 Y124.053 E171.8572
G1 X129.252 Y124.053
G1 X169.958 Y83.918 E174.7091
G1 X169.958 Y84.468
G1 X129.810 Y124.053 E177.5220
G1 X130.368 Y124.053
G1 X169.958 Y85.018 E180.2958
G1 X169.958 Y85.568
G1 X130.926 Y124.053 E183.0305
G1 X131.484 Y124.053
G1 X169.958 Y86.118 E185.7261
G1 X169.958 Y86.668
G1 X132.042 Y124.053 E188.3826
G1 X132.600 Y124.053
G1 X169.958 Y87.218 E191.0000
G1 X169.958 Y87.768
G1 X133.158 Y124.053 E193.5784
G1 X133.716 Y124.053
G1 X169.958 Y88.318 E196.1176
G1 X169.958 Y88.869
G1 X134.274 Y124.053 E198.6178
G1 X134.832 Y124.053
G1 X169.958 Y89.419 E201.0788
G1 X169.959 Y89.969
G1 X135.390 Y124.053 E203.5008
G1 X135.948 Y124.053
G1 X169.959 Y90.519 E205.8837
G1 X169.959 Y91.069
G1 X136.506 Y124.053 E208.2275
G1 X137.064 Y124.053
G1 X169.959 Y91.619 E210.5322
G1 X169.959 Y92.169
G1 X137.621 Y124.053 E212.7978
G1 X138.179 Y124.053
G1 X169.959 Y92.719 E215.0244
G1 X169.959 Y93.269
G1 X162.314 Y100.807 E215.5599
G1 X163.028 Y100.653
G1 X169.959 Y93.819 E216.0455
G1 X169.959 Y94.370
G1 X163.632 Y100.607 E216.4888
G1 X164.193 Y100.605
G1 X169.959 Y94.920 E216.8927
G1 X169.959 Y95.470
G1 X164.735 Y100.620 E217.2587
G1 X165.250 Y100.663
G1 X169.959 Y96.020 E217.5886
G1 X169.959 Y96.570
G1 X165.689 Y100.780 E217.8878
G1 X162.462 Y101.186 F10800
G1 X161.336 Y101.771
G1 X138.737 Y124.053 E219.4711 F600
G1 X139.295 Y124.053
G1 X161.703 Y101.959 E221.0411
G1 X162.071 Y102.147
G1 X139.853 Y124.053 E222.5977
G1 X140.411 Y124.053
G1 X162.438 Y102.335 E224.1409
G1 X162.990 Y102.341
G1 X140.969 Y124.053 E225.6837
G1 X141.527 Y124.053
G1 X163.548 Y102.341 E227.2265
G1 X164.106 Y102.341
G1 X142.085 Y124.053 E228.7693
G1 X142.643 Y124.053
G1 X164.664 Y102.341 E230.3121
G1 X165.222 Y102.341
G1 X143.201 Y124.053 E231.8549
G1 X143.759 Y124.053
G1 X165.897 Y102.226 E233.4059
G1 X166.631 Y101.502 F10800
G1 X169.959 Y98.220 E233.6391 F600
G1 X169.959 Y98.770
G1 X144.317 Y124.053 E235.4357
G1 X144.875 Y124.053
G1 X169.959 Y99.320 E237.1931
G1 X169.959 Y99.870
G1 X145.433 Y124.053 E238.9115
G1 X145.991 Y124.053
G1 X169.959 Y100.421 E240.5908
G1 X169.959 Y100.971
G1 X168.108 Y102.796 E240.7205
G1 X168.398 Y103.061
G1 X169.960 Y101.521 E240.8299
G1 X169.960 Y102.071
G1 X168.688 Y103.325 E240.9190
G1 X168.940 Y103.626
G1 X169.960 Y102.621 E240.9904
G1 X169.960 Y103.171
G1 X169.092 Y104.026 E241.0512
G1 X169.200 Y104.470
G1 X169.960 Y103.721 E241.1044
G1 X169.960 Y104.271
G1 X169.264 Y104.957 E241.1532
G1 X169.297 Y105.474
G1 X169.960 Y104.821 E241.1996
G1 X169.960 Y105.372
G1 X169.297 Y106.025 E241.2460
G1 X169.297 Y106.575
G1 X169.960 Y105.922 E241.2924
G1 X169.960 Y106.472
G1 X169.297 Y107.125 E241.3388
G1 X169.297 Y107.675
G1 X169.960 Y107.022 E241.3852
G1 X169.960 Y107.572
G1 X169.297 Y108.225 E241.4316
G1 X169.297 Y108.775
G1 X169.960 Y108.122 E241.4781
G1 X169.960 Y108.672
G1 X169.297 Y109.325 E241.5245
G1 X169.297 Y109.876
G1 X169.960 Y109.222 E241.5709
G1 X169.960 Y109.772
G1 X169.297 Y110.426 E241.6173
G1 X169.297 Y110.976
G1 X169.960 Y110.323 E241.6638
G1 X169.960 Y110.873
G1 X169.297 Y111.526 E241.7102
G1 X169.297 Y112.076
G1 X169.960 Y111.423 E241.7566
G1 X169.960 Y111.973
G1 X169.297 Y112.626 E241.8031
G1 X169.297 Y113.176
G1 X169.960 Y112.523 E241.8495
G1 X169.960 Y113.073
G1 X169.297 Y113.727 E241.8959
G1 X169.297 Y114.277
G1 X169.960 Y113.623 E241.9424
G1 X169.960 Y114.173
G1 X169.277 Y114.847 E241.9903
G1 X169.195 Y115.478
G1 X169.960 Y114.723 E242.0439
G1 X169.960 Y115.273
G1 X168.967 Y116.253 E242.1135
G1 X168.110 Y116.506 F10800
G1 X167.812 Y116.051
G1 X167.666 Y103.232
G1 X146.549 Y124.053 E243.5930 F600
G1 X169.496 Y122.333 F10800
G1 X168.152 Y123.659 E243.6872 F600
G1 X167.405 Y104.590 F10800
G1 X147.665 Y124.053 E245.0702 F600
G1 X148.223 Y124.053
G1 X167.405 Y105.140 E246.4141
G1 X167.405 Y105.690
G1 X148.781 Y124.053 E247.7190
G1 X149.339 Y124.053
G1 X167.405 Y106.240 E248.9847
G1 X167.405 Y106.791
G1 X149.897 Y124.053 E250.2113
G1 X150.455 Y124.053
G1 X167.405 Y107.341 E251.3989
G1 X167.405 Y107.891
G1 X151.013 Y124.053 E252.5473
G1 X151.571 Y124.053
G1 X167.405 Y108.441 E253.6567
G1 X167.405 Y108.991
G1 X152.129 Y124.053 E254.7270
G1 X152.687 Y124.053
G1 X167.405 Y109.541 E255.7581
G1 X167.405 Y110.091
G1 X153.245 Y124.053 E256.7502
G1 X153.803 Y124.053
G1 X167.405 Y110.642 E257.7032
G1 X167.405 Y111.192
G1 X154.361 Y124.053 E258.6171
G1 X154.919 Y124.053
G1 X167.405 Y111.742 E259.4920
G1 X167.405 Y112.292
G1 X155.476 Y124.053 E260.3277
G1 X156.034 Y124.053
G1 X167.405 Y112.842 E261.1243
G1 X167.405 Y113.392
G1 X156.592 Y124.053 E261.8818
G1 X157.150 Y124.053
G1 X167.405 Y113.942 E262.6003
G1 X167.405 Y114.493
G1 X157.708 Y124.053 E263.2796
G1 X158.266 Y124.053
G1 X167.405 Y115.043 E263.9199
G1 X167.405 Y115.593
G1 X158.824 Y124.053 E264.5211
G1 X159.382 Y124.053
G1 X167.406 Y116.142 E265.0832
G1 X167.581 Y116.519
G1 X159.940 Y124.053 E265.6186
G1 X160.498 Y124.053
G1 X167.757 Y116.896 E266.1271
G1 X167.932 Y117.273
G1 X161.056 Y124.053 E266.6089
G1 X161.614 Y124.053
G1 X169.960 Y115.824 E267.1936
G1 X169.960 Y116.374
G1 X162.172 Y124.053 E267.7393
G1 X162.730 Y124.053
G1 X169.960 Y116.924 E268.2459
G1 X169.960 Y117.474
G1 X163.288 Y124.053 E268.7134
G1 X163.846 Y124.053
G1 X169.961 Y118.024 E269.1418
G1 X169.961 Y118.574
G1 X164.404 Y124.053 E269.5311
G1 X164.962 Y124.053
G1 X169.961 Y119.124 E269.8813
G1 X169.961 Y119.674
G1 X165.520 Y124.053 E270.1924
G1 X166.078 Y124.053
G1 X169.961 Y120.224 E270.4645
G1 X169.950 Y120.785
G1 X166.644 Y124.045 E270.6961
G1 X167.274 Y123.974
G1 X169.874 Y121.410 E270.8782
G1 X143.006 Y100.039 F10800
G1 X158.098 Y85.159 E271.9356 F600
G1 X157.808 Y84.895
G1 X143.006 Y99.488 E272.9726
G1 X143.006 Y98.938
G1 X157.517 Y84.631 E273.9893
G1 X157.227 Y84.367
G1 X143.006 Y98.388 E274.9856
G1 X143.006 Y97.838
G1 X156.937 Y84.103 E275.9616
G1 X156.647 Y83.839
G1 X143.006 Y97.288 E276.9173
G1 X143.006 Y96.738
G1 X156.386 Y83.545 E277.8547
G1 X156.188 Y83.191
G1 X143.006 Y96.188 E278.7783
G1 X143.006 Y95.637
G1 X155.989 Y82.837 E279.6879
G1 X155.791 Y82.482
G1 X143.006 Y95.087 E280.5836
G1 X143.006 Y94.537
G1 X155.592 Y82.128 E281.4654
G1 X155.394 Y81.773
G1 X143.006 Y93.987 E282.3333
G1 X143.006 Y93.437
G1 X155.195 Y81.419 E283.1873
G1 X154.997 Y81.065
G1 X143.006 Y92.887 E284.0274
G1 X143.006 Y92.337
G1 X154.798 Y80.710 E284.8535
G1 X154.674 Y80.282
G1 X143.006 Y91.786 E285.6710
G1 X143.006 Y91.236
G1 X154.552 Y79.853 E286.4799
G1 X154.429 Y79.424
G1 X143.006 Y90.686 E287.2802
G1 X143.006 Y90.136
G1 X154.307 Y78.994 E288.0719
G1 X154.184 Y78.565
G1 X143.006 Y89.586 E288.8551
G1 X143.006 Y89.036
G1 X154.062 Y78.136 E289.6297
G1 X153.939 Y77.706
G1 X143.006 Y88.486 E290.3956
G1 X143.006 Y87.935
G1 X153.817 Y77.277 E291.1530
G1 X153.732 Y76.810
G1 X143.006 Y87.385 E291.9045
G1 X143.006 Y86.835
G1 X153.687 Y76.304 E292.6528
G1 X153.642 Y75.798
G1 X143.006 Y86.285 E293.3980
G1 X143.006 Y85.735
G1 X153.597 Y75.292 E294.1400
G1 X153.552 Y74.787
G1 X143.006 Y85.185 E294.8789
G1 X143.006 Y84.635
G1 X153.508 Y74.281 E295.6146
G1 X153.463 Y73.775
G1 X143.006 Y84.084 E296.3472
G1 X143.006 Y83.534
G1 X153.418 Y73.269 E297.0766
G1 X153.429 Y72.708
G1 X143.006 Y82.984 E297.8069
G1 X143.006 Y82.434
G1 X153.483 Y72.105 E298.5408
G1 X153.536 Y71.502
G1 X143.006 Y81.884 E299.2786
G1 X143.006 Y81.334
G1 X153.590 Y70.899 E300.0201
G1 X153.643 Y70.296
G1 X143.006 Y80.784 E300.7653
G1 X143.006 Y80.233
G1 X153.697 Y69.693 E301.5143
G1 X153.750 Y69.090
G1 X143.006 Y79.683 E302.2670
G1 X143.006 Y79.133
G1 X153.957 Y68.336 E303.0343
G1 X154.175 Y67.571
G1 X142.825 Y78.762 E303.8295
G1 X142.267 Y78.762
G1 X154.394 Y66.805 E304.6791
G1 X154.910 Y65.196 F10800
G1 X141.151 Y78.762 E305.6431 F600
G1 X141.709 Y78.762
G1 X154.612 Y66.040 E306.5471
G1 X155.598 Y63.968 F10800
G1 X140.593 Y78.762 E307.5984 F600
G1 X140.035 Y78.762
G1 X156.286 Y62.739 E308.7369
G1 X32.151 Y57.500 F10800
G1 X30.939 Y58.695 E308.8218 F600
G1 X30.576 Y59.602 F10800
G1 X33.069 Y57.145 E308.9964 F600
G1 X33.714 Y57.059
G1 X30.462 Y60.265 E309.2243
G1 X30.449 Y60.828
G1 X34.279 Y57.052 E309.4926
G1 X34.837 Y57.052
G1 X30.449 Y61.378 E309.8000
G1 X30.449 Y61.928
G1 X35.395 Y57.052 E310.1466
G1 X35.953 Y57.052
G1 X30.449 Y62.479 E310.5322
G1 X30.449 Y63.029
G1 X36.511 Y57.052 E310.9569
G1 X37.069 Y57.052
G1 X30.449 Y63.579 E311.4207
G1 X30.449 Y64.129
G1 X37.627 Y57.052 E311.9236
G1 X38.185 Y57.052
G1 X30.449 Y64.679 E312.4656
G1 X30.449 Y65.229
G1 X38.743 Y57.052 E313.0467
G1 X39.301 Y57.052
G1 X30.449 Y65.779 E313.6669
G1 X30.449 Y66.330
G1 X39.859 Y57.052 E314.3261
G1 X40.417 Y57.052
G1 X30.449 Y66.880 E315.0245
G1 X30.449 Y67.430
G1 X40.975 Y57.052 E315.7619
G1 X41.533 Y57.052
G1 X30.449 Y67.980 E316.5385
G1 X30.449 Y68.530
G1 X42.091 Y57.052 E317.3541
G1 X42.649 Y57.052
G1 X30.449 Y69.080 E318.2089
G1 X30.449 Y69.630
G1 X43.207 Y57.052 E319.1027
G1 X43.765 Y57.052
G1 X30.449 Y70.181 E320.0356
G1 X30.449 Y70.731
G1 X44.323 Y57.052 E321.0076
G1 X44.881 Y57.052
G1 X30.449 Y71.281 E322.0188
G1 X30.449 Y71.831
G1 X45.439 Y57.052 E323.0690
G1 X45.997 Y57.052
G1 X30.449 Y72.381 E324.1582
G1 X30.449 Y72.931
G1 X46.555 Y57.052 E325.2866
G1 X47.113 Y57.052
G1 X30.449 Y73.481 E326.4541
G1 X30.449 Y74.032
G1 X47.671 Y57.052 E327.6607
G1 X48.229 Y57.052
G1 X30.449 Y74.582 E328.9064
G1 X30.449 Y75.132
G1 X48.786 Y57.052 E330.1911
G1 X49.344 Y57.052
G1 X30.449 Y75.682 E331.5150
G1 X30.449 Y76.232
G1 X49.902 Y57.052 E332.8779
G1 X50.460 Y57.052
G1 X30.449 Y76.782 E334.2800
G1 X30.449 Y77.332
G1 X51.018 Y57.052 E335.7211
G1 X51.576 Y57.052
G1 X30.449 Y77.883 E337.2013
G1 X30.449 Y78.433
G1 X52.134 Y57.052 E338.7206
G1 X52.692 Y57.052
G1 X30.449 Y78.983 E340.2790
G1 X30.449 Y79.533
G1 X53.250 Y57.052 E341.8765
G1 X53.808 Y57.052
G1 X30.449 Y80.083 E343.5131
G1 X30.449 Y80.633
G1 X54.366 Y57.052 E345.1888
G1 X54.924 Y57.052
G1 X30.449 Y81.183 E346.9036
G1 X30.449 Y81.734
G1 X55.482 Y57.052 E348.6575
G1 X56.040 Y57.052
G1 X30.449 Y82.284 E350.4505
G1 X30.449 Y82.834
G1 X56.598 Y57.052 E352.2825
G1 X57.156 Y57.052
G1 X30.449 Y83.384 E354.1537
G1 X30.449 Y83.934
G1 X57.714 Y57.052 E356.0639
G1 X58.272 Y57.052
G1 X30.449 Y84.484 E358.0133
G1 X30.449 Y85.034
G1 X58.830 Y57.052 E360.0017
G1 X59.388 Y57.052
G1 X30.449 Y85.585 E362.0292
G1 X30.449 Y86.135
G1 X59.946 Y57.052 E364.0958
G1 X60.504 Y57.052
G1 X30.449 Y86.685 E366.2016
G1 X30.449 Y87.235
G1 X61.062 Y57.052 E368.3464
G1 X61.620 Y57.052
G1 X30.449 Y87.785 E370.5303
G1 X30.449 Y88.335
G1 X62.178 Y57.052 E372.7532
G1 X62.736 Y57.052
G1 X30.449 Y88.885 E375.0153
G1 X30.449 Y89.436
G1 X63.294 Y57.052 E377.3165
G1 X63.852 Y57.052
G1 X30.449 Y89.986 E379.6568
G1 X30.449 Y90.536
G1 X64.410 Y57.052 E382.0361
G1 X64.968 Y57.052
G1 X30.449 Y91.086 E384.4546
G1 X30.449 Y91.636
G1 X65.526 Y57.052 E386.9122
G1 X66.084 Y57.052
G1 X30.449 Y92.186 E389.4088
G1 X30.449 Y92.736
G1 X66.641 Y57.052 E391.9445
G1 X67.199 Y57.052
G1 X30.449 Y93.287 E394.5193
G1 X30.449 Y93.837
G1 X67.757 Y57.052 E397.1332
G1 X68.315 Y57.052
G1 X30.449 Y94.387 E399.7861
G1 X30.449 Y94.937
G1 X68.873 Y57.052 E402.4782
G1 X69.431 Y57.052
G1 X30.449 Y95.487 E405.2094
G1 X30.449 Y96.037
G1 X69.989 Y57.052 E407.9797
G1 X70.547 Y57.052
G1 X30.449 Y96.587 E410.7890
G1 X30.449 Y97.138
G1 X71.105 Y57.052 E413.6375
G1 X71.663 Y57.052
G1 X30.449 Y97.688 E416.5250
G1 X30.449 Y98.238
G1 X72.221 Y57.052 E419.4517
G1 X72.779 Y57.052
G1 X30.449 Y98.788 E422.4174
G1 X30.449 Y99.338
G1 X73.337 Y57.052 E425.4222
G1 X73.895 Y57.052
G1 X30.449 Y99.888 E428.4661
G1 X30.449 Y100.438
G1 X74.453 Y57.052 E431.5491
G1 X75.011 Y57.052
G1 X30.449 Y100.989 E434.6712
G1 X30.449 Y101.539
G1 X75.569 Y57.052 E437.8324
G1 X76.127 Y57.052
G1 X30.449 Y102.089 E441.0327
G1 X30.449 Y102.639
G1 X76.685 Y57.052 E444.2721
G1 X77.243 Y57.052
G1 X30.449 Y103.189 E447.5506
G1 X30.449 Y103.739
G1 X77.801 Y57.052 E450.8681
G1 X78.359 Y57.052
G1 X30.449 Y104.289 E454.2248
G1 X30.449 Y104.840
G1 X78.917 Y57.052 E457.6205
G1 X79.475 Y57.052
G1 X30.449 Y105.390 E461.0554
G1 X30.449 Y105.940
G1 X80.033 Y57.052 E464.5293
G1 X80.591 Y57.052
G1 X30.449 Y106.490 E468.0424
G1 X30.449 Y107.040
G1 X81.149 Y57.052 E471.5945
G1 X81.707 Y57.052
G1 X30.449 Y107.590 E475.1857
G1 X30.449 Y108.140
G1 X82.265 Y57.052 E478.8160
G1 X82.823 Y57.052
G1 X30.449 Y108.691 E482.4854
G1 X30.449 Y109.241
G1 X83.381 Y57.052 E486.1939
G1 X83.939 Y57.052
G1 X30.449 Y109.791 E489.9415
G1 X30.449 Y110.341
G1 X84.496 Y57.052 E493.7282
G1 X85.054 Y57.052
G1 X30.449 Y110.891 E497.5539
G1 X30.449 Y111.441
G1 X85.612 Y57.052 E501.4188
G1 X86.170 Y57.052
G1 X30.449 Y111.991 E505.3228
G1 X30.449 Y112.542
G1 X86.728 Y57.052 E509.2658
G1 X87.286 Y57.052
G1 X30.449 Y113.092 E513.2479
G1 X30.449 Y113.642
G1 X87.844 Y57.052 E517.2692
G1 X88.402 Y57.052
G1 X30.449 Y114.192 E521.3295
G1 X30.449 Y114.742
G1 X88.960 Y57.052 E525.4289
G1 X89.518 Y57.052
G1 X30.449 Y115.292 E529.5674
G1 X30.449 Y115.842
G1 X90.076 Y57.052 E533.7450
G1 X90.634 Y57.052
G1 X30.449 Y116.393 E537.9617
G1 X30.449 Y116.943
G1 X91.192 Y57.052 E542.2175
G1 X91.750 Y57.052
G1 X30.449 Y117.493 E546.5124
G1 X30.449 Y118.043
G1 X92.308 Y57.052 E550.8463
G1 X92.866 Y57.052
G1 X30.449 Y118.593 E555.2194
G1 X30.449 Y119.143
G1 X93.424 Y57.052 E559.6316
G1 X93.982 Y57.052
G1 X30.449 Y119.693 E564.0828
G1 X30.449 Y120.244
G1 X94.540 Y57.052 E568.5731
G1 X95.098 Y57.052
G1 X30.460 Y120.783 E573.1018
G1 X30.512 Y121.281
G1 X95.656 Y57.052 E577.6659
G1 X96.214 Y57.052
G1 X30.624 Y121.722 E582.2613
G1 X30.780 Y122.117
G1 X96.772 Y57.052 E586.8849
G1 X97.330 Y57.052
G1 X30.978 Y122.473 E591.5337
G1 X31.206 Y122.798
G1 X97.888 Y57.052 E596.2055
G1 X98.446 Y57.052
G1 X31.476 Y123.082 E600.8976
G1 X31.770 Y123.342
G1 X99.004 Y57.052 E605.6081
G1 X99.562 Y57.052
G1 X32.096 Y123.571 E610.3349
G1 X32.461 Y123.761
G1 X100.120 Y57.052 E615.0752
G1 X100.678 Y57.052
G1 X32.872 Y123.906 E619.8258
G1 X33.334 Y124.000
G1 X101.236 Y57.052 E624.5831
G1 X101.794 Y57.052
G1 X33.840 Y124.052 E629.3441
G1 X34.397 Y124.053
G1 X102.351 Y57.052 E634.1051
G1 X102.909 Y57.052
G1 X34.955 Y124.053 E638.8662
G1 X35.513 Y124.053
G1 X103.467 Y57.052 E643.6272
G1 X104.025 Y57.052
G1 X36.071 Y124.053 E648.3883
G1 X36.629 Y124.053
G1 X104.583 Y57.052 E653.1493
G1 X105.141 Y57.052
G1 X37.187 Y124.053 E657.9104
G1 X37.745 Y124.053
G1 X105.699 Y57.052 E662.6714
G1 X106.257 Y57.052
G1 X38.303 Y124.053 E667.4325
G1 X38.861 Y124.053
G1 X106.815 Y57.052 E672.1935
G1 X107.373 Y57.052
G1 X39.419 Y124.053 E676.9546
G1 X39.977 Y124.053
G1 X107.931 Y57.052 E681.7156
G1 X108.489 Y57.052
G1 X40.535 Y124.053 E686.4766
G1 X41.093 Y124.053
G1 X109.047 Y57.052 E691.2377
G1 X109.605 Y57.052
G1 X41.651 Y124.053 E695.9987
G1 X42.209 Y124.053
G1 X110.163 Y57.052 E700.7598
G1 X110.721 Y57.052
G1 X42.767 Y124.053 E705.5208
G1 X43.325 Y124.053
G1 X111.279 Y57.052 E710.2819
G1 X111.837 Y57.052
G1 X43.883 Y124.053 E715.0429
G1 X44.441 Y124.053
G1 X112.395 Y57.052 E719.8040
G1 X112.953 Y57.052
G1 X44.999 Y124.053 E724.5650
G1 X45.557 Y124.053
G1 X113.511 Y57.052 E729.3261
G1 X114.069 Y57.052
G1 X46.115 Y124.053 E734.0871
G1 X46.673 Y124.053
G1 X114.627 Y57.052 E738.8482
G1 X115.185 Y57.052
G1 X47.231 Y124.053 E743.6092
G1 X47.788 Y124.053
G1 X115.743 Y57.052 E748.3703
G1 X116.301 Y57.052
G1 X48.346 Y124.053 E753.1313
G1 X48.904 Y124.053
G1 X116.859 Y57.052 E757.8924
G1 X117.417 Y57.052
G1 X49.462 Y124.053 E762.6534
G1 X50.020 Y124.053
G1 X117.975 Y57.052 E767.4145
G1 X118.533 Y57.052
G1 X50.578 Y124.053 E772.1755
G1 X51.136 Y124.053
G1 X119.091 Y57.052 E776.9365
G1 X119.649 Y57.052
G1 X51.694 Y124.053 E781.6976
G1 X52.252 Y124.053
G1 X120.207 Y57.052 E786.4586
G1 X120.764 Y57.052
G1 X52.810 Y124.053 E791.2197
G1 X53.368 Y124.053
G1 X121.322 Y57.052 E795.9807
G1 X121.880 Y57.052
G1 X53.926 Y124.053 E800.7418
G1 X54.484 Y124.053
G1 X122.438 Y57.052 E805.5028
G1 X122.996 Y57.052
G1 X55.042 Y124.053 E810.2639
G1 X55.600 Y124.053
G1 X123.554 Y57.052 E815.0249
G1 X124.112 Y57.052
G1 X56.158 Y124.053 E819.7860
G1 X56.716 Y124.053
G1 X124.670 Y57.052 E824.5470
G1 X125.228 Y57.052
G1 X57.274 Y124.053 E829.3081
G1 X57.832 Y124.053
G1 X125.786 Y57.052 E834.0691
G1 X126.344 Y57.052
G1 X58.390 Y124.053 E838.8302
G1 X58.948 Y124.053
G1 X126.902 Y57.052 E843.5912
G1 X127.460 Y57.052
G1 X59.506 Y124.053 E848.3522
G1 X60.064 Y124.053
G1 X128.018 Y57.052 E853.1134
G1 X128.576 Y57.052
G1 X60.622 Y124.053 E857.8744
G1 X61.180 Y124.053
G1 X129.134 Y57.052 E862.6354
G1 X129.692 Y57.052
G1 X61.738 Y124.053 E867.3964
G1 X62.296 Y124.053
G1 X130.250 Y57.052 E872.1576
G1 X130.808 Y57.052
G1 X62.854 Y124.053 E876.9186
G1 X63.412 Y124.053
G1 X131.366 Y57.052 E881.6796
G1 X131.924 Y57.052
G1 X63.970 Y124.053 E886.4406
G1 X64.528 Y124.053
G1 X132.482 Y57.052 E891.2018
G1 X133.040 Y57.052
G1 X65.086 Y124.053 E895.9628
G1 X65.643 Y124.053
G1 X133.598 Y57.052 E900.7238
G1 X134.156 Y57.052
G1 X66.201 Y124.053 E905.4848
G1 X66.759 Y124.053
G1 X134.714 Y57.052 E910.2458
G1 X135.272 Y57.052
G1 X67.317 Y124.053 E915.0070
G1 X67.875 Y124.053
G1 X135.830 Y57.052 E919.7680
G1 X136.388 Y57.052
G1 X68.433 Y124.053 E924.5290
G1 X68.991 Y124.053
G1 X136.946 Y57.052 E929.2900
G1 X137.504 Y57.052
G1 X69.549 Y124.053 E934.0512
G1 X70.107 Y124.053
G1 X138.062 Y57.052 E938.8122
G1 X138.619 Y57.052
G1 X70.665 Y124.053 E943.5732
G1 X71.223 Y124.053
G1 X139.177 Y57.052 E948.3342
G1 X139.735 Y57.052
G1 X71.781 Y124.053 E953.0954
G1 X72.339 Y124.053
G1 X140.293 Y57.052 E957.8564
G1 X140.851 Y57.052
G1 X72.897 Y124.053 E962.6174
G1 X73.455 Y124.053
G1 X141.409 Y57.052 E967.3784
G1 X141.967 Y57.052
G1 X74.013 Y124.053 E972.1396
G1 X74.571 Y124.053
G1 X142.525 Y57.052 E976.9006
G1 X143.083 Y57.052
G1 X75.129 Y124.053 E981.6616
G1 X75.687 Y124.053
G1 X121.403 Y78.978 E984.8646
G1 X121.403 Y79.529
G1 X76.245 Y124.053 E988.0284
G1 X123.114 Y124.053 F10800
G1 X161.376 Y86.328 E990.7092 F600
G1 X160.866 Y86.281
G1 X122.556 Y124.053 E993.3932
G1 X121.998 Y124.053
G1 X160.432 Y86.158 E996.0860
G1 X159.999 Y86.035
G1 X121.440 Y124.053 E998.7874
G1 X120.882 Y124.053
G1 X159.565 Y85.913 E1001.4976
G1 X159.132 Y85.790
G1 X120.324 Y124.053 E1004.2166
G1 X119.766 Y124.053
G1 X158.698 Y85.667 E1006.9442
G1 X158.388 Y85.423
G1 X119.209 Y124.053 E1009.6892
G1 X118.651 Y124.053
G1 X142.696 Y100.344 E1011.3740
G1 X142.138 Y100.344
G1 X118.093 Y124.053 E1013.0586
G1 X117.535 Y124.053
G1 X141.581 Y100.344 E1014.7434
G1 X141.023 Y100.344
G1 X116.977 Y124.053 E1016.4280
G1 X116.419 Y124.053
G1 X140.465 Y100.344 E1018.1128
G1 X139.907 Y100.344
G1 X115.861 Y124.053 E1019.7974
G1 X115.303 Y124.053
G1 X139.349 Y100.344 E1021.4822
G1 X138.791 Y100.344
G1 X114.745 Y124.053 E1023.1668
G1 X114.187 Y124.053
G1 X138.233 Y100.344 E1024.8514
G1 X137.675 Y100.344
G1 X113.629 Y124.053 E1026.5362
G1 X113.071 Y124.053
G1 X137.117 Y100.344 E1028.2208
G1 X136.559 Y100.344
G1 X112.513 Y124.053 E1029.9056
G1 X111.955 Y124.053
G1 X136.001 Y100.344 E1031.5902
G1 X135.443 Y100.344
G1 X111.397 Y124.053 E1033.2750
G1 X110.839 Y124.053
G1 X134.885 Y100.344 E1034.9596
G1 X134.327 Y100.344
G1 X110.281 Y124.053 E1036.6444
G1 X109.723 Y124.053
G1 X133.769 Y100.344 E1038.3290
G1 X133.211 Y100.344
G1 X109.165 Y124.053 E1040.0138
G1 X108.607 Y124.053
G1 X132.653 Y100.344 E1041.6984
G1 X132.095 Y100.344
G1 X108.049 Y124.053 E1043.3832
G1 X107.491 Y124.053
G1 X131.537 Y100.344 E1045.0678
G1 X130.979 Y100.344
G1 X106.933 Y124.053 E1046.7524
G1 X106.375 Y124.053
G1 X130.421 Y100.344 E1048.4372
G1 X129.863 Y100.344
G1 X105.817 Y124.053 E1050.1218
G1 X105.259 Y124.053
G1 X129.305 Y100.344 E1051.8066
G1 X128.747 Y100.344
G1 X104.701 Y124.053 E1053.4912
G1 X104.143 Y124.053
G1 X128.189 Y100.344 E1055.1760
G1 X127.631 Y100.344
G1 X103.585 Y124.053 E1056.8606
G1 X103.027 Y124.053
G1 X127.073 Y100.344 E1058.5454
G1 X126.515 Y100.344
G1 X102.469 Y124.053 E1060.2300
G1 X101.911 Y124.053
G1 X125.957 Y100.344 E1061.9148
G1 X125.399 Y100.344
G1 X101.353 Y124.053 E1063.5994
G1 X100.796 Y124.053
G1 X124.841 Y100.344 E1065.2842
G1 X124.283 Y100.344
G1 X100.238 Y124.053 E1066.9688
G1 X99.680 Y124.053
G1 X123.726 Y100.344 E1068.6534
G1 X123.168 Y100.344
G1 X99.122 Y124.053 E1070.3382
G1 X98.564 Y124.053
G1 X122.610 Y100.344 E1072.0228
G1 X122.052 Y100.344
G1 X98.006 Y124.053 E1073.7076
G1 X97.448 Y124.053
G1 X121.494 Y100.344 E1075.3922
G1 X121.403 Y99.884
G1 X96.890 Y124.053 E1077.1096
G1 X96.332 Y124.053
G1 X121.403 Y99.334 E1078.8662
G1 X121.403 Y98.783
G1 X95.774 Y124.053 E1080.6618
G1 X95.216 Y124.053
G1 X121.403 Y98.233 E1082.4966
G1 X121.403 Y97.683
G1 X94.658 Y124.053 E1084.3702
G1 X94.100 Y124.053
G1 X121.403 Y97.133 E1086.2832
G1 X121.403 Y96.583
G1 X93.542 Y124.053 E1088.2352
G1 X92.984 Y124.053
G1 X121.403 Y96.033 E1090.2262
G1 X121.403 Y95.483
G1 X92.426 Y124.053 E1092.2564
G1 X91.868 Y124.053
G1 X121.403 Y94.932 E1094.3256
G1 X121.403 Y94.382
G1 X91.310 Y124.053 E1096.4340
G1 X90.752 Y124.053
G1 X121.403 Y93.832 E1098.5814
G1 X121.403 Y93.282
G1 X90.194 Y124.053 E1100.7680
G1 X89.636 Y124.053
G1 X121.403 Y92.732 E1102.9936
G1 X121.403 Y92.182
G1 X89.078 Y124.053 E1105.2584
G1 X88.520 Y124.053
G1 X121.403 Y91.632 E1107.5622
G1 X121.403 Y91.082
G1 X87.962 Y124.053 E1109.9050
G1 X87.404 Y124.053
G1 X121.403 Y90.531 E1112.2870
G1 X121.403 Y89.981
G1 X86.846 Y124.053 E1114.7082
G1 X86.288 Y124.053
G1 X121.403 Y89.431 E1117.1684
G1 X121.403 Y88.881
G1 X85.730 Y124.053 E1119.6676
G1 X85.172 Y124.053
G1 X121.403 Y88.331 E1122.2060
G1 X121.403 Y87.781
G1 X84.614 Y124.053 E1124.7834
G1 X84.056 Y124.053
G1 X121.403 Y87.231 E1127.4000
G1 X121.403 Y86.680
G1 X83.498 Y124.053 E1130.0558
G1 X82.941 Y124.053
G1 X121.403 Y86.130 E1132.7504
G1 X121.403 Y85.580
G1 X82.383 Y124.053 E1135.4844
G1 X81.825 Y124.053
G1 X121.403 Y85.030 E1138.2572
G1 X121.403 Y84.480
G1 X81.267 Y124.053 E1141.0692
G1 X80.709 Y124.053
G1 X121.403 Y83.930 E1143.9204
G1 X121.403 Y83.380
G1 X80.151 Y124.053 E1146.8106
G1 X79.593 Y124.053
G1 X121.403 Y82.829 E1149.7400
G1 X121.403 Y82.279
G1 X79.035 Y124.053 E1152.7084
G1 X78.477 Y124.053
G1 X121.403 Y81.729 E1155.7158
G1 X121.403 Y81.179
G1 X77.919 Y124.053 E1158.7624
G1 X77.361 Y124.053
G1 X121.403 Y80.629 E1161.8480
; ------------------------------------
; Layer #1
; ------------------------------------
G21 ; mm
G90 ; abs
G92 E0 ; reset extr
M106 S255
;segType:HShell
G1 F4800 E-1.0000
G1 F300 Z0.600
G1 X112.348 Y124.352 F10800
G1 F4800 E0.0000
G1 X44.075 Y57.037 E4.7834 F3600
;segType:Perimeter
G1 X43.813 Y57.034 F10800
G1 X44.084 Y56.387 E4.8184 F2159
G1 X44.084 Y56.160 E4.8297
G1 X81.647 Y56.160 E6.7037
G1 X166.593 Y56.160 E10.9417
G1 X167.113 Y56.199 E10.9677
G1 X167.884 Y56.362 E11.0070
G1 X168.198 Y56.477 E11.0236
G1 X168.696 Y56.714 E11.0512
G1 X169.159 Y57.027 E11.0791
G1 X169.667 Y57.476 E11.1129
G1 X169.893 Y57.723 E11.1296
G1 X170.201 Y58.159 E11.1563
G1 X170.374 Y58.451 E11.1732
G1 X170.512 Y58.760 E11.1900
G1 X170.715 Y59.346 E11.2210
G1 X170.820 Y59.906 E11.2494
G1 X170.856 Y60.423 E11.2753
G1 X170.857 Y75.403 E12.0226
G1 X170.860 Y120.684 E14.2817
G1 X170.853 Y120.911 E14.2931
G1 X170.799 Y121.392 E14.3172
G1 X170.704 Y121.826 E14.3394
G1 X170.561 Y122.248 E14.3616
G1 X170.423 Y122.557 E14.3784
G1 X170.131 Y123.064 E14.4077
G1 X169.841 Y123.444 E14.4315
G1 X169.530 Y123.777 E14.4542
G1 X169.165 Y124.084 E14.4780
G1 X168.666 Y124.407 E14.5077
G1 X168.257 Y124.602 E14.5303
G1 X167.710 Y124.796 E14.5593
G1 X167.033 Y124.912 E14.5935
G1 X166.597 Y124.944 E14.6153
G1 X33.814 Y124.944 E21.2399
G1 X33.206 Y124.891 E21.2704
G1 X32.592 Y124.762 E21.3016
G1 X32.006 Y124.541 E21.3329
G1 X31.490 Y124.255 E21.3624
G1 X31.005 Y123.886 E21.3927
G1 X30.555 Y123.426 E21.4249
G1 X30.205 Y122.945 E21.4545
G1 X29.983 Y122.549 E21.4772
G1 X29.792 Y122.095 E21.5018
G1 X29.611 Y121.391 E21.5380
G1 X29.549 Y120.679 E21.5737
G1 X29.549 Y60.565 E24.5727
G1 X29.582 Y59.963 E24.6029
G1 X29.673 Y59.431 E24.6298
G1 X29.760 Y59.107 E24.6465
G1 X30.010 Y58.508 E24.6789
G1 X30.232 Y58.114 E24.7014
G1 X30.598 Y57.624 E24.7319
G1 X31.017 Y57.206 E24.7615
G1 X31.461 Y56.867 E24.7894
G1 X31.872 Y56.626 E24.8131
G1 X32.344 Y56.428 E24.8387
G1 X32.802 Y56.291 E24.8625
G1 X33.354 Y56.192 E24.8905
G1 X33.812 Y56.160 E24.9134
G1 X43.605 Y56.160 E25.4020
G1 X43.605 Y56.446 E25.4162
G1 X44.025 Y56.446 E25.4372
G1 X44.681 Y56.178
G1 F4800 E24.4372
G1 X44.880 Y56.555 F10800
G1 F4800 E25.4372
;segType:Loop
G1 X81.647 Y56.555 E27.2715 F3600
G1 X166.578 Y56.555 E31.5087
G1 X167.056 Y56.591 E31.5326
G1 X167.772 Y56.741 E31.5691
G1 X168.040 Y56.840 E31.5834
G1 X168.495 Y57.056 E31.6085
G1 X168.911 Y57.338 E31.6336
G1 X169.384 Y57.756 E31.6651
G1 X169.580 Y57.969 E31.6795
G1 X169.864 Y58.372 E31.7041
G1 X170.017 Y58.631 E31.7191
G1 X170.139 Y58.904 E31.7340
G1 X170.327 Y59.446 E31.7626
G1 X170.422 Y59.956 E31.7885
G1 X170.456 Y60.437 E31.8126
G1 X170.457 Y75.403 E32.5592
G1 X170.460 Y120.678 E34.8180
G1 X170.404 Y121.329 E34.8506
G1 X170.318 Y121.722 E34.8707
G1 X170.188 Y122.106 E34.8909
G1 X170.066 Y122.379 E34.9058
G1 X169.795 Y122.847 E34.9328
G1 X169.533 Y123.192 E34.9544
G1 X169.252 Y123.492 E34.9749
G1 X168.924 Y123.768 E34.9963
G1 X168.469 Y124.063 E35.0234
G1 X168.102 Y124.237 E35.0436
G1 X167.607 Y124.414 E35.0699
G1 X166.984 Y124.521 E35.1014
G1 X166.583 Y124.549 E35.1215
G1 X33.832 Y124.549 E41.7444
G1 X33.265 Y124.501 E41.7728
G1 X32.706 Y124.383 E41.8013
G1 X32.177 Y124.183 E41.8295
G1 X31.711 Y123.925 E41.8561
G1 X31.272 Y123.591 E41.8836
G1 X30.863 Y123.173 E41.9128
G1 X30.544 Y122.734 E41.9399
G1 X30.343 Y122.378 E41.9603
G1 X30.172 Y121.970 E41.9823
G1 X30.007 Y121.325 E42.0155
G1 X29.949 Y120.662 E42.0488
G1 X29.949 Y60.576 E45.0465
G1 X29.980 Y60.006 E45.0749
G1 X30.064 Y59.515 E45.0998
G1 X30.140 Y59.233 E45.1144
G1 X30.371 Y58.680 E45.1443
G1 X30.569 Y58.327 E45.1645
G1 X30.903 Y57.881 E45.1922
G1 X31.283 Y57.502 E45.2190
G1 X31.687 Y57.194 E45.2444
G1 X32.053 Y56.979 E45.2656
G1 X32.480 Y56.799 E45.2887
G1 X32.896 Y56.675 E45.3103
G1 X33.404 Y56.583 E45.3361
G1 X33.826 Y56.555 E45.3572
G1 X43.205 Y56.555 E45.8251
G1 X43.205 Y56.840 E45.8393
G1 X44.485 Y56.840 E45.9032
G1 X44.485 Y56.555 E45.9174
G1 X44.683 Y56.555 E45.9273
;segType:HShell
G1 X98.467 Y56.752 F10800
G1 X121.403 Y79.366 E47.5342 F3600
;segType:Perimeter
G1 X121.406 Y79.621 F10800
G1 X122.062 Y79.353 E47.5696 F2159
G1 X142.406 Y79.353 E48.5846
G1 X142.406 Y99.753 E49.6023
G1 X122.003 Y99.753 E50.6203
G1 X122.003 Y79.412 E51.6351
G1 X122.274 Y78.765
;segType:Loop
G1 X123.088 Y78.959 F10800
G1 X142.806 Y78.959 E52.6189 F3600
G1 X142.806 Y100.147 E53.6759
G1 X121.602 Y100.147 E54.7338
G1 X121.602 Y78.959 E55.7909
G1 X122.890 Y78.959 E55.8551
G1 X142.546 Y79.216 F10800
G1 X170.259 Y94.528
;segType:HShell
G1 X161.816 Y86.203 E56.4467 F3600
;segType:Perimeter
G1 X161.715 Y86.166 F10800
G1 X161.148 Y85.745 E56.4819 F2159
G1 X158.940 Y85.120 E56.5964
G1 X156.929 Y83.291 E56.7320
G1 X155.353 Y80.477 E56.8929
G1 X154.347 Y76.951 E57.0758
G1 X154.001 Y73.052 E57.2711
G1 X154.347 Y69.154 E57.4664
G1 X155.353 Y65.628 E57.6493
G1 X156.929 Y62.814 E57.8102
G1 X158.940 Y60.985 E57.9458
G1 X161.204 Y60.344 E58.0632
G1 X163.469 Y60.985 E58.1806
G1 X165.480 Y62.814 E58.3162
G1 X167.056 Y65.628 E58.4772
G1 X168.062 Y69.154 E58.6601
G1 X168.408 Y73.052 E58.8553
G1 X168.062 Y76.951 E59.0506
G1 X167.056 Y80.477 E59.2335
G1 X165.480 Y83.291 E59.3944
G1 X163.469 Y85.120 E59.5301
G1 X161.261 Y85.745 E59.6445
G1 X160.694 Y86.166
;segType:Loop
G1 X160.051 Y85.845 F10800
G1 X158.738 Y85.473 E59.7126 F3600
G1 X156.610 Y83.537 E59.8561
G1 X154.981 Y80.628 E60.0225
G1 X153.952 Y77.022 E60.2096
G1 X153.599 Y73.052 E60.4084
G1 X153.952 Y69.083 E60.6072
G1 X154.981 Y65.477 E60.7943
G1 X156.610 Y62.568 E60.9607
G1 X158.738 Y60.632 E61.1042
G1 X161.204 Y59.934 E61.2321
G1 X163.671 Y60.632 E61.3599
G1 X165.799 Y62.568 E61.5035
G1 X167.428 Y65.477 E61.6698
G1 X168.457 Y69.083 E61.8569
G1 X168.810 Y73.052 E62.0557
G1 X168.457 Y77.022 E62.2546
G1 X167.428 Y80.628 E62.4416
G1 X165.799 Y83.537 E62.6080
G1 X163.671 Y85.473 E62.7515
G1 X161.204 Y86.171 E62.8794
G1 X160.241 Y85.899 E62.9294
G1 X166.031 Y101.619 F10800
G1 X164.651 Y101.944
G1 X164.788 Y102.144
G1 X162.500 Y102.144 E63.0435 F3600
G1 X161.570 Y101.668 E63.0957
G1 X162.368 Y100.997 E63.1477
G1 X163.011 Y100.852 E63.1805
G1 X163.675 Y100.802 E63.2137
G1 X164.520 Y100.802 E63.2559
G1 X165.015 Y100.839 E63.2807
G1 X165.327 Y100.888 E63.2964
G1 X165.770 Y101.006 E63.3193
G1 X166.540 Y101.686 E63.3706
G1 X165.616 Y102.144 E63.4220
G1 X164.985 Y102.144 E63.4534
G1 X165.567 Y101.939 F10800
G1 X166.031 Y101.619
G1 X166.080 Y100.984
;segType:Perimeter
G1 X165.783 Y101.620 E63.4885 F2159
G1 X165.521 Y101.750 E63.5030
G1 X162.598 Y101.750 E63.6489
G1 X162.282 Y101.588 E63.6666
G1 X162.553 Y101.360 E63.6843
G1 X163.071 Y101.243 E63.7108
G1 X163.690 Y101.196 E63.7417
G1 X164.505 Y101.196 E63.7824
G1 X164.969 Y101.231 E63.8056
G1 X165.243 Y101.274 E63.8194
G1 X165.574 Y101.362 E63.8365
G1 X165.792 Y101.555 E63.8510
G1 X165.910 Y102.245
G1 X166.031 Y101.619 F10800
G1 X121.344 Y56.752
;segType:HShell
G1 X167.916 Y102.671 E67.1140 F3600
G1 X167.744 Y103.051
G1 X166.569 Y101.892 E67.1963
G1 X166.197 Y102.077
G1 X167.572 Y103.432 E67.2926
;segType:Perimeter
G1 X167.479 Y103.589 F10800
G1 X168.185 Y103.665 E67.3280 F2159
G1 X168.388 Y103.850 E67.3417
G1 X168.473 Y104.044 E67.3523
G1 X168.630 Y104.652 E67.3836
G1 X168.697 Y105.383 E67.4202
G1 X168.697 Y114.545 E67.8773
G1 X168.652 Y115.163 E67.9083
G1 X168.512 Y115.773 E67.9395
G1 X168.391 Y116.081 E67.9560
G1 X168.146 Y116.315 E67.9729
G1 X168.005 Y116.010 E67.9897
G1 X168.005 Y103.928 E68.5924
G1 X168.117 Y103.678 E68.6061
G1 X168.736 Y103.334
;segType:Loop
G1 X168.993 Y104.457 F10800
G1 X169.026 Y104.585 E68.6127 F3600
G1 X169.097 Y105.365 E68.6518
G1 X169.097 Y114.559 E69.1105
G1 X169.049 Y115.221 E69.1436
G1 X168.896 Y115.888 E69.1777
G1 X168.732 Y116.304 E69.2000
G1 X168.019 Y116.986 E69.2493
G1 X167.605 Y116.096 E69.2982
G1 X167.605 Y103.844 E69.9095
G1 X168.003 Y102.963 E69.9577
G1 X168.722 Y103.617 E70.0062
G1 X168.853 Y103.916 E70.0225
G1 X168.944 Y104.269 E70.0407
;segType:HShell
G1 X168.988 Y103.728 F10800
G1 X170.259 Y104.981 E70.1297 F3600
G1 X170.259 Y105.531
G1 X169.209 Y104.496 E70.2033
G1 X169.275 Y105.111
G1 X170.259 Y106.081 E70.2723
G1 X170.259 Y106.631
G1 X169.297 Y105.683 E70.3396
G1 X169.297 Y106.233
G1 X170.259 Y107.182 E70.4070
G1 X170.259 Y107.732
G1 X169.297 Y106.783 E70.4744
G1 X169.297 Y107.333
G1 X170.259 Y108.282 E70.5418
G1 X170.259 Y108.832
G1 X169.297 Y107.884 E70.6092
G1 X169.297 Y108.434
G1 X170.259 Y109.382 E70.6767
G1 X170.259 Y109.932
G1 X169.297 Y108.984 E70.7441
G1 X169.297 Y109.534
G1 X170.259 Y110.483 E70.8115
G1 X170.260 Y111.033
G1 X169.297 Y110.084 E70.8789
G1 X169.297 Y110.634
G1 X170.260 Y111.583 E70.9463
G1 X170.260 Y112.133
G1 X169.297 Y111.184 E71.0137
G1 X169.297 Y111.735
G1 X170.260 Y112.683 E71.0811
G1 X170.260 Y113.234
G1 X169.297 Y112.285 E71.1486
G1 X169.297 Y112.835
G1 X170.260 Y113.784 E71.2160
G1 X170.260 Y114.334
G1 X169.297 Y113.385 E71.2834
G1 X169.297 Y113.935
G1 X170.260 Y114.884 E71.3508
G1 X170.260 Y115.434
G1 X169.297 Y114.485 E71.4183
G1 X169.265 Y115.004
G1 X170.260 Y115.984 E71.4879
G1 X170.260 Y116.535
G1 X169.194 Y115.483 E71.5626
G1 X169.091 Y115.932
G1 X170.260 Y117.085 E71.6445
G1 X170.260 Y117.635
G1 X168.937 Y116.330 E71.7372
G1 X168.681 Y116.628
G1 X170.260 Y118.185 E71.8479
G1 X170.260 Y118.735
G1 X168.397 Y116.899 E71.9784
G1 X168.114 Y117.169
G1 X170.260 Y119.285 E72.1288
G1 X170.260 Y119.836
G1 X143.006 Y92.964 E74.0382
G1 X143.006 Y93.514
G1 X170.260 Y120.386 E75.9477
G1 X170.239 Y120.915
G1 X143.006 Y94.065 E77.8556
G1 X143.006 Y94.615
G1 X170.182 Y121.409 E79.7596
G1 X170.065 Y121.844
G1 X143.006 Y95.165 E81.6554
G1 X143.006 Y95.715
G1 X169.909 Y122.240 E83.5403
G1 X169.711 Y122.595
G1 X143.006 Y96.265 E85.4112
G1 X143.006 Y96.815
G1 X169.487 Y122.924 E87.2665
G1 X169.232 Y123.223
G1 X143.006 Y97.365 E89.1039
G1 X143.006 Y97.916
G1 X168.946 Y123.491 E90.9213
G1 X168.626 Y123.726
G1 X143.006 Y98.466 E92.7162
G1 X143.006 Y99.016
G1 X168.279 Y123.934 E94.4869
G1 X167.892 Y124.103
G1 X143.006 Y99.566 E96.2304
G1 X143.006 Y100.116
G1 X167.470 Y124.237 E97.9445
G1 X166.995 Y124.318
G1 X142.680 Y100.344 E99.6480
G1 X142.122 Y100.344
G1 X166.471 Y124.352 E101.3540
G1 X165.913 Y124.352
G1 X141.564 Y100.344 E103.0600
G1 X141.006 Y100.344
G1 X165.356 Y124.352 E104.7660
G1 X164.798 Y124.352
G1 X140.448 Y100.344 E106.4720
G1 X139.890 Y100.344
G1 X164.240 Y124.352 E108.1780
G1 X163.682 Y124.352
G1 X139.332 Y100.344 E109.8840
G1 X138.774 Y100.344
G1 X163.124 Y124.352 E111.5900
G1 X162.566 Y124.352
G1 X138.216 Y100.344 E113.2960
G1 X137.658 Y100.344
G1 X162.008 Y124.352 E115.0020
G1 X161.450 Y124.352
G1 X137.100 Y100.344 E116.7080
G1 X136.542 Y100.344
G1 X160.892 Y124.352 E118.4140
G1 X160.334 Y124.352
G1 X135.984 Y100.344 E120.1200
G1 X135.426 Y100.344
G1 X159.776 Y124.352 E121.8260
G1 X159.218 Y124.352
G1 X134.868 Y100.344 E123.5320
G1 X134.310 Y100.344
G1 X158.660 Y124.352 E125.2381
G1 X158.102 Y124.352
G1 X133.752 Y100.344 E126.9441
G1 X133.194 Y100.344
G1 X157.544 Y124.352 E128.6500
G1 X156.986 Y124.352
G1 X132.636 Y100.344 E130.3560
G1 X132.078 Y100.344
G1 X156.428 Y124.352 E132.0620
G1 X155.870 Y124.352
G1 X131.520 Y100.344 E133.7680
G1 X130.962 Y100.344
G1 X155.312 Y124.352 E135.4740
G1 X154.754 Y124.352
G1 X130.404 Y100.344 E137.1800
G1 X129.846 Y100.344
G1 X154.196 Y124.352 E138.8860
G1 X153.638 Y124.352
G1 X129.288 Y100.344 E140.5920
G1 X128.730 Y100.344
G1 X153.080 Y124.352 E142.2980
G1 X152.522 Y124.352
G1 X128.172 Y100.344 E144.0040
G1 X127.615 Y100.344
G1 X151.964 Y124.352 E145.7100
G1 X151.406 Y124.352
G1 X127.057 Y100.344 E147.4160
G1 X126.499 Y100.344
G1 X150.848 Y124.352 E149.1220
G1 X150.290 Y124.352
G1 X125.941 Y100.344 E150.8280
G1 X125.383 Y100.344
G1 X149.732 Y124.352 E152.5340
G1 X149.174 Y124.352
G1 X124.825 Y100.344 E154.2400
G1 X124.267 Y100.344
G1 X148.616 Y124.352 E155.9459
G1 X148.058 Y124.352
G1 X123.709 Y100.344 E157.6519
G1 X123.151 Y100.344
G1 X147.501 Y124.352 E159.3579
G1 X146.943 Y124.352
G1 X122.593 Y100.344 E161.0639
G1 X122.035 Y100.344
G1 X146.385 Y124.352 E162.7699
G1 X145.827 Y124.352
G1 X121.477 Y100.344 E164.4759
G1 X112.906 Y124.352 F10800
G1 X44.633 Y57.037 E169.2593 F3600
G1 X44.902 Y56.752
G1 X113.464 Y124.352 E174.0629
G1 X114.022 Y124.352
G1 X45.460 Y56.752 E178.8665
G1 X46.018 Y56.752
G1 X114.580 Y124.352 E183.6701
G1 X115.138 Y124.352
G1 X46.576 Y56.752 E188.4737
G1 X47.134 Y56.752
G1 X115.696 Y124.352 E193.2774
G1 X116.254 Y124.352
G1 X47.692 Y56.752 E198.0810
G1 X48.250 Y56.752
G1 X116.812 Y124.352 E202.8846
G1 X117.370 Y124.352
G1 X48.808 Y56.752 E207.6882
G1 X49.366 Y56.752
G1 X117.928 Y124.352 E212.4918
G1 X118.486 Y124.352
G1 X49.924 Y56.752 E217.2955
G1 X50.482 Y56.752
G1 X119.044 Y124.352 E222.0991
G1 X119.602 Y124.352
G1 X51.040 Y56.752 E226.9027
G1 X51.598 Y56.752
G1 X120.160 Y124.352 E231.7063
G1 X120.718 Y124.352
G1 X52.156 Y56.752 E236.5099
G1 X52.714 Y56.752
G1 X121.276 Y124.352 E241.3136
G1 X121.834 Y124.352
G1 X53.272 Y56.752 E246.1172
G1 X53.830 Y56.752
G1 X122.392 Y124.352 E250.9208
G1 X122.950 Y124.352
G1 X54.388 Y56.752 E255.7244
G1 X54.946 Y56.752
G1 X123.508 Y124.352 E260.5281
G1 X124.066 Y124.352
G1 X55.504 Y56.752 E265.3317
G1 X56.062 Y56.752
G1 X124.624 Y124.352 E270.1353
G1 X125.182 Y124.352
G1 X56.620 Y56.752 E274.9389
G1 X57.177 Y56.752
G1 X125.740 Y124.352 E279.7425
G1 X126.298 Y124.352
G1 X57.735 Y56.752 E284.5462
G1 X58.293 Y56.752
G1 X126.856 Y124.352 E289.3498
G1 X127.414 Y124.352
G1 X58.851 Y56.752 E294.1534
G1 X59.409 Y56.752
G1 X127.972 Y124.352 E298.9570
G1 X128.530 Y124.352
G1 X59.967 Y56.752 E303.7606
G1 X60.525 Y56.752
G1 X129.088 Y124.352 E308.5643
G1 X129.645 Y124.352
G1 X61.083 Y56.752 E313.3679
G1 X61.641 Y56.752
G1 X130.203 Y124.352 E318.1715
G1 X130.761 Y124.352
G1 X62.199 Y56.752 E322.9751
G1 X62.757 Y56.752
G1 X131.319 Y124.352 E327.7787
G1 X131.877 Y124.352
G1 X63.315 Y56.752 E332.5823
G1 X63.873 Y56.752
G1 X132.435 Y124.352 E337.3860
G1 X132.993 Y124.352
G1 X64.431 Y56.752 E342.1896
G1 X64.989 Y56.752
G1 X133.551 Y124.352 E346.9932
G1 X134.109 Y124.352
G1 X65.547 Y56.752 E351.7968
G1 X66.105 Y56.752
G1 X134.667 Y124.352 E356.6004
G1 X135.225 Y124.352
G1 X66.663 Y56.752 E361.4041
G1 X67.221 Y56.752
G1 X135.783 Y124.352 E366.2077
G1 X136.341 Y124.352
G1 X67.779 Y56.752 E371.0113
G1 X68.337 Y56.752
G1 X136.899 Y124.352 E375.8149
G1 X137.457 Y124.352
G1 X68.895 Y56.752 E380.6185
G1 X69.453 Y56.752
G1 X138.015 Y124.352 E385.4222
G1 X138.573 Y124.352
G1 X70.011 Y56.752 E390.2258
G1 X70.569 Y56.752
G1 X139.131 Y124.352 E395.0294
G1 X139.689 Y124.352
G1 X71.127 Y56.752 E399.8330
G1 X71.685 Y56.752
G1 X140.247 Y124.352 E404.6367
G1 X140.805 Y124.352
G1 X72.243 Y56.752 E409.4403
G1 X72.800 Y56.752
G1 X141.363 Y124.352 E414.2439
G1 X141.921 Y124.352
G1 X73.358 Y56.752 E419.0476
G1 X73.916 Y56.752
G1 X142.479 Y124.352 E423.8512
G1 X143.037 Y124.352
G1 X74.474 Y56.752 E428.6549
G1 X75.032 Y56.752
G1 X143.595 Y124.352 E433.4585
G1 X144.153 Y124.352
G1 X75.590 Y56.752 E438.2622
G1 X76.148 Y56.752
G1 X144.711 Y124.352 E443.0658
G1 X145.269 Y124.352
G1 X76.706 Y56.752 E447.8695
G1 X77.264 Y56.752
G1 X121.403 Y100.271 E450.9619
G1 X121.403 Y99.721
G1 X77.822 Y56.752 E454.0153
G1 X78.380 Y56.752
G1 X121.403 Y99.171 E457.0295
G1 X121.403 Y98.621
G1 X78.938 Y56.752 E460.0047
G1 X79.496 Y56.752
G1 X121.403 Y98.070 E462.9407
G1 X121.403 Y97.520
G1 X80.054 Y56.752 E465.8377
G1 X80.612 Y56.752
G1 X121.403 Y96.970 E468.6956
G1 X121.403 Y96.420
G1 X81.170 Y56.752 E471.5144
G1 X81.728 Y56.752
G1 X121.403 Y95.870 E474.2941
G1 X121.403 Y95.320
G1 X82.286 Y56.752 E477.0347
G1 X82.844 Y56.752
G1 X121.403 Y94.770 E479.7362
G1 X121.403 Y94.219
G1 X83.402 Y56.752 E482.3986
G1 X83.960 Y56.752
G1 X121.403 Y93.669 E485.0219
G1 X121.403 Y93.119
G1 X84.518 Y56.752 E487.6061
G1 X85.076 Y56.752
G1 X121.403 Y92.569 E490.1513
G1 X121.403 Y92.019
G1 X85.634 Y56.752 E492.6573
G1 X86.192 Y56.752
G1 X121.403 Y91.469 E495.1243
G1 X121.403 Y90.919
G1 X86.750 Y56.752 E497.5521
G1 X87.308 Y56.752
G1 X121.403 Y90.368 E499.9409
G1 X121.403 Y89.818
G1 X87.866 Y56.752 E502.2906
G1 X88.424 Y56.752
G1 X121.403 Y89.268 E504.6011
G1 X121.403 Y88.718
G1 X88.982 Y56.752 E506.8726
G1 X89.539 Y56.752
G1 X121.403 Y88.168 E509.1050
G1 X121.403 Y87.618
G1 X90.097 Y56.752 E511.2983
G1 X90.655 Y56.752
G1 X121.403 Y87.068 E513.4525
G1 X121.403 Y86.517
G1 X91.213 Y56.752 E515.5677
G1 X91.771 Y56.752
G1 X121.403 Y85.967 E517.6437
G1 X121.403 Y85.417
G1 X92.329 Y56.752 E519.6806
G1 X92.887 Y56.752
G1 X121.403 Y84.867 E521.6785
G1 X121.403 Y84.317
G1 X93.445 Y56.752 E523.6372
G1 X94.003 Y56.752
G1 X121.403 Y83.767 E525.5569
G1 X121.403 Y83.217
G1 X94.561 Y56.752 E527.4375
G1 X95.119 Y56.752
G1 X121.403 Y82.666 E529.2790
G1 X121.403 Y82.116
G1 X95.677 Y56.752 E531.0813
G1 X96.235 Y56.752
G1 X121.403 Y81.566 E532.8446
G1 X121.403 Y81.016
G1 X96.793 Y56.752 E534.5688
G1 X97.351 Y56.752
G1 X121.403 Y80.466 E536.2539
G1 X121.403 Y79.916
G1 X97.909 Y56.752 E537.8999
G1 X43.518 Y57.037 F10800
G1 X111.790 Y124.352 E542.6833 F3600
G1 X111.233 Y124.352
G1 X42.670 Y56.752 E547.4870
G1 X42.112 Y56.752
G1 X110.675 Y124.352 E552.2906
G1 X110.117 Y124.352
G1 X41.554 Y56.752 E557.0943
G1 X40.996 Y56.752
G1 X109.559 Y124.352 E561.8979
G1 X109.001 Y124.352
G1 X40.438 Y56.752 E566.7016
G1 X39.880 Y56.752
G1 X108.443 Y124.352 E571.5052
G1 X107.885 Y124.352
G1 X39.323 Y56.752 E576.3089
G1 X38.765 Y56.752
G1 X107.327 Y124.352 E581.1125
G1 X106.769 Y124.352
G1 X38.207 Y56.752 E585.9162
G1 X37.649 Y56.752
G1 X106.211 Y124.352 E590.7198
G1 X105.653 Y124.352
G1 X37.091 Y56.752 E595.5235
G1 X36.533 Y56.752
G1 X105.095 Y124.352 E600.3271
G1 X104.537 Y124.352
G1 X35.975 Y56.752 E605.1308
G1 X35.417 Y56.752
G1 X103.979 Y124.352 E609.9344
G1 X103.421 Y124.352
G1 X34.859 Y56.752 E614.7381
G1 X34.301 Y56.752
G1 X102.863 Y124.352 E619.5417
G1 X102.305 Y124.352
G1 X33.749 Y56.758 E624.3449
G1 X33.246 Y56.812
G1 X101.747 Y124.352 E629.1443
G1 X101.189 Y124.352
G1 X32.790 Y56.913 E633.9364
G1 X32.378 Y57.056
G1 X100.631 Y124.352 E638.7184
G1 X100.073 Y124.352
G1 X32.003 Y57.237 E643.4875
G1 X31.668 Y57.457
G1 X99.515 Y124.352 E648.2410
G1 X98.957 Y124.352
G1 X31.361 Y57.704 E652.9770
G1 X31.084 Y57.981
G1 X98.399 Y124.352 E657.6933
G1 X97.841 Y124.352
G1 X30.843 Y58.294 E662.3874
G1 X30.627 Y58.631
G1 X97.283 Y124.352 E667.0575
G1 X96.725 Y124.352
G1 X30.450 Y59.007 E671.7008
G1 X30.300 Y59.409
G1 X96.167 Y124.352 E676.3157
G1 X95.609 Y124.352
G1 X30.207 Y59.867 E680.8980
G1 X30.160 Y60.372
G1 X95.051 Y124.352 E685.4444
G1 X94.493 Y124.352
G1 X30.149 Y60.911 E689.9525
G1 X30.149 Y61.461
G1 X93.935 Y124.352 E694.4215
G1 X93.378 Y124.352
G1 X30.149 Y62.011 E698.8514
G1 X30.149 Y62.561
G1 X92.820 Y124.352 E703.2422
G1 X92.262 Y124.352
G1 X30.149 Y63.111 E707.5940
G1 X30.149 Y63.661
G1 X91.704 Y124.352 E711.9066
G1 X91.146 Y124.352
G1 X30.149 Y64.211 E716.1801
G1 X30.149 Y64.762
G1 X90.588 Y124.352 E720.4146
G1 X90.030 Y124.352
G1 X30.149 Y65.312 E724.6099
G1 X30.149 Y65.862
G1 X89.472 Y124.352 E728.7662
G1 X88.914 Y124.352
G1 X30.149 Y66.412 E732.8834
G1 X30.149 Y66.962
G1 X88.356 Y124.352 E736.9615
G1 X87.798 Y124.352
G1 X30.149 Y67.512 E741.0005
G1 X30.149 Y68.062
G1 X87.240 Y124.352 E745.0003
G1 X86.682 Y124.352
G1 X30.149 Y68.613 E748.9611
G1 X30.149 Y69.163
G1 X86.124 Y124.352 E752.8828
G1 X85.566 Y124.352
G1 X30.149 Y69.713 E756.7655
G1 X30.149 Y70.263
G1 X85.008 Y124.352 E760.6090
G1 X84.450 Y124.352
G1 X30.149 Y70.813 E764.4134
G1 X30.149 Y71.363
G1 X83.892 Y124.352 E768.1788
G1 X83.334 Y124.352
G1 X30.149 Y71.913 E771.9051
G1 X30.149 Y72.464
G1 X82.776 Y124.352 E775.5922
G1 X82.218 Y124.352
G1 X30.149 Y73.014 E779.2403
G1 X30.149 Y73.564
G1 X81.660 Y124.352 E782.8493
G1 X81.102 Y124.352
G1 X30.149 Y74.114 E786.4192
G1 X30.149 Y74.664
G1 X80.544 Y124.352 E789.9500
G1 X79.986 Y124.352
G1 X30.149 Y75.214 E793.4417
G1 X30.149 Y75.764
G1 X79.428 Y124.352 E796.8944
G1 X78.870 Y124.352
G1 X30.149 Y76.315 E800.3079
G1 X30.149 Y76.865
G1 X78.312 Y124.352 E803.6823
G1 X77.754 Y124.352
G1 X30.149 Y77.415 E807.0177
G1 X30.149 Y77.965
G1 X77.196 Y124.352 E810.3139
G1 X76.638 Y124.352
G1 X30.149 Y78.515 E813.5711
G1 X30.149 Y79.065
G1 X76.080 Y124.352 E816.7891
G1 X75.523 Y124.352
G1 X30.149 Y79.615 E819.9681
G1 X30.149 Y80.166
G1 X74.965 Y124.352 E823.1080
G1 X74.407 Y124.352
G1 X30.149 Y80.716 E826.2088
G1 X30.149 Y81.266
G1 X73.849 Y124.352 E829.2705
G1 X73.291 Y124.352
G1 X30.149 Y81.816 E832.2931
G1 X30.149 Y82.366
G1 X72.733 Y124.352 E835.2766
G1 X72.175 Y124.352
G1 X30.149 Y82.916 E838.2210
G1 X30.149 Y83.466
G1 X71.617 Y124.352 E841.1264
G1 X71.059 Y124.352
G1 X30.149 Y84.017 E843.9926
G1 X30.149 Y84.567
G1 X70.501 Y124.352 E846.8196
G1 X69.943 Y124.352
G1 X30.149 Y85.117 E849.6078
G1 X30.149 Y85.667
G1 X69.385 Y124.352 E852.3566
G1 X68.827 Y124.352
G1 X30.149 Y86.217 E855.0666
G1 X30.149 Y86.767
G1 X68.269 Y124.352 E857.7372
G1 X67.711 Y124.352
G1 X30.149 Y87.317 E860.3690
G1 X30.149 Y87.868
G1 X67.153 Y124.352 E862.9616
G1 X66.595 Y124.352
G1 X30.149 Y88.418 E865.5150
G1 X30.149 Y88.968
G1 X66.037 Y124.352 E868.0294
G1 X65.479 Y124.352
G1 X30.149 Y89.518 E870.5046
G1 X30.149 Y90.068
G1 X64.921 Y124.352 E872.9410
G1 X64.363 Y124.352
G1 X30.149 Y90.618 E875.3380
G1 X30.149 Y91.168
G1 X63.805 Y124.352 E877.6960
G1 X63.247 Y124.352
G1 X30.149 Y91.719 E880.0150
G1 X30.149 Y92.269
G1 X62.689 Y124.352 E882.2948
G1 X62.131 Y124.352
G1 X30.149 Y92.819 E884.5356
G1 X30.149 Y93.369
G1 X61.573 Y124.352 E886.7372
G1 X61.015 Y124.352
G1 X30.149 Y93.919 E888.8998
G1 X30.149 Y94.469
G1 X60.457 Y124.352 E891.0232
G1 X59.899 Y124.352
G1 X30.149 Y95.019 E893.1076
G1 X30.149 Y95.570
G1 X59.341 Y124.352 E895.1528
G1 X58.783 Y124.352
G1 X30.149 Y96.120 E897.1590
G1 X30.149 Y96.670
G1 X58.225 Y124.352 E899.1260
G1 X57.668 Y124.352
G1 X30.149 Y97.220 E901.0540
G1 X30.149 Y97.770
G1 X57.110 Y124.352 E902.9430
G1 X56.552 Y124.352
G1 X30.149 Y98.320 E904.7928
G1 X30.149 Y98.870
G1 X55.994 Y124.352 E906.6036
G1 X55.436 Y124.352
G1 X30.149 Y99.421 E908.3752
G1 X30.149 Y99.971
G1 X54.878 Y124.352 E910.1076
G1 X54.320 Y124.352
G1 X30.149 Y100.521 E911.8010
G1 X30.149 Y101.071
G1 X53.762 Y124.352 E913.4554
G1 X53.204 Y124.352
G1 X30.149 Y101.621 E915.0706
G1 X30.149 Y102.171
G1 X52.646 Y124.352 E916.6468
G1 X52.088 Y124.352
G1 X30.149 Y102.721 E918.1838
G1 X30.149 Y103.272
G1 X51.530 Y124.352 E919.6818
G1 X50.972 Y124.352
G1 X30.149 Y103.822 E921.1408
G1 X30.149 Y104.372
G1 X50.414 Y124.352 E922.5606
G1 X49.856 Y124.352
G1 X30.149 Y104.922 E923.9412
G1 X30.149 Y105.472
G1 X49.298 Y124.352 E925.2828
G1 X48.740 Y124.352
G1 X30.149 Y106.022 E926.5854
G1 X30.149 Y106.572
G1 X48.182 Y124.352 E927.8488
G1 X47.624 Y124.352
G1 X30.149 Y107.123 E929.0730
G1 X30.149 Y107.673
G1 X47.066 Y124.352 E930.2582
G1 X46.508 Y124.352
G1 X30.149 Y108.223 E931.4044
G1 X30.149 Y108.773
G1 X45.950 Y124.352 E932.5116
G1 X45.392 Y124.352
G1 X30.149 Y109.323 E933.5796
G1 X30.149 Y109.873
G1 X44.834 Y124.352 E934.6084
G1 X44.276 Y124.352
G1 X30.149 Y110.423 E935.5982
G1 X30.149 Y110.973
G1 X43.718 Y124.352 E936.5488
G1 X43.160 Y124.352
G1 X30.149 Y111.524 E937.4604
G1 X30.149 Y112.074
G1 X42.602 Y124.352 E938.3330
G1 X42.044 Y124.352
G1 X30.149 Y112.624 E939.1664
G1 X30.149 Y113.174
G1 X41.486 Y124.352 E939.9608
G1 X40.928 Y124.352
G1 X30.149 Y113.724 E940.7160
G1 X30.149 Y114.274
G1 X40.370 Y124.352 E941.4322
G1 X39.813 Y124.352
G1 X30.149 Y114.824 E942.1092
G1 X30.149 Y115.375
G1 X39.255 Y124.352 E942.7472
G1 X38.697 Y124.352
G1 X30.149 Y115.925 E943.3460
G1 X30.149 Y116.475
G1 X38.139 Y124.352 E943.9058
G1 X37.581 Y124.352
G1 X30.149 Y117.025 E944.4264
G1 X30.149 Y117.575
G1 X37.023 Y124.352 E944.9080
G1 X36.465 Y124.352
G1 X30.149 Y118.125 E945.3506
G1 X30.149 Y118.675
G1 X35.907 Y124.352 E945.7538
G1 X35.349 Y124.352
G1 X30.149 Y119.226 E946.1182
G1 X30.149 Y119.776
G1 X34.791 Y124.352 E946.4434
G1 X34.233 Y124.352
G1 X30.149 Y120.326 E946.7296
G1 X30.170 Y120.897
G1 X33.659 Y124.337 E946.9740
G1 X33.008 Y124.245
G1 X30.270 Y121.545 E947.1658
G1 X32.134 Y123.933 F10800
G1 X30.592 Y122.413 E947.2738 F3600
G1 X121.403 Y78.815 F10800
G1 X99.025 Y56.752 E948.8416 F3600
G1 X99.583 Y56.752
G1 X121.906 Y78.762 E950.4056
G1 X122.464 Y78.762
G1 X100.141 Y56.752 E951.9698
G1 X100.699 Y56.752
G1 X123.022 Y78.762 E953.5338
G1 X123.580 Y78.762
G1 X101.257 Y56.752 E955.0978
G1 X101.815 Y56.752
G1 X124.138 Y78.762 E956.6618
G1 X124.696 Y78.762
G1 X102.373 Y56.752 E958.2258
G1 X102.931 Y56.752
G1 X125.254 Y78.762 E959.7898
G1 X125.812 Y78.762
G1 X103.489 Y56.752 E961.3538
G1 X104.047 Y56.752
G1 X126.370 Y78.762 E962.9178
G1 X126.928 Y78.762
G1 X104.605 Y56.752 E964.4820
G1 X105.163 Y56.752
G1 X127.486 Y78.762 E966.0460
G1 X128.044 Y78.762
G1 X105.721 Y56.752 E967.6100
G1 X106.279 Y56.752
G1 X128.602 Y78.762 E969.1740
G1 X129.160 Y78.762
G1 X106.837 Y56.752 E970.7380
G1 X107.394 Y56.752
G1 X129.718 Y78.762 E972.3020
G1 X130.276 Y78.762
G1 X107.952 Y56.752 E973.8660
G1 X108.510 Y56.752
G1 X130.834 Y78.762 E975.4302
G1 X131.392 Y78.762
G1 X109.068 Y56.752 E976.9942
G1 X109.626 Y56.752
G1 X131.950 Y78.762 E978.5582
G1 X132.508 Y78.762
G1 X110.184 Y56.752 E980.1222
G1 X110.742 Y56.752
G1 X133.066 Y78.762 E981.6862
G1 X133.624 Y78.762
G1 X111.300 Y56.752 E983.2502
G1 X111.858 Y56.752
G1 X134.182 Y78.762 E984.8142
G1 X134.740 Y78.762
G1 X112.416 Y56.752 E986.3782
G1 X112.974 Y56.752
G1 X135.297 Y78.762 E987.9424
G1 X135.855 Y78.762
G1 X113.532 Y56.752 E989.5064
G1 X114.090 Y56.752
G1 X136.413 Y78.762 E991.0704
G1 X136.971 Y78.762
G1 X114.648 Y56.752 E992.6344
G1 X115.206 Y56.752
G1 X137.529 Y78.762 E994.1984
G1 X138.087 Y78.762
G1 X115.764 Y56.752 E995.7624
G1 X116.322 Y56.752
G1 X138.645 Y78.762 E997.3264
G1 X139.203 Y78.762
G1 X116.880 Y56.752 E998.8904
G1 X117.438 Y56.752
G1 X139.761 Y78.762 E1000.4546
G1 X140.319 Y78.762
G1 X117.996 Y56.752 E1002.0186
G1 X118.554 Y56.752
G1 X140.877 Y78.762 E1003.5826
G1 X141.435 Y78.762
G1 X119.112 Y56.752 E1005.1466
G1 X119.670 Y56.752
G1 X141.993 Y78.762 E1006.7106
G1 X142.551 Y78.762
G1 X120.228 Y56.752 E1008.2746
G1 X120.786 Y56.752
G1 X165.351 Y100.692 E1011.3970
G1 X170.258 Y93.977 F10800
G1 X162.249 Y86.081 E1011.9582 F3600
G1 X162.683 Y85.958
G1 X170.258 Y93.427 E1012.4890
G1 X170.258 Y92.877
G1 X163.116 Y85.835 E1012.9894
G1 X163.550 Y85.713
G1 X170.258 Y92.327 E1013.4594
G1 X170.258 Y91.777
G1 X163.913 Y85.521 E1013.9038
G1 X164.204 Y85.257
G1 X170.258 Y91.227 E1014.3280
G1 X170.258 Y90.676
G1 X164.494 Y84.993 E1014.7320
G1 X164.784 Y84.729
G1 X170.258 Y90.126 E1015.1154
G1 X170.258 Y89.576
G1 X165.074 Y84.465 E1015.4786
G1 X165.364 Y84.201
G1 X170.258 Y89.026 E1015.8216
G1 X170.258 Y88.476
G1 X165.654 Y83.937 E1016.1442
G1 X165.945 Y83.673
G1 X170.258 Y87.925 E1016.4464
G1 X170.258 Y87.375
G1 X166.147 Y83.322 E1016.7344
G1 X166.346 Y82.968
G1 X170.258 Y86.825 E1017.0084
G1 X170.258 Y86.275
G1 X166.545 Y82.614 E1017.2686
G1 X166.743 Y82.259
G1 X170.258 Y85.725 E1017.5150
G1 X170.258 Y85.175
G1 X166.942 Y81.905 E1017.7474
G1 X167.140 Y81.550
G1 X170.258 Y84.624 E1017.9658
G1 X170.258 Y84.074
G1 X167.339 Y81.196 E1018.1702
G1 X167.537 Y80.842
G1 X170.258 Y83.524 E1018.3608
G1 X170.258 Y82.974
G1 X167.689 Y80.442 E1018.5408
G1 X167.812 Y80.012
G1 X170.258 Y82.424 E1018.7122
G1 X170.258 Y81.874
G1 X167.934 Y79.583 E1018.8750
G1 X168.057 Y79.154
G1 X170.258 Y81.323 E1019.0292
G1 X170.258 Y80.773
G1 X168.179 Y78.724 E1019.1748
G1 X168.302 Y78.295
G1 X170.258 Y80.223 E1019.3118
G1 X170.258 Y79.673
G1 X168.424 Y77.865 E1019.4402
G1 X168.547 Y77.436
G1 X170.258 Y79.123 E1019.5602
G1 X170.258 Y78.573
G1 X168.660 Y76.998 E1019.6720
G1 X168.705 Y76.492
G1 X170.257 Y78.022 E1019.7808
G1 X170.257 Y77.472
G1 X168.750 Y75.986 E1019.8864
G1 X168.795 Y75.480
G1 X170.257 Y76.922 E1019.9888
G1 X170.257 Y76.372
G1 X168.840 Y74.974 E1020.0882
G1 X168.885 Y74.468
G1 X170.257 Y75.822 E1020.1844
G1 X170.257 Y75.271
G1 X168.930 Y73.962 E1020.2774
G1 X168.975 Y73.457
G1 X170.257 Y74.721 E1020.3672
G1 X170.257 Y74.171
G1 X169.000 Y72.931 E1020.4554
G1 X168.946 Y72.328
G1 X170.257 Y73.621 E1020.5472
G1 X170.257 Y73.071
G1 X168.893 Y71.725 E1020.6428
G1 X168.839 Y71.122
G1 X170.257 Y72.521 E1020.7422
G1 X170.257 Y71.970
G1 X168.786 Y70.520 E1020.8452
G1 X168.732 Y69.917
G1 X170.257 Y71.420 E1020.9520
G1 X170.257 Y70.870
G1 X168.678 Y69.314 E1021.0626
G1 X168.315 Y67.855 F10800
G1 X170.257 Y69.770 E1021.1986 F3600
G1 X170.257 Y70.320
G1 X168.533 Y68.620 E1021.3194
G1 X168.605 Y73.052 F10800
G1 X168.256 Y76.986
G1 X167.238 Y80.551
G1 X163.566 Y85.290
G1 X160.743 Y86.246
G1 X170.259 Y95.628 E1021.9862 F3600
G1 X170.259 Y95.078
G1 X161.382 Y86.326 E1022.6080
G1 X159.960 Y86.024 F10800
G1 X170.259 Y96.178 E1023.3296 F3600
G1 X170.259 Y96.728
G1 X159.178 Y85.803 E1024.1058
G1 X156.774 Y83.411 F10800
G1 X154.666 Y80.254
G1 X130.829 Y56.752 E1025.7760 F3600
G1 X130.271 Y56.752
G1 X155.079 Y81.212 E1027.5140
G1 X155.768 Y82.440 F10800
G1 X129.713 Y56.752 E1029.3396 F3600
G1 X129.155 Y56.752
G1 X170.259 Y97.278 E1032.2192
G1 X170.259 Y97.829
G1 X128.597 Y56.752 E1035.1382
G1 X128.039 Y56.752
G1 X170.259 Y98.379 E1038.0962
G1 X170.259 Y98.929
G1 X127.481 Y56.752 E1041.0934
G1 X126.923 Y56.752
G1 X170.259 Y99.479 E1044.1294
G1 X170.259 Y100.029
G1 X126.365 Y56.752 E1047.2048
G1 X125.807 Y56.752
G1 X170.259 Y100.580 E1050.3192
G1 X170.259 Y101.130
G1 X125.249 Y56.752 E1053.4726
G1 X124.692 Y56.752
G1 X170.259 Y101.680 E1056.6650
G1 X170.259 Y102.230
G1 X124.134 Y56.752 E1059.8968
G1 X123.576 Y56.752
G1 X170.259 Y102.780 E1063.1676
G1 X170.259 Y103.330
G1 X123.018 Y56.752 E1066.4774
G1 X122.460 Y56.752
G1 X170.259 Y103.881 E1069.8262
G1 X170.259 Y104.431
G1 X121.902 Y56.752 E1073.2142
G1 X161.204 Y60.150 F10800
G1 X163.566 Y60.815
G1 X165.635 Y62.694
G1 X167.659 Y65.558
G1 X170.257 Y68.119 E1073.3962 F3600
G1 X170.257 Y67.569
G1 X167.067 Y64.424 E1073.6198
G1 X168.096 Y67.089 F10800
G1 X170.257 Y69.219 E1073.7712 F3600
G1 X170.257 Y68.669
G1 X167.878 Y66.324 E1073.9378
G1 X167.161 Y56.814 F10800
G1 X170.190 Y59.801 E1074.1500 F3600
G1 X170.254 Y60.414
G1 X166.539 Y56.752 E1074.4104
G1 X165.981 Y56.752
G1 X170.256 Y60.967 E1074.7098
G1 X170.256 Y61.517
G1 X165.423 Y56.752 E1075.0486
G1 X164.865 Y56.752
G1 X170.256 Y62.067 E1075.4262
G1 X170.256 Y62.617
G1 X164.307 Y56.752 E1075.8430
G1 X163.749 Y56.752
G1 X170.256 Y63.167 E1076.2988
G1 X170.256 Y63.718
G1 X163.191 Y56.752 E1076.7938
G1 X162.633 Y56.752
G1 X170.256 Y64.268 E1077.3280
G1 X170.256 Y64.818
G1 X162.075 Y56.752 E1077.9010
G1 X161.517 Y56.752
G1 X170.256 Y65.368 E1078.5134
G1 X170.256 Y65.918
G1 X160.960 Y56.752 E1079.1648
G1 X160.402 Y56.752
G1 X170.257 Y66.468 E1079.8552
G1 X170.257 Y67.019
G1 X166.378 Y63.195 E1080.1268
G1 X169.974 Y59.039 F10800
G1 X167.909 Y57.002 E1080.2716 F3600
G1 X163.531 Y60.387 F10800
G1 X159.844 Y56.752 E1080.5298 F3600
G1 X159.286 Y56.752
G1 X162.748 Y60.166 E1080.7724
G1 X161.966 Y59.944
G1 X158.728 Y56.752 E1080.9992
G1 X158.170 Y56.752
G1 X161.193 Y59.732 E1081.2110
G1 X160.759 Y59.855
G1 X157.612 Y56.752 E1081.4314
G1 X157.054 Y56.752
G1 X160.325 Y59.978 E1081.6606
G1 X159.892 Y60.100
G1 X156.496 Y56.752 E1081.8986
G1 X155.938 Y56.752
G1 X159.458 Y60.223 E1082.1454
G1 X159.025 Y60.346
G1 X155.380 Y56.752 E1082.4006
G1 X154.822 Y56.752
G1 X158.607 Y60.483 E1082.6658
G1 X158.316 Y60.747
G1 X154.264 Y56.752 E1082.9498
G1 X153.706 Y56.752
G1 X158.026 Y61.011 E1083.2524
G1 X157.736 Y61.275
G1 X153.148 Y56.752 E1083.5740
G1 X152.590 Y56.752
G1 X157.446 Y61.539 E1083.9142
G1 X157.156 Y61.803
G1 X152.032 Y56.752 E1084.2732
G1 X151.474 Y56.752
G1 X156.865 Y62.067 E1084.6508
G1 X156.575 Y62.331
G1 X150.916 Y56.752 E1085.0472
G1 X150.358 Y56.752
G1 X156.337 Y62.647 E1085.4662
G1 X156.139 Y63.002
G1 X149.800 Y56.752 E1085.9104
G1 X149.242 Y56.752
G1 X155.940 Y63.356 E1086.3796
G1 X155.742 Y63.710
G1 X148.684 Y56.752 E1086.8740
G1 X148.126 Y56.752
G1 X155.543 Y64.065 E1087.3938
G1 X155.345 Y64.419
G1 X147.568 Y56.752 E1087.9386
G1 X147.010 Y56.752
G1 X155.146 Y64.774 E1088.5086
G1 X154.948 Y65.128
G1 X146.452 Y56.752 E1089.1038
G1 X145.894 Y56.752
G1 X154.767 Y65.499 E1089.7254
G1 X154.644 Y65.929
G1 X145.336 Y56.752 E1090.3774
G1 X144.778 Y56.752
G1 X154.522 Y66.358 E1091.0602
G1 X154.399 Y66.787
G1 X144.220 Y56.752 E1091.7732
G1 X143.662 Y56.752
G1 X154.276 Y67.217 E1092.5168
G1 X154.154 Y67.646
G1 X143.105 Y56.752 E1093.2910
G1 X142.547 Y56.752
G1 X154.031 Y68.075 E1094.0958
G1 X153.909 Y68.505
G1 X141.989 Y56.752 E1094.9310
G1 X141.431 Y56.752
G1 X153.786 Y68.934 E1095.7966
G1 X153.721 Y69.420
G1 X140.873 Y56.752 E1096.6968
G1 X140.315 Y56.752
G1 X153.676 Y69.926 E1097.6330
G1 X153.631 Y70.432
G1 X139.757 Y56.752 E1098.6050
G1 X139.199 Y56.752
G1 X153.586 Y70.937 E1099.6130
G1 X153.541 Y71.443
G1 X138.641 Y56.752 E1100.6570
G1 X138.083 Y56.752
G1 X153.496 Y71.949 E1101.7370
G1 X153.452 Y72.455
G1 X137.525 Y56.752 E1102.8528
G1 X136.967 Y56.752
G1 X153.407 Y72.961 E1104.0046
G1 X153.442 Y73.546
G1 X136.409 Y56.752 E1105.1980
G1 X135.851 Y56.752
G1 X153.496 Y74.149 E1106.4342
G1 X153.549 Y74.752
G1 X135.293 Y56.752 E1107.7134
G1 X134.735 Y56.752
G1 X153.603 Y75.355 E1109.0352
G1 X153.656 Y75.958
G1 X134.177 Y56.752 E1110.4000
G1 X133.619 Y56.752
G1 X153.710 Y76.561 E1111.8076
G1 X153.793 Y77.192
G1 X133.061 Y56.752 E1113.2600
G1 X132.503 Y56.752
G1 X154.011 Y77.958 E1114.7668
G1 X154.448 Y79.489 F10800
G1 X131.387 Y56.752 E1116.3826 F3600
G1 X131.945 Y56.752
G1 X154.229 Y78.723 E1117.9438
G1 X143.006 Y79.211 F10800
G1 X164.719 Y100.619 E1119.4652 F3600
G1 X164.147 Y100.605
G1 X143.006 Y79.761 E1120.9464
G1 X143.006 Y80.311
G1 X163.594 Y100.610 E1122.3888
G1 X163.076 Y100.649
G1 X143.006 Y80.861 E1123.7948
G1 X143.006 Y81.411
G1 X162.610 Y100.740 E1125.1684
G1 X162.197 Y100.883
G1 X143.006 Y81.961 E1126.5128
G1 X143.006 Y82.512
G1 X161.895 Y101.136 E1127.8362
G1 X161.594 Y101.389
G1 X143.006 Y83.062 E1129.1384
G1 X143.006 Y83.612
G1 X161.293 Y101.642 E1130.4196
G1 X161.517 Y101.863
G1 X167.405 Y107.668 E1130.8320
G1 X167.405 Y108.218
G1 X143.006 Y84.162 E1132.5414
G1 X143.006 Y84.712
G1 X167.405 Y108.768 E1134.2508
G1 X167.405 Y109.318
G1 X143.006 Y85.262 E1135.9602
G1 X143.006 Y85.812
G1 X167.405 Y109.868 E1137.6694
G1 X167.405 Y110.419
G1 X143.006 Y86.363 E1139.3788
G1 X143.006 Y86.913
G1 X167.405 Y110.969 E1141.0882
G1 X167.405 Y111.519
G1 X143.006 Y87.463 E1142.7976
G1 X143.006 Y88.013
G1 X167.405 Y112.069 E1144.5068
G1 X167.405 Y112.619
G1 X143.006 Y88.563 E1146.2162
G1 X143.006 Y89.113
G1 X167.405 Y113.169 E1147.9256
G1 X167.405 Y113.719
G1 X143.006 Y89.663 E1149.6350
G1 X143.006 Y90.214
G1 X167.405 Y114.270 E1151.3442
G1 X167.405 Y114.820
G1 X143.006 Y90.764 E1153.0536
G1 X143.006 Y91.314
G1 X167.405 Y115.370 E1154.7630
G1 X167.405 Y115.920
G1 X143.006 Y91.864 E1156.4724
G1 X143.006 Y92.414
G1 X167.689 Y116.751 E1158.2018
G1 X162.560 Y102.341 F10800
G1 X167.405 Y107.118 E1158.5412 F3600
G1 X167.405 Y106.568
G1 X163.118 Y102.341 E1158.8414
G1 X163.676 Y102.341
G1 X167.405 Y106.017 E1159.1028
G1 X167.405 Y105.467
G1 X164.234 Y102.341 E1159.3248
G1 X164.792 Y102.341
G1 X167.405 Y104.917 E1159.5080
G1 X167.405 Y104.367
G1 X165.350 Y102.341 E1159.6520
G1 X165.826 Y102.261
G1 X167.405 Y103.817 E1159.7626
; ------------------------------------
; Layer #2
; ------------------------------------
G21 ; mm
G90 ; abs
G92 E0 ; reset extr
M106 S255
;segType:HShell
G1 F4800 E-1.0000
G1 F300 Z0.900
G1 X167.405 Y110.642 F10800
G1 F4800 E0.0000
G1 X160.181 Y117.764 E0.5061 F3600
;segType:Perimeter
G1 X160.060 Y118.029 F10800
G1 X159.404 Y118.297 E0.5415 F2159
G1 X159.404 Y101.750 E1.3670
G1 X168.005 Y101.750 E1.7961
G1 X168.005 Y118.356 E2.6246
G1 X159.464 Y118.356 E3.0507
G1 X159.735 Y117.709
;segType:Loop
G1 X159.804 Y117.286 F10800
G1 X159.804 Y102.144 E3.8061 F3600
G1 X167.605 Y102.144 E4.1953
G1 X167.605 Y117.961 E4.9844
G1 X159.804 Y117.961 E5.3735
G1 X159.804 Y117.480 E5.3975
;segType:HShell
G1 X160.739 Y117.764 F10800
G1 X167.405 Y111.192 E5.8645 F3600
G1 X167.405 Y111.742
G1 X161.297 Y117.764 E6.2925
G1 X161.855 Y117.764
G1 X167.405 Y112.292 E6.6813
G1 X167.405 Y112.842
G1 X162.413 Y117.764 E7.0310
G1 X162.971 Y117.764
G1 X167.405 Y113.392 E7.3417
G1 X167.405 Y113.942
G1 X163.529 Y117.764 E7.6133
G1 X164.087 Y117.764
G1 X167.405 Y114.493 E7.8457
G1 X167.405 Y115.043
G1 X164.645 Y117.764 E8.0391
G1 X165.203 Y117.764
G1 X167.405 Y115.593 E8.1934
G1 X167.405 Y116.143
G1 X165.760 Y117.764 E8.3086
G1 X166.318 Y117.764
G1 X167.405 Y116.693 E8.3847
G1 X167.405 Y117.243
G1 X166.876 Y117.764 E8.4217
G1 X167.405 Y110.091 F10800
G1 X160.004 Y117.388 E8.9402 F3600
G1 X160.004 Y116.838
G1 X167.405 Y109.541 E9.4586
G1 X167.405 Y108.991
G1 X160.004 Y116.288 E9.9771
G1 X160.004 Y115.737
G1 X167.405 Y108.441 E10.4956
G1 X167.405 Y107.891
G1 X160.004 Y115.187 E11.0141
G1 X160.004 Y114.637
G1 X167.405 Y107.341 E11.5326
G1 X167.405 Y106.791
G1 X160.004 Y114.087 E12.0510
G1 X160.004 Y113.537
G1 X167.405 Y106.240 E12.5695
G1 X167.405 Y105.690
G1 X160.004 Y112.987 E13.0880
G1 X160.004 Y112.437
G1 X167.405 Y105.140 E13.6065
G1 X167.405 Y104.590
G1 X160.004 Y111.886 E14.1250
G1 X160.004 Y111.336
G1 X167.405 Y104.040 E14.6435
G1 X167.405 Y103.490
G1 X160.004 Y110.786 E15.1619
G1 X160.004 Y110.236
G1 X167.405 Y102.940 E15.6804
G1 X167.405 Y102.389
G1 X160.004 Y109.686 E16.1989
G1 X160.004 Y109.136
G1 X166.896 Y102.341 E16.6817
G1 X166.338 Y102.341
G1 X160.004 Y108.586 E17.1254
G1 X160.004 Y108.035
G1 X165.780 Y102.341 E17.5301
G1 X165.222 Y102.341
G1 X160.004 Y107.485 E17.8956
G1 X160.004 Y106.935
G1 X164.664 Y102.341 E18.2221
G1 X164.106 Y102.341
G1 X160.004 Y106.385 E18.5094
G1 X160.004 Y105.835
G1 X163.548 Y102.341 E18.7577
G1 X162.990 Y102.341
G1 X160.004 Y105.285 E18.9669
G1 X160.004 Y104.735
G1 X162.432 Y102.341 E19.1369
G1 X161.874 Y102.341
G1 X160.004 Y104.184 E19.2679
G1 X160.004 Y103.634
G1 X161.316 Y102.341 E19.3598
G1 X160.758 Y102.341
G1 X160.004 Y103.084 E19.4126
G1 X160.004 Y102.534
G1 X160.200 Y102.341 E19.4263
;segType:SoftSupport
G1 F4800 E18.4263
G1 X112.200 Y123.400 F10800
G1 F4800 E19.4263
G1 X150.000 Y123.400 E20.2750 F5400
G1 F4800 E19.2750
G1 X168.301 Y121.707 F10800
G1 X170.916 Y121.466
G1 F4800 E20.2750
;segType:Perimeter
G1 X170.304 Y121.822 E20.3103 F2159
G1 X169.929 Y122.688 E20.3574
G1 X169.653 Y123.082 E20.3813
G1 X169.353 Y123.423 E20.4040
G1 X168.898 Y123.814 E20.4340
G1 X168.388 Y124.129 E20.4638
G1 X168.094 Y124.266 E20.4800
G1 X167.520 Y124.454 E20.5102
G1 X166.617 Y124.563 E20.5555
G1 X157.117 Y124.563 E21.0295
G1 X41.889 Y124.563 E26.7782
G1 X33.800 Y124.563 E27.1818
G1 X33.468 Y124.547 E27.1984
G1 X32.773 Y124.420 E27.2336
G1 X32.337 Y124.274 E27.2566
G1 X31.632 Y123.895 E27.2965
G1 X31.060 Y123.426 E27.3334
G1 X30.839 Y123.185 E27.3497
G1 X30.489 Y122.700 E27.3795
G1 X30.218 Y122.164 E27.4095
G1 X30.070 Y121.725 E27.4326
G1 X29.955 Y121.147 E27.4620
G1 X29.925 Y120.694 E27.4847
G1 X29.925 Y60.412 E30.4922
G1 X29.939 Y60.099 E30.5078
G1 X30.003 Y59.658 E30.5300
G1 X30.212 Y58.955 E30.5666
G1 X30.588 Y58.253 E30.6064
G1 X31.070 Y57.668 E30.6442
G1 X31.524 Y57.282 E30.6739
G1 X31.907 Y57.039 E30.6965
G1 X32.316 Y56.838 E30.7193
G1 X33.027 Y56.623 E30.7563
G1 X33.759 Y56.544 E30.7930
G1 X34.403 Y56.541 E30.8252
G1 X166.605 Y56.541 E37.4208
G1 X166.907 Y56.553 E37.4358
G1 X167.469 Y56.641 E37.4642
G1 X168.069 Y56.830 E37.4956
G1 X168.840 Y57.256 E37.5396
G1 X169.337 Y57.669 E37.5718
G1 X169.571 Y57.925 E37.5891
G1 X169.906 Y58.386 E37.6175
G1 X170.176 Y58.913 E37.6471
G1 X170.328 Y59.350 E37.6702
G1 X170.454 Y59.988 E37.7026
G1 X170.480 Y60.681 E37.7372
G1 X170.481 Y65.273 E37.9663
G1 X170.485 Y119.997 E40.6965
G1 X170.484 Y120.716 E40.7324
G1 X170.450 Y121.177 E40.7554
G1 X170.339 Y121.711 E40.7826
G1 X170.637 Y122.347
G1 F4800 E39.7826
G1 X170.211 Y122.532 F10800
G1 X169.493 Y123.560
G1 X159.495 Y124.758
G1 X33.445 Y124.740
G1 X32.258 Y124.452
G1 X30.923 Y123.566
G1 X30.036 Y122.238
G1 X29.728 Y120.700
G1 X29.728 Y60.412
G1 X29.946 Y60.246
G1 X29.946 Y60.219
G1 X29.689 Y60.219
G1 F4800 E40.7826
G1 X29.303 Y60.219 E40.8019 F2159
G1 X29.330 Y59.821 E40.8218
G1 X29.428 Y59.323 E40.8471
G1 X29.550 Y58.904 E40.8689
G1 X29.671 Y58.602 E40.8851
G1 X29.956 Y58.056 E40.9158
G1 X30.310 Y57.557 E40.9464
G1 X30.729 Y57.111 E40.9769
G1 X31.221 Y56.713 E41.0085
G1 X31.458 Y56.558 E41.0226
G1 X31.873 Y56.338 E41.0460
G1 X32.298 Y56.160 E41.0690
G1 X32.593 Y56.066 E41.0844
G1 X33.195 Y55.942 E41.1151
G1 X33.796 Y55.901 E41.1452
G1 X46.264 Y55.900 E41.7672
G1 X166.592 Y55.900 E47.7704
G1 X167.261 Y55.953 E47.8039
G1 X167.833 Y56.072 E47.8330
G1 X168.104 Y56.159 E47.8472
G1 X168.533 Y56.338 E47.8704
G1 X168.933 Y56.550 E47.8930
G1 X169.196 Y56.721 E47.9087
G1 X169.567 Y57.016 E47.9323
G1 X169.905 Y57.338 E47.9556
G1 X170.203 Y57.698 E47.9789
G1 X170.466 Y58.083 E48.0022
G1 X170.687 Y58.504 E48.0259
G1 X170.856 Y58.906 E48.0476
G1 X170.987 Y59.354 E48.0709
G1 X171.074 Y59.804 E48.0938
G1 X171.116 Y60.423 E48.1248
G1 X171.120 Y119.990 E51.0966
G1 X171.120 Y120.698 E51.1319
G1 X171.091 Y121.169 E51.1554
G1 X171.017 Y121.637 E51.1791
G1 X170.950 Y121.914 E51.1933
G1 X170.743 Y122.493 E51.2240
G1 X170.607 Y122.778 E51.2397
G1 X170.294 Y123.291 E51.2697
G1 X170.006 Y123.654 E51.2928
G1 X169.531 Y124.119 E51.3260
G1 X169.190 Y124.389 E51.3477
G1 X168.924 Y124.560 E51.3635
G1 X168.376 Y124.840 E51.3942
G1 X167.801 Y125.041 E51.4245
G1 X167.377 Y125.134 E51.4462
G1 X166.908 Y125.193 E51.4698
G1 X166.601 Y125.204 E51.4851
G1 X156.937 Y125.204 E51.9672
G1 X45.762 Y125.204 E57.5138
G1 X33.796 Y125.203 E58.1108
G1 X33.195 Y125.162 E58.1408
G1 X32.588 Y125.036 E58.1718
G1 X32.005 Y124.829 E58.2026
G1 X31.435 Y124.529 E58.2348
G1 X30.937 Y124.173 E58.2653
G1 X30.501 Y123.765 E58.2951
G1 X30.115 Y123.291 E58.3256
G1 X29.796 Y122.765 E58.3563
G1 X29.658 Y122.470 E58.3725
G1 X29.500 Y122.039 E58.3954
G1 X29.356 Y121.436 E58.4264
G1 X29.301 Y121.003 E58.4482
G1 X29.289 Y120.684 E58.4641
G1 X29.289 Y61.280 E61.4277
G1 X29.289 Y60.798 E61.4518
G1 X29.748 Y60.798 E61.4747
G1 X29.748 Y60.278 E61.5007
G1 X29.477 Y59.631
;segType:SoftSupport
G1 F4800 E60.5007
G1 X31.200 Y60.400 F10800
G1 F4800 E61.5007
G1 X30.726 Y60.400 E61.5113 F5400
; ------------------------------------
; Layer #3
; ------------------------------------
G21 ; mm
G90 ; abs
G92 E0 ; reset extr
M106 S255
;segType:Support
G1 F4800 E-1.0000
G1 F300 Z1.200
G1 X30.536 Y60.400 F10800
G1 F4800 E0.0000
G1 X31.200 Y60.400 E0.0282 F5400
G1 F4800 E-0.9718
G1 X112.200 Y123.400 F10800
G1 F4800 E0.0282
G1 X150.000 Y123.400 E1.6312 F5400
G1 F4800 E0.6312
G1 X157.761 Y119.173 F10800
G1 X160.347 Y117.764
G1 F4800 E1.6312
;segType:HShell
G1 X160.004 Y117.426 E1.6552 F3600
;segType:Loop
G1 X159.804 Y117.286 F10800
G1 X159.804 Y102.144 E2.4106 F3600
G1 X167.605 Y102.144 E2.7998
G1 X167.605 Y117.961 E3.5889
G1 X159.804 Y117.961 E3.9780
G1 X159.804 Y117.480 E4.0020
;segType:Perimeter
G1 X160.060 Y118.029 F10800
G1 X159.404 Y118.297 E4.0374 F2159
G1 X159.404 Y101.750 E4.8629
G1 X168.005 Y101.750 E5.2920
G1 X168.005 Y118.356 E6.1205
G1 X159.464 Y118.356 E6.5466
G1 X159.735 Y117.709
;segType:HShell
G1 X160.905 Y117.764 F10800
G1 X160.004 Y116.876 E6.6097 F3600
G1 X160.004 Y116.325
G1 X161.463 Y117.764 E6.7119
G1 X162.021 Y117.764
G1 X160.004 Y115.775 E6.8532
G1 X160.004 Y115.225
G1 X162.579 Y117.764 E7.0336
G1 X163.137 Y117.764
G1 X160.004 Y114.675 E7.2531
G1 X160.004 Y114.125
G1 X163.695 Y117.764 E7.5117
G1 X164.253 Y117.764
G1 X160.004 Y113.575 E7.8094
G1 X160.004 Y113.025
G1 X164.811 Y117.764 E8.1462
G1 X165.369 Y117.764
G1 X160.004 Y112.475 E8.5220
G1 X160.004 Y111.924
G1 X165.927 Y117.764 E8.9370
G1 X166.485 Y117.764
G1 X160.004 Y111.374 E9.3911
G1 X160.004 Y110.824
G1 X167.043 Y117.764 E9.8842
G1 X167.405 Y117.570
G1 X160.004 Y110.274 E10.4027
G1 X160.004 Y109.724
G1 X167.405 Y117.020 E10.9212
G1 X167.405 Y116.470
G1 X160.004 Y109.174 E11.4396
G1 X160.004 Y108.624
G1 X167.405 Y115.920 E11.9581
G1 X167.405 Y115.370
G1 X160.004 Y108.073 E12.4766
G1 X160.004 Y107.523
G1 X167.405 Y114.820 E12.9951
G1 X167.405 Y114.270
G1 X160.004 Y106.973 E13.5136
G1 X160.004 Y106.423
G1 X167.405 Y113.719 E14.0321
G1 X167.405 Y113.169
G1 X160.004 Y105.873 E14.5505
G1 X160.004 Y105.323
G1 X167.405 Y112.619 E15.0690
G1 X167.405 Y112.069
G1 X160.004 Y104.773 E15.5875
G1 X160.004 Y104.222
G1 X167.405 Y111.519 E16.1060
G1 X167.405 Y110.969
G1 X160.004 Y103.672 E16.6245
G1 X160.004 Y103.122
G1 X167.405 Y110.419 E17.1429
G1 X167.405 Y109.868
G1 X160.004 Y102.572 E17.6614
G1 X160.328 Y102.341
G1 X167.405 Y109.318 E18.1572
G1 X167.405 Y108.768
G1 X160.886 Y102.341 E18.6139
G1 X161.444 Y102.341
G1 X167.405 Y108.218 E19.0315
G1 X167.405 Y107.668
G1 X162.002 Y102.341 E19.4100
G1 X162.560 Y102.341
G1 X167.405 Y107.118 E19.7495
G1 X167.405 Y106.568
G1 X163.118 Y102.341 E20.0498
G1 X163.676 Y102.341
G1 X167.405 Y106.017 E20.3110
G1 X167.405 Y105.467
G1 X164.234 Y102.341 E20.5332
G1 X164.792 Y102.341
G1 X167.405 Y104.917 E20.7162
G1 X167.405 Y104.367
G1 X165.350 Y102.341 E20.8602
G1 X165.908 Y102.341
G1 X167.405 Y103.817 E20.9650
G1 X167.405 Y103.267
G1 X166.466 Y102.341 E21.0308
G1 X167.024 Y102.341
G1 X167.405 Y102.717 E21.0575
;segType:Support
G1 F4800 E20.0575
G1 X31.200 Y58.600 F10800
G1 F4800 E21.0575
G1 X31.092 Y58.600 E21.0621 F5400
;segType:Perimeter
G1 F4800 E20.0621
G1 X29.219 Y60.567 F10800
G1 F4800 E21.0621
G1 X29.753 Y60.106 E21.0973 F2159
G1 X29.837 Y59.537 E21.1260
G1 X30.056 Y58.834 E21.1627
G1 X30.405 Y58.184 E21.1995
G1 X30.844 Y57.635 E21.2346
G1 X31.044 Y57.442 E21.2484
G1 X31.490 Y57.077 E21.2772
G1 X31.887 Y56.836 E21.3003
G1 X32.334 Y56.629 E21.3249
G1 X33.041 Y56.426 E21.3616
G1 X33.796 Y56.350 E21.3995
G1 X166.605 Y56.350 E28.0253
G1 X166.914 Y56.363 E28.0408
G1 X167.602 Y56.477 E28.0756
G1 X168.190 Y56.674 E28.1065
G1 X168.987 Y57.122 E28.1521
G1 X169.457 Y57.521 E28.1829
G1 X169.764 Y57.865 E28.2059
G1 X170.099 Y58.340 E28.2349
G1 X170.372 Y58.889 E28.2655
G1 X170.527 Y59.357 E28.2901
G1 X170.640 Y59.926 E28.3191
G1 X170.671 Y60.410 E28.3432
G1 X170.673 Y91.830 E29.9108
G1 X170.675 Y119.615 E31.2970
G1 X170.671 Y120.783 E31.3553
G1 X170.620 Y121.296 E31.3810
G1 X170.485 Y121.895 E31.4116
G1 X170.121 Y122.734 E31.4572
G1 X169.809 Y123.192 E31.4849
G1 X169.503 Y123.541 E31.5080
G1 X169.041 Y123.943 E31.5386
G1 X168.525 Y124.270 E31.5691
G1 X168.188 Y124.432 E31.5877
G1 X167.610 Y124.626 E31.6182
G1 X167.421 Y124.664 E31.6278
G1 X166.616 Y124.754 E31.6682
G1 X154.434 Y124.753 E32.2759
G1 X85.735 Y124.753 E35.7033
G1 X33.799 Y124.754 E38.2945
G1 X33.374 Y124.725 E38.3157
G1 X32.686 Y124.594 E38.3506
G1 X32.216 Y124.430 E38.3755
G1 X31.568 Y124.081 E38.4122
G1 X30.909 Y123.544 E38.4546
G1 X30.659 Y123.263 E38.4734
G1 X30.307 Y122.765 E38.5038
G1 X30.034 Y122.215 E38.5344
G1 X29.879 Y121.747 E38.5590
G1 X29.766 Y121.178 E38.5880
G1 X29.734 Y120.694 E38.6122
G1 X29.734 Y60.412 E41.6196
G1 X29.743 Y60.222 E41.6291
G1 X29.303 Y59.672
G1 F4800 E40.6291
G1 X29.604 Y60.828 F10800
G1 F4800 E41.6291
G1 X29.111 Y60.324 E41.6643 F2159
G1 X29.147 Y59.823 E41.6894
G1 X29.236 Y59.331 E41.7143
G1 X29.375 Y58.850 E41.7393
G1 X29.528 Y58.477 E41.7594
G1 X29.824 Y57.923 E41.7907
G1 X30.189 Y57.416 E41.8219
G1 X30.618 Y56.963 E41.8530
G1 X31.162 Y56.533 E41.8877
G1 X31.365 Y56.400 E41.8997
G1 X31.809 Y56.164 E41.9248
G1 X32.243 Y55.985 E41.9483
G1 X32.567 Y55.883 E41.9652
G1 X33.182 Y55.758 E41.9965
G1 X33.748 Y55.719 E42.0248
G1 X36.710 Y55.717 E42.1726
G1 X166.594 Y55.717 E48.6525
G1 X167.223 Y55.758 E48.6840
G1 X167.916 Y55.906 E48.7193
G1 X168.147 Y55.981 E48.7314
G1 X168.598 Y56.165 E48.7557
G1 X168.985 Y56.369 E48.7776
G1 X169.285 Y56.561 E48.7954
G1 X169.693 Y56.881 E48.8212
G1 X170.053 Y57.228 E48.8461
G1 X170.370 Y57.614 E48.8711
G1 X170.647 Y58.029 E48.8960
G1 X170.886 Y58.507 E48.9226
G1 X171.031 Y58.851 E48.9412
G1 X171.170 Y59.332 E48.9662
G1 X171.258 Y59.792 E48.9896
G1 X171.300 Y60.423 E49.0211
G1 X171.301 Y79.993 E49.9975
G1 X171.304 Y119.551 E51.9711
G1 X171.302 Y120.745 E52.0306
G1 X171.265 Y121.247 E52.0557
G1 X171.173 Y121.760 E52.0817
G1 X171.115 Y121.997 E52.0939
G1 X170.908 Y122.575 E52.1245
G1 X170.744 Y122.908 E52.1431
G1 X170.449 Y123.390 E52.1713
G1 X170.139 Y123.781 E52.1961
G1 X169.742 Y124.180 E52.2242
G1 X169.250 Y124.569 E52.2555
G1 X168.933 Y124.762 E52.2740
G1 X168.488 Y124.993 E52.2991
G1 X167.900 Y125.205 E52.3302
G1 X167.428 Y125.311 E52.3544
G1 X166.914 Y125.377 E52.3802
G1 X166.601 Y125.387 E52.3958
G1 X161.231 Y125.388 E52.6638
G1 X81.533 Y125.388 E56.6399
G1 X35.596 Y125.387 E58.9317
G1 X33.748 Y125.385 E59.0239
G1 X33.183 Y125.346 E59.0522
G1 X32.539 Y125.213 E59.0850
G1 X31.922 Y124.993 E59.1177
G1 X31.396 Y124.721 E59.1472
G1 X30.761 Y124.261 E59.1863
G1 X30.353 Y123.876 E59.2143
G1 X29.961 Y123.390 E59.2455
G1 X29.635 Y122.854 E59.2768
G1 X29.468 Y122.487 E59.2969
G1 X29.311 Y122.046 E59.3202
G1 X29.168 Y121.416 E59.3525
G1 X29.121 Y121.045 E59.3711
G1 X29.106 Y120.683 E59.3892
G1 X29.106 Y63.314 E62.2514
G1 X29.107 Y60.441 E62.3947
G1 X29.635 Y59.973
; ------------------------------------
; Layer #4
; ------------------------------------
G21 ; mm
G90 ; abs
G92 E0 ; reset extr
M106 S255
;segType:Support
G1 F4800 E-1.0000
G1 F300 Z1.500
G1 X30.348 Y60.400 F10800
G1 F4800 E0.0000
G1 X31.200 Y60.400 E0.0361 F5400
G1 F4800 E-0.9639
G1 X112.406 Y123.606 F10800
G1 F4800 E0.0361
G1 X149.794 Y123.606 E1.6216 F5400
;segType:Loop
G1 F4800 E0.6216
G1 X157.932 Y126.268 F10800
G1 F4800 E1.6216
G1 X105.230 Y126.265 E4.2509 F3600
G1 X105.230 Y125.338 E4.2972
G1 X109.891 Y125.338 E4.5297
G1 X109.890 Y125.451 E4.5353
G1 X149.321 Y125.451 E6.5026
G1 X149.320 Y125.338 E6.5082
G1 X158.030 Y125.338 E6.9428
G1 X158.030 Y126.171 E6.9843
G1 F4800 E5.9843
G1 X158.702 Y124.982 F10800
G1 F4800 E6.9843
;segType:Perimeter
G1 X158.431 Y125.629 E7.0193 F2159
G1 X158.431 Y126.662 E7.0709
G1 X104.830 Y126.660 E9.7450
G1 X104.830 Y125.571 E9.7993
G1 X33.812 Y125.571 E13.3424
G1 X33.170 Y125.529 E13.3745
G1 X32.491 Y125.390 E13.4091
G1 X31.839 Y125.157 E13.4436
G1 X31.322 Y124.890 E13.4727
G1 X30.751 Y124.497 E13.5073
G1 X30.282 Y124.066 E13.5390
G1 X29.805 Y123.488 E13.5764
G1 X29.474 Y122.943 E13.6082
G1 X29.277 Y122.503 E13.6323
G1 X29.121 Y122.050 E13.6562
G1 X29.022 Y121.645 E13.6770
G1 X28.942 Y121.085 E13.7052
G1 X28.922 Y120.683 E13.7253
G1 X28.922 Y115.816 E13.9681
G1 X28.922 Y65.347 E16.4860
G1 X28.922 Y60.517 E16.7270
G1 X28.963 Y59.833 E16.7611
G1 X29.053 Y59.308 E16.7877
G1 X29.200 Y58.796 E16.8143
G1 X29.384 Y58.352 E16.8383
G1 X29.691 Y57.790 E16.8702
G1 X30.068 Y57.276 E16.9021
G1 X30.508 Y56.816 E16.9338
G1 X31.099 Y56.355 E16.9712
G1 X31.551 Y56.093 E16.9972
G1 X31.897 Y55.932 E17.0163
G1 X32.386 Y55.747 E17.0424
G1 X33.171 Y55.575 E17.0825
G1 X33.812 Y55.533 E17.1145
G1 X166.594 Y55.533 E23.7390
G1 X167.235 Y55.575 E23.7711
G1 X167.992 Y55.739 E23.8097
G1 X168.763 Y56.041 E23.8510
G1 X169.198 Y56.286 E23.8759
G1 X169.820 Y56.748 E23.9146
G1 X170.200 Y57.118 E23.9411
G1 X170.537 Y57.531 E23.9677
G1 X170.830 Y57.980 E23.9944
G1 X170.975 Y58.253 E24.0098
G1 X171.206 Y58.796 E24.0393
G1 X171.354 Y59.310 E24.0659
G1 X171.441 Y59.779 E24.0898
G1 X171.484 Y60.423 E24.1219
G1 X171.484 Y65.282 E24.3644
G1 X171.486 Y94.663 E25.8302
G1 X171.488 Y115.816 E26.8855
G1 X171.487 Y118.700 E27.0294
G1 X171.484 Y120.793 E27.1338
G1 X171.439 Y121.331 E27.1608
G1 X171.393 Y121.639 E27.1763
G1 X171.281 Y122.079 E27.1990
G1 X171.072 Y122.657 E27.2296
G1 X170.882 Y123.038 E27.2508
G1 X170.604 Y123.489 E27.2773
G1 X170.273 Y123.907 E27.3039
G1 X169.905 Y124.280 E27.3300
G1 X169.133 Y124.865 E27.3784
G1 X168.571 Y125.157 E27.4100
G1 X167.971 Y125.375 E27.4418
G1 X167.479 Y125.487 E27.4670
G1 X166.920 Y125.560 E27.4951
G1 X166.601 Y125.571 E27.5110
G1 X158.490 Y125.571 E27.9157
G1 X157.834 Y125.839
G1 F4800 E26.9157
G1 X154.335 Y126.066 F10800
G1 X148.858 Y125.057
G1 F4800 E27.9157
G1 X110.294 Y125.057 E29.8397 F2159
G1 X110.295 Y124.943 E29.8453
G1 X90.259 Y124.944 E30.8449
G1 X33.798 Y124.944 E33.6618
G1 X33.281 Y124.905 E33.6877
G1 X32.621 Y124.774 E33.7212
G1 X32.124 Y124.597 E33.7476
G1 X31.486 Y124.254 E33.7837
G1 X31.306 Y124.126 E33.7947
G1 X30.758 Y123.661 E33.8305
G1 X30.479 Y123.341 E33.8517
G1 X30.125 Y122.829 E33.8828
G1 X29.850 Y122.267 E33.9140
G1 X29.688 Y121.769 E33.9401
G1 X29.578 Y121.209 E33.9686
G1 X29.544 Y120.694 E33.9944
G1 X29.544 Y60.407 E37.0021
G1 X29.610 Y59.694 E37.0378
G1 X29.668 Y59.430 E37.0513
G1 X29.889 Y58.741 E37.0874
G1 X30.235 Y58.098 E37.1238
G1 X30.652 Y57.565 E37.1576
G1 X30.992 Y57.238 E37.1811
G1 X31.438 Y56.884 E37.2096
G1 X31.846 Y56.644 E37.2331
G1 X32.324 Y56.431 E37.2593
G1 X33.025 Y56.235 E37.2956
G1 X33.796 Y56.160 E37.3342
G1 X37.978 Y56.160 E37.5429
G1 X166.605 Y56.160 E43.9601
G1 X166.921 Y56.172 E43.9758
G1 X167.685 Y56.302 E44.0145
G1 X168.284 Y56.507 E44.0461
G1 X169.095 Y56.966 E44.0926
G1 X169.577 Y57.372 E44.1241
G1 X169.956 Y57.804 E44.1527
G1 X170.281 Y58.276 E44.1813
G1 X170.556 Y58.837 E44.2125
G1 X170.718 Y59.335 E44.2386
G1 X170.828 Y59.895 E44.2671
G1 X170.861 Y60.410 E44.2928
G1 X170.864 Y101.117 E46.3237
G1 X170.866 Y120.694 E47.3004
G1 X170.837 Y121.159 E47.3236
G1 X170.711 Y121.819 E47.3572
G1 X170.639 Y122.029 E47.3683
G1 X170.312 Y122.780 E47.4091
G1 X169.965 Y123.302 E47.4404
G1 X169.653 Y123.660 E47.4641
G1 X169.185 Y124.072 E47.4952
G1 X168.661 Y124.411 E47.5263
G1 X168.282 Y124.598 E47.5474
G1 X167.692 Y124.801 E47.5785
G1 X167.376 Y124.864 E47.5946
G1 X166.615 Y124.944 E47.6328
G1 X148.916 Y124.943 E48.5158
G1 X148.917 Y124.998 E48.5185
G1 X148.646 Y125.646
;segType:Support
G1 F4800 E47.5185
G1 X31.200 Y58.600 F10800
G1 F4800 E48.5185
G1 X30.871 Y58.600 E48.5325 F5400
; ------------------------------------
; Layer #5
; ------------------------------------
G21 ; mm
G90 ; abs
G92 E0 ; reset extr
M106 S255
;segType:Support
G1 F4800 E-1.0000
G1 F300 Z1.800
G1 X30.155 Y60.400 F10800
G1 F4800 E0.0000
G1 X31.200 Y60.400 E0.0443 F5400
G1 X30.654 Y58.600 E0.1241
G1 X31.200 Y58.600 E0.1472
G1 F4800 E-0.8528
G1 X112.706 Y123.906 F10800
G1 F4800 E0.1472
G1 X113.494 Y123.906 E0.1806 F5400
G1 X113.132 Y124.268 E0.2023
G1 F4800 E-0.7977
G1 X116.306 Y123.906 F10800
G1 F4800 E0.2023
G1 X117.094 Y123.906 E0.2357 F5400
G1 X116.732 Y124.268 E0.2574
G1 F4800 E-0.7426
G1 X119.906 Y123.906 F10800
G1 F4800 E0.2574
G1 X120.694 Y123.906 E0.2908 F5400
G1 X120.332 Y124.268 E0.3125
G1 F4800 E-0.6875
G1 X123.868 Y124.268 F10800
G1 F4800 E0.3125
G1 X123.506 Y123.906 E0.3342 F5400
G1 X127.894 Y123.906 E0.5203
G1 X127.532 Y124.268 E0.5420
G1 F4800 E-0.4580
G1 X130.706 Y123.906 F10800
G1 F4800 E0.5420
G1 X131.494 Y123.906 E0.5753 F5400
G1 X131.132 Y124.268 E0.5970
G1 F4800 E-0.4030
G1 X134.668 Y124.268 F10800
G1 F4800 E0.5970
G1 X134.306 Y123.906 E0.6187 F5400
G1 X135.094 Y123.906 E0.6521
G1 F4800 E-0.3479
G1 X138.268 Y124.268 F10800
G1 F4800 E0.6521
G1 X137.906 Y123.906 E0.6738 F5400
G1 X142.294 Y123.906 E0.8599
G1 X141.932 Y124.268 E0.8816
G1 F4800 E-0.1184
G1 X145.106 Y123.906 F10800
G1 F4800 E0.8816
G1 X145.894 Y123.906 E0.9150 F5400
G1 X145.532 Y124.268 E0.9367
G1 F4800 E-0.0633
G1 X149.068 Y124.268 F10800
G1 F4800 E0.9367
G1 X148.706 Y123.906 E0.9584 F5400
G1 X149.494 Y123.906 E0.9917
;segType:Loop
G1 F4800 E-0.0083
G1 X157.932 Y126.267 F10800
G1 F4800 E0.9917
G1 X115.696 Y126.268 E3.0989 F3600
G1 X105.230 Y126.250 E3.6210
G1 X105.230 Y125.528 E3.6570
G1 X105.230 Y125.464 E3.6602
G1 X110.229 Y125.451 E3.9096
G1 X158.030 Y125.451 E6.2945
G1 X158.030 Y126.170 E6.3303
G1 F4800 E5.3303
G1 X158.702 Y125.166 F10800
G1 F4800 E6.3303
;segType:Perimeter
G1 X158.431 Y125.813 E6.3653 F2159
G1 X158.431 Y126.662 E6.4077
G1 X115.696 Y126.663 E8.5397
G1 X104.830 Y126.643 E9.0818
G1 X104.830 Y125.755 E9.1261
G1 X33.812 Y125.755 E12.6692
G1 X33.157 Y125.712 E12.7020
G1 X32.443 Y125.566 E12.7383
G1 X31.756 Y125.321 E12.7747
G1 X31.249 Y125.060 E12.8032
G1 X30.646 Y124.648 E12.8396
G1 X30.166 Y124.211 E12.8720
G1 X29.650 Y123.587 E12.9124
G1 X29.314 Y123.032 E12.9448
G1 X29.087 Y122.519 E12.9727
G1 X28.931 Y122.055 E12.9972
G1 X28.852 Y121.731 E13.0138
G1 X28.762 Y121.127 E13.0443
G1 X28.738 Y120.682 E13.0665
G1 X28.739 Y113.729 E13.4134
G1 X28.739 Y67.380 E15.7258
G1 X28.738 Y60.466 E16.0707
G1 X28.778 Y59.845 E16.1018
G1 X28.870 Y59.286 E16.1300
G1 X29.025 Y58.742 E16.1582
G1 X29.241 Y58.226 E16.1861
G1 X29.559 Y57.657 E16.2186
G1 X29.947 Y57.135 E16.2511
G1 X30.399 Y56.666 E16.2836
G1 X30.658 Y56.456 E16.3002
G1 X31.181 Y56.082 E16.3323
G1 X31.681 Y55.818 E16.3605
G1 X32.133 Y55.635 E16.3849
G1 X32.516 Y55.517 E16.4048
G1 X33.157 Y55.392 E16.4374
G1 X33.812 Y55.349 E16.4702
G1 X166.594 Y55.349 E23.0947
G1 X167.246 Y55.391 E23.1273
G1 X168.241 Y55.627 E23.1783
G1 X168.727 Y55.819 E23.2044
G1 X169.089 Y56.006 E23.2247
G1 X169.464 Y56.240 E23.2468
G1 X169.944 Y56.612 E23.2771
G1 X170.348 Y57.008 E23.3053
G1 X170.704 Y57.448 E23.3335
G1 X171.011 Y57.928 E23.3619
G1 X171.127 Y58.145 E23.3742
G1 X171.382 Y58.742 E23.4066
G1 X171.537 Y59.288 E23.4349
G1 X171.625 Y59.766 E23.4592
G1 X171.667 Y60.423 E23.4920
G1 X171.667 Y67.367 E23.8384
G1 X171.671 Y113.729 E26.1515
G1 X171.671 Y120.683 E26.4984
G1 X171.652 Y121.095 E26.5190
G1 X171.577 Y121.658 E26.5473
G1 X171.447 Y122.162 E26.5733
G1 X171.237 Y122.739 E26.6039
G1 X171.019 Y123.168 E26.6279
G1 X170.759 Y123.588 E26.6526
G1 X170.408 Y124.032 E26.6808
G1 X169.948 Y124.492 E26.7132
G1 X169.372 Y124.928 E26.7493
G1 X168.651 Y125.322 E26.7903
G1 X168.043 Y125.545 E26.8226
G1 X167.530 Y125.664 E26.8489
G1 X166.926 Y125.744 E26.8793
G1 X166.601 Y125.755 E26.8955
G1 X158.490 Y125.755 E27.3002
G1 X157.834 Y126.023
; ------------------------------------
; Layer #6
; ------------------------------------
G21 ; mm
G90 ; abs
G92 E0 ; reset extr
M106 S255
;segType:Loop
G1 F4800 E-1.0000
G1 F300 Z2.100
G1 X157.932 Y126.267 F10800
G1 F4800 E0.0000
G1 X117.393 Y126.268 E2.0225 F3600
G1 X105.230 Y126.236 E2.6293
G1 X105.230 Y125.494 E2.6663
G1 X110.010 Y125.451 E2.9047
G1 X158.030 Y125.451 E5.3005
G1 X158.030 Y126.170 E5.3364
G1 F4800 E4.3364
G1 X158.702 Y125.350 F10800
G1 F4800 E5.3364
;segType:Perimeter
G1 X158.431 Y125.997 E5.3714 F2159
G1 X158.431 Y126.662 E5.4045
G1 X117.392 Y126.663 E7.4519
G1 X104.830 Y126.629 E8.0787
G1 X104.830 Y125.938 E8.1131
G1 X33.812 Y125.938 E11.6562
G1 X33.145 Y125.896 E11.6896
G1 X32.394 Y125.743 E11.7278
G1 X31.673 Y125.485 E11.7660
G1 X31.176 Y125.230 E11.7939
G1 X30.541 Y124.799 E11.8322
G1 X30.049 Y124.355 E11.8653
G1 X29.748 Y124.007 E11.8882
G1 X29.497 Y123.688 E11.9085
G1 X29.153 Y123.120 E11.9416
G1 X28.897 Y122.535 E11.9734
G1 X28.742 Y122.061 E11.9983
G1 X28.683 Y121.818 E12.0108
G1 X28.582 Y121.168 E12.0436
G1 X28.555 Y120.682 E12.0679
G1 X28.555 Y113.599 E12.4213
G1 X29.163 Y113.592 E12.4516
G1 X29.163 Y120.694 E12.8059
G1 X29.201 Y121.271 E12.8348
G1 X29.306 Y121.814 E12.8623
G1 X29.482 Y122.371 E12.8915
G1 X29.761 Y122.958 E12.9239
G1 X30.119 Y123.498 E12.9562
G1 X30.455 Y123.894 E12.9822
G1 X30.742 Y124.163 E13.0018
G1 X31.307 Y124.593 E13.0372
G1 X31.938 Y124.931 E13.0729
G1 X32.491 Y125.132 E13.1022
G1 X33.095 Y125.263 E13.1331
G1 X33.797 Y125.325 E13.1682
G1 X75.615 Y125.325 E15.2546
G1 X104.830 Y125.324 E16.7121
G1 X104.830 Y125.103 E16.7232
G1 X110.008 Y125.057 E16.9815
G1 X158.431 Y125.057 E19.3973
G1 X158.431 Y125.325 E19.4107
G1 X166.614 Y125.325 E19.8189
G1 X167.280 Y125.264 E19.8523
G1 X167.576 Y125.222 E19.8672
G1 X168.107 Y125.068 E19.8948
G1 X168.591 Y124.876 E19.9208
G1 X169.154 Y124.558 E19.9531
G1 X169.474 Y124.329 E19.9727
G1 X169.953 Y123.897 E20.0049
G1 X170.276 Y123.523 E20.0295
G1 X170.695 Y122.872 E20.0681
G1 X170.956 Y122.278 E20.1005
G1 X171.083 Y121.906 E20.1201
G1 X171.218 Y121.177 E20.1571
G1 X171.247 Y120.694 E20.1813
G1 X171.246 Y113.593 E20.5355
G1 X171.855 Y113.599 E20.5659
G1 X171.855 Y120.683 E20.9194
G1 X171.838 Y121.081 E20.9392
G1 X171.760 Y121.677 E20.9692
G1 X171.612 Y122.245 E20.9985
G1 X171.401 Y122.822 E21.0291
G1 X171.157 Y123.298 E21.0558
G1 X170.914 Y123.687 E21.0787
G1 X170.543 Y124.158 E21.1086
G1 X170.074 Y124.626 E21.1417
G1 X169.431 Y125.109 E21.1818
G1 X168.734 Y125.486 E21.2213
G1 X168.114 Y125.716 E21.2543
G1 X167.581 Y125.840 E21.2816
G1 X166.932 Y125.928 E21.3143
G1 X166.601 Y125.938 E21.3308
G1 X158.490 Y125.938 E21.7355
G1 X157.834 Y126.206
G1 F4800 E20.7355
G1 X151.949 Y126.813 F10800
G1 X149.388 Y126.750
G1 X144.264 Y126.625
G1 X141.702 Y126.562
G1 X105.835 Y125.686
G1 F4800 E21.7355
;segType:HShell
G1 X105.477 Y126.039 E21.7606 F3600
G1 X106.033 Y126.041
G1 X106.398 Y125.681 E21.7862
G1 X106.961 Y125.676
G1 X106.589 Y126.042 E21.8122
G1 X107.146 Y126.043
G1 X107.524 Y125.670 E21.8387
G1 X108.087 Y125.665
G1 X107.702 Y126.045 E21.8657
G1 X108.259 Y126.046
G1 X108.650 Y125.660 E21.8932
G1 X109.214 Y125.655
G1 X108.815 Y126.048 E21.9211
G1 X109.372 Y126.049
G1 X109.777 Y125.650 E21.9494
G1 X110.337 Y125.648
G1 X109.928 Y126.051 E21.9780
G1 X110.485 Y126.052
G1 X110.895 Y125.648 E22.0068
G1 X111.453 Y125.648
G1 X111.041 Y126.054 E22.0356
G1 X111.598 Y126.055
