; GCode generated by CraftWare

; filename = composition.3w 
; machine = daVinciF10 
; material = abs 
; extruder = 1 
M140 S90 ; Bed (no wait) 
M106 S255 ; Start fan 
G90 ; set absolute coordinates 
G28 ; home all axis 
M190 S90 ; Bed (wait) 
M104 S210 ; Extruder (no wait) 
M109 S210 ; Extruder (wait) 
M117 Start 
M117 Cleaning 
M100 ; Cleaning 
M117 Printing 
M109 S210 ;set head temp (wait)
M190 S75 ;set bed temp (wait)
; ------------------------------------
; Layer #0
; ------------------------------------
G21 ; mm
G90 ; abs
G92 E0 ; reset extr
M106 S0
G1 F4800 E-1.0000
G1 F300 Z0.300
G1 X88.578 Y123.633 F10800
G1 X106.332 Y119.903
G1 F4800 E0.0000
;segType:HShell
G1 X106.691 Y119.536 E0.0256 F600
G1 X106.967 Y119.817
G1 X106.678 Y120.113 E0.0463
G1 X107.011 Y120.336
G1 X107.244 Y120.098 E0.0629
G1 X106.332 Y120.453 F10800
G1 X105.607 Y121.561
;segType:Loop
G1 X101.889 Y127.062 E0.3942 F600
G1 X96.571 Y131.208 E0.7306
G1 X90.230 Y133.509 E1.0672
G1 X83.486 Y133.738 E1.4038
G1 X77.002 Y131.872 E1.7404
G1 X71.416 Y128.095 E2.0768
G1 X67.271 Y122.780 E2.4131
G1 X64.973 Y116.447 E2.7492
G1 X64.745 Y109.717 E3.0852
G1 X66.608 Y103.243 E3.4212
G1 X70.382 Y97.660 E3.7574
G1 X75.700 Y93.514 E4.0939
G1 X82.041 Y91.213 E4.4304
G1 X88.785 Y90.984 E4.7670
G1 X95.268 Y92.850 E5.1036
G1 X100.855 Y96.627 E5.4401
G1 X105.000 Y101.942 E5.7763
G1 X107.298 Y108.275 E6.1124
G1 X107.310 Y108.639 E6.1306
G1 X107.504 Y109.324 E6.1661
G1 X108.172 Y109.120 E6.2010
G1 X109.122 Y108.542 E6.2565
G1 X110.915 Y108.024 E6.3496
G1 X112.772 Y108.002 E6.4422
G1 X114.567 Y108.476 E6.5348
G1 X116.178 Y109.414 E6.6279
G1 X117.496 Y110.752 E6.7216
G1 X118.431 Y112.401 E6.8161
G1 X118.920 Y114.247 E6.9114
G1 X118.927 Y116.166 E7.0071
G1 X118.452 Y118.026 E7.1029
G1 X117.527 Y119.699 E7.1982
G1 X116.217 Y121.071 E7.2929
G1 X114.610 Y122.048 E7.3867
G1 X112.817 Y122.566 E7.4798
G1 X110.960 Y122.588 E7.5725
G1 X109.165 Y122.114 E7.6651
G1 X107.554 Y121.176 E7.7581
G1 X106.837 Y120.447 E7.8091
G1 X106.240 Y120.085 E7.8440
G1 X105.887 Y120.697 E7.8792
G1 X105.690 Y121.383 E7.9148
G1 F4800 E6.9148
G1 X106.913 Y120.267 F10800
G1 F4800 E7.9148
;segType:Perimeter
G1 X106.351 Y120.698 E7.9501 F359
G1 X106.257 Y120.861 E7.9595
G1 X106.028 Y121.657 E8.0009
G1 X102.182 Y127.348 E8.3435
G1 X96.764 Y131.572 E8.6863
G1 X90.305 Y133.916 E9.0291
G1 X83.437 Y134.149 E9.3719
G1 X76.834 Y132.248 E9.7147
G1 X71.142 Y128.401 E10.0575
G1 X66.919 Y122.984 E10.4002
G1 X64.576 Y116.528 E10.7428
G1 X64.343 Y109.665 E11.0854
G1 X66.242 Y103.065 E11.4281
G1 X70.089 Y97.374 E11.7707
G1 X75.507 Y93.150 E12.1135
G1 X81.966 Y90.806 E12.4563
G1 X88.834 Y90.573 E12.7991
G1 X95.437 Y92.474 E13.1419
G1 X101.128 Y96.321 E13.4847
G1 X105.352 Y101.738 E13.8274
G1 X107.695 Y108.194 E14.1700
G1 X107.708 Y108.574 E14.1890
G1 X107.776 Y108.814 E14.2014
G1 X108.010 Y108.743 E14.2136
G1 X108.963 Y108.163 E14.2693
G1 X110.858 Y107.616 E14.3677
G1 X112.821 Y107.592 E14.4656
G1 X114.719 Y108.094 E14.5636
G1 X116.422 Y109.086 E14.6619
G1 X117.816 Y110.500 E14.7610
G1 X118.804 Y112.242 E14.8609
G1 X119.319 Y114.192 E14.9615
G1 X119.327 Y116.218 E15.0626
G1 X118.826 Y118.180 E15.1636
G1 X117.850 Y119.946 E15.2643
G1 X116.466 Y121.395 E15.3642
G1 X114.769 Y122.428 E15.4633
G1 X112.875 Y122.975 E15.5617
G1 X110.912 Y122.998 E15.6597
G1 X109.014 Y122.497 E15.7576
G1 X107.310 Y121.505 E15.8560
G1 X106.590 Y120.774 E15.9072
G1 X106.431 Y120.677 E15.9164
G1 X105.736 Y120.577
;segType:HShell
G1 X99.475 Y126.353 F10800
G1 X106.476 Y119.191 E16.4161 F600
G1 X100.134 Y125.219 F10800
G1 X98.021 Y127.228
;segType:Loop
G1 X97.847 Y127.234 E16.4248 F600
G1 X97.442 Y127.118 E16.4458
G1 X97.091 Y126.880 E16.4670
G1 X96.827 Y126.542 E16.4883
G1 X96.680 Y126.137 E16.5098
G1 X96.666 Y125.705 E16.5314
G1 X96.785 Y125.290 E16.5529
G1 X97.025 Y124.935 E16.5743
G1 X97.361 Y124.673 E16.5955
G1 X97.757 Y124.529 E16.6166
G1 X98.176 Y124.516 E16.6375
G1 X98.580 Y124.632 E16.6585
G1 X98.932 Y124.869 E16.6797
G1 X99.196 Y125.207 E16.7010
G1 X99.342 Y125.612 E16.7225
G1 X99.357 Y126.020 E16.7429
G1 X99.242 Y126.453 E16.7653
G1 X98.998 Y126.814 E16.7870
G1 X98.662 Y127.077 E16.8083
G1 X98.266 Y127.219 E16.8293
G1 X98.215 Y127.221 E16.8318
;segType:Perimeter
G1 X99.477 Y126.025 F10800
G1 X98.840 Y126.328 E16.8669 F359
G1 X98.705 Y126.528 E16.8790
G1 X98.470 Y126.712 E16.8939
G1 X98.191 Y126.812 E16.9087
G1 X97.895 Y126.823 E16.9234
G1 X97.611 Y126.741 E16.9382
G1 X97.364 Y126.574 E16.9531
G1 X97.180 Y126.338 E16.9680
G1 X97.078 Y126.056 E16.9830
G1 X97.068 Y125.757 E16.9979
G1 X97.151 Y125.469 E17.0129
G1 X97.318 Y125.221 E17.0278
G1 X97.553 Y125.037 E17.0427
G1 X97.832 Y124.936 E17.0575
G1 X98.128 Y124.927 E17.0722
G1 X98.412 Y125.008 E17.0870
G1 X98.659 Y125.175 E17.1018
G1 X98.843 Y125.411 E17.1168
G1 X98.945 Y125.692 E17.1317
G1 X98.955 Y125.972 E17.1457
G1 X98.889 Y126.221 E17.1585
G1 X99.073 Y126.914
;segType:Loop
G1 X106.803 Y117.519 F10800
G1 X107.526 Y115.006 E17.2890 F600
G1 X107.380 Y110.707 E17.5036
G1 X107.949 Y110.112 E17.5446
G1 X109.391 Y109.235 E17.6288
G1 X111.002 Y108.770 E17.7125
G1 X112.673 Y108.749 E17.7959
G1 X114.290 Y109.177 E17.8793
G1 X115.741 Y110.022 E17.9631
G1 X116.927 Y111.226 E18.0474
G1 X117.768 Y112.708 E18.1324
G1 X118.206 Y114.365 E18.2179
G1 X118.212 Y116.084 E18.3037
G1 X117.787 Y117.750 E18.3895
G1 X116.959 Y119.249 E18.4749
G1 X115.784 Y120.478 E18.5597
G1 X114.342 Y121.356 E18.6440
G1 X112.731 Y121.821 E18.7276
G1 X111.059 Y121.841 E18.8110
G1 X109.443 Y121.414 E18.8945
G1 X107.992 Y120.569 E18.9782
G1 X106.806 Y119.364 E19.0626
G1 X106.451 Y118.740 E19.0984
G1 X106.748 Y117.710 E19.1519
;segType:Perimeter
G1 X106.587 Y119.272 F10800
G1 X106.900 Y118.629 E19.1875 F359
G1 X107.928 Y115.058 E19.3729
G1 X107.786 Y110.868 E19.5821
G1 X108.198 Y110.437 E19.6119
G1 X109.550 Y109.614 E19.6908
G1 X111.059 Y109.178 E19.7692
G1 X112.625 Y109.159 E19.8473
G1 X114.138 Y109.559 E19.9254
G1 X115.497 Y110.350 E20.0038
G1 X116.608 Y111.479 E20.0828
G1 X117.395 Y112.866 E20.1624
G1 X117.806 Y114.420 E20.2426
G1 X117.812 Y116.032 E20.3230
G1 X117.413 Y117.595 E20.4035
G1 X116.636 Y119.001 E20.4836
G1 X115.535 Y120.154 E20.5632
G1 X114.183 Y120.977 E20.6421
G1 X112.673 Y121.412 E20.7205
G1 X111.108 Y121.431 E20.7986
G1 X109.594 Y121.031 E20.8767
G1 X108.236 Y120.240 E20.9552
G1 X107.125 Y119.112 E21.0342
G1 X106.913 Y118.738 E21.0556
G1 X106.460 Y118.190
G1 X104.178 Y103.876 F10800
G1 X103.122 Y102.877
;segType:HShell
G1 X104.430 Y101.539 E21.1489 F600
G1 X104.675 Y101.853
G1 X103.612 Y102.940 E21.2248
G1 X103.993 Y103.114
G1 X104.882 Y102.205 E21.2882
G1 X105.031 Y102.617
G1 X104.301 Y103.364 E21.3403
;segType:Loop
G1 X104.254 Y105.237 F10800
G1 X104.161 Y105.374 E21.3486 F600
G1 X103.825 Y105.636 E21.3699
G1 X103.429 Y105.779 E21.3909
G1 X103.010 Y105.793 E21.4118
G1 X102.606 Y105.677 E21.4327
G1 X102.254 Y105.440 E21.4539
G1 X101.990 Y105.101 E21.4753
G1 X101.844 Y104.696 E21.4968
G1 X101.829 Y104.264 E21.5184
G1 X101.948 Y103.850 E21.5399
G1 X102.188 Y103.494 E21.5613
G1 X102.524 Y103.233 E21.5825
G1 X102.920 Y103.089 E21.6036
G1 X103.340 Y103.075 E21.6245
G1 X103.744 Y103.191 E21.6455
G1 X104.096 Y103.429 E21.6667
G1 X104.363 Y103.772 E21.6884
G1 X104.506 Y104.196 E21.7107
G1 X104.521 Y104.604 E21.7311
G1 X104.401 Y105.019 E21.7526
G1 X104.365 Y105.073 E21.7559
;segType:Perimeter
G1 X104.164 Y103.324 F10800
G1 X104.026 Y104.029 E21.7916 F359
G1 X104.109 Y104.272 E21.8045
G1 X104.119 Y104.552 E21.8184
G1 X104.035 Y104.840 E21.8334
G1 X103.868 Y105.088 E21.8483
G1 X103.633 Y105.271 E21.8632
G1 X103.354 Y105.372 E21.8780
G1 X103.058 Y105.382 E21.8928
G1 X102.774 Y105.300 E21.9075
G1 X102.527 Y105.134 E21.9224
G1 X102.343 Y104.898 E21.9373
G1 X102.241 Y104.616 E21.9522
G1 X102.231 Y104.316 E21.9672
G1 X102.314 Y104.028 E21.9822
G1 X102.481 Y103.780 E21.9971
G1 X102.716 Y103.597 E22.0120
G1 X102.995 Y103.496 E22.0268
G1 X103.291 Y103.486 E22.0415
G1 X103.576 Y103.568 E22.0563
G1 X103.822 Y103.734 E22.0711
G1 X103.971 Y103.925 E22.0832
G1 X104.626 Y104.183
;segType:HShell
G1 X96.126 Y93.675 F10800
G1 X71.234 Y119.142 E23.8599 F600
;segType:Perimeter
G1 X71.016 Y118.998 F10800
G1 X70.878 Y119.702 E23.8957 F359
G1 X71.014 Y120.104 E23.9168
G1 X71.028 Y120.528 E23.9380
G1 X70.902 Y120.966 E23.9607
G1 X70.648 Y121.343 E23.9834
G1 X70.290 Y121.622 E24.0061
G1 X69.865 Y121.776 E24.0286
G1 X69.413 Y121.792 E24.0512
G1 X68.979 Y121.667 E24.0737
G1 X68.603 Y121.413 E24.0963
G1 X68.323 Y121.054 E24.1190
G1 X68.168 Y120.626 E24.1418
G1 X68.152 Y120.170 E24.1645
G1 X68.279 Y119.732 E24.1873
G1 X68.533 Y119.355 E24.2099
G1 X68.891 Y119.076 E24.2326
G1 X69.317 Y118.922 E24.2552
G1 X69.768 Y118.907 E24.2777
G1 X70.202 Y119.032 E24.3002
G1 X70.578 Y119.285 E24.3228
G1 X70.823 Y119.599 E24.3427
G1 X71.478 Y119.857
;segType:Loop
G1 X71.360 Y120.824 F10800
G1 X71.268 Y121.145 E24.3594 F600
G1 X70.941 Y121.629 E24.3885
G1 X70.483 Y121.987 E24.4175
G1 X69.940 Y122.183 E24.4463
G1 X69.364 Y122.203 E24.4750
G1 X68.811 Y122.043 E24.5038
G1 X68.330 Y121.719 E24.5327
G1 X67.970 Y121.258 E24.5619
G1 X67.771 Y120.706 E24.5912
G1 X67.750 Y120.118 E24.6205
G1 X67.913 Y119.553 E24.6499
G1 X68.240 Y119.069 E24.6790
G1 X68.699 Y118.712 E24.7080
G1 X69.241 Y118.515 E24.7368
G1 X69.817 Y118.496 E24.7655
G1 X70.370 Y118.655 E24.7943
G1 X70.851 Y118.979 E24.8232
G1 X71.215 Y119.446 E24.8527
G1 X71.411 Y120.029 E24.8834
G1 X71.430 Y120.580 E24.9109
G1 X71.415 Y120.632 E24.9136
G1 X71.030 Y119.550 F10800
G1 X70.283 Y118.850
G1 X69.291 Y118.309
;segType:HShell
G1 X94.253 Y92.771 E26.6953 F600
G1 X94.683 Y92.894
G1 X69.856 Y118.295 E28.4673
G1 X70.286 Y118.419
G1 X95.113 Y93.018 E30.2393
G1 X95.462 Y93.226
G1 X70.657 Y118.603 E32.0098
G1 X70.989 Y118.828
G1 X95.794 Y93.451 E33.7802
G1 X71.442 Y119.493 F10800
G1 X96.458 Y93.900 E35.5657 F600
G1 X96.790 Y94.124
G1 X71.584 Y119.912 E37.3647
G1 X71.625 Y120.433
G1 X97.122 Y94.348 E39.1845
G1 X97.454 Y94.573
G1 X71.475 Y121.152 E41.0388
G1 X102.959 Y103.300 F10800
G1 X104.543 Y103.680
G1 X105.180 Y103.028 E41.0843 F600
G1 X105.330 Y103.440
G1 X104.685 Y104.099 E41.1303
G1 X104.722 Y104.626
G1 X105.479 Y103.851 E41.1843
G1 X105.628 Y104.262
G1 X78.444 Y132.074 E43.1246
G1 X78.874 Y132.198
G1 X105.778 Y104.674 E45.0447
G1 X105.927 Y105.085
G1 X79.305 Y132.322 E46.9449
G1 X79.735 Y132.446
G1 X106.076 Y105.497 E48.8250
G1 X106.225 Y105.908
G1 X80.165 Y132.570 E50.6850
G1 X80.596 Y132.693
G1 X106.375 Y106.319 E52.5249
G1 X106.524 Y106.731
G1 X81.026 Y132.817 E54.3448
G1 X81.456 Y132.941
G1 X106.673 Y107.142 E56.1447
G1 X106.823 Y107.554
G1 X81.887 Y133.065 E57.9244
G1 X82.317 Y133.189
G1 X106.972 Y107.965 E59.6842
G1 X107.102 Y108.396
G1 X82.748 Y133.313 E61.4224
G1 X83.178 Y133.437
G1 X107.172 Y108.888 E63.1350
G1 X107.296 Y109.326
G1 X83.640 Y133.528 E64.8235
G1 X84.210 Y133.509
G1 X107.698 Y109.478 E66.4999
G1 X106.422 Y118.119 F10800
G1 X99.432 Y125.270 E66.9988 F600
G1 X99.546 Y125.717
G1 X106.273 Y118.834 E67.4790
G1 X107.521 Y120.379 F10800
G1 X107.288 Y120.617 E67.4956 F600
G1 X107.565 Y120.898
G1 X107.798 Y120.660 E67.5122
G1 X108.129 Y120.884
G1 X107.886 Y121.134 E67.5296
G1 X108.237 Y121.338
G1 X108.481 Y121.089 E67.5470
G1 X108.832 Y121.294
G1 X108.589 Y121.543 E67.5644
G1 X108.940 Y121.748
G1 X109.183 Y121.498 E67.5818
G1 X109.576 Y121.661
G1 X109.304 Y121.940 E67.6012
G1 X109.742 Y122.055
G1 X110.015 Y121.776 E67.6207
G1 X110.453 Y121.892
G1 X110.180 Y122.171 E67.6402
G1 X110.619 Y122.287
G1 X110.891 Y122.008 E67.6596
G1 X111.410 Y122.041
G1 X111.077 Y122.382 E67.6834
G1 X111.635 Y122.376
G1 X111.968 Y122.035 E67.7072
G1 X112.526 Y122.028
G1 X112.192 Y122.369 E67.7310
G1 X112.750 Y122.363
G1 X113.206 Y121.897 E67.7635
G1 X117.674 Y119.018 F10800
G1 X115.434 Y121.309 E67.9233 F600
G1 X114.273 Y121.933 F10800
G1 X114.988 Y121.201 E67.9744 F600
G1 X117.568 Y118.562 F10800
G1 X118.299 Y117.814 E68.0266 F600
G1 X116.136 Y119.744 F10800
G1 X113.974 Y121.675
G1 X113.504 Y122.155 E68.0601 F600
G1 X115.655 Y120.311 F10800
G1 X118.494 Y117.050
G1 X118.058 Y117.496 E68.0913 F600
G1 X118.253 Y116.732
G1 X118.689 Y116.286 E68.1224
G1 X117.575 Y112.790 F10800
G1 X116.762 Y111.357
G1 X115.615 Y110.191
G1 X114.212 Y109.375
G1 X110.727 Y108.637
G1 X111.128 Y108.226 E68.1510 F600
G1 X111.686 Y108.220
G1 X111.352 Y108.561 E68.1748
G1 X111.910 Y108.554
G1 X112.243 Y108.213 E68.1986
G1 X112.790 Y108.218
G1 X112.468 Y108.547 E68.2215
G1 X112.956 Y108.613
G1 X113.228 Y108.334 E68.2410
G1 X113.667 Y108.450
G1 X113.394 Y108.729 E68.2604
G1 X113.832 Y108.844
G1 X114.105 Y108.565 E68.2799
G1 X114.533 Y108.692
G1 X114.270 Y108.960 E68.2986
G1 X114.641 Y109.146
G1 X114.884 Y108.896 E68.3160
G1 X115.236 Y109.101
G1 X114.992 Y109.350 E68.3334
G1 X115.344 Y109.555
G1 X115.587 Y109.306 E68.3508
G1 X115.938 Y109.510
G1 X115.695 Y109.759 E68.3682
G1 X116.007 Y110.004
G1 X116.240 Y109.766 E68.3848
G1 X116.517 Y110.047
G1 X116.284 Y110.285 E68.4014
G1 X116.561 Y110.566
G1 X116.794 Y110.327 E68.4180
G1 X117.071 Y110.608
G1 X116.837 Y110.847 E68.4347
G1 X117.107 Y111.136
G1 X117.345 Y110.892 E68.4516
G1 X117.547 Y111.249
G1 X117.309 Y111.492 E68.4686
G1 X117.512 Y111.849
G1 X117.750 Y111.606 E68.4856
G1 X117.952 Y111.963
G1 X117.714 Y112.206 E68.5025
G1 X117.917 Y112.563
G1 X118.155 Y112.320 E68.5195
G1 X118.310 Y112.725
G1 X118.050 Y112.991 E68.5380
G1 X118.167 Y113.435
G1 X118.427 Y113.169 E68.5566
G1 X118.545 Y113.613
G1 X118.285 Y113.879 E68.5752
G1 X118.402 Y114.324
G1 X118.662 Y114.057 E68.5937
G1 X118.721 Y114.562
G1 X118.408 Y114.882 E68.6161
G1 X118.410 Y115.444
G1 X118.723 Y115.124 E68.6384
G1 X118.725 Y115.686
G1 X118.412 Y116.006 E68.6608
G1 X116.792 Y119.121 F10800
G1 X114.260 Y121.160
G1 X112.701 Y121.610
G1 X111.084 Y121.629
G1 X106.332 Y120.453
G1 X101.479 Y127.124
G1 X101.883 Y126.711 E68.6896 F600
G1 X103.119 Y124.882 F10800
G1 X99.162 Y128.931 E68.9721 F600
G1 X96.844 Y130.737 F10800
G1 X104.355 Y123.053 E69.5082 F600
G1 X105.501 Y121.317 F10800
G1 X95.757 Y131.286 E70.2037 F600
G1 X94.902 Y131.596
G1 X105.799 Y120.448 E70.9814
G1 X93.193 Y132.217 F10800
G1 X97.864 Y127.438 E71.3148 F600
G1 X98.499 Y127.352
G1 X94.048 Y131.906 E71.6325
G1 X91.484 Y132.837 F10800
G1 X97.076 Y127.116 E72.0316 F600
G1 X97.423 Y127.325
G1 X92.339 Y132.527 E72.3945
G1 X99.050 Y126.363 F10800
G1 X106.882 Y116.520
G1 X98.949 Y124.635 E72.9607 F600
G1 X99.225 Y124.917
G1 X106.652 Y117.319 E73.4908
G1 X107.604 Y110.796 F10800
G1 X108.653 Y109.066
G1 X84.781 Y133.489 E75.1946 F600
G1 X85.351 Y133.470
G1 X107.194 Y111.123 E76.7537
G1 X107.212 Y111.668
G1 X85.921 Y133.451 E78.2733
G1 X86.492 Y133.431
G1 X107.231 Y112.213 E79.7535
G1 X107.249 Y112.758
G1 X87.062 Y133.412 E81.1944
G1 X87.632 Y133.393
G1 X107.268 Y113.304 E82.5959
G1 X107.286 Y113.849
G1 X88.203 Y133.373 E83.9580
G1 X88.773 Y133.354
G1 X96.544 Y125.403 E84.5126
G1 X96.477 Y126.036
G1 X89.343 Y133.334 E85.0218
G1 X89.914 Y133.315
G1 X96.592 Y126.482 E85.4985
G1 X96.799 Y126.835
G1 X90.629 Y133.147 E85.9388
G1 X97.530 Y124.395 F10800
G1 X107.305 Y114.394 E86.6365 F600
G1 X107.323 Y114.939
G1 X98.163 Y124.312 E87.2904
G1 X98.603 Y124.426
G1 X107.112 Y115.720 E87.8977
G1 X107.604 Y110.796 F10800
G1 X110.429 Y108.377
G1 X109.959 Y108.858 E87.9312 F600
G1 X109.098 Y109.175
G1 X109.661 Y108.599 E87.9714
G1 X107.683 Y108.989 F10800
G1 X103.954 Y103.587
G1 X103.314 Y103.288
G1 X101.894 Y103.570
G1 X75.478 Y130.596 E89.8569 F600
G1 X75.810 Y130.820
G1 X101.634 Y104.400 E91.7000
G1 X101.702 Y104.894
G1 X76.142 Y131.045 E93.5244
G1 X76.474 Y131.269
G1 X101.875 Y105.282 E95.3373
G1 X102.120 Y105.595
G1 X76.806 Y131.494 E97.1441
G1 X77.153 Y131.702
G1 X102.453 Y105.819 E98.9499
G1 X102.863 Y105.963
G1 X77.583 Y131.826 E100.7542
G1 X78.014 Y131.950
G1 X103.393 Y105.985 E102.5656
G1 X70.427 Y122.224 F10800
G1 X68.573 Y124.121 E102.6980 F600
G1 X68.817 Y124.435
G1 X97.786 Y94.797 E104.7656
G1 X98.118 Y95.022
G1 X69.062 Y124.748 E106.8395
G1 X69.307 Y125.062
G1 X98.450 Y95.246 E108.9195
G1 X98.782 Y95.471
G1 X69.551 Y125.376 E111.0058
G1 X69.796 Y125.690
G1 X99.114 Y95.695 E113.0984
G1 X99.446 Y95.920
G1 X70.041 Y126.004 E115.1972
G1 X70.285 Y126.317
G1 X99.778 Y96.144 E117.3022
G1 X100.110 Y96.369
G1 X70.530 Y126.631 E119.4134
G1 X70.775 Y126.945
G1 X100.442 Y96.593 E121.5309
G1 X100.759 Y96.832
G1 X71.020 Y127.259 E123.6536
G1 X71.264 Y127.573
G1 X101.004 Y97.146 E125.7762
G1 X101.249 Y97.460
G1 X71.509 Y127.887 E127.8989
G1 X71.825 Y128.127
G1 X101.494 Y97.774 E130.0165
G1 X101.738 Y98.088
G1 X72.157 Y128.351 E132.1278
G1 X72.489 Y128.576
G1 X101.983 Y98.401 E134.2328
G1 X102.228 Y98.715
G1 X72.822 Y128.800 E136.3317
G1 X73.154 Y129.025
G1 X102.472 Y99.029 E138.4243
G1 X102.717 Y99.343
G1 X73.486 Y129.249 E140.5107
G1 X73.818 Y129.474
G1 X102.962 Y99.657 E142.5908
G1 X103.206 Y99.970
G1 X74.150 Y129.698 E144.6647
G1 X74.482 Y129.922
G1 X103.451 Y100.284 E146.7324
G1 X103.696 Y100.598
G1 X74.814 Y130.147 E148.7938
G1 X75.146 Y130.371
G1 X103.940 Y100.912 E150.8491
G1 X104.185 Y101.226
G1 X102.319 Y103.135 E150.9823
G1 X67.999 Y119.067 F10800
G1 X66.641 Y120.455 E151.0791 F600
G1 X66.790 Y120.867
G1 X67.549 Y120.090 E151.1333
G1 X67.568 Y120.635
G1 X66.940 Y121.278 E151.1782
G1 X67.089 Y121.690
G1 X67.691 Y121.074 E151.2211
G1 X67.869 Y121.456
G1 X67.238 Y122.101 E151.2661
G1 X67.388 Y122.513
G1 X68.113 Y121.770 E151.3179
G1 X68.417 Y122.023
G1 X67.594 Y122.866 E151.3767
G1 X67.839 Y123.179
G1 X68.757 Y122.240 E151.4422
G1 X69.187 Y122.364
G1 X68.083 Y123.493 E151.5210
G1 X68.328 Y123.807
G1 X69.708 Y122.396 E151.6195
G1 X68.471 Y121.560 F10800
G1 X67.977 Y120.664
G1 X65.162 Y108.994
G1 X82.352 Y91.407 E152.8464 F600
G1 X82.922 Y91.388
G1 X64.947 Y109.777 E154.1293
G1 X64.966 Y110.323
G1 X83.492 Y91.368 E155.4516
G1 X84.063 Y91.349
G1 X64.984 Y110.868 E156.8133
G1 X65.003 Y111.413
G1 X84.633 Y91.330 E158.2144
G1 X85.203 Y91.310
G1 X65.021 Y111.958 E159.6549
G1 X65.040 Y112.503
G1 X85.773 Y91.291 E161.1347
G1 X86.344 Y91.272
G1 X65.058 Y113.049 E162.6540
G1 X65.077 Y113.594
G1 X86.914 Y91.252 E164.2126
G1 X87.484 Y91.233
G1 X65.095 Y114.139 E165.8106
G1 X65.114 Y114.684
G1 X88.055 Y91.214 E167.4480
G1 X88.625 Y91.194
G1 X65.132 Y115.229 E169.1247
G1 X65.151 Y115.775
G1 X89.089 Y91.284 E170.8333
G1 X89.519 Y91.408
G1 X65.169 Y116.320 E172.5712
G1 X65.298 Y116.753
G1 X89.949 Y91.532 E174.3307
G1 X90.380 Y91.656
G1 X65.447 Y117.164 E176.1103
G1 X65.596 Y117.576
G1 X90.810 Y91.780 E177.9099
G1 X91.240 Y91.904
G1 X65.746 Y117.987 E179.7296
G1 X65.895 Y118.398
G1 X91.671 Y92.027 E181.5693
G1 X92.101 Y92.151
G1 X66.044 Y118.810 E183.4291
G1 X66.193 Y119.221
G1 X92.531 Y92.275 E185.3090
G1 X92.962 Y92.399
G1 X66.343 Y119.633 E187.2089
G1 X66.492 Y120.044
G1 X93.392 Y92.523 E189.1289
G1 X93.822 Y92.647
G1 X68.272 Y118.787 E190.9525
G1 X81.633 Y91.578 F10800
G1 X65.392 Y108.194 E192.1117 F600
G1 X65.622 Y107.395
G1 X80.778 Y91.888 E193.1935
G1 X79.924 Y92.198
G1 X65.852 Y106.595 E194.1979
G1 X66.082 Y105.796
G1 X79.069 Y92.509 E195.1248
G1 X78.215 Y92.819
G1 X66.312 Y104.996 E195.9744
G1 X66.542 Y104.196
G1 X77.360 Y93.129 E196.7465
G1 X76.506 Y93.439
G1 X66.773 Y103.397 E197.4412
G1 X67.928 Y101.650 F10800
G1 X75.403 Y94.003 E197.9746 F600
G1 X73.085 Y95.810 F10800
G1 X69.165 Y99.821 E198.2544 F600
G1 X70.401 Y97.992 F10800
G1 X70.767 Y97.617 E198.2805 F600
G1 F4800 E197.2805
G1 X63.910 Y98.286 F10800
G1 X61.624 Y98.509
G1 F4800 E198.2805
G1 X61.296 Y98.845 E198.3040 F600
G1 X61.543 Y99.157
G1 X61.797 Y98.896 E198.3222
G1 X61.527 Y98.044
G1 X65.024 Y94.467 E198.5717
G1 X65.362 Y94.685
G1 X62.428 Y97.687 E198.7811
;segType:Perimeter
G1 X62.248 Y97.738 F10800
G1 X62.260 Y98.456 E198.8169 F359
G1 X62.339 Y98.633 E198.8266
G1 X63.035 Y99.511 E198.8825
G1 X63.812 Y101.328 E198.9811
G1 X64.077 Y103.278 E199.0793
G1 X63.812 Y105.228 E199.1774
G1 X63.035 Y107.046 E199.2761
G1 X61.797 Y108.609 E199.3755
G1 X60.182 Y109.809 E199.4759
G1 X58.300 Y110.564 E199.5771
G1 X56.279 Y110.822 E199.6787
G1 X54.258 Y110.564 E199.7804
G1 X52.376 Y109.809 E199.8816
G1 X50.761 Y108.609 E199.9819
G1 X49.523 Y107.046 E200.0814
G1 X48.746 Y105.228 E200.1800
G1 X48.481 Y103.278 E200.2782
G1 X48.746 Y101.328 E200.3764
G1 X49.523 Y99.511 E200.4750
G1 X50.163 Y98.703 E200.5264
G1 X50.266 Y98.472 E200.5390
G1 X50.038 Y98.372 E200.5515
G1 X49.215 Y98.242 E200.5931
G1 X43.068 Y95.110 E200.9372
G1 X38.191 Y90.233 E201.2813
G1 X35.060 Y84.088 E201.6254
G1 X33.981 Y77.278 E201.9694
G1 X35.060 Y70.468 E202.3134
G1 X38.191 Y64.324 E202.6574
G1 X43.068 Y59.446 E203.0015
G1 X49.215 Y56.315 E203.3457
G1 X56.029 Y55.235 E203.6899
G1 X62.843 Y56.315 E204.0341
G1 X68.989 Y59.446 E204.3782
G1 X73.867 Y64.324 E204.7223
G1 X76.998 Y70.468 E205.0664
G1 X78.076 Y77.278 E205.4104
G1 X76.998 Y84.088 E205.7544
G1 X73.867 Y90.233 E206.0984
G1 X68.989 Y95.110 E206.4425
G1 X62.843 Y98.242 E206.7867
G1 X62.464 Y98.302 E206.8058
G1 X62.290 Y98.378 E206.8153
G1 X61.809 Y98.901
;segType:Loop
G1 X61.274 Y99.144 F10800
G1 X61.992 Y100.050 E206.8730 F600
G1 X62.657 Y101.605 E206.9574
G1 X62.884 Y103.278 E207.0416
G1 X62.657 Y104.951 E207.1258
G1 X61.992 Y106.507 E207.2102
G1 X60.938 Y107.837 E207.2949
G1 X59.569 Y108.855 E207.3800
G1 X57.981 Y109.492 E207.4654
G1 X56.279 Y109.709 E207.5510
G1 X54.577 Y109.492 E207.6366
G1 X52.988 Y108.855 E207.7220
G1 X51.620 Y107.837 E207.8071
G1 X50.566 Y106.507 E207.8918
G1 X49.901 Y104.951 E207.9762
G1 X49.673 Y103.278 E208.0604
G1 X49.901 Y101.605 E208.1447
G1 X50.566 Y100.050 E208.2291
G1 X51.620 Y98.719 E208.3138
G1 X52.186 Y98.298 E208.3489
G1 X56.029 Y98.907 E208.5431
G1 X60.285 Y98.233 E208.7580
G1 X60.938 Y98.719 E208.7987
G1 X61.152 Y98.989 E208.8158
;segType:HShell
G1 X60.402 Y98.067 F10800
G1 X64.565 Y93.809 E209.1130 F600
G1 X64.476 Y93.335
G1 X59.819 Y98.100 E209.4454
;segType:Perimeter
G1 X59.755 Y98.170 F10800
G1 X60.230 Y98.698 E209.4808 F359
G1 X60.660 Y99.018 E209.5076
G1 X61.647 Y100.265 E209.5869
G1 X62.269 Y101.718 E209.6657
G1 X62.481 Y103.278 E209.7443
G1 X62.269 Y104.839 E209.8229
G1 X61.647 Y106.292 E209.9017
G1 X60.660 Y107.538 E209.9810
G1 X59.376 Y108.493 E210.0609
G1 X57.882 Y109.092 E210.1412
G1 X56.279 Y109.297 E210.2218
G1 X54.676 Y109.092 E210.3024
G1 X53.182 Y108.493 E210.3827
G1 X51.897 Y107.538 E210.4626
G1 X50.910 Y106.292 E210.5419
G1 X50.289 Y104.839 E210.6208
G1 X50.077 Y103.278 E210.6993
G1 X50.289 Y101.718 E210.7779
G1 X50.910 Y100.265 E210.8567
G1 X51.898 Y99.018 E210.9361
G1 X52.288 Y98.729 E210.9603
G1 X56.029 Y99.321 E211.1493
G1 X60.125 Y98.672 E211.3562
G1 X60.784 Y98.425
;segType:Loop
G1 X62.547 Y99.546 F10800
G1 X62.690 Y99.725 E211.3676 F600
G1 X63.424 Y101.441 E211.4607
G1 X63.673 Y103.278 E211.5532
G1 X63.424 Y105.116 E211.6458
G1 X62.690 Y106.831 E211.7388
G1 X61.520 Y108.309 E211.8329
G1 X59.988 Y109.447 E211.9281
G1 X58.200 Y110.165 E212.0242
G1 X56.279 Y110.409 E212.1208
G1 X54.358 Y110.165 E212.2175
G1 X52.569 Y109.447 E212.3136
G1 X51.038 Y108.309 E212.4087
G1 X49.868 Y106.831 E212.5028
G1 X49.134 Y105.116 E212.5959
G1 X48.885 Y103.278 E212.6884
G1 X49.134 Y101.441 E212.7809
G1 X49.868 Y99.725 E212.8740
G1 X50.506 Y98.921 E212.9252
G1 X50.801 Y98.261 E212.9613
G1 X50.149 Y97.976 E212.9968
G1 X49.337 Y97.847 E213.0378
G1 X43.303 Y94.772 E213.3757
G1 X38.516 Y89.986 E213.7134
G1 X35.445 Y83.958 E214.0509
G1 X34.387 Y77.278 E214.3883
G1 X35.445 Y70.599 E214.7257
G1 X38.516 Y64.571 E215.0632
G1 X43.303 Y59.784 E215.4010
G1 X49.337 Y56.709 E215.7389
G1 X56.029 Y55.649 E216.0769
G1 X62.720 Y56.709 E216.4149
G1 X68.755 Y59.784 E216.7528
G1 X73.542 Y64.571 E217.0905
G1 X76.613 Y70.599 E217.4280
G1 X77.671 Y77.278 E217.7654
G1 X76.613 Y83.958 E218.1028
G1 X73.542 Y89.986 E218.4403
G1 X68.755 Y94.772 E218.7781
G1 X62.720 Y97.847 E219.1159
G1 X62.353 Y97.906 E219.1345
G1 X61.701 Y98.191 E219.1700
G1 X61.997 Y98.851 E219.2061
G1 X62.424 Y99.391 E219.2404
G1 F4800 E218.2404
G1 X64.970 Y97.923 F10800
G1 X66.600 Y95.931
G1 X76.375 Y83.982
G1 F4800 E219.2404
;segType:HShell
G1 X67.549 Y93.012 E219.8704 F600
;segType:Perimeter
G1 X67.504 Y93.245 F10800
G1 X66.910 Y93.626 E219.9057 F359
G1 X66.800 Y93.843 E219.9178
G1 X66.588 Y94.055 E219.9328
G1 X66.322 Y94.190 E219.9476
G1 X66.029 Y94.237 E219.9624
G1 X65.736 Y94.190 E219.9773
G1 X65.470 Y94.055 E219.9921
G1 X65.258 Y93.843 E220.0071
G1 X65.122 Y93.575 E220.0221
G1 X65.075 Y93.278 E220.0371
G1 X65.122 Y92.981 E220.0521
G1 X65.258 Y92.713 E220.0671
G1 X65.470 Y92.501 E220.0820
G1 X65.736 Y92.366 E220.0969
G1 X66.029 Y92.320 E220.1117
G1 X66.322 Y92.366 E220.1265
G1 X66.588 Y92.501 E220.1414
G1 X66.800 Y92.713 E220.1563
G1 X66.936 Y92.981 E220.1713
G1 X66.980 Y93.258 E220.1853
G1 X66.945 Y93.514 E220.1982
G1 X67.212 Y94.178
;segType:Loop
G1 X66.204 Y94.623 F10800
G1 X66.029 Y94.651 E220.2070 F600
G1 X65.613 Y94.584 E220.2281
G1 X65.236 Y94.393 E220.2491
G1 X64.933 Y94.090 E220.2705
G1 X64.737 Y93.705 E220.2921
G1 X64.670 Y93.278 E220.3136
G1 X64.737 Y92.851 E220.3352
G1 X64.933 Y92.466 E220.3567
G1 X65.236 Y92.164 E220.3781
G1 X65.614 Y91.971 E220.3992
G1 X66.029 Y91.906 E220.4202
G1 X66.444 Y91.971 E220.4412
G1 X66.822 Y92.164 E220.4624
G1 X67.125 Y92.467 E220.4837
G1 X67.320 Y92.850 E220.5052
G1 X67.384 Y93.254 E220.5256
G1 X67.323 Y93.700 E220.5481
G1 X67.125 Y94.090 E220.5699
G1 X66.822 Y94.393 E220.5913
G1 X66.445 Y94.584 E220.6124
G1 X66.397 Y94.592 E220.6148
G1 X64.880 Y93.278 F10800
G1 X71.601 Y62.916
;segType:HShell
G1 X45.285 Y89.840 E222.4931 F600
;segType:Perimeter
G1 X44.878 Y89.552 F10800
G1 X44.827 Y90.268 E222.5289 F359
G1 X44.939 Y90.501 E222.5418
G1 X44.983 Y90.778 E222.5558
G1 X44.936 Y91.075 E222.5708
G1 X44.799 Y91.343 E222.5858
G1 X44.587 Y91.555 E222.6008
G1 X44.322 Y91.690 E222.6156
G1 X44.029 Y91.737 E222.6304
G1 X43.736 Y91.690 E222.6453
G1 X43.470 Y91.555 E222.6601
G1 X43.258 Y91.343 E222.6751
G1 X43.122 Y91.076 E222.6900
G1 X43.075 Y90.778 E222.7051
G1 X43.122 Y90.481 E222.7201
G1 X43.258 Y90.213 E222.7350
G1 X43.470 Y90.001 E222.7500
G1 X43.736 Y89.866 E222.7649
G1 X44.029 Y89.820 E222.7797
G1 X44.322 Y89.866 E222.7945
G1 X44.587 Y90.001 E222.8093
G1 X44.759 Y90.173 E222.8215
G1 X45.441 Y90.346
;segType:Loop
G1 X45.202 Y91.438 F10800
G1 X45.125 Y91.590 E222.8300 F600
G1 X44.822 Y91.893 E222.8513
G1 X44.445 Y92.084 E222.8724
G1 X44.029 Y92.151 E222.8935
G1 X43.613 Y92.084 E222.9145
G1 X43.236 Y91.893 E222.9356
G1 X42.933 Y91.590 E222.9570
G1 X42.738 Y91.206 E222.9784
G1 X42.669 Y90.778 E223.0001
G1 X42.738 Y90.350 E223.0217
G1 X42.933 Y89.967 E223.0431
G1 X43.235 Y89.664 E223.0645
G1 X43.614 Y89.471 E223.0857
G1 X44.029 Y89.406 E223.1066
G1 X44.444 Y89.471 E223.1276
G1 X44.822 Y89.664 E223.1488
G1 X45.130 Y89.971 E223.1705
G1 X45.324 Y90.375 E223.1928
G1 X45.388 Y90.778 E223.2132
G1 X45.320 Y91.206 E223.2348
G1 X45.292 Y91.261 E223.2379
G1 X47.675 Y61.810 F10800
G1 X47.568 Y60.425
;segType:HShell
G1 X51.301 Y56.605 E223.5044 F600
G1 X51.954 Y56.502
G1 X47.790 Y60.762 E223.8016
;segType:Perimeter
G1 X47.245 Y60.232 F10800
G1 X47.209 Y60.949 E223.8374 F359
G1 X47.416 Y61.355 E223.8601
G1 X47.482 Y61.778 E223.8815
G1 X47.411 Y62.230 E223.9043
G1 X47.204 Y62.637 E223.9271
G1 X46.881 Y62.960 E223.9498
G1 X46.476 Y63.166 E223.9725
G1 X46.029 Y63.236 E223.9951
G1 X45.581 Y63.166 E224.0177
G1 X45.176 Y62.960 E224.0404
G1 X44.853 Y62.637 E224.0632
G1 X44.647 Y62.230 E224.0860
G1 X44.575 Y61.778 E224.1088
G1 X44.647 Y61.326 E224.1316
G1 X44.853 Y60.919 E224.1544
G1 X45.176 Y60.597 E224.1771
G1 X45.581 Y60.391 E224.1998
G1 X46.029 Y60.320 E224.2224
G1 X46.477 Y60.391 E224.2451
G1 X46.853 Y60.582 E224.2661
G1 X47.139 Y60.855 E224.2859
G1 X47.824 Y61.013
;segType:Loop
G1 X47.854 Y61.993 F10800
G1 X47.796 Y62.360 E224.3044 F600
G1 X47.529 Y62.884 E224.3337
G1 X47.116 Y63.297 E224.3629
G1 X46.599 Y63.561 E224.3918
G1 X46.029 Y63.650 E224.4206
G1 X45.459 Y63.561 E224.4494
G1 X44.942 Y63.297 E224.4784
G1 X44.528 Y62.884 E224.5075
G1 X44.262 Y62.361 E224.5368
G1 X44.169 Y61.778 E224.5663
G1 X44.262 Y61.196 E224.5957
G1 X44.528 Y60.672 E224.6250
G1 X44.942 Y60.259 E224.6542
G1 X45.458 Y59.996 E224.6831
G1 X46.029 Y59.906 E224.7119
G1 X46.599 Y59.996 E224.7407
G1 X47.084 Y60.242 E224.7678
G1 X47.505 Y60.645 E224.7969
G1 X47.800 Y61.225 E224.8293
G1 X47.888 Y61.778 E224.8573
G1 X47.885 Y61.796 E224.8582
G1 X47.355 Y60.804 F10800
G1 X46.011 Y58.633
;segType:HShell
G1 X37.145 Y67.703 E225.4909 F600
G1 X46.994 Y63.122 F10800
G1 X47.596 Y62.293
G1 X47.979 Y61.133
G1 X52.606 Y56.399 E225.8212 F600
G1 X53.259 Y56.295
G1 X48.064 Y61.610 E226.1920
G1 X48.021 Y62.218
G1 X53.911 Y56.192 E226.6124
G1 X54.564 Y56.088
G1 X34.732 Y76.378 E228.0279
G1 X34.625 Y77.051
G1 X55.216 Y55.985 E229.4975
G1 X55.868 Y55.882
G1 X34.640 Y77.600 E231.0127
G1 X34.717 Y78.085
G1 X56.389 Y55.913 E232.5595
G1 X56.866 Y55.989
G1 X34.794 Y78.571 E234.1349
G1 X34.871 Y79.056
G1 X57.344 Y56.065 E235.7389
G1 X57.821 Y56.140
G1 X34.948 Y79.542 E237.3715
G1 X35.025 Y80.027
G1 X58.299 Y56.216 E239.0326
G1 X58.776 Y56.292
G1 X35.102 Y80.513 E240.7224
G1 X35.178 Y80.998
G1 X59.254 Y56.367 E242.4408
G1 X59.731 Y56.443
G1 X35.255 Y81.484 E244.1877
G1 X35.332 Y81.969
G1 X60.209 Y56.519 E245.9633
G1 X60.686 Y56.594
G1 X35.409 Y82.455 E247.7674
G1 X35.486 Y82.940
G1 X61.164 Y56.670 E249.6001
G1 X61.641 Y56.745
G1 X35.563 Y83.426 E251.4614
G1 X35.644 Y83.907
G1 X62.119 Y56.821 E253.3510
G1 X62.596 Y56.897
G1 X35.833 Y84.278 E255.2612
G1 X36.022 Y84.648
G1 X62.979 Y57.070 E257.1852
G1 X63.347 Y57.257
G1 X36.211 Y85.019 E259.1220
G1 X36.400 Y85.390
G1 X63.715 Y57.445 E261.0716
G1 X64.083 Y57.632
G1 X36.589 Y85.761 E263.0340
G1 X36.778 Y86.132
G1 X64.451 Y57.820 E265.0091
G1 X64.819 Y58.007
G1 X36.967 Y86.503 E266.9971
G1 X37.156 Y86.873
G1 X65.187 Y58.195 E268.9978
G1 X65.555 Y58.382
G1 X37.345 Y87.244 E271.0113
G1 X37.534 Y87.615
G1 X65.923 Y58.570 E273.0376
G1 X66.291 Y58.758
G1 X37.722 Y87.986 E275.0767
G1 X37.911 Y88.357
G1 X66.659 Y58.945 E277.1286
G1 X67.028 Y59.133
G1 X38.100 Y88.728 E279.1933
G1 X38.289 Y89.098
G1 X67.396 Y59.320 E281.2707
G1 X67.764 Y59.508
G1 X38.478 Y89.469 E283.3610
G1 X38.667 Y89.840
G1 X68.132 Y59.695 E285.4640
G1 X68.500 Y59.883
G1 X38.941 Y90.124 E287.5738
G1 X39.220 Y90.403
G1 X68.812 Y60.128 E289.6859
G1 X69.091 Y60.406
G1 X39.498 Y90.682 E291.7981
G1 X39.777 Y90.961
G1 X69.370 Y60.685 E293.9102
G1 X69.649 Y60.964
G1 X40.056 Y91.240 E296.0224
G1 X40.335 Y91.519
G1 X69.928 Y61.243 E298.1345
G1 X70.206 Y61.522
G1 X40.614 Y91.797 E300.2467
G1 X40.893 Y92.076
G1 X42.526 Y90.405 E300.3633
G1 X42.501 Y90.995
G1 X41.172 Y92.355 E300.4582
G1 X41.451 Y92.634
G1 X42.626 Y91.431 E300.5421
G1 X42.837 Y91.780
G1 X41.729 Y92.913 E300.6211
G1 X42.008 Y93.192
G1 X43.116 Y92.059 E300.7001
G1 X43.483 Y92.247
G1 X42.287 Y93.470 E300.7855
G1 X42.566 Y93.749
G1 X43.940 Y92.344 E300.8836
G1 X44.597 Y92.235
G1 X42.845 Y94.028 E301.0086
G1 X43.124 Y94.307
G1 X72.716 Y64.031 E303.1208
G1 X72.995 Y64.310
G1 X43.403 Y94.586 E305.2329
G1 X43.765 Y94.779
G1 X73.274 Y64.589 E307.3391
G1 X73.497 Y64.925
G1 X44.133 Y94.967 E309.4349
G1 X44.501 Y95.154
G1 X73.686 Y65.296 E311.5179
G1 X73.875 Y65.667
G1 X44.869 Y95.342 E313.5882
G1 X45.238 Y95.529
G1 X74.064 Y66.038 E315.6456
G1 X74.253 Y66.409
G1 X45.606 Y95.717 E317.6903
G1 X45.974 Y95.904
G1 X74.442 Y66.779 E319.7222
G1 X74.631 Y67.150
G1 X46.342 Y96.092 E321.7413
G1 X46.710 Y96.280
G1 X74.819 Y67.521 E323.7476
G1 X75.008 Y67.892
G1 X47.078 Y96.467 E325.7412
G1 X47.446 Y96.655
G1 X75.197 Y68.263 E327.7219
G1 X75.386 Y68.633
G1 X47.814 Y96.842 E329.6899
G1 X48.182 Y97.030
G1 X75.575 Y69.004 E331.6450
G1 X75.764 Y69.375
G1 X48.550 Y97.217 E333.5874
G1 X48.918 Y97.405
G1 X75.953 Y69.746 E335.5170
G1 X76.142 Y70.117
G1 X49.286 Y97.593 E337.4338
G1 X49.730 Y97.702
G1 X76.331 Y70.488 E339.3324
G1 X76.461 Y70.919
G1 X50.207 Y97.779 E341.2063
G1 X50.594 Y97.948
G1 X76.538 Y71.404 E343.0581
G1 X76.615 Y71.890
G1 X50.980 Y98.116 E344.8878
G1 X50.709 Y98.958
G1 X76.692 Y72.375 E346.7423
G1 X76.769 Y72.861
G1 X52.063 Y98.137 E348.5057
G1 X52.595 Y98.156
G1 X76.846 Y73.346 E350.2365
G1 X76.923 Y73.832
G1 X53.073 Y98.232 E351.9388
G1 X53.550 Y98.308
G1 X76.999 Y74.317 E353.6125
G1 X77.076 Y74.803
G1 X54.028 Y98.383 E355.2576
G1 X54.505 Y98.459
G1 X77.153 Y75.288 E356.8740
G1 X77.230 Y75.774
G1 X54.983 Y98.534 E358.4619
G1 X55.460 Y98.610
G1 X77.307 Y76.259 E360.0212
G1 X77.384 Y76.745
G1 X55.938 Y98.686 E361.5519
G1 X56.557 Y98.616
G1 X77.461 Y77.230 E363.0439
G1 X77.372 Y77.885
G1 X57.209 Y98.513 E364.4830
G1 X57.862 Y98.410
G1 X77.266 Y78.558 E365.8680
G1 X77.159 Y79.231
G1 X58.514 Y98.306 E367.1988
G1 X59.166 Y98.203
G1 X64.636 Y92.608 E367.5891
G1 X65.350 Y91.877 F10800
G1 X77.052 Y79.904 E368.4244 F600
G1 X76.946 Y80.577
G1 X66.069 Y91.705 E369.2007
G1 X66.538 Y91.790
G1 X76.839 Y81.251 E369.9360
G1 X76.733 Y81.924
G1 X66.906 Y91.977 E370.6374
G1 X67.193 Y92.248
G1 X76.626 Y82.597 E371.3107
G1 X76.519 Y83.270
G1 X67.412 Y92.588 E371.9607
G1 X66.956 Y93.962 F10800
G1 X62.054 Y98.330
G1 X62.032 Y99.220
G1 X61.789 Y99.469 E371.9780 F600
G1 X62.036 Y99.780
G1 X62.279 Y99.532 E371.9954
G1 X62.523 Y99.846
G1 X62.245 Y100.131 E372.0152
G1 X62.413 Y100.523
G1 X62.691 Y100.239 E372.0350
G1 X62.859 Y100.631
G1 X62.581 Y100.916 E372.0549
G1 X62.748 Y101.308
G1 X63.027 Y101.023 E372.0748
G1 X63.195 Y101.416
G1 X62.877 Y101.740 E372.0974
G1 X62.945 Y102.236
G1 X63.283 Y101.890 E372.1216
G1 X63.350 Y102.385
G1 X63.012 Y102.731 E372.1457
G1 X63.079 Y103.226
G1 X63.417 Y102.881 E372.1698
G1 X63.454 Y103.407
G1 X63.007 Y103.865 E372.2018
G1 X62.918 Y104.520
G1 X63.365 Y104.063 E372.2337
G1 X63.276 Y104.718
G1 X62.742 Y105.264 E372.2718
G1 X62.868 Y99.614 F10800
G1 X62.174 Y98.738
G1 X62.054 Y98.330
G1 X64.468 Y96.728
G1 X66.345 Y94.807 E372.4058 F600
G1 X65.783 Y94.819
G1 X63.370 Y97.288 E372.5780
G1 X64.753 Y94.180 F10800
G1 X60.721 Y98.305 E372.8658 F600
G1 X61.041 Y98.542
G1 X61.451 Y98.123 E372.8950
G1 X65.567 Y96.168 F10800
G1 X75.174 Y86.339 E373.5808 F600
G1 X74.574 Y87.517 F10800
G1 X66.666 Y95.608 E374.1452 F600
G1 X67.764 Y95.048 F10800
G1 X73.973 Y88.696 E374.5884 F600
G1 X75.775 Y85.160 F10800
G1 X67.541 Y93.584 E375.1761 F600
G1 X71.880 Y63.195 F10800
G1 X45.470 Y90.214 E377.0611 F600
G1 X45.574 Y90.672
G1 X72.159 Y63.474 E378.9586
G1 X72.437 Y63.752
G1 X45.483 Y91.330 E380.8825
G1 X50.448 Y98.400 F10800
G1 X50.039 Y100.772
G1 X49.328 Y101.499 E380.9332 F600
G1 X49.686 Y101.696
G1 X49.239 Y102.154 E380.9651
G1 X49.150 Y102.809
G1 X49.597 Y102.352 E380.9970
G1 X49.508 Y103.007
G1 X49.106 Y103.419 E381.0257
G1 X49.173 Y103.914
G1 X49.511 Y103.569 E381.0498
G1 X49.578 Y104.064
G1 X49.240 Y104.410 E381.0740
G1 X49.307 Y104.905
G1 X49.645 Y104.559 E381.0981
G1 X49.722 Y105.045
G1 X49.444 Y105.329 E381.1180
G1 X49.612 Y105.722
G1 X49.890 Y105.437 E381.1378
G1 X50.058 Y105.830
G1 X49.780 Y106.114 E381.1577
G1 X49.948 Y106.506
G1 X50.226 Y106.222 E381.1775
G1 X50.394 Y106.614
G1 X50.151 Y106.863 E381.1949
G1 X50.397 Y107.175
G1 X50.640 Y106.926 E381.2122
G1 X50.887 Y107.238
G1 X50.644 Y107.486 E381.2295
G1 X50.891 Y107.798
G1 X51.134 Y107.549 E381.2469
G1 X51.381 Y107.861
G1 X51.138 Y108.110 E381.2643
G1 X51.445 Y108.359
G1 X51.671 Y108.128 E381.2803
G1 X51.990 Y108.366
G1 X51.765 Y108.596 E381.2964
G1 X52.084 Y108.834
G1 X52.310 Y108.603 E381.3125
G1 X52.629 Y108.841
G1 X52.404 Y109.071 E381.3286
G1 X52.737 Y109.294
G1 X52.962 Y109.064 E381.3446
G1 X53.358 Y109.223
G1 X53.133 Y109.453 E381.3607
G1 X53.529 Y109.612
G1 X53.754 Y109.382 E381.3767
G1 X54.150 Y109.541
G1 X53.925 Y109.771 E381.3928
G1 X54.321 Y109.930
G1 X54.551 Y109.695 E381.4092
G1 X55.041 Y109.758
G1 X54.791 Y110.014 E381.4270
G1 X55.281 Y110.076
G1 X55.531 Y109.820 E381.4449
G1 X56.022 Y109.883
G1 X55.772 Y110.139 E381.4628
G1 X56.262 Y110.201
G1 X56.578 Y109.877 E381.4853
G1 X57.208 Y109.797
G1 X56.887 Y110.126 E381.5083
G1 X57.517 Y110.045
G1 X57.838 Y109.717 E381.5312
G1 X58.147 Y109.965
G1 X58.661 Y109.439 E381.5679
G1 X59.052 Y109.603
G1 X59.568 Y109.075 E381.6047
G1 X60.043 Y109.154
G1 X62.595 Y106.543 E381.7868
G1 X63.024 Y105.539 F10800
G1 X62.313 Y106.267 E381.8375 F600
G1 X60.794 Y107.683 F10800
G1 X57.930 Y109.286
G1 X56.279 Y109.496
G1 X54.628 Y109.286
G1 X53.088 Y108.668
G1 X51.763 Y107.683
G1 X50.744 Y106.396
G1 X50.102 Y104.893
G1 X49.757 Y100.496
G1 X50.801 Y99.428 E381.9121 F600
G1 X50.444 Y98.555 F10800
G1 X45.006 Y89.561
G1 X71.322 Y62.637 E383.7904 F600
G1 X71.043 Y62.358
G1 X44.659 Y89.352 E385.6736
G1 X44.226 Y89.230
G1 X70.764 Y62.079 E387.5677
G1 X70.485 Y61.801
G1 X43.646 Y89.259 E389.4833
G1 X35.945 Y70.060 F10800
G1 X43.977 Y61.842 E390.0567 F600
G1 X44.054 Y62.327
G1 X35.585 Y70.992 E390.6611
G1 X35.478 Y71.665
G1 X44.220 Y62.722 E391.2851
G1 X44.429 Y63.072
G1 X35.372 Y72.338 E391.9316
G1 X35.265 Y73.012
G1 X44.708 Y63.350 E392.6056
G1 X45.040 Y63.576
G1 X35.158 Y73.685 E393.3109
G1 X35.052 Y74.358
G1 X45.411 Y63.760 E394.0502
G1 X45.889 Y63.835
G1 X34.945 Y75.031 E394.8313
G1 X34.838 Y75.705
G1 X46.489 Y63.785 E395.6629
G1 X45.063 Y63.122 F10800
G1 X44.462 Y62.293
G1 X43.814 Y59.752
G1 X38.346 Y65.346 E396.0532 F600
G1 X47.109 Y58.073 F10800
G1 X45.427 Y59.794 E396.1732 F600
G1 X46.066 Y59.705
G1 X48.208 Y57.514 E396.3261
G1 X44.912 Y59.193 F10800
G1 X37.746 Y66.525 E396.8376 F600
G1 X45.063 Y60.434 F10800
G1 X46.029 Y60.120
G1 X47.283 Y60.153
G1 X50.649 Y56.709 E397.0778 F600
G1 X49.996 Y56.812
G1 X46.939 Y59.940 E397.2961
G1 X46.544 Y59.780
G1 X49.306 Y56.954 E397.4932
G1 X44.060 Y61.193 F10800
G1 X36.545 Y68.881 E398.0296 F600
G1 F4800 E397.0296
G1 X96.475 Y77.115 F10800
G1 X101.687 Y77.831
G1 F4800 E398.0296
G1 X101.361 Y78.164 E398.0529 F600
G1 X101.608 Y78.476
G1 X101.860 Y78.218 E398.0709
G1 X101.617 Y77.338
G1 X105.090 Y73.785 E398.3188
G1 X105.432 Y74.000
G1 X102.509 Y76.990 E398.5274
;segType:Perimeter
G1 X102.304 Y77.046 F10800
G1 X102.317 Y77.764 E398.5633 F359
G1 X102.396 Y77.941 E398.5729
G1 X103.091 Y78.818 E398.6288
G1 X103.869 Y80.636 E398.7274
G1 X104.134 Y82.586 E398.8256
G1 X103.869 Y84.536 E398.9237
G1 X103.091 Y86.353 E399.0224
G1 X101.854 Y87.916 E399.1218
G1 X100.238 Y89.116 E399.2222
G1 X98.356 Y89.872 E399.3234
G1 X96.335 Y90.129 E399.4251
G1 X94.315 Y89.872 E399.5267
G1 X92.432 Y89.116 E399.6279
G1 X90.817 Y87.916 E399.7283
G1 X89.580 Y86.353 E399.8277
G1 X88.802 Y84.536 E399.9264
G1 X88.537 Y82.586 E400.0245
G1 X88.802 Y80.636 E400.1227
G1 X89.580 Y78.818 E400.2214
G1 X90.219 Y78.011 E400.2727
G1 X90.323 Y77.780 E400.2854
G1 X90.095 Y77.680 E400.2978
G1 X89.271 Y77.549 E400.3394
G1 X83.125 Y74.417 E400.6835
G1 X78.247 Y69.540 E401.0277
G1 X75.117 Y63.396 E401.3717
G1 X74.038 Y56.586 E401.7157
G1 X75.117 Y49.776 E402.0597
G1 X78.247 Y43.631 E402.4038
G1 X83.125 Y38.754 E402.7479
G1 X89.271 Y35.622 E403.0920
G1 X96.085 Y34.543 E403.4362
G1 X102.900 Y35.622 E403.7804
G1 X109.046 Y38.754 E404.1246
G1 X113.923 Y43.631 E404.4687
G1 X117.054 Y49.776 E404.8128
G1 X118.133 Y56.586 E405.1568
G1 X117.054 Y63.396 E405.5007
G1 X113.923 Y69.540 E405.8448
G1 X109.046 Y74.417 E406.1889
G1 X102.900 Y77.549 E406.5331
G1 X102.521 Y77.610 E406.5522
G1 X102.346 Y77.686 E406.5617
G1 X101.866 Y78.209
;segType:Loop
G1 X101.331 Y78.451 F10800
G1 X102.049 Y79.358 E406.6194 F600
G1 X102.714 Y80.913 E406.7037
G1 X102.941 Y82.586 E406.7880
G1 X102.714 Y84.259 E406.8722
G1 X102.049 Y85.814 E406.9566
G1 X100.994 Y87.145 E407.0413
G1 X99.626 Y88.162 E407.1264
G1 X98.037 Y88.800 E407.2118
G1 X96.335 Y89.017 E407.2974
G1 X94.633 Y88.800 E407.3830
G1 X93.045 Y88.162 E407.4684
G1 X91.677 Y87.145 E407.5534
G1 X90.622 Y85.814 E407.6381
G1 X89.957 Y84.259 E407.7225
G1 X89.729 Y82.586 E407.8067
G1 X89.957 Y80.913 E407.8910
G1 X90.622 Y79.358 E407.9754
G1 X91.676 Y78.027 E408.0601
G1 X92.242 Y77.606 E408.0953
G1 X96.085 Y78.215 E408.2894
G1 X100.341 Y77.541 E408.5043
G1 X100.995 Y78.027 E408.5450
G1 X101.208 Y78.296 E408.5621
;segType:HShell
G1 X100.470 Y77.383 F10800
G1 X104.628 Y73.130 E408.8589 F600
G1 X104.536 Y72.660
G1 X99.899 Y77.404 E409.1898
;segType:Perimeter
G1 X99.812 Y77.477 F10800
G1 X100.287 Y78.006 E409.2253 F359
G1 X100.717 Y78.326 E409.2521
G1 X101.704 Y79.572 E409.3314
G1 X102.325 Y81.025 E409.4102
G1 X102.537 Y82.586 E409.4888
G1 X102.325 Y84.146 E409.5674
G1 X101.704 Y85.600 E409.6462
G1 X100.717 Y86.845 E409.7255
G1 X99.432 Y87.800 E409.8054
G1 X97.938 Y88.400 E409.8857
G1 X96.335 Y88.604 E409.9663
G1 X94.733 Y88.400 E410.0469
G1 X93.238 Y87.800 E410.1272
G1 X91.954 Y86.845 E410.2071
G1 X90.967 Y85.600 E410.2864
G1 X90.346 Y84.146 E410.3652
G1 X90.133 Y82.586 E410.4438
G1 X90.346 Y81.025 E410.5224
G1 X90.967 Y79.572 E410.6012
G1 X91.954 Y78.326 E410.6806
G1 X92.344 Y78.036 E410.7048
G1 X96.085 Y78.629 E410.8938
G1 X100.182 Y77.980 E411.1007
G1 X100.840 Y77.732
;segType:Loop
G1 X102.604 Y78.853 F10800
G1 X102.746 Y79.033 E411.1121 F600
G1 X103.480 Y80.748 E411.2052
G1 X103.730 Y82.586 E411.2977
G1 X103.480 Y84.423 E411.3903
G1 X102.746 Y86.139 E411.4833
G1 X101.576 Y87.617 E411.5774
G1 X100.045 Y88.754 E411.6726
G1 X98.257 Y89.472 E411.7687
G1 X96.335 Y89.717 E411.8653
G1 X94.414 Y89.472 E411.9620
G1 X92.626 Y88.754 E412.0581
G1 X91.095 Y87.617 E412.1533
G1 X89.925 Y86.139 E412.2473
G1 X89.191 Y84.423 E412.3404
G1 X88.941 Y82.586 E412.4329
G1 X89.191 Y80.748 E412.5255
G1 X89.925 Y79.033 E412.6185
G1 X90.562 Y78.228 E412.6698
G1 X90.857 Y77.568 E412.7058
G1 X90.206 Y77.283 E412.7413
G1 X89.394 Y77.155 E412.7823
G1 X83.359 Y74.080 E413.1202
G1 X78.572 Y69.293 E413.4580
G1 X75.501 Y63.265 E413.7955
G1 X74.443 Y56.586 E414.1329
G1 X75.501 Y49.906 E414.4703
G1 X78.572 Y43.878 E414.8078
G1 X83.359 Y39.092 E415.1455
G1 X89.394 Y36.017 E415.4834
G1 X96.085 Y34.957 E415.8214
G1 X102.777 Y36.017 E416.1594
G1 X108.811 Y39.092 E416.4973
G1 X113.598 Y43.878 E416.8350
G1 X116.670 Y49.906 E417.1726
G1 X117.727 Y56.586 E417.5100
G1 X116.670 Y63.265 E417.8474
G1 X113.598 Y69.293 E418.1849
G1 X108.811 Y74.080 E418.5226
G1 X102.777 Y77.155 E418.8605
G1 X102.409 Y77.213 E418.8791
G1 X101.758 Y77.499 E418.9146
G1 X102.053 Y78.158 E418.9506
G1 X102.481 Y78.698 E418.9850
G1 F4800 E417.9850
G1 X105.024 Y77.236 F10800
G1 X106.651 Y75.250
G1 X116.410 Y63.332
G1 F4800 E418.9850
;segType:HShell
G1 X107.608 Y72.337 E419.6133 F600
;segType:Perimeter
G1 X107.560 Y72.552 F10800
G1 X106.966 Y72.934 E419.6485 F359
G1 X106.856 Y73.151 E419.6606
G1 X106.644 Y73.363 E419.6756
G1 X106.379 Y73.497 E419.6905
G1 X106.085 Y73.544 E419.7053
G1 X105.792 Y73.497 E419.7201
G1 X105.527 Y73.363 E419.7349
G1 X105.315 Y73.151 E419.7499
G1 X105.179 Y72.883 E419.7649
G1 X105.132 Y72.586 E419.7799
G1 X105.179 Y72.289 E419.7949
G1 X105.315 Y72.021 E419.8099
G1 X105.527 Y71.809 E419.8248
G1 X105.792 Y71.674 E419.8397
G1 X106.085 Y71.628 E419.8545
G1 X106.378 Y71.674 E419.8693
G1 X106.644 Y71.809 E419.8842
G1 X106.856 Y72.021 E419.8991
G1 X106.992 Y72.288 E419.9141
G1 X107.036 Y72.566 E419.9282
G1 X107.001 Y72.822 E419.9410
G1 X107.269 Y73.485
;segType:Loop
G1 X106.260 Y73.931 F10800
G1 X106.085 Y73.959 E419.9499 F600
G1 X105.669 Y73.892 E419.9709
G1 X105.292 Y73.700 E419.9920
G1 X104.989 Y73.398 E420.0134
G1 X104.794 Y73.013 E420.0349
G1 X104.726 Y72.586 E420.0565
G1 X104.794 Y72.158 E420.0781
G1 X104.989 Y71.774 E420.0996
G1 X105.292 Y71.471 E420.1210
G1 X105.670 Y71.279 E420.1421
G1 X106.085 Y71.214 E420.1631
G1 X106.501 Y71.279 E420.1840
G1 X106.879 Y71.471 E420.2052
G1 X107.181 Y71.774 E420.2266
G1 X107.376 Y72.158 E420.2480
G1 X107.441 Y72.561 E420.2684
G1 X107.380 Y73.007 E420.2909
G1 X107.181 Y73.397 E420.3127
G1 X106.878 Y73.700 E420.3341
G1 X106.501 Y73.892 E420.3552
G1 X106.453 Y73.900 E420.3576
G1 X104.937 Y72.586 F10800
G1 X111.389 Y41.955
;segType:HShell
G1 X85.072 Y68.879 E422.2360 F600
;segType:Perimeter
G1 X84.935 Y68.860 F10800
G1 X84.884 Y69.576 E422.2718 F359
G1 X84.995 Y69.808 E422.2846
G1 X85.039 Y70.086 E422.2986
G1 X84.992 Y70.383 E422.3137
G1 X84.856 Y70.651 E422.3286
G1 X84.644 Y70.863 E422.3436
G1 X84.379 Y70.997 E422.3584
G1 X84.085 Y71.044 E422.3733
G1 X83.792 Y70.997 E422.3881
G1 X83.527 Y70.863 E422.4029
G1 X83.315 Y70.651 E422.4179
G1 X83.179 Y70.383 E422.4329
G1 X83.131 Y70.086 E422.4479
G1 X83.179 Y69.788 E422.4629
G1 X83.315 Y69.521 E422.4779
G1 X83.526 Y69.309 E422.4929
G1 X83.792 Y69.174 E422.5077
G1 X84.085 Y69.128 E422.5225
G1 X84.378 Y69.174 E422.5373
G1 X84.644 Y69.309 E422.5522
G1 X84.816 Y69.481 E422.5643
G1 X85.497 Y69.653
;segType:Loop
G1 X85.258 Y70.746 F10800
G1 X85.181 Y70.898 E422.5728 F600
G1 X84.878 Y71.200 E422.5942
G1 X84.501 Y71.392 E422.6153
G1 X84.085 Y71.459 E422.6363
G1 X83.670 Y71.392 E422.6573
G1 X83.292 Y71.200 E422.6784
G1 X82.989 Y70.898 E422.6998
G1 X82.794 Y70.514 E422.7212
G1 X82.726 Y70.086 E422.7429
G1 X82.794 Y69.658 E422.7645
G1 X82.989 Y69.274 E422.7860
G1 X83.292 Y68.971 E422.8073
G1 X83.670 Y68.779 E422.8285
G1 X84.085 Y68.714 E422.8495
G1 X84.501 Y68.779 E422.8704
G1 X84.878 Y68.971 E422.8916
G1 X85.186 Y69.278 E422.9133
G1 X85.381 Y69.682 E422.9357
G1 X85.444 Y70.086 E422.9560
G1 X85.377 Y70.513 E422.9776
G1 X85.348 Y70.569 E422.9807
G1 X87.731 Y41.117 F10800
G1 X87.635 Y39.742
;segType:HShell
G1 X91.381 Y35.909 E423.2482 F600
G1 X92.034 Y35.806
G1 X87.853 Y40.083 E423.5465
;segType:Perimeter
G1 X87.301 Y39.540 F10800
G1 X87.266 Y40.257 E423.5824 F359
G1 X87.472 Y40.663 E423.6051
G1 X87.539 Y41.086 E423.6264
G1 X87.468 Y41.537 E423.6493
G1 X87.261 Y41.945 E423.6721
G1 X86.938 Y42.267 E423.6948
G1 X86.533 Y42.473 E423.7175
G1 X86.085 Y42.544 E423.7401
G1 X85.638 Y42.473 E423.7627
G1 X85.233 Y42.267 E423.7854
G1 X84.910 Y41.945 E423.8082
G1 X84.703 Y41.538 E423.8309
G1 X84.631 Y41.086 E423.8538
G1 X84.703 Y40.634 E423.8766
G1 X84.910 Y40.227 E423.8993
G1 X85.233 Y39.904 E423.9221
G1 X85.638 Y39.699 E423.9448
G1 X86.085 Y39.627 E423.9674
G1 X86.533 Y39.699 E423.9900
G1 X86.910 Y39.890 E424.0110
G1 X87.196 Y40.163 E424.0308
G1 X87.881 Y40.320
;segType:Loop
G1 X87.910 Y41.300 F10800
G1 X87.852 Y41.668 E424.0493 F600
G1 X87.586 Y42.192 E424.0787
G1 X87.173 Y42.605 E424.1078
G1 X86.655 Y42.868 E424.1368
G1 X86.085 Y42.958 E424.1656
G1 X85.515 Y42.868 E424.1943
G1 X84.998 Y42.605 E424.2233
G1 X84.585 Y42.192 E424.2524
G1 X84.319 Y41.668 E424.2817
G1 X84.226 Y41.086 E424.3112
G1 X84.319 Y40.504 E424.3405
G1 X84.585 Y39.980 E424.3699
G1 X84.998 Y39.567 E424.3990
G1 X85.515 Y39.304 E424.4279
G1 X86.085 Y39.213 E424.4568
G1 X86.656 Y39.304 E424.4856
G1 X87.140 Y39.550 E424.5127
G1 X87.562 Y39.953 E424.5418
G1 X87.857 Y40.533 E424.5743
G1 X87.944 Y41.086 E424.6022
G1 X87.941 Y41.103 E424.6031
;segType:HShell
G1 X87.205 Y37.361 F10800
G1 X85.507 Y39.098 E424.7243 F600
G1 X86.140 Y39.015
G1 X88.304 Y36.801 E424.8788
G1 X107.177 Y72.225 F10800
G1 X107.860 Y74.336
G1 X114.008 Y68.046 E425.3176 F600
G1 X85.518 Y70.680 F10800
G1 X112.504 Y43.070 E427.2437 F600
G1 X112.225 Y42.791
G1 X85.633 Y69.997 E429.1417
G1 X85.533 Y69.535
G1 X111.946 Y42.512 E431.0269
G1 X111.667 Y42.234
G1 X85.351 Y69.158 E432.9053
G1 X90.748 Y78.304 F10800
G1 X116.751 Y51.700 E434.7612 F600
G1 X116.828 Y52.186
G1 X92.192 Y77.391 E436.5196
G1 X92.669 Y77.467
G1 X116.905 Y52.671 E438.2495
G1 X116.982 Y53.157
G1 X93.147 Y77.542 E439.9507
G1 X93.624 Y77.618
G1 X117.059 Y53.642 E441.6233
G1 X117.136 Y54.128
G1 X94.102 Y77.693 E443.2674
G1 X94.579 Y77.769
G1 X117.212 Y54.613 E444.8828
G1 X117.289 Y55.099
G1 X95.057 Y77.845 E446.4697
G1 X95.534 Y77.920
G1 X117.366 Y55.584 E448.0279
G1 X117.443 Y56.070
G1 X96.012 Y77.996 E449.5576
G1 X96.637 Y77.920
G1 X117.520 Y56.555 E451.0481
G1 X117.425 Y57.216
G1 X97.289 Y77.817 E452.4853
G1 X97.942 Y77.714
G1 X117.318 Y57.890 E453.8683
G1 X117.212 Y58.563
G1 X98.594 Y77.610 E455.1971
G1 X99.247 Y77.507
G1 X104.670 Y71.958 E455.5842
G1 X106.085 Y71.428 F10800
G1 X107.475 Y71.909
G1 X116.572 Y62.602 E456.2335 F600
G1 X116.679 Y61.929
G1 X107.259 Y71.566 E456.9058
G1 X106.976 Y71.292
G1 X116.785 Y61.256 E457.6060
G1 X116.892 Y60.583
G1 X106.607 Y71.105 E458.3400
G1 X106.143 Y71.016
G1 X116.999 Y59.909 E459.1148
G1 X117.105 Y59.236
G1 X105.446 Y71.164 E459.9470
G1 X104.816 Y73.501 F10800
G1 X100.789 Y77.621 E460.2344 F600
G1 X101.109 Y77.858
G1 X101.513 Y77.444 E460.2633
G1 X92.298 Y77.842 F10800
G1 X90.772 Y78.843
G1 X89.798 Y79.840 E460.3328 F600
G1 X90.080 Y80.116
G1 X89.381 Y80.830 E460.3827
G1 X89.740 Y81.028
G1 X89.292 Y81.485 E460.4146
G1 X89.203 Y82.141
G1 X89.650 Y81.683 E460.4465
G1 X89.561 Y82.339
G1 X89.164 Y82.744 E460.4748
G1 X89.232 Y83.240
G1 X89.570 Y82.894 E460.4989
G1 X89.637 Y83.389
G1 X89.299 Y83.735 E460.5230
G1 X89.366 Y84.230
G1 X89.704 Y83.885 E460.5472
G1 X89.785 Y84.366
G1 X89.506 Y84.651 E460.5670
G1 X89.674 Y85.044
G1 X89.953 Y84.759 E460.5869
G1 X90.120 Y85.151
G1 X89.842 Y85.436 E460.6067
G1 X90.010 Y85.828
G1 X90.288 Y85.544 E460.6266
G1 X90.459 Y85.933
G1 X90.216 Y86.182 E460.6439
G1 X90.463 Y86.493
G1 X90.706 Y86.245 E460.6612
G1 X90.953 Y86.556
G1 X90.710 Y86.805 E460.6786
G1 X90.956 Y87.117
G1 X91.200 Y86.868 E460.6960
G1 X91.447 Y87.179
G1 X91.203 Y87.429 E460.7134
G1 X91.514 Y87.675
G1 X91.739 Y87.444 E460.7295
G1 X92.058 Y87.682
G1 X91.833 Y87.912 E460.7456
G1 X92.152 Y88.150
G1 X92.378 Y87.919 E460.7617
G1 X92.697 Y88.157
G1 X92.472 Y88.387 E460.7777
G1 X92.808 Y88.608
G1 X93.033 Y88.377 E460.7938
G1 X93.429 Y88.536
G1 X93.204 Y88.767 E460.8099
G1 X93.600 Y88.925
G1 X93.825 Y88.695 E460.8260
G1 X94.221 Y88.854
G1 X93.996 Y89.084 E460.8421
G1 X94.392 Y89.243
G1 X94.625 Y89.005 E460.8587
G1 X95.115 Y89.067
G1 X94.865 Y89.323 E460.8766
G1 X95.355 Y89.386
G1 X95.606 Y89.130 E460.8944
G1 X96.096 Y89.193
G1 X95.846 Y89.448 E460.9123
G1 X96.336 Y89.511
G1 X96.657 Y89.182 E460.9352
G1 X97.288 Y89.102
G1 X96.966 Y89.430 E460.9581
G1 X97.596 Y89.350
G1 X97.918 Y89.021 E460.9810
G1 X98.234 Y89.261
G1 X98.750 Y88.733 E461.0179
G1 X99.142 Y88.897
G1 X99.657 Y88.369 E461.0547
G1 X100.173 Y88.407
G1 X102.636 Y85.887 E461.2305
G1 X102.354 Y85.610
G1 X103.065 Y84.883 E461.2812
G1 X102.111 Y77.638 F10800
G1 X106.762 Y74.895
G1 X114.609 Y66.867 E461.8412 F600
G1 X115.810 Y64.510 F10800
G1 X107.594 Y72.916 E462.4276 F600
G1 X102.111 Y77.638 F10800
G1 X103.812 Y81.666
G1 X102.783 Y84.608
G1 X103.329 Y84.049 E462.4666 F600
G1 X103.418 Y83.394
G1 X102.971 Y83.851 E462.4985
G1 X103.060 Y83.196
G1 X103.507 Y82.738 E462.5305
G1 X103.476 Y82.206
G1 X103.138 Y82.552 E462.5546
G1 X103.071 Y82.056
G1 X103.409 Y81.711 E462.5787
G1 X103.342 Y81.215
G1 X103.004 Y81.561 E462.6028
G1 X102.936 Y81.066
G1 X103.257 Y80.737 E462.6257
G1 X103.089 Y80.345
G1 X102.811 Y80.630 E462.6456
G1 X102.643 Y80.237
G1 X102.921 Y79.953 E462.6654
G1 X102.754 Y79.560
G1 X102.475 Y79.845 E462.6853
G1 X102.308 Y79.452
G1 X102.586 Y79.168 E462.7051
G1 X102.344 Y78.851
G1 X102.102 Y79.099 E462.7224
G1 X101.855 Y78.788
G1 X102.098 Y78.539 E462.7398
G1 X102.111 Y77.638 F10800
G1 X103.466 Y76.575
G1 X105.857 Y74.129 E462.9104 F600
G1 X106.426 Y74.111
G1 X104.565 Y76.015 E463.0432
G1 X115.209 Y65.689 F10800
G1 X105.663 Y75.455 E463.7245 F600
G1 X83.727 Y68.563 F10800
G1 X110.552 Y41.118 E465.6392 F600
G1 X110.831 Y41.397
G1 X84.300 Y68.540 E467.5328
G1 X84.728 Y68.666
G1 X111.110 Y41.676 E469.4157
G1 X91.050 Y77.430 F10800
G1 X116.674 Y51.215 E471.2446 F600
G1 X116.597 Y50.729
G1 X90.664 Y77.261 E473.0956
G1 X90.278 Y77.092
G1 X116.521 Y50.244 E474.9687
G1 X116.394 Y49.809
G1 X89.804 Y77.012 E476.8665
G1 X89.356 Y76.907
G1 X116.205 Y49.438 E478.7829
G1 X116.017 Y49.067
G1 X88.988 Y76.719 E480.7120
G1 X88.620 Y76.532
G1 X115.828 Y48.696 E482.6539
G1 X115.639 Y48.325
G1 X88.252 Y76.344 E484.6086
G1 X87.884 Y76.156
G1 X115.450 Y47.954 E486.5761
G1 X115.261 Y47.584
G1 X87.516 Y75.969 E488.5564
G1 X87.148 Y75.781
G1 X115.072 Y47.213 E490.5494
G1 X114.883 Y46.842
G1 X86.780 Y75.594 E492.5552
G1 X86.412 Y75.406
G1 X114.694 Y46.471 E494.5738
G1 X114.505 Y46.100
G1 X86.044 Y75.219 E496.6052
G1 X85.675 Y75.031
G1 X114.316 Y45.729 E498.6494
G1 X114.127 Y45.359
G1 X85.307 Y74.844 E500.7064
G1 X84.939 Y74.656
G1 X113.938 Y44.988 E502.7762
G1 X113.749 Y44.617
G1 X84.571 Y74.468 E504.8587
G1 X84.203 Y74.281
G1 X113.560 Y44.246 E506.9541
G1 X113.341 Y43.907
G1 X83.835 Y74.093 E509.0600
G1 X83.469 Y73.903
G1 X113.062 Y43.628 E511.1722
G1 X112.783 Y43.349
G1 X83.190 Y73.625 E513.2843
G1 X82.912 Y73.346
G1 X84.693 Y71.523 E513.4115
G1 X84.014 Y71.654
G1 X82.633 Y73.067 E513.5101
G1 X82.354 Y72.788
G1 X83.553 Y71.561 E513.5957
G1 X83.184 Y71.374
G1 X82.075 Y72.509 E513.6748
G1 X81.796 Y72.230
G1 X82.903 Y71.098 E513.7539
G1 X82.690 Y70.752
G1 X81.517 Y71.952 E513.8375
G1 X81.238 Y71.673
G1 X82.561 Y70.320 E513.9319
G1 X82.579 Y69.737
G1 X80.959 Y71.394 E514.0475
G1 X80.681 Y71.115
G1 X110.273 Y40.839 E516.1596
G1 X109.994 Y40.561
G1 X80.402 Y70.836 E518.2718
G1 X80.123 Y70.557
G1 X109.715 Y40.282 E520.3839
G1 X109.436 Y40.003
G1 X79.844 Y70.279 E522.4960
G1 X79.565 Y70.000
G1 X109.158 Y39.724 E524.6081
G1 X108.879 Y39.445
G1 X79.286 Y69.721 E526.7202
G1 X79.007 Y69.442
G1 X108.570 Y39.197 E528.8302
G1 X108.202 Y39.010
G1 X78.731 Y69.161 E530.9337
G1 X78.542 Y68.790
G1 X107.834 Y38.822 E533.0244
G1 X107.465 Y38.635
G1 X78.353 Y68.419 E535.1023
G1 X78.164 Y68.049
G1 X107.097 Y38.447 E537.1674
G1 X106.729 Y38.259
G1 X77.975 Y67.678 E539.2198
G1 X77.786 Y67.307
G1 X106.361 Y38.072 E541.2593
G1 X105.993 Y37.884
G1 X77.597 Y66.936 E543.2860
G1 X77.408 Y66.565
G1 X105.625 Y37.697 E545.3000
G1 X105.257 Y37.509
G1 X77.219 Y66.194 E547.3012
G1 X77.030 Y65.823
G1 X104.889 Y37.322 E549.2896
G1 X104.521 Y37.134
G1 X76.841 Y65.453 E551.2652
G1 X76.652 Y65.082
G1 X104.153 Y36.947 E553.2280
G1 X103.785 Y36.759
G1 X76.463 Y64.711 E555.1780
G1 X76.274 Y64.340
G1 X103.416 Y36.571 E557.1153
G1 X103.048 Y36.384
G1 X76.085 Y63.969 E559.0397
G1 X75.897 Y63.598
G1 X102.670 Y36.207 E560.9506
G1 X102.192 Y36.131
G1 X75.708 Y63.228 E562.8410
G1 X75.622 Y62.751
G1 X101.715 Y36.056 E564.7033
G1 X101.237 Y35.980
G1 X75.545 Y62.265 E566.5371
G1 X75.468 Y61.780
G1 X100.760 Y35.904 E568.3422
G1 X100.282 Y35.829
G1 X75.392 Y61.294 E570.1188
G1 X75.315 Y60.809
G1 X99.805 Y35.753 E571.8668
G1 X99.328 Y35.677
G1 X75.238 Y60.323 E573.5861
G1 X75.161 Y59.838
G1 X98.850 Y35.602 E575.2769
G1 X98.373 Y35.526
G1 X75.084 Y59.352 E576.9392
G1 X75.007 Y58.867
G1 X97.895 Y35.451 E578.5728
G1 X97.418 Y35.375
G1 X74.930 Y58.381 E580.1778
G1 X74.853 Y57.896
G1 X96.940 Y35.299 E581.7542
G1 X96.463 Y35.224
G1 X74.776 Y57.410 E583.3021
G1 X74.700 Y56.925
G1 X95.949 Y35.185 E584.8188
G1 X95.296 Y35.289
G1 X74.678 Y56.383 E586.2904
G1 X74.785 Y55.710
G1 X94.644 Y35.392 E587.7078
G1 X93.991 Y35.496
G1 X88.073 Y41.550 E588.1302
G1 X88.123 Y40.935
G1 X93.339 Y35.599 E588.5024
G1 X92.686 Y35.702
G1 X88.042 Y40.454 E588.8339
G1 X87.349 Y39.470 F10800
G1 X90.729 Y36.012 E589.0751 F600
G1 X90.076 Y36.116
G1 X87.009 Y39.255 E589.2941
G1 X86.617 Y39.091
G1 X89.402 Y36.241 E589.4929
G1 X86.107 Y37.920 F10800
G1 X77.180 Y47.053 E590.1300 F600
G1 X78.381 Y44.696 F10800
G1 X83.910 Y39.040 E590.5247 F600
G1 X85.008 Y38.480 F10800
G1 X77.781 Y45.875 E591.0406 F600
G1 X75.979 Y49.410 F10800
G1 X84.036 Y41.167 E591.6156 F600
G1 X84.114 Y41.652
G1 X75.638 Y50.324 E592.2206
G1 X75.531 Y50.997
G1 X84.284 Y42.042 E592.8453
G1 X84.496 Y42.389
G1 X75.424 Y51.670 E593.4928
G1 X75.318 Y52.344
G1 X84.775 Y42.668 E594.1679
G1 X85.109 Y42.890
G1 X75.211 Y53.017 E594.8744
G1 X75.104 Y53.690
G1 X85.485 Y43.070 E595.6153
G1 X85.962 Y43.145
G1 X74.998 Y54.363 E596.3979
G1 X74.891 Y55.037
G1 X86.569 Y43.089 E597.2314
G1 X85.120 Y42.430 F10800
G1 X84.518 Y41.600
G1 X84.113 Y40.525
G1 X76.580 Y48.232 E597.7691 F600
G1 F4800 E596.7691
G1 X111.528 Y80.068 F10800
G1 X138.710 Y104.829
G1 F4800 E597.7691
G1 X134.655 Y108.978 E598.0585 F600
G1 X134.974 Y109.216
G1 X138.965 Y105.133 E598.3433
G1 X139.287 Y105.368
G1 X136.302 Y108.421 E598.5563
;segType:Perimeter
G1 X136.239 Y108.455 F10800
G1 X136.251 Y109.173 E598.5921 F359
G1 X136.330 Y109.349 E598.6018
G1 X137.026 Y110.227 E598.6576
G1 X137.803 Y112.044 E598.7563
G1 X138.068 Y113.994 E598.8545
G1 X137.803 Y115.944 E598.9527
G1 X137.026 Y117.762 E599.0513
G1 X135.788 Y119.325 E599.1507
G1 X134.173 Y120.525 E599.2511
G1 X132.291 Y121.281 E599.3523
G1 X130.270 Y121.538 E599.4539
G1 X128.249 Y121.281 E599.5556
G1 X126.367 Y120.525 E599.6568
G1 X124.752 Y119.325 E599.7572
G1 X123.514 Y117.762 E599.8566
G1 X122.737 Y115.944 E599.9552
G1 X122.472 Y113.994 E600.0534
G1 X122.737 Y112.044 E600.1516
G1 X123.514 Y110.227 E600.2503
G1 X124.154 Y109.419 E600.3017
G1 X124.257 Y109.188 E600.3143
G1 X124.029 Y109.088 E600.3267
G1 X123.206 Y108.958 E600.3683
G1 X117.059 Y105.826 E600.7125
G1 X112.182 Y100.949 E601.0566
G1 X109.051 Y94.804 E601.4007
G1 X107.973 Y87.994 E601.7447
G1 X109.051 Y81.184 E602.0886
G1 X112.182 Y75.040 E602.4327
G1 X117.059 Y70.163 E602.7768
G1 X123.206 Y67.031 E603.1210
G1 X130.020 Y65.951 E603.4652
G1 X136.834 Y67.031 E603.8094
G1 X142.980 Y70.163 E604.1535
G1 X147.858 Y75.040 E604.4976
G1 X150.989 Y81.184 E604.8417
G1 X152.067 Y87.994 E605.1857
G1 X150.989 Y94.804 E605.5297
G1 X147.858 Y100.949 E605.8737
G1 X142.980 Y105.826 E606.2179
G1 X136.834 Y108.958 E606.5620
G1 X136.455 Y109.018 E606.5812
G1 X136.281 Y109.095 E606.5907
G1 X135.800 Y109.618
;segType:Loop
G1 X135.266 Y109.860 F10800
G1 X135.983 Y110.766 E606.6484 F600
G1 X136.648 Y112.322 E606.7328
G1 X136.876 Y113.994 E606.8170
G1 X136.648 Y115.667 E606.9012
G1 X135.983 Y117.223 E606.9856
G1 X134.929 Y118.553 E607.0703
G1 X133.560 Y119.571 E607.1554
G1 X131.972 Y120.208 E607.2408
G1 X130.270 Y120.426 E607.3264
G1 X128.568 Y120.208 E607.4121
G1 X126.979 Y119.571 E607.4975
G1 X125.611 Y118.553 E607.5825
G1 X124.557 Y117.223 E607.6673
G1 X123.892 Y115.667 E607.7517
G1 X123.664 Y113.994 E607.8359
G1 X123.892 Y112.322 E607.9201
G1 X124.557 Y110.766 E608.0045
G1 X125.611 Y109.435 E608.0892
G1 X126.177 Y109.015 E608.1244
G1 X130.020 Y109.623 E608.3184
G1 X134.276 Y108.949 E608.5334
G1 X134.929 Y109.435 E608.5741
G1 X135.143 Y109.705 E608.5912
;segType:HShell
G1 X134.336 Y108.741 F10800
G1 X138.530 Y104.449 E608.8906 F600
G1 X138.465 Y103.952
G1 X133.693 Y108.835 E609.2312
;segType:Perimeter
G1 X133.746 Y108.886 F10800
G1 X134.221 Y109.415 E609.2667 F359
G1 X134.651 Y109.735 E609.2934
G1 X135.638 Y110.981 E609.3728
G1 X136.260 Y112.434 E609.4516
G1 X136.472 Y113.994 E609.5302
G1 X136.260 Y115.555 E609.6087
G1 X135.638 Y117.008 E609.6876
G1 X134.651 Y118.254 E609.7669
G1 X133.367 Y119.209 E609.8468
G1 X131.873 Y119.809 E609.9271
G1 X130.270 Y120.013 E610.0077
G1 X128.667 Y119.809 E610.0883
G1 X127.173 Y119.209 E610.1687
G1 X125.889 Y118.254 E610.2485
G1 X124.902 Y117.008 E610.3278
G1 X124.280 Y115.555 E610.4066
G1 X124.068 Y113.994 E610.4852
G1 X124.280 Y112.434 E610.5637
G1 X124.902 Y110.981 E610.6426
G1 X125.889 Y109.735 E610.7219
G1 X126.279 Y109.445 E610.7462
G1 X130.020 Y110.037 E610.9351
G1 X134.116 Y109.389 E611.1421
G1 X134.775 Y109.141
;segType:Loop
G1 X136.538 Y110.262 F10800
G1 X136.681 Y110.442 E611.1535 F600
G1 X137.415 Y112.157 E611.2466
G1 X137.664 Y113.994 E611.3391
G1 X137.415 Y115.832 E611.4317
G1 X136.681 Y117.547 E611.5247
G1 X135.511 Y119.025 E611.6188
G1 X133.979 Y120.163 E611.7140
G1 X132.191 Y120.881 E611.8101
G1 X130.270 Y121.126 E611.9067
G1 X128.349 Y120.881 E612.0033
G1 X126.561 Y120.163 E612.0995
G1 X125.029 Y119.025 E612.1946
G1 X123.859 Y117.547 E612.2887
G1 X123.125 Y115.832 E612.3817
G1 X122.876 Y113.994 E612.4743
G1 X123.125 Y112.157 E612.5668
G1 X123.859 Y110.442 E612.6599
G1 X124.497 Y109.637 E612.7111
G1 X124.792 Y108.977 E612.7472
G1 X124.140 Y108.692 E612.7827
G1 X123.329 Y108.563 E612.8236
G1 X117.294 Y105.488 E613.1615
G1 X112.507 Y100.702 E613.4992
G1 X109.436 Y94.674 E613.8368
G1 X108.378 Y87.994 E614.1742
G1 X109.436 Y81.315 E614.5116
G1 X112.507 Y75.287 E614.8491
G1 X117.294 Y70.500 E615.1868
G1 X123.329 Y67.426 E615.5247
G1 X130.020 Y66.365 E615.8627
G1 X136.711 Y67.426 E616.2007
G1 X142.746 Y70.500 E616.5386
G1 X147.533 Y75.287 E616.8763
G1 X150.604 Y81.315 E617.2138
G1 X151.662 Y87.994 E617.5512
G1 X150.604 Y94.674 E617.8886
G1 X147.533 Y100.702 E618.2262
G1 X142.746 Y105.488 E618.5639
G1 X136.711 Y108.563 E618.9018
G1 X136.344 Y108.622 E618.9203
G1 X135.692 Y108.907 E618.9558
G1 X135.988 Y109.567 E618.9918
G1 X136.416 Y110.107 E619.0262
G1 F4800 E618.0262
G1 X138.969 Y108.619 F10800
G1 X140.605 Y106.607
G1 X150.423 Y94.539
G1 F4800 E619.0262
;segType:HShell
G1 X141.526 Y103.641 E619.6612 F600
;segType:Perimeter
G1 X141.495 Y103.961 F10800
G1 X140.901 Y104.343 E619.6964 F359
G1 X140.791 Y104.559 E619.7085
G1 X140.579 Y104.771 E619.7235
G1 X140.313 Y104.906 E619.7383
G1 X140.020 Y104.953 E619.7531
G1 X139.727 Y104.906 E619.7680
G1 X139.461 Y104.771 E619.7828
G1 X139.249 Y104.559 E619.7978
G1 X139.113 Y104.292 E619.8128
G1 X139.066 Y103.994 E619.8278
G1 X139.113 Y103.697 E619.8428
G1 X139.249 Y103.430 E619.8578
G1 X139.461 Y103.218 E619.8728
G1 X139.727 Y103.082 E619.8877
G1 X140.020 Y103.036 E619.9025
G1 X140.313 Y103.082 E619.9173
G1 X140.579 Y103.218 E619.9322
G1 X140.791 Y103.430 E619.9472
G1 X140.927 Y103.697 E619.9621
G1 X140.971 Y103.975 E619.9762
G1 X140.936 Y104.231 E619.9890
G1 X141.203 Y104.894
;segType:Loop
G1 X140.195 Y105.339 F10800
G1 X140.020 Y105.367 E619.9979 F600
G1 X139.604 Y105.301 E620.0189
G1 X139.227 Y105.109 E620.0400
G1 X138.924 Y104.806 E620.0614
G1 X138.728 Y104.422 E620.0829
G1 X138.661 Y103.994 E620.1045
G1 X138.728 Y103.567 E620.1261
G1 X138.924 Y103.183 E620.1476
G1 X139.227 Y102.880 E620.1690
G1 X139.605 Y102.687 E620.1901
G1 X140.020 Y102.622 E620.2111
G1 X140.435 Y102.687 E620.2321
G1 X140.813 Y102.880 E620.2533
G1 X141.116 Y103.183 E620.2747
G1 X141.311 Y103.566 E620.2962
G1 X141.375 Y103.970 E620.3166
G1 X141.314 Y104.416 E620.3390
G1 X141.116 Y104.806 E620.3609
G1 X140.813 Y105.109 E620.3822
G1 X140.436 Y105.301 E620.4033
G1 X140.387 Y105.308 E620.4058
G1 X138.871 Y103.994 F10800
G1 X145.542 Y73.582
;segType:HShell
G1 X119.226 Y100.506 E622.2841 F600
;segType:Perimeter
G1 X118.870 Y100.269 F10800
G1 X118.818 Y100.985 E622.3199 F359
G1 X118.930 Y101.217 E622.3328
G1 X118.974 Y101.494 E622.3468
G1 X118.927 Y101.792 E622.3618
G1 X118.791 Y102.059 E622.3767
G1 X118.579 Y102.271 E622.3917
G1 X118.313 Y102.406 E622.4065
G1 X118.020 Y102.453 E622.4214
G1 X117.727 Y102.406 E622.4362
G1 X117.461 Y102.271 E622.4510
G1 X117.249 Y102.059 E622.4660
G1 X117.113 Y101.792 E622.4809
G1 X117.066 Y101.494 E622.4959
G1 X117.113 Y101.197 E622.5110
G1 X117.249 Y100.929 E622.5259
G1 X117.461 Y100.718 E622.5409
G1 X117.727 Y100.583 E622.5557
G1 X118.020 Y100.536 E622.5705
G1 X118.313 Y100.583 E622.5854
G1 X118.579 Y100.718 E622.6002
G1 X118.750 Y100.889 E622.6123
G1 X119.432 Y101.062
;segType:Loop
G1 X119.193 Y102.154 F10800
G1 X119.116 Y102.306 E622.6208 F600
G1 X118.813 Y102.609 E622.6421
G1 X118.436 Y102.801 E622.6632
G1 X118.020 Y102.867 E622.6842
G1 X117.604 Y102.801 E622.7052
G1 X117.227 Y102.609 E622.7263
G1 X116.924 Y102.306 E622.7477
G1 X116.729 Y101.923 E622.7692
G1 X116.661 Y101.494 E622.7909
G1 X116.729 Y101.066 E622.8125
G1 X116.924 Y100.682 E622.8339
G1 X117.227 Y100.380 E622.8553
G1 X117.605 Y100.188 E622.8764
G1 X118.020 Y100.122 E622.8974
G1 X118.435 Y100.188 E622.9184
G1 X118.813 Y100.380 E622.9395
G1 X119.121 Y100.687 E622.9613
G1 X119.315 Y101.091 E622.9836
G1 X119.379 Y101.494 E623.0040
G1 X119.311 Y101.922 E623.0256
G1 X119.283 Y101.978 E623.0287
G1 X121.619 Y72.167 F10800
G1 X121.508 Y71.092
;segType:HShell
G1 X125.175 Y67.340 E623.2905 F600
G1 X125.827 Y67.237
G1 X121.747 Y71.411 E623.5818
;segType:Perimeter
G1 X121.236 Y70.948 F10800
G1 X121.200 Y71.666 E623.6176 F359
G1 X121.407 Y72.072 E623.6403
G1 X121.473 Y72.494 E623.6617
G1 X121.402 Y72.946 E623.6845
G1 X121.195 Y73.353 E623.7074
G1 X120.873 Y73.676 E623.7301
G1 X120.467 Y73.882 E623.7528
G1 X120.020 Y73.952 E623.7754
G1 X119.572 Y73.882 E623.7980
G1 X119.167 Y73.676 E623.8206
G1 X118.845 Y73.353 E623.8434
G1 X118.638 Y72.946 E623.8662
G1 X118.566 Y72.494 E623.8890
G1 X118.638 Y72.043 E623.9118
G1 X118.845 Y71.635 E623.9347
G1 X119.167 Y71.313 E623.9574
G1 X119.572 Y71.107 E623.9801
G1 X120.020 Y71.036 E624.0027
G1 X120.468 Y71.107 E624.0254
G1 X120.844 Y71.299 E624.0464
G1 X121.130 Y71.572 E624.0661
G1 X121.815 Y71.729
;segType:Loop
G1 X121.845 Y72.709 F10800
G1 X121.787 Y73.076 E624.0847 F600
G1 X121.520 Y73.600 E624.1140
G1 X121.107 Y74.014 E624.1432
G1 X120.590 Y74.277 E624.1722
G1 X120.020 Y74.366 E624.2010
G1 X119.450 Y74.277 E624.2298
G1 X118.933 Y74.014 E624.2588
G1 X118.520 Y73.600 E624.2879
G1 X118.253 Y73.077 E624.3172
G1 X118.161 Y72.494 E624.3466
G1 X118.253 Y71.912 E624.3761
G1 X118.520 Y71.388 E624.4054
G1 X118.933 Y70.975 E624.4345
G1 X119.449 Y70.712 E624.4634
G1 X120.020 Y70.622 E624.4922
G1 X120.590 Y70.712 E624.5210
G1 X121.075 Y70.959 E624.5481
G1 X121.496 Y71.361 E624.5772
G1 X121.791 Y71.942 E624.6097
G1 X121.879 Y72.494 E624.6376
G1 X121.876 Y72.512 E624.6385
G1 X121.328 Y71.492 F10800
G1 X120.527 Y70.917
G1 X117.607 Y70.570
;segType:HShell
G1 X112.446 Y75.850 E625.0069 F600
G1 X111.845 Y77.029 F10800
G1 X118.705 Y70.010 E625.4965 F600
G1 X119.804 Y69.450 F10800
G1 X111.245 Y78.207 E626.1074 F600
G1 X119.242 Y70.589 F10800
G1 X120.903 Y68.890 E626.2259 F600
G1 X110.644 Y79.386 F10800
G1 X118.113 Y71.744 E626.7590 F600
G1 X122.001 Y68.331 F10800
G1 X119.954 Y70.425 E626.9051 F600
G1 X121.328 Y71.492 F10800
G1 X121.668 Y72.494
G1 X121.352 Y73.472
G1 X120.363 Y74.519
G1 X108.849 Y86.300 E627.7270 F600
G1 X108.956 Y85.626
G1 X119.794 Y74.538 E628.5005
G1 X119.333 Y74.446
G1 X109.062 Y84.953 E629.2335
G1 X109.169 Y84.280
G1 X118.964 Y74.258 E629.9327
G1 X118.649 Y74.016
G1 X109.275 Y83.607 E630.6018
G1 X109.382 Y82.934
G1 X118.371 Y73.737 E631.2433
G1 X118.177 Y73.371
G1 X109.489 Y82.260 E631.8635
G1 X109.595 Y81.587
G1 X118.031 Y72.956 E632.4656
G1 X117.963 Y72.462
G1 X110.044 Y80.564 E633.0308
G1 X125.691 Y109.123 F10800
G1 X150.746 Y83.490 E634.8192 F600
G1 X150.669 Y83.004
G1 X124.784 Y109.487 E636.6668
G1 X123.825 Y111.032 F10800
G1 X125.217 Y109.608 E636.7661 F600
G1 X124.107 Y111.308 F10800
G1 X123.395 Y112.036 E636.8169 F600
G1 X126.233 Y109.251 F10800
G1 X138.734 Y103.113
G1 X133.040 Y108.938 E637.2233 F600
G1 X132.388 Y109.041
G1 X151.169 Y89.826 E638.5638
G1 X151.276 Y89.153
G1 X131.735 Y109.145 E639.9585
G1 X131.083 Y109.248
G1 X151.383 Y88.480 E641.4074
G1 X151.438 Y87.859
G1 X130.431 Y109.351 E642.9068
G1 X129.843 Y109.388
G1 X151.361 Y87.373 E644.4426
G1 X151.284 Y86.888
G1 X129.366 Y109.313 E646.0070
G1 X128.888 Y109.237
G1 X151.207 Y86.402 E647.6001
G1 X151.131 Y85.917
G1 X128.411 Y109.161 E649.2217
G1 X127.933 Y109.086
G1 X151.054 Y85.431 E650.8719
G1 X150.977 Y84.946
G1 X127.456 Y109.010 E652.5507
G1 X126.978 Y108.934
G1 X150.900 Y84.460 E654.2581
G1 X150.823 Y83.975
G1 X126.501 Y108.859 E655.9941
G1 X140.692 Y104.934 F10800
G1 X141.548 Y104.183
G1 X149.874 Y95.665 E656.5883 F600
G1 X138.262 Y107.545 F10800
G1 X140.219 Y105.542 E656.7280 F600
G1 X139.688 Y105.521
G1 X137.163 Y108.104 E656.9082
G1 X149.273 Y96.843 F10800
G1 X139.361 Y106.985 E657.6157 F600
G1 X140.459 Y106.425 F10800
G1 X148.673 Y98.021 E658.2020 F600
G1 X148.073 Y99.200 F10800
G1 X141.558 Y105.865 E658.6670 F600
G1 X143.246 Y104.702 F10800
G1 X147.472 Y100.378 E658.9687 F600
G1 X136.045 Y109.046 F10800
G1 X137.685 Y112.626
G1 X135.805 Y117.112
G1 X132.447 Y119.792
G1 X131.716 Y120.447
G1 X131.395 Y120.776 E658.9916 F600
G1 X130.765 Y120.856
G1 X131.086 Y120.528 E659.0146
G1 X130.456 Y120.608
G1 X130.165 Y120.906 E659.0353
G1 X129.675 Y120.844
G1 X129.924 Y120.588 E659.0531
G1 X129.434 Y120.525
G1 X129.184 Y120.781 E659.0709
G1 X128.694 Y120.719
G1 X128.944 Y120.463 E659.0888
G1 X128.466 Y120.387
G1 X128.241 Y120.618 E659.1049
G1 X127.845 Y120.459
G1 X128.070 Y120.229 E659.1209
G1 X127.674 Y120.070
G1 X127.449 Y120.300 E659.1370
G1 X127.053 Y120.141
G1 X127.278 Y119.911 E659.1530
G1 X126.882 Y119.752
G1 X126.657 Y119.982 E659.1691
G1 X126.337 Y119.744
G1 X126.562 Y119.514 E659.1851
G1 X126.243 Y119.277
G1 X126.018 Y119.507 E659.2012
G1 X125.699 Y119.270
G1 X125.924 Y119.039 E659.2172
G1 X125.605 Y118.802
G1 X125.379 Y119.032 E659.2334
G1 X125.084 Y118.770
G1 X125.328 Y118.521 E659.2507
G1 X125.081 Y118.209
G1 X124.838 Y118.458 E659.2680
G1 X124.591 Y118.146
G1 X124.834 Y117.898 E659.2854
G1 X124.587 Y117.586
G1 X124.344 Y117.835 E659.3027
G1 X124.097 Y117.523
G1 X124.354 Y117.260 E659.3210
G1 X124.187 Y116.868
G1 X123.909 Y117.152 E659.3408
G1 X123.741 Y116.760
G1 X124.019 Y116.475 E659.3607
G1 X123.851 Y116.083
G1 X123.573 Y116.368 E659.3806
G1 X123.405 Y115.975
G1 X123.692 Y115.681 E659.4011
G1 X123.624 Y115.186
G1 X123.286 Y115.532 E659.4252
G1 X123.219 Y115.037
G1 X123.557 Y114.691 E659.4493
G1 X123.490 Y114.196
G1 X123.152 Y114.541 E659.4734
G1 X123.085 Y114.046
G1 X123.515 Y113.606 E659.5041
G1 X123.604 Y112.950
G1 X123.157 Y113.408 E659.5360
G1 X123.246 Y112.753
G1 X123.693 Y112.295 E659.5680
G1 X125.755 Y109.590 F10800
G1 X126.233 Y109.251
G1 X134.220 Y109.186
G1 X134.786 Y109.590
G1 X135.805 Y110.877
G1 X136.447 Y112.380
G1 X136.810 Y115.800
G1 X137.283 Y115.316 E659.6018 F600
G1 X137.372 Y114.661
G1 X136.925 Y115.118 E659.6337
G1 X137.014 Y114.463
G1 X137.461 Y114.006 E659.6656
G1 X137.396 Y113.508
G1 X137.058 Y113.853 E659.6897
G1 X136.991 Y113.358
G1 X137.329 Y113.012 E659.7138
G1 X137.262 Y112.517
G1 X136.924 Y112.863 E659.7379
G1 X136.856 Y112.368
G1 X137.156 Y112.061 E659.7593
G1 X136.988 Y111.669
G1 X136.709 Y111.954 E659.7792
G1 X136.542 Y111.561
G1 X136.820 Y111.277 E659.7991
G1 X136.652 Y110.884
G1 X136.374 Y111.169 E659.8189
G1 X136.206 Y110.776
G1 X136.473 Y110.504 E659.8380
G1 X136.226 Y110.192
G1 X135.983 Y110.441 E659.8553
G1 X135.736 Y110.129
G1 X135.979 Y109.880 E659.8726
G1 X135.757 Y109.543
G1 X135.489 Y109.817 E659.8918
G1 X135.242 Y109.506
G1 X135.584 Y109.156 E659.9162
G1 X136.447 Y112.380 F10800
G1 X136.667 Y113.994
G1 X136.447 Y115.609
G1 X134.786 Y118.399
G1 X132.024 Y120.696
G1 X132.489 Y120.221 E659.9494 F600
G1 X134.791 Y118.148 F10800
G1 X137.093 Y116.075
G1 X136.381 Y116.803 E660.0001 F600
G1 X133.396 Y119.857 F10800
G1 X132.880 Y120.385 E660.0370 F600
G1 X133.788 Y120.020
G1 X136.663 Y117.079 E660.2422
G1 X136.859 Y110.330 F10800
G1 X136.165 Y109.454
G1 X136.045 Y109.046
G1 X140.625 Y105.210
G1 X141.369 Y103.237
G1 X150.530 Y93.865 E660.8960 F600
G1 X150.636 Y93.192
G1 X141.134 Y102.914 E661.5742
G1 X140.831 Y102.660
G1 X150.743 Y92.519 E662.2816
G1 X150.850 Y91.846
G1 X140.452 Y102.483 E663.0238
G1 X139.957 Y102.425
G1 X150.956 Y91.173 E663.8088
G1 X151.063 Y90.499
G1 X139.144 Y102.693 E664.6595
G1 X119.517 Y101.900 F10800
G1 X146.378 Y74.419 E666.5767 F600
G1 X146.099 Y74.140
G1 X119.551 Y101.301 E668.4716
G1 X119.428 Y100.863
G1 X145.821 Y73.861 E670.3553
G1 X118.947 Y100.227 F10800
G1 X145.263 Y73.303 E672.2336 F600
G1 X144.984 Y73.024
G1 X118.583 Y100.034 E674.1179
G1 X118.131 Y99.933
G1 X144.705 Y72.746 E676.0146
G1 X144.426 Y72.467
G1 X117.504 Y100.010 E677.9361
G1 X118.692 Y100.555 F10800
G1 X124.902 Y108.802
G1 X150.592 Y82.519 E679.7697 F600
G1 X150.515 Y82.033
G1 X124.515 Y108.633 E681.6255
G1 X124.113 Y108.481
G1 X150.438 Y81.548 E683.5044
G1 X150.288 Y81.137
G1 X123.636 Y108.405 E685.4067
G1 X123.211 Y108.275
G1 X150.099 Y80.766 E687.3258
G1 X149.910 Y80.396
G1 X122.843 Y108.087 E689.2577
G1 X122.475 Y107.900
G1 X149.721 Y80.025 E691.2024
G1 X149.532 Y79.654
G1 X122.107 Y107.712 E693.1599
G1 X121.739 Y107.525
G1 X149.343 Y79.283 E695.1302
G1 X149.155 Y78.912
G1 X121.371 Y107.337 E697.1132
G1 X121.003 Y107.150
G1 X148.966 Y78.541 E699.1090
G1 X148.777 Y78.170
G1 X120.635 Y106.962 E701.1176
G1 X120.267 Y106.775
G1 X148.588 Y77.800 E703.1391
G1 X148.399 Y77.429
G1 X119.899 Y106.587 E705.1732
G1 X119.530 Y106.399
G1 X148.210 Y77.058 E707.2202
G1 X148.021 Y76.687
G1 X119.162 Y106.212 E709.2800
G1 X118.794 Y106.024
G1 X147.832 Y76.316 E711.3526
G1 X147.643 Y75.945
G1 X118.426 Y105.837 E713.4379
G1 X118.058 Y105.649
G1 X147.454 Y75.575 E715.5360
G1 X147.215 Y75.255
G1 X117.690 Y105.462 E717.6433
G1 X117.344 Y105.252
G1 X146.936 Y74.976 E719.7555
G1 X146.657 Y74.697
G1 X117.065 Y104.973 E721.8676
G1 X116.786 Y104.694
G1 X118.434 Y103.008 E721.9852
G1 X117.845 Y103.046
G1 X116.507 Y104.415 E722.0807
G1 X116.228 Y104.136
G1 X117.408 Y102.929 E722.1649
G1 X117.057 Y102.725
G1 X115.949 Y103.858 E722.2440
G1 X115.670 Y103.579
G1 X116.778 Y102.446 E722.3230
G1 X116.584 Y102.080
G1 X115.392 Y103.300 E722.4081
G1 X115.113 Y103.021
G1 X116.479 Y101.624 E722.5056
G1 X116.537 Y101.000
G1 X114.834 Y102.742 E722.6272
G1 X114.555 Y102.463
G1 X144.147 Y72.188 E724.7393
G1 X143.868 Y71.909
G1 X114.276 Y102.185 E726.8514
G1 X113.997 Y101.906
G1 X143.590 Y71.630 E728.9635
G1 X143.311 Y71.352
G1 X113.718 Y101.627 E731.0756
G1 X113.439 Y101.348
G1 X143.032 Y71.073 E733.1878
G1 X142.753 Y70.794
G1 X113.161 Y101.069 E735.2999
G1 X112.882 Y100.790
G1 X142.425 Y70.566 E737.4085
G1 X142.057 Y70.378
G1 X112.624 Y100.490 E739.5092
G1 X112.436 Y100.119
G1 X141.688 Y70.190 E741.5971
G1 X141.320 Y70.003
G1 X112.247 Y99.748 E743.6722
G1 X112.058 Y99.377
G1 X140.952 Y69.815 E745.7345
G1 X140.584 Y69.628
G1 X111.869 Y99.006 E747.7841
G1 X111.680 Y98.635
G1 X140.216 Y69.440 E749.8209
G1 X139.848 Y69.253
G1 X111.491 Y98.265 E751.8449
G1 X111.302 Y97.894
G1 X139.480 Y69.065 E753.8561
G1 X139.112 Y68.877
G1 X111.113 Y97.523 E755.8545
G1 X110.924 Y97.152
G1 X138.744 Y68.690 E757.8402
G1 X138.376 Y68.502
G1 X110.735 Y96.781 E759.8130
G1 X110.546 Y96.410
G1 X138.008 Y68.315 E761.7731
G1 X137.640 Y68.127
G1 X110.357 Y96.040 E763.7204
G1 X110.168 Y95.669
G1 X137.271 Y67.940 E765.6549
G1 X136.903 Y67.752
G1 X109.979 Y95.298 E767.5766
G1 X109.790 Y94.927
G1 X136.501 Y67.599 E769.4831
G1 X136.024 Y67.524
G1 X109.617 Y94.540 E771.3678
G1 X109.540 Y94.055
G1 X135.546 Y67.448 E773.2240
G1 X135.069 Y67.372
G1 X109.463 Y93.569 E775.0516
G1 X109.386 Y93.084
G1 X134.591 Y67.297 E776.8506
G1 X134.114 Y67.221
G1 X109.310 Y92.598 E778.6210
G1 X109.233 Y92.113
G1 X133.636 Y67.145 E780.3628
G1 X133.159 Y67.070
G1 X109.156 Y91.627 E782.0760
G1 X109.079 Y91.142
G1 X132.682 Y66.994 E783.7606
G1 X132.204 Y66.918
G1 X109.002 Y90.656 E785.4167
G1 X108.925 Y90.171
G1 X131.727 Y66.843 E787.0441
G1 X131.249 Y66.767
G1 X108.848 Y89.685 E788.6430
G1 X108.771 Y89.200
G1 X130.772 Y66.691 E790.2132
G1 X130.294 Y66.616
G1 X108.695 Y88.714 E791.7549
G1 X108.618 Y88.229
G1 X129.742 Y66.616 E793.2627
G1 X129.090 Y66.720
G1 X108.636 Y87.646 E794.7226
G1 X108.742 Y86.973
G1 X128.437 Y66.823 E796.1283
G1 X127.785 Y66.927
G1 X122.031 Y72.813 E796.5390
G1 X122.041 Y72.239
G1 X127.132 Y67.030 E796.9024
G1 X126.480 Y67.133
G1 X121.936 Y71.782 E797.2267
G1 X121.222 Y70.820 F10800
G1 X124.523 Y67.443 E797.4622 F600
G1 X123.870 Y67.547
G1 X120.864 Y70.623 E797.6768
G1 X120.449 Y70.483
G1 X123.100 Y67.771 E797.8661
; ------------------------------------
; Layer #1
; ------------------------------------
G21 ; mm
G90 ; abs
G92 E0 ; reset extr
M106 S255
G1 F4800 E-1.0000
G1 F300 Z0.600
G1 X118.119 Y71.766 F10800
G1 X109.809 Y81.025
G1 F4800 E0.0000
;segType:HShell
G1 X136.549 Y108.382 E1.9085 F3600
;segType:Perimeter
G1 X136.239 Y108.455 F10800
G1 X136.251 Y109.173 E1.9444 F2159
G1 X136.330 Y109.349 E1.9540
G1 X137.026 Y110.227 E2.0099
G1 X137.803 Y112.044 E2.1085
G1 X138.068 Y113.994 E2.2067
G1 X137.803 Y115.944 E2.3049
G1 X137.026 Y117.762 E2.4035
G1 X135.788 Y119.325 E2.5029
G1 X134.173 Y120.525 E2.6033
G1 X132.291 Y121.281 E2.7045
G1 X130.270 Y121.538 E2.8062
G1 X128.249 Y121.281 E2.9078
G1 X126.367 Y120.525 E3.0090
G1 X124.752 Y119.325 E3.1094
G1 X123.514 Y117.762 E3.2088
G1 X122.737 Y115.944 E3.3075
G1 X122.472 Y113.994 E3.4056
G1 X122.737 Y112.044 E3.5038
G1 X123.514 Y110.227 E3.6025
G1 X124.154 Y109.419 E3.6538
G1 X124.257 Y109.188 E3.6665
G1 X124.029 Y109.088 E3.6789
G1 X123.206 Y108.958 E3.7205
G1 X117.059 Y105.826 E4.0647
G1 X112.182 Y100.949 E4.4088
G1 X109.051 Y94.804 E4.7528
G1 X107.973 Y87.994 E5.0968
G1 X109.051 Y81.184 E5.4408
G1 X112.182 Y75.040 E5.7848
G1 X117.059 Y70.163 E6.1290
G1 X123.206 Y67.031 E6.4731
G1 X130.020 Y65.951 E6.8173
G1 X136.834 Y67.031 E7.1615
G1 X142.980 Y70.163 E7.5057
G1 X147.858 Y75.040 E7.8498
G1 X150.989 Y81.184 E8.1938
G1 X152.067 Y87.994 E8.5378
G1 X150.989 Y94.804 E8.8818
G1 X147.858 Y100.949 E9.2259
G1 X142.980 Y105.826 E9.5700
G1 X136.834 Y108.958 E9.9142
G1 X136.455 Y109.018 E9.9333
G1 X136.281 Y109.095 E9.9428
G1 X135.800 Y109.618
;segType:Loop
G1 X135.266 Y109.860 F10800
G1 X135.983 Y110.766 E10.0005 F3600
G1 X136.648 Y112.322 E10.0849
G1 X136.876 Y113.994 E10.1691
G1 X136.648 Y115.667 E10.2533
G1 X135.983 Y117.223 E10.3377
G1 X134.929 Y118.553 E10.4224
G1 X133.560 Y119.571 E10.5075
G1 X131.972 Y120.208 E10.5929
G1 X130.270 Y120.426 E10.6785
G1 X128.568 Y120.208 E10.7641
G1 X126.979 Y119.571 E10.8495
G1 X125.611 Y118.553 E10.9346
G1 X124.557 Y117.223 E11.0193
G1 X123.892 Y115.667 E11.1037
G1 X123.664 Y113.994 E11.1879
G1 X123.892 Y112.322 E11.2721
G1 X124.557 Y110.766 E11.3565
G1 X125.611 Y109.435 E11.4412
G1 X126.177 Y109.015 E11.4764
G1 X130.020 Y109.623 E11.6705
G1 X134.276 Y108.949 E11.8855
G1 X134.929 Y109.435 E11.9261
G1 X135.143 Y109.705 E11.9433
;segType:HShell
G1 X109.317 Y83.343 F10800
G1 X134.161 Y108.760 E13.7165 F3600
;segType:Perimeter
G1 X133.746 Y108.886 F10800
G1 X134.221 Y109.415 E13.7520 F2159
G1 X134.651 Y109.735 E13.7787
G1 X135.638 Y110.981 E13.8581
G1 X136.260 Y112.434 E13.9369
G1 X136.472 Y113.994 E14.0155
G1 X136.260 Y115.555 E14.0940
G1 X135.638 Y117.008 E14.1729
G1 X134.651 Y118.254 E14.2522
G1 X133.367 Y119.209 E14.3321
G1 X131.873 Y119.809 E14.4124
G1 X130.270 Y120.013 E14.4930
G1 X128.667 Y119.809 E14.5736
G1 X127.173 Y119.209 E14.6539
G1 X125.889 Y118.254 E14.7338
G1 X124.902 Y117.008 E14.8131
G1 X124.280 Y115.555 E14.8919
G1 X124.068 Y113.994 E14.9705
G1 X124.280 Y112.434 E15.0491
G1 X124.902 Y110.981 E15.1279
G1 X125.889 Y109.735 E15.2072
G1 X126.279 Y109.445 E15.2315
G1 X130.020 Y110.037 E15.4204
G1 X134.116 Y109.389 E15.6273
G1 X134.775 Y109.141
;segType:Loop
G1 X136.538 Y110.262 F10800
G1 X136.681 Y110.442 E15.6388 F3600
G1 X137.415 Y112.157 E15.7319
G1 X137.664 Y113.994 E15.8244
G1 X137.415 Y115.832 E15.9169
G1 X136.681 Y117.547 E16.0100
G1 X135.511 Y119.025 E16.1040
G1 X133.979 Y120.163 E16.1992
G1 X132.191 Y120.881 E16.2953
G1 X130.270 Y121.126 E16.3920
G1 X128.349 Y120.881 E16.4886
G1 X126.561 Y120.163 E16.5847
G1 X125.029 Y119.025 E16.6799
G1 X123.859 Y117.547 E16.7739
G1 X123.125 Y115.832 E16.8670
G1 X122.876 Y113.994 E16.9595
G1 X123.125 Y112.157 E17.0521
G1 X123.859 Y110.442 E17.1451
G1 X124.497 Y109.637 E17.1964
G1 X124.792 Y108.977 E17.2324
G1 X124.140 Y108.692 E17.2679
G1 X123.329 Y108.563 E17.3089
G1 X117.294 Y105.488 E17.6468
G1 X112.507 Y100.702 E17.9845
G1 X109.436 Y94.674 E18.3221
G1 X108.378 Y87.994 E18.6595
G1 X109.436 Y81.315 E18.9969
G1 X112.507 Y75.287 E19.3344
G1 X117.294 Y70.500 E19.6721
G1 X123.329 Y67.426 E20.0100
G1 X130.020 Y66.365 E20.3480
G1 X136.711 Y67.426 E20.6860
G1 X142.746 Y70.500 E21.0239
G1 X147.533 Y75.287 E21.3616
G1 X150.604 Y81.315 E21.6992
G1 X151.662 Y87.994 E22.0366
G1 X150.604 Y94.674 E22.3739
G1 X147.533 Y100.702 E22.7115
G1 X142.746 Y105.488 E23.0492
G1 X136.711 Y108.563 E23.3871
G1 X136.344 Y108.622 E23.4057
G1 X135.692 Y108.907 E23.4411
G1 X135.988 Y109.567 E23.4772
G1 X136.416 Y110.107 E23.5116
G1 F4800 E22.5116
G1 X136.744 Y110.188 F10800
G1 X111.698 Y77.317
G1 F4800 E23.5116
;segType:HShell
G1 X140.253 Y106.530 E25.5496 F3600
G1 X140.621 Y106.343
G1 X139.842 Y105.546 E25.6052
G1 X140.367 Y105.519
G1 X140.989 Y106.155 E25.6496
G1 X141.357 Y105.967
G1 X140.765 Y105.362 E25.6919
G1 X141.084 Y105.124
G1 X141.725 Y105.780 E25.7376
G1 X142.093 Y105.592
G1 X141.336 Y104.817 E25.7917
G1 X141.515 Y104.437
G1 X142.461 Y105.405 E25.8592
G1 X142.781 Y105.167
G1 X141.572 Y103.930 E25.9455
;segType:Perimeter
G1 X141.490 Y103.950 F10800
G1 X140.902 Y104.341 E25.9807 F2159
G1 X140.791 Y104.559 E25.9929
G1 X140.579 Y104.771 E26.0079
G1 X140.313 Y104.906 E26.0227
G1 X140.020 Y104.953 E26.0376
G1 X139.727 Y104.906 E26.0524
G1 X139.461 Y104.771 E26.0672
G1 X139.249 Y104.559 E26.0822
G1 X139.113 Y104.292 E26.0972
G1 X139.066 Y103.994 E26.1122
G1 X139.113 Y103.697 E26.1272
G1 X139.249 Y103.430 E26.1422
G1 X139.461 Y103.218 E26.1571
G1 X139.727 Y103.082 E26.1720
G1 X140.020 Y103.036 E26.1868
G1 X140.313 Y103.082 E26.2016
G1 X140.579 Y103.218 E26.2165
G1 X140.791 Y103.430 E26.2314
G1 X140.927 Y103.697 E26.2464
G1 X140.968 Y103.955 E26.2594
G1 X140.936 Y104.229 E26.2732
G1 X141.206 Y104.891
;segType:Loop
G1 X140.197 Y105.339 F10800
G1 X140.020 Y105.367 E26.2821 F3600
G1 X139.604 Y105.301 E26.3031
G1 X139.227 Y105.109 E26.3242
G1 X138.924 Y104.806 E26.3456
G1 X138.728 Y104.422 E26.3671
G1 X138.661 Y103.994 E26.3887
G1 X138.728 Y103.567 E26.4103
G1 X138.924 Y103.183 E26.4318
G1 X139.227 Y102.880 E26.4532
G1 X139.605 Y102.687 E26.4743
G1 X140.020 Y102.622 E26.4953
G1 X140.435 Y102.687 E26.5163
G1 X140.813 Y102.880 E26.5374
G1 X141.116 Y103.183 E26.5588
G1 X141.311 Y103.567 E26.5803
G1 X141.372 Y103.947 E26.5995
G1 X141.317 Y104.411 E26.6228
G1 X141.116 Y104.806 E26.6449
G1 X140.813 Y105.109 E26.6663
G1 X140.436 Y105.301 E26.6874
G1 X140.389 Y105.308 E26.6898
G1 X119.192 Y102.157 F10800
G1 X119.116 Y102.306 E26.6981 F3600
G1 X118.813 Y102.609 E26.7195
G1 X118.436 Y102.801 E26.7406
G1 X118.020 Y102.867 E26.7616
G1 X117.604 Y102.801 E26.7826
G1 X117.227 Y102.609 E26.8037
G1 X116.924 Y102.306 E26.8251
G1 X116.729 Y101.923 E26.8466
G1 X116.661 Y101.494 E26.8682
G1 X116.729 Y101.066 E26.8898
G1 X116.924 Y100.682 E26.9113
G1 X117.227 Y100.380 E26.9327
G1 X117.605 Y100.188 E26.9538
G1 X118.020 Y100.122 E26.9748
G1 X118.435 Y100.188 E26.9958
G1 X118.813 Y100.380 E27.0169
G1 X119.125 Y100.692 E27.0389
G1 X119.319 Y101.114 E27.0621
G1 X119.379 Y101.495 E27.0813
G1 X119.311 Y101.922 E27.1029
G1 X119.282 Y101.980 E27.1062
;segType:Perimeter
G1 X118.873 Y100.271 F10800
G1 X118.818 Y100.987 E27.1420 F2159
G1 X118.933 Y101.236 E27.1557
G1 X118.974 Y101.494 E27.1687
G1 X118.927 Y101.792 E27.1837
G1 X118.791 Y102.059 E27.1987
G1 X118.579 Y102.271 E27.2137
G1 X118.313 Y102.406 E27.2285
G1 X118.020 Y102.453 E27.2433
G1 X117.727 Y102.406 E27.2581
G1 X117.461 Y102.271 E27.2730
G1 X117.249 Y102.059 E27.2879
G1 X117.113 Y101.792 E27.3029
G1 X117.066 Y101.494 E27.3180
G1 X117.113 Y101.197 E27.3330
G1 X117.249 Y100.929 E27.3480
G1 X117.461 Y100.718 E27.3629
G1 X117.727 Y100.583 E27.3778
G1 X118.020 Y100.536 E27.3926
G1 X118.313 Y100.583 E27.4074
G1 X118.579 Y100.718 E27.4222
G1 X118.752 Y100.891 E27.4344
G1 X119.431 Y101.073
;segType:Loop
G1 X121.863 Y72.593 F10800
G1 X121.787 Y73.076 E27.4589 F3600
G1 X121.520 Y73.600 E27.4882
G1 X121.107 Y74.014 E27.5174
G1 X120.590 Y74.277 E27.5463
G1 X120.020 Y74.366 E27.5751
G1 X119.450 Y74.277 E27.6039
G1 X118.933 Y74.014 E27.6328
G1 X118.520 Y73.600 E27.6620
G1 X118.253 Y73.077 E27.6913
G1 X118.161 Y72.494 E27.7207
G1 X118.253 Y71.912 E27.7502
G1 X118.520 Y71.388 E27.7795
G1 X118.933 Y70.975 E27.8086
G1 X119.449 Y70.712 E27.8375
G1 X120.020 Y70.622 E27.8663
G1 X120.590 Y70.712 E27.8952
G1 X121.042 Y70.942 E27.9204
G1 X121.436 Y71.301 E27.9470
G1 X121.578 Y71.496 E27.9591
G1 X121.798 Y71.985 E27.9858
G1 X121.863 Y72.396 E28.0066
;segType:Perimeter
G1 X121.169 Y70.908 F10800
G1 X121.174 Y71.626 E28.0424 F2159
G1 X121.232 Y71.706 E28.0473
G1 X121.412 Y72.106 E28.0692
G1 X121.473 Y72.494 E28.0888
G1 X121.402 Y72.946 E28.1116
G1 X121.195 Y73.353 E28.1344
G1 X120.873 Y73.676 E28.1572
G1 X120.467 Y73.882 E28.1798
G1 X120.020 Y73.952 E28.2024
G1 X119.572 Y73.882 E28.2250
G1 X119.167 Y73.676 E28.2477
G1 X118.845 Y73.353 E28.2705
G1 X118.638 Y72.946 E28.2933
G1 X118.566 Y72.494 E28.3161
G1 X118.638 Y72.043 E28.3389
G1 X118.845 Y71.635 E28.3617
G1 X119.167 Y71.313 E28.3844
G1 X119.572 Y71.107 E28.4071
G1 X120.020 Y71.036 E28.4297
G1 X120.468 Y71.107 E28.4523
G1 X120.816 Y71.284 E28.4718
G1 X121.096 Y71.539 E28.4907
G1 X121.794 Y71.607
G1 X120.020 Y70.837 F10800
G1 X119.054 Y71.150
G1 X118.453 Y71.980
G1 X118.054 Y73.101
;segType:HShell
G1 X116.535 Y71.546 E28.5992 F3600
G1 X116.814 Y71.267
G1 X117.966 Y72.446 E28.6814
G1 X118.043 Y71.961
G1 X117.093 Y70.988 E28.7492
G1 X117.371 Y70.709
G1 X118.205 Y71.563 E28.8088
G1 X118.412 Y71.210
G1 X117.727 Y70.509 E28.8577
G1 X118.095 Y70.321
G1 X118.691 Y70.931 E28.9002
G1 X119.019 Y70.703
G1 X118.463 Y70.134 E28.9399
G1 X118.831 Y69.946
G1 X119.387 Y70.515 E28.9796
G1 X119.865 Y70.439
G1 X119.199 Y69.758 E29.0271
G1 X119.567 Y69.571
G1 X120.460 Y70.485 E29.0909
G1 X141.667 Y70.179 F10800
G1 X148.013 Y76.672 E29.5438 F3600
G1 X148.614 Y77.850 F10800
G1 X140.569 Y69.620 E30.1181 F3600
G1 X139.470 Y69.060 F10800
G1 X149.214 Y79.029 E30.8135 F3600
G1 X141.287 Y103.075 F10800
G1 X143.060 Y104.889 E30.9401 F3600
G1 X143.338 Y104.610
G1 X113.746 Y74.334 E33.0522
G1 X114.025 Y74.055
G1 X143.617 Y104.331 E35.1643
G1 X143.896 Y104.052
G1 X114.304 Y73.777 E37.2765
G1 X114.583 Y73.498
G1 X144.175 Y103.773 E39.3886
G1 X144.454 Y103.494
G1 X114.862 Y73.219 E41.5008
G1 X115.140 Y72.940
G1 X144.733 Y103.216 E43.6129
G1 X145.012 Y102.937
G1 X115.419 Y72.661 E45.7250
G1 X115.698 Y72.382
G1 X145.291 Y102.658 E47.8372
G1 X145.569 Y102.379
G1 X115.977 Y72.104 E49.9493
G1 X116.256 Y71.825
G1 X145.848 Y102.100 E52.0615
G1 X146.127 Y101.821
G1 X119.399 Y74.476 E53.9692
G1 X120.042 Y74.570
G1 X146.406 Y101.543 E55.8509
G1 X146.685 Y101.264
G1 X120.520 Y74.495 E57.7184
G1 X120.918 Y74.338
G1 X146.964 Y100.985 E59.5774
G1 X147.243 Y100.706
G1 X121.272 Y74.135 E61.4311
G1 X121.550 Y73.857
G1 X147.473 Y100.377 E63.2813
G1 X147.662 Y100.007
G1 X121.782 Y73.529 E65.1284
G1 X121.971 Y73.158
G1 X147.851 Y99.636 E66.9756
G1 X148.040 Y99.265
G1 X122.052 Y72.678 E68.8304
G1 X122.015 Y72.075
G1 X148.229 Y98.894 E70.7014
G1 X148.417 Y98.523
G1 X119.935 Y69.383 E72.7343
G1 X120.303 Y69.196
G1 X148.606 Y98.152 E74.7544
G1 X148.795 Y97.781
G1 X120.671 Y69.008 E76.7618
G1 X121.039 Y68.821
G1 X148.984 Y97.411 E78.7563
G1 X149.173 Y97.040
G1 X121.408 Y68.633 E80.7381
G1 X121.776 Y68.446
G1 X149.362 Y96.669 E82.7071
G1 X149.551 Y96.298
G1 X122.144 Y68.258 E84.6633
G1 X122.512 Y68.070
G1 X149.740 Y95.927 E86.6067
G1 X149.929 Y95.556
G1 X122.880 Y67.883 E88.5373
G1 X123.248 Y67.695
G1 X150.118 Y95.186 E90.4551
G1 X150.307 Y94.815
G1 X123.683 Y67.576 E92.3554
G1 X124.161 Y67.501
G1 X150.446 Y94.393 E94.2315
G1 X150.523 Y93.908
G1 X124.638 Y67.425 E96.0790
G1 X125.116 Y67.350
G1 X150.600 Y93.422 E97.8979
G1 X150.677 Y92.937
G1 X125.593 Y67.274 E99.6883
G1 X126.071 Y67.198
G1 X150.754 Y92.451 E101.4500
G1 X150.831 Y91.966
G1 X126.548 Y67.123 E103.1831
G1 X127.026 Y67.047
G1 X150.907 Y91.480 E104.8877
G1 X150.984 Y90.995
G1 X127.503 Y66.971 E106.5637
G1 X127.980 Y66.896
G1 X151.061 Y90.509 E108.2111
G1 X151.138 Y90.024
G1 X128.458 Y66.820 E109.8298
G1 X128.935 Y66.744
G1 X151.215 Y89.538 E111.4200
G1 X151.292 Y89.053
G1 X129.413 Y66.669 E112.9816
G1 X129.890 Y66.593
G1 X151.369 Y88.567 E114.5147
G1 X151.446 Y88.082
G1 X130.495 Y66.648 E116.0100
G1 X131.148 Y66.751
G1 X151.372 Y87.442 E117.4535
G1 X151.266 Y86.769
G1 X131.800 Y66.854 E118.8428
G1 X132.453 Y66.958
G1 X151.159 Y86.096 E120.1780
G1 X151.052 Y85.423
G1 X133.105 Y67.061 E121.4590
G1 X133.758 Y67.165
G1 X150.946 Y84.750 E122.6858
G1 X150.839 Y84.076
G1 X134.410 Y67.268 E123.8584
G1 X135.062 Y67.371
G1 X150.732 Y83.403 E124.9768
G1 X150.626 Y82.730
G1 X135.715 Y67.475 E126.0410
G1 X136.367 Y67.578
G1 X150.519 Y82.057 E127.0511
G1 X150.412 Y81.383
G1 X137.273 Y67.940 E127.9890
G1 X138.371 Y68.500 F10800
G1 X149.814 Y80.207 E128.8057 F3600
G1 X145.659 Y73.700 F10800
G1 X147.413 Y75.494 E128.9309 F3600
G1 X111.510 Y77.687 F10800
G1 X139.885 Y106.718 E130.9561 F3600
G1 X139.517 Y106.905
G1 X111.321 Y78.058 E132.9686
G1 X111.132 Y78.429
G1 X139.149 Y107.093 E134.9683
G1 X138.780 Y107.280
G1 X110.943 Y78.800 E136.9552
G1 X110.754 Y79.171
G1 X138.412 Y107.468 E138.9293
G1 X138.044 Y107.656
G1 X110.565 Y79.542 E140.8907
G1 X110.376 Y79.912
G1 X137.676 Y107.843 E142.8392
G1 X137.308 Y108.031
G1 X110.187 Y80.283 E144.7750
G1 X109.998 Y80.654
G1 X136.940 Y108.218 E146.6980
G1 X136.045 Y109.046 F10800
G1 X136.263 Y110.911
G1 X136.975 Y111.639 E146.7487 F3600
G1 X136.692 Y111.913
G1 X137.259 Y112.493 E146.7892
G1 X136.900 Y112.691
G1 X137.348 Y113.148 E146.8211
G1 X137.437 Y113.804
G1 X136.989 Y113.346 E146.8530
G1 X137.077 Y114.000
G1 X137.415 Y114.345 E146.8772
G1 X137.348 Y114.841
G1 X137.010 Y114.495 E146.9013
G1 X136.942 Y114.990
G1 X137.280 Y115.336 E146.9254
G1 X137.202 Y115.820
G1 X136.875 Y115.485 E146.9488
G1 X136.755 Y115.927
G1 X137.034 Y116.212 E146.9686
G1 X136.866 Y116.604
G1 X136.588 Y116.320 E146.9885
G1 X136.420 Y116.712
G1 X136.698 Y116.997 E147.0084
G1 X136.530 Y117.389
G1 X136.252 Y117.105 E147.0282
G1 X136.051 Y117.463
G1 X136.293 Y117.711 E147.0455
G1 X136.047 Y118.023
G1 X135.804 Y117.774 E147.0629
G1 X135.557 Y118.086
G1 X135.800 Y118.335 E147.0802
G1 X135.553 Y118.646
G1 X135.310 Y118.398 E147.0976
G1 X135.062 Y118.708
G1 X135.287 Y118.939 E147.1137
G1 X134.968 Y119.176
G1 X134.742 Y118.945 E147.1298
G1 X134.423 Y119.183
G1 X134.648 Y119.413 E147.1459
G1 X134.329 Y119.651
G1 X134.104 Y119.420 E147.1619
G1 X133.784 Y119.658
G1 X134.010 Y119.888 E147.1780
G1 X133.644 Y120.078
G1 X133.419 Y119.848 E147.1941
G1 X133.023 Y120.007
G1 X133.248 Y120.237 E147.2101
G1 X132.852 Y120.396
G1 X132.627 Y120.166 E147.2262
G1 X132.231 Y120.324
G1 X132.456 Y120.555 E147.2423
G1 X132.040 Y120.694
G1 X131.790 Y120.438 E147.2601
G1 X131.300 Y120.500
G1 X131.550 Y120.756 E147.2780
G1 X131.060 Y120.819
G1 X130.810 Y120.563 E147.2958
G1 X130.319 Y120.626
G1 X130.569 Y120.881 E147.3137
G1 X130.025 Y120.888
G1 X129.703 Y120.560 E147.3366
G1 X129.073 Y120.479
G1 X129.395 Y120.808 E147.3595
G1 X128.765 Y120.728
G1 X128.411 Y120.365 E147.3848
G1 X128.019 Y120.529
G1 X127.503 Y120.001 E147.4216
G1 X125.754 Y118.399 F10800
G1 X124.735 Y117.112
G1 X124.093 Y115.609
G1 X123.681 Y110.330
G1 X124.320 Y109.525
G1 X124.439 Y109.116
G1 X116.561 Y102.037
G1 X109.984 Y95.308 E147.8910 F3600
G1 X124.439 Y109.116 F10800
G1 X122.729 Y113.551
G1 X125.021 Y117.475
G1 X127.112 Y120.165
G1 X126.246 Y119.278 E147.9528 F3600
G1 X124.735 Y117.112 F10800
G1 X124.093 Y115.609
G1 X123.681 Y110.330
G1 X124.320 Y109.525
G1 X124.439 Y109.116
G1 X121.012 Y107.154
G1 X110.585 Y96.486 E148.6971 F3600
G1 X118.407 Y99.976 F10800
G1 X108.945 Y90.296 E149.3724 F3600
G1 X109.052 Y90.969
G1 X117.826 Y99.946 E149.9987
G1 X117.393 Y100.067
G1 X109.158 Y91.642 E150.5864
G1 X109.265 Y92.315
G1 X117.045 Y100.275 E151.1418
G1 X116.766 Y100.554
G1 X109.371 Y92.988 E151.6696
G1 X109.478 Y93.662
G1 X116.576 Y100.923 E152.1762
G1 X116.475 Y101.385
G1 X109.585 Y94.335 E152.6680
G1 X115.424 Y100.309 F10800
G1 X117.370 Y102.300
G1 X119.316 Y104.291
G1 X123.209 Y108.274
G1 X118.112 Y103.060 E153.0318 F3600
G1 X117.459 Y102.956
G1 X122.111 Y107.714 E153.3638
G1 X123.935 Y108.452 F10800
G1 X118.568 Y102.962 E153.7468 F3600
G1 X118.935 Y102.773
G1 X124.773 Y108.746 E154.1635
G1 X133.684 Y108.836 F10800
G1 X109.240 Y83.828 E155.9081 F3600
G1 X109.163 Y84.314
G1 X133.206 Y108.912 E157.6242
G1 X132.729 Y108.987
G1 X109.087 Y84.799 E159.3117
G1 X109.010 Y85.285
G1 X132.251 Y109.063 E160.9705
G1 X131.774 Y109.138
G1 X108.933 Y85.770 E162.6008
G1 X108.856 Y86.255
G1 X131.296 Y109.214 E164.2025
G1 X130.819 Y109.290
G1 X108.779 Y86.741 E165.7756
G1 X108.702 Y87.226
G1 X130.341 Y109.365 E167.3201
G1 X129.807 Y109.382
G1 X108.625 Y87.712 E168.8319
G1 X108.625 Y88.276
G1 X129.154 Y109.279 E170.2972
G1 X128.502 Y109.176
G1 X108.732 Y88.949 E171.7083
G1 X108.838 Y89.622
G1 X127.850 Y109.072 E173.0652
G1 X127.197 Y108.969
G1 X119.522 Y101.117 E173.6130
G1 X119.548 Y101.707
G1 X126.545 Y108.866 E174.1124
G1 X126.012 Y108.885
G1 X119.424 Y102.144 E174.5826
G1 X119.214 Y102.494
G1 X125.692 Y109.122 E175.0450
G1 X125.396 Y109.383
G1 X125.008 Y108.986 E175.0727
G1 X124.835 Y109.373
G1 X125.149 Y109.694 E175.0951
G1 X124.902 Y110.006
G1 X124.659 Y109.757 E175.1124
G1 X124.412 Y110.069
G1 X124.655 Y110.317 E175.1298
G1 X124.408 Y110.629
G1 X124.165 Y110.380 E175.1471
G1 X123.955 Y110.729
G1 X124.233 Y111.014 E175.1670
G1 X124.065 Y111.406
G1 X123.787 Y111.121 E175.1868
G1 X123.619 Y111.514
G1 X123.897 Y111.799 E175.2067
G1 X123.729 Y112.191
G1 X123.451 Y111.906 E175.2266
G1 X123.305 Y112.321
G1 X123.643 Y112.667 E175.2507
G1 X123.575 Y113.162
G1 X123.238 Y112.816 E175.2748
G1 X123.170 Y113.312
G1 X123.508 Y113.657 E175.2989
G1 X123.491 Y114.203
G1 X123.103 Y113.807 E175.3266
G1 X123.133 Y114.402
G1 X123.580 Y114.859 E175.3585
G1 X123.669 Y115.514
G1 X123.222 Y115.057 E175.3904
G1 X123.311 Y115.712
G1 X123.989 Y116.406 E175.4388
G1 X124.605 Y118.165 F10800
G1 X125.651 Y119.235 E175.5135 F3600
G1 X128.619 Y120.002 F10800
G1 X130.270 Y120.213
G1 X131.921 Y120.002
G1 X134.786 Y118.399
G1 X136.447 Y115.609
G1 X136.667 Y113.994
G1 X136.447 Y112.380
G1 X135.527 Y109.029
G1 X109.471 Y82.372 E177.3732 F3600
G1 X109.548 Y81.886
G1 X135.727 Y108.669 E179.2417
G1 X136.113 Y108.500
G1 X109.625 Y81.401 E181.1323
G1 X117.093 Y102.178 F10800
G1 X119.913 Y106.594
G1 X111.185 Y97.665 E181.7553 F3600
G1 X118.815 Y106.035 F10800
G1 X111.786 Y98.843 E182.2570 F3600
G1 X117.716 Y105.475 F10800
G1 X112.386 Y100.022 E182.6374 F3600
G1 X124.439 Y109.116 F10800
G1 X122.758 Y114.650
G1 X124.568 Y117.562
G1 X123.707 Y116.681 E182.6989 F3600
G1 X124.093 Y112.380 F10800
G1 X124.735 Y110.877
G1 X125.755 Y109.590
G1 X126.233 Y109.251
G1 X138.484 Y104.156
G1 X111.887 Y76.946 E184.5972 F3600
G1 X112.076 Y76.575
G1 X138.517 Y103.626 E186.4844
G1 X138.677 Y103.225
G1 X112.265 Y76.204 E188.3695
G1 X112.454 Y75.833
G1 X138.915 Y102.905 E190.2581
G1 X139.221 Y102.654
G1 X112.643 Y75.463 E192.1551
G1 X112.910 Y75.171
G1 X139.603 Y102.481 E194.0604
G1 X140.104 Y102.428
G1 X113.188 Y74.892 E195.9814
G1 X113.467 Y74.613
G1 X140.934 Y102.714 E197.9418
G1 X141.115 Y104.347 F10800
G1 X140.692 Y104.934
G1 X136.045 Y109.046
G1 X136.545 Y110.635
G1 X109.394 Y82.857 E199.8798 F3600
G1 F4800 E198.8798
G1 X100.519 Y89.641 F10800
G1 X96.335 Y90.728
G1 X92.151 Y89.641
G1 X84.217 Y91.003
G1 X79.518 Y92.346
G1 F4800 E199.8798
G1 X106.632 Y120.085 E201.8150 F3600
;segType:Perimeter
G1 X106.913 Y120.267 F10800
G1 X106.351 Y120.698 E201.8503 F2159
G1 X106.257 Y120.861 E201.8597
G1 X106.028 Y121.657 E201.9010
G1 X102.182 Y127.348 E202.2437
G1 X96.764 Y131.572 E202.5864
G1 X90.305 Y133.916 E202.9292
G1 X83.437 Y134.149 E203.2720
G1 X76.834 Y132.248 E203.6149
G1 X71.142 Y128.401 E203.9576
G1 X66.919 Y122.984 E204.3003
G1 X64.576 Y116.528 E204.6430
G1 X64.343 Y109.665 E204.9856
G1 X66.242 Y103.065 E205.3282
G1 X70.089 Y97.374 E205.6709
G1 X75.507 Y93.150 E206.0136
G1 X81.966 Y90.806 E206.3564
G1 X88.834 Y90.573 E206.6993
G1 X95.437 Y92.474 E207.0421
G1 X101.128 Y96.321 E207.3848
G1 X105.352 Y101.738 E207.7275
G1 X107.695 Y108.194 E208.0702
G1 X107.708 Y108.574 E208.0891
G1 X107.776 Y108.814 E208.1016
G1 X108.010 Y108.743 E208.1138
G1 X108.963 Y108.163 E208.1695
G1 X110.858 Y107.616 E208.2679
G1 X112.821 Y107.592 E208.3658
G1 X114.719 Y108.094 E208.4637
G1 X116.422 Y109.086 E208.5621
G1 X117.816 Y110.500 E208.6612
G1 X118.804 Y112.242 E208.7611
G1 X119.319 Y114.192 E208.8617
G1 X119.327 Y116.218 E208.9628
G1 X118.826 Y118.180 E209.0638
G1 X117.850 Y119.946 E209.1645
G1 X116.466 Y121.395 E209.2644
G1 X114.769 Y122.428 E209.3635
G1 X112.875 Y122.975 E209.4619
G1 X110.912 Y122.998 E209.5599
G1 X109.014 Y122.497 E209.6578
G1 X107.310 Y121.505 E209.7562
G1 X106.590 Y120.774 E209.8074
G1 X106.431 Y120.677 E209.8167
G1 X105.736 Y120.577
;segType:Loop
G1 X105.607 Y121.561 F10800
G1 X101.889 Y127.062 E210.1479 F3600
G1 X96.571 Y131.208 E210.4843
G1 X90.230 Y133.509 E210.8209
G1 X83.486 Y133.738 E211.1575
G1 X77.002 Y131.872 E211.4941
G1 X71.416 Y128.095 E211.8306
G1 X67.271 Y122.780 E212.1668
G1 X64.973 Y116.447 E212.5029
G1 X64.745 Y109.717 E212.8389
G1 X66.608 Y103.243 E213.1750
G1 X70.382 Y97.660 E213.5112
G1 X75.700 Y93.514 E213.8476
G1 X82.041 Y91.213 E214.1842
G1 X88.785 Y90.984 E214.5208
G1 X95.268 Y92.850 E214.8574
G1 X100.855 Y96.627 E215.1938
G1 X105.000 Y101.942 E215.5301
G1 X107.298 Y108.275 E215.8662
G1 X107.310 Y108.639 E215.8844
G1 X107.504 Y109.324 E215.9199
G1 X108.172 Y109.120 E215.9547
G1 X109.122 Y108.542 E216.0102
G1 X110.915 Y108.024 E216.1033
G1 X112.772 Y108.002 E216.1960
G1 X114.567 Y108.476 E216.2886
G1 X116.178 Y109.414 E216.3816
G1 X117.496 Y110.752 E216.4753
G1 X118.431 Y112.401 E216.5698
G1 X118.920 Y114.247 E216.6651
G1 X118.927 Y116.166 E216.7608
G1 X118.452 Y118.026 E216.8566
G1 X117.527 Y119.699 E216.9520
G1 X116.217 Y121.071 E217.0467
G1 X114.610 Y122.048 E217.1405
G1 X112.817 Y122.566 E217.2336
G1 X110.960 Y122.588 E217.3262
G1 X109.165 Y122.114 E217.4189
G1 X107.554 Y121.176 E217.5119
G1 X106.837 Y120.447 E217.5629
G1 X106.240 Y120.085 E217.5977
