; GCode generated by CraftWare

; filename = composition.3w 
; machine = daVinciF10 
; material = abs 
; extruder = 1 
M140 S90 ; Bed (no wait) 
M106 S255 ; Start fan 
G90 ; set absolute coordinates 
G28 ; home all axis 
M190 S90 ; Bed (wait) 
M104 S210 ; Extruder (no wait) 
M109 S210 ; Extruder (wait) 
M117 Start 
M117 Cleaning 
M100 ; Cleaning 
M117 Printing 
M190 S75 ;set bed temp (wait)
M109 S220 ;set head temp (wait)
; ------------------------------------
; Layer #0
; ------------------------------------
G21 ; mm
G90 ; abs
G92 E0 ; reset extr
M106 S0
G1 F4800 E-1.0000
G1 F300 Z0.300
G1 X131.235 Y90.369 F10800
G1 X132.793 Y90.002
G1 X133.494 Y89.507
G1 X133.843 Y88.765
G1 X133.643 Y85.568
G1 F4800 E0.0000
;segType:SoftSupport
G1 X133.347 Y85.564 E0.0066 F900
;segType:Support
G1 F4800 E-0.9934
G1 X135.600 Y83.800 F10800
G1 F4800 E0.0066
G1 X128.282 Y83.918 E0.3170 F900
G1 X81.600 Y83.800 E2.2966
G1 X76.200 Y83.800 E2.5256
;segType:SoftSupport
G1 F4800 E1.5256
G1 X80.176 Y87.507 F10800
G1 F4800 E2.5256
G1 X80.665 Y87.520 E2.5366 F900
G1 X80.231 Y89.091 E2.5732
;segType:Support
G1 X76.200 Y89.200 E2.7442 F900
G1 X76.200 Y87.400 E2.8205
G1 X80.176 Y87.507 E2.9892
G1 X80.231 Y89.091 E3.0564
;segType:SoftSupport
G1 X80.703 Y89.079 E3.0670 F900
;segType:Support
G1 F4800 E2.0670
G1 X81.241 Y85.600 F10800
G1 F4800 E3.0670
G1 X76.200 Y85.600 E3.2808 F900
;segType:SoftSupport
G1 F4800 E2.2808
G1 X81.241 Y85.600 F10800
G1 F4800 E3.2808
G1 X81.587 Y85.600 E3.2886 F900
;segType:Support
G1 F4800 E2.2886
G1 X135.600 Y85.600 F10800
G1 F4800 E3.2886
G1 X133.643 Y85.568 E3.3716 F900
G1 F4800 E2.3716
G1 X132.695 Y87.546 F10800
G1 X131.747 Y89.524
G1 F4800 E3.3716
;segType:HShell
G1 X132.967 Y88.402 E3.4543 F600
G1 X132.919 Y88.939
G1 X132.726 Y89.117 E3.4674
;segType:Loop
G1 X131.836 Y89.694 F10800
G1 X131.177 Y89.827 E3.5009 F600
G1 X129.256 Y89.793 E3.5968
G1 X98.160 Y89.816 E5.1482
G1 X98.016 Y89.815 E5.1554
G1 X86.239 Y89.813 E5.7429
G1 X85.486 Y89.793 E5.7805
G1 X85.054 Y89.762 E5.8021
G1 X84.275 Y89.656 E5.8413
G1 X83.019 Y89.660 E5.9040
G1 X82.688 Y89.558 E5.9212
G1 X82.525 Y89.321 E5.9356
G1 X82.221 Y89.282 E5.9509
G1 X82.082 Y89.172 E5.9597
G1 X81.904 Y88.830 E5.9790
G1 X81.908 Y88.768 E5.9821
G1 X81.849 Y87.750 E6.0329
G1 X81.898 Y87.115 E6.0647
G1 X81.899 Y86.969 E6.0720
G1 X82.036 Y86.659 E6.0889
G1 X82.174 Y86.569 E6.0971
G1 X82.518 Y86.546 E6.1143
G1 X82.721 Y86.314 E6.1297
G1 X83.011 Y86.256 E6.1445
G1 X83.593 Y86.211 E6.1736
G1 X84.802 Y86.182 E6.2339
G1 X86.375 Y86.108 E6.3125
G1 X89.813 Y86.107 E6.4840
G1 X129.215 Y86.108 E8.4498
G1 X129.949 Y86.188 E8.4866
G1 X131.332 Y86.184 E8.5556
G1 X132.047 Y86.206 E8.5913
G1 X132.591 Y86.421 E8.6205
G1 X132.808 Y86.569 E8.6336
G1 X133.131 Y86.873 E8.6557
G1 X133.136 Y88.237 E8.7238
G1 X133.243 Y88.744 E8.7496
G1 X133.019 Y89.173 E8.7738
G1 X132.880 Y89.282 E8.7826
G1 X132.578 Y89.321 E8.7978
G1 X132.421 Y89.549 E8.8116
G1 X132.030 Y89.655 E8.8318
G1 X132.022 Y89.657 E8.8322
;segType:Perimeter
G1 X133.070 Y89.135 F10800
G1 X132.786 Y89.706 E8.8640 F359
G1 X132.678 Y89.862 E8.8735
G1 X132.130 Y90.011 E8.9019
G1 X131.216 Y90.195 E8.9483
G1 X129.252 Y90.160 E9.0464
G1 X98.159 Y90.183 E10.5976
G1 X98.015 Y90.183 E10.6048
G1 X86.233 Y90.180 E11.1926
G1 X85.465 Y90.160 E11.2309
G1 X85.009 Y90.128 E11.2537
G1 X84.247 Y90.024 E11.2921
G1 X82.955 Y90.028 E11.3566
G1 X82.426 Y89.865 E11.3842
G1 X82.286 Y89.662 E11.3965
G1 X82.050 Y89.631 E11.4084
G1 X81.758 Y89.401 E11.4269
G1 X81.498 Y88.902 E11.4550
G1 X81.507 Y88.767 E11.4618
G1 X81.449 Y87.747 E11.5127
G1 X81.498 Y87.101 E11.5450
G1 X81.499 Y86.896 E11.5553
G1 X81.709 Y86.420 E11.5812
G1 X82.034 Y86.210 E11.6005
G1 X82.315 Y86.191 E11.6146
G1 X82.497 Y85.983 E11.6284
G1 X82.951 Y85.892 E11.6515
G1 X83.570 Y85.844 E11.6825
G1 X84.786 Y85.815 E11.7431
G1 X86.365 Y85.740 E11.8220
G1 X87.244 Y85.740 E11.8658
G1 X89.813 Y85.739 E11.9940
G1 X129.239 Y85.740 E13.9609
G1 X129.972 Y85.820 E13.9978
G1 X131.338 Y85.816 E14.0659
G1 X132.135 Y85.841 E14.1057
G1 X132.792 Y86.100 E14.1409
G1 X133.072 Y86.291 E14.1578
G1 X133.422 Y86.621 E14.1818
G1 X133.536 Y86.682 E14.1883
G1 X133.531 Y86.864 E14.1973
G1 X133.536 Y88.201 E14.2641
G1 X133.654 Y88.758 E14.2925
G1 X133.619 Y88.874 E14.2985
G1 X133.343 Y89.401 E14.3282
G1 X133.052 Y89.631 E14.3467
G1 X132.873 Y89.654 E14.3557
G1 X132.190 Y89.657
;segType:HShell
G1 X131.082 Y89.641 F10800
G1 X132.935 Y87.938 E14.4812 F600
G1 X132.933 Y87.447
G1 X130.556 Y89.632 E14.6423
G1 X130.030 Y89.623
G1 X132.931 Y86.956 E14.8390
G1 X132.669 Y86.703
G1 X129.503 Y89.613 E15.0535
G1 X128.971 Y89.609
G1 X132.333 Y86.519 E15.2813
G1 X131.941 Y86.387
G1 X128.434 Y89.609 E15.5189
G1 X127.897 Y89.610
G1 X131.422 Y86.371 E15.7577
G1 X130.887 Y86.369
G1 X127.360 Y89.610 E15.9967
G1 X126.823 Y89.611
G1 X130.348 Y86.371 E16.2355
G1 X129.824 Y86.360
G1 X126.287 Y89.611 E16.4752
G1 X125.750 Y89.611
G1 X129.344 Y86.307 E16.7188
G1 X128.825 Y86.292
G1 X125.213 Y89.612 E16.9636
G1 X124.676 Y89.612
G1 X128.288 Y86.292 E17.2084
G1 X127.752 Y86.292
G1 X124.139 Y89.613 E17.4532
G1 X123.602 Y89.613
G1 X127.215 Y86.292 E17.6980
G1 X126.679 Y86.292
G1 X123.065 Y89.613 E17.9429
G1 X122.528 Y89.614
G1 X126.142 Y86.292 E18.1878
G1 X125.605 Y86.292
G1 X121.991 Y89.614 E18.4327
G1 X121.454 Y89.615
G1 X125.069 Y86.292 E18.6777
G1 X124.532 Y86.292
G1 X120.917 Y89.615 E18.9227
G1 X120.380 Y89.615
G1 X123.996 Y86.292 E19.1677
G1 X123.459 Y86.292
G1 X119.843 Y89.616 E19.4128
G1 X119.306 Y89.616
G1 X122.923 Y86.292 E19.6579
G1 X122.386 Y86.292
G1 X118.769 Y89.617 E19.9030
G1 X118.232 Y89.617
G1 X121.850 Y86.292 E20.1482
G1 X121.313 Y86.292
G1 X117.695 Y89.617 E20.3933
G1 X117.158 Y89.618
G1 X120.777 Y86.292 E20.6386
G1 X120.240 Y86.292
G1 X116.621 Y89.618 E20.8838
G1 X116.084 Y89.619
G1 X119.704 Y86.292 E21.1291
G1 X119.167 Y86.292
G1 X115.547 Y89.619 E21.3744
G1 X115.010 Y89.619
G1 X118.631 Y86.292 E21.6197
G1 X118.094 Y86.292
G1 X114.473 Y89.620 E21.8651
G1 X113.936 Y89.620
G1 X117.558 Y86.292 E22.1105
G1 X117.021 Y86.292
G1 X113.399 Y89.620 E22.3559
G1 X112.862 Y89.621
G1 X116.485 Y86.292 E22.6014
G1 X115.948 Y86.292
G1 X112.325 Y89.621 E22.8468
G1 X111.788 Y89.622
G1 X115.412 Y86.292 E23.0924
G1 X114.875 Y86.292
G1 X111.251 Y89.622 E23.3379
G1 X110.714 Y89.622
G1 X114.339 Y86.291 E23.5835
G1 X113.802 Y86.291
G1 X110.177 Y89.623 E23.8291
G1 X109.641 Y89.623
G1 X113.266 Y86.291 E24.0747
G1 X112.729 Y86.291
G1 X109.104 Y89.624 E24.3204
G1 X108.567 Y89.624
G1 X112.193 Y86.291 E24.5661
G1 X111.656 Y86.291
G1 X108.030 Y89.624 E24.8118
G1 X107.493 Y89.625
G1 X111.120 Y86.291 E25.0576
G1 X110.583 Y86.291
G1 X106.956 Y89.625 E25.3034
G1 X106.419 Y89.626
G1 X110.046 Y86.291 E25.5492
G1 X109.510 Y86.291
G1 X105.882 Y89.626 E25.7951
G1 X105.345 Y89.626
G1 X108.973 Y86.291 E26.0410
G1 X108.437 Y86.291
G1 X104.808 Y89.627 E26.2869
G1 X104.271 Y89.627
G1 X107.900 Y86.291 E26.5328
G1 X107.364 Y86.291
G1 X103.734 Y89.628 E26.7788
G1 X103.197 Y89.628
G1 X106.827 Y86.291 E27.0248
G1 X106.291 Y86.291
G1 X102.660 Y89.628 E27.2708
G1 X102.123 Y89.629
G1 X105.754 Y86.291 E27.5169
G1 X105.218 Y86.291
G1 X101.586 Y89.629 E27.7630
G1 X101.049 Y89.630
G1 X104.681 Y86.291 E28.0091
G1 X104.145 Y86.291
G1 X100.512 Y89.630 E28.2553
G1 X99.975 Y89.630
G1 X103.608 Y86.291 E28.5015
G1 X103.072 Y86.291
G1 X99.438 Y89.631 E28.7477
G1 X98.901 Y89.631
G1 X102.535 Y86.291 E28.9939
G1 X101.999 Y86.291
G1 X98.364 Y89.632 E29.2402
G1 X97.828 Y89.631
G1 X101.462 Y86.291 E29.4865
G1 X100.926 Y86.291
G1 X97.292 Y89.631 E29.7327
G1 X96.755 Y89.631
G1 X100.389 Y86.291 E29.9789
G1 X99.853 Y86.291
G1 X96.219 Y89.631 E30.2252
G1 X95.683 Y89.631
G1 X99.316 Y86.291 E30.4714
G1 X98.780 Y86.291
G1 X95.146 Y89.630 E30.7176
G1 X94.610 Y89.630
G1 X98.243 Y86.291 E30.9638
G1 X97.707 Y86.291
G1 X94.073 Y89.630 E31.2100
G1 X93.537 Y89.630
G1 X97.170 Y86.291 E31.4562
G1 X96.634 Y86.291
G1 X93.000 Y89.630 E31.7024
G1 X92.464 Y89.630
G1 X96.097 Y86.291 E31.9485
G1 X95.560 Y86.291
G1 X91.928 Y89.630 E32.1947
G1 X91.391 Y89.630
G1 X95.024 Y86.291 E32.4409
G1 X94.487 Y86.291
G1 X90.855 Y89.630 E32.6870
G1 X90.318 Y89.630
G1 X93.951 Y86.291 E32.9332
G1 X93.414 Y86.291
G1 X89.782 Y89.629 E33.1793
G1 X89.245 Y89.629
G1 X92.878 Y86.291 E33.4255
G1 X92.341 Y86.291
G1 X88.709 Y89.629 E33.6716
G1 X88.173 Y89.629
G1 X91.805 Y86.291 E33.9178
G1 X91.268 Y86.291
G1 X87.636 Y89.629 E34.1639
G1 X87.100 Y89.629
G1 X90.732 Y86.291 E34.4100
G1 X90.195 Y86.291
G1 X86.563 Y89.629 E34.6561
G1 X86.033 Y89.623
G1 X89.659 Y86.291 E34.9018
G1 X89.122 Y86.291
G1 X85.511 Y89.609 E35.1465
G1 X85.016 Y89.571
G1 X88.585 Y86.291 E35.3883
G1 X88.049 Y86.291
G1 X84.549 Y89.508 E35.6254
G1 X84.050 Y89.473
G1 X87.512 Y86.291 E35.8600
G1 X86.975 Y86.292
G1 X83.512 Y89.475 E36.0947
G1 X82.993 Y89.458
G1 X86.438 Y86.292 E36.3281
G1 X85.876 Y86.316
G1 X82.701 Y89.234 E36.5433
G1 X82.304 Y89.105
G1 X85.310 Y86.342 E36.7470
G1 X84.747 Y86.367
G1 X82.116 Y88.785 E36.9253
G1 X82.083 Y88.323
G1 X84.196 Y86.380 E37.0684
G1 X83.645 Y86.394
G1 X82.056 Y87.854 E37.1761
G1 X82.077 Y87.342
G1 X83.061 Y86.437 E37.2428
;segType:Support
G1 F4800 E36.2428
G1 X134.844 Y89.144 F10800
G1 F4800 E37.2428
G1 X139.200 Y89.200 E37.4276 F900
G1 F4800 E36.4276
G1 X135.600 Y92.800 F10800
G1 F4800 E37.4276
G1 X76.200 Y92.800 E39.9465 F900
G1 X76.200 Y91.000 E40.0228
G1 X135.600 Y91.000 E42.5418
G1 F4800 E41.5418
G1 X139.200 Y87.400 F10800
G1 F4800 E42.5418
G1 X134.891 Y87.455 E42.7245 F900
G1 X134.844 Y89.144 E42.7962
;segType:SoftSupport
G1 X134.368 Y89.138 E42.8069 F900
G1 X134.891 Y87.455 E42.8465
G1 X134.333 Y87.462 E42.8590
; ------------------------------------
; Layer #1
; ------------------------------------
G21 ; mm
G90 ; abs
G92 E0 ; reset extr
M106 S255
;segType:SoftSupport
G1 F4800 E-1.0000
G1 F300 Z0.600
G1 X135.463 Y87.729 F10800
G1 F4800 E0.0000
G1 X135.702 Y87.688 E0.0054 F5400
G1 X135.702 Y87.688
;segType:Support
G1 X137.400 Y87.400 E0.0785 F5400
G1 X139.200 Y87.400 E0.1548
G1 X139.200 Y89.200 E0.2311
G1 X137.400 Y89.200 E0.3075
;segType:SoftSupport
G1 F4800 E-0.6925
G1 X133.657 Y91.024 F10800
G1 F4800 E0.3075
G1 X133.597 Y91.024 E0.3088 F5400
G1 X133.657 Y91.024 E0.3102
;segType:Support
G1 X135.600 Y91.000 E0.3926 F5400
G1 F4800 E-0.6074
G1 X134.903 Y86.811 F10800
G1 X134.317 Y85.888
G1 X132.155 Y85.130
G1 X116.836 Y84.564
G1 F4800 E0.3926
G1 X117.182 Y84.218 E0.4133 F5400
G1 X112.619 Y84.219 E0.6068
G1 X112.961 Y84.561 E0.6274
G1 F4800 E-0.3726
G1 X91.020 Y84.220 F10800
G1 F4800 E0.6274
G1 X91.980 Y84.220 E0.6681 F5400
G1 X91.670 Y84.530 E0.6867
G1 F4800 E-0.3133
G1 X102.451 Y84.549 F10800
G1 F4800 E0.6867
G1 X102.781 Y84.219 E0.7065 F5400
G1 X101.819 Y84.219 E0.7473
G1 F4800 E-0.2527
G1 X98.855 Y84.545 F10800
G1 F4800 E0.7473
G1 X99.181 Y84.219 E0.7668 F5400
G1 X94.619 Y84.219 E0.9603
G1 X94.936 Y84.536 E0.9792
G1 F4800 E-0.0208
G1 X105.419 Y84.219 F10800
G1 F4800 E0.9792
G1 X106.381 Y84.219 E1.0200 F5400
G1 X106.047 Y84.553 E1.0401
G1 F4800 E0.0401
G1 X109.019 Y84.219 F10800
G1 F4800 E1.0401
G1 X109.981 Y84.219 E1.0809 F5400
G1 X109.643 Y84.557 E1.1012
G1 F4800 E0.1012
G1 X120.432 Y84.568 F10800
G1 F4800 E1.1012
G1 X120.782 Y84.218 E1.1222 F5400
G1 X119.818 Y84.218 E1.1630
G1 F4800 E0.1630
G1 X123.418 Y84.218 F10800
G1 F4800 E1.1630
G1 X124.382 Y84.218 E1.2039 F5400
G1 X124.028 Y84.572 E1.2252
G1 F4800 E0.2252
G1 X127.376 Y84.576 F10800
G1 F4800 E1.2252
G1 X127.018 Y84.218 E1.2467 F5400
G1 X131.618 Y84.182 E1.4418
G1 X131.273 Y84.527 E1.4625
G1 X133.800 Y83.800 E1.5740
G1 X135.600 Y83.800 E1.6503
G1 F4800 E0.6503
G1 X120.647 Y85.097 F10800
G1 X115.663 Y85.529
G1 X80.772 Y88.556
G1 F4800 E1.6503
;segType:Loop
G1 X80.778 Y86.959 E1.7300 F3600
G1 X81.054 Y86.436 E1.7595
G1 X81.422 Y86.152 E1.7827
G1 X81.561 Y86.066 E1.7909
G1 X83.002 Y85.678 E1.8653
G1 X83.472 Y85.659 E1.8888
G1 X86.233 Y85.635 E2.0265
G1 X92.323 Y85.633 E2.3303
G1 X98.851 Y85.648 E2.6560
G1 X114.830 Y85.666 E3.4532
G1 X118.735 Y85.669 E3.6481
G1 X129.164 Y85.682 E4.1683
G1 X131.089 Y85.623 E4.2645
G1 X132.036 Y85.665 E4.3117
G1 X133.399 Y86.072 E4.3827
G1 X133.909 Y86.294 E4.4105
G1 X133.976 Y86.383 E4.4160
G1 X134.327 Y86.965 E4.4499
G1 X134.332 Y87.059 E4.4546
G1 X134.229 Y87.990 E4.5013
G1 X134.240 Y89.021 E4.5528
G1 X134.127 Y89.151 E4.5614
G1 X133.971 Y89.507 E4.5808
G1 X133.698 Y89.708 E4.5977
G1 X133.252 Y89.964 E4.6233
G1 X132.117 Y90.369 E4.6835
G1 X131.214 Y90.434 E4.7286
G1 X130.327 Y90.438 E4.7729
G1 X129.253 Y90.428 E4.8264
G1 X110.833 Y90.433 E5.7454
G1 X110.601 Y90.432 E5.7570
G1 X86.241 Y90.429 E6.9723
G1 X84.530 Y90.372 E7.0578
G1 X83.831 Y90.322 E7.0927
G1 X82.987 Y90.298 E7.1348
G1 X82.713 Y90.272 E7.1486
G1 X81.851 Y89.964 E7.1942
G1 X81.397 Y89.703 E7.2204
G1 X81.240 Y89.595 E7.2299
G1 X81.072 Y89.145 E7.2539
G1 X80.806 Y88.921 E7.2712
G1 X80.806 Y88.921
;segType:Perimeter
G1 X81.331 Y89.521 F10800
G1 X80.685 Y89.317 E7.3050 F2159
G1 X80.439 Y89.111 E7.3210
G1 X80.362 Y88.754 E7.3392
G1 X80.372 Y88.630 E7.3455
G1 X80.378 Y86.896 E7.4319
G1 X80.405 Y86.823 E7.4358
G1 X80.742 Y86.185 E7.4718
G1 X80.872 Y86.106 E7.4794
G1 X81.178 Y85.860 E7.4990
G1 X81.390 Y85.730 E7.5114
G1 X82.936 Y85.312 E7.5913
G1 X83.462 Y85.292 E7.6176
G1 X86.231 Y85.267 E7.7557
G1 X92.324 Y85.265 E8.0597
G1 X98.852 Y85.281 E8.3854
G1 X114.831 Y85.298 E9.1826
G1 X118.736 Y85.302 E9.3774
G1 X129.157 Y85.314 E9.8973
G1 X131.092 Y85.255 E9.9939
G1 X132.117 Y85.300 E10.0451
G1 X132.257 Y85.348 E10.0525
G1 X133.540 Y85.728 E10.1192
G1 X133.956 Y85.895 E10.1416
G1 X134.188 Y86.016 E10.1546
G1 X134.317 Y86.190 E10.1654
G1 X134.720 Y86.860 E10.2044
G1 X134.734 Y87.067 E10.2148
G1 X134.629 Y88.008 E10.2620
G1 X134.631 Y88.769 E10.3000
G1 X134.644 Y89.145 E10.3188
G1 X134.476 Y89.338 E10.3315
G1 X134.302 Y89.734 E10.3531
G1 X133.929 Y90.008 E10.3762
G1 X133.432 Y90.294 E10.4048
G1 X132.232 Y90.722 E10.4684
G1 X132.127 Y90.743 E10.4738
G1 X131.229 Y90.802 E10.5187
G1 X130.326 Y90.806 E10.5637
G1 X129.251 Y90.796 E10.6173
G1 X110.832 Y90.801 E11.5363
G1 X110.600 Y90.800 E11.5478
G1 X86.234 Y90.797 E12.7635
G1 X84.507 Y90.740 E12.8497
G1 X83.809 Y90.689 E12.8846
G1 X82.960 Y90.665 E12.9269
G1 X82.619 Y90.633 E12.9441
G1 X81.670 Y90.294 E12.9943
G1 X81.171 Y90.007 E13.0231
G1 X80.901 Y89.822 E13.0394
G1 X80.745 Y89.402 E13.0617
G1 X80.800 Y88.776
;segType:HShell
G1 X80.972 Y88.629 F10800
G1 X82.438 Y89.977 E13.1611 F3600
G1 X83.129 Y90.118
G1 X80.974 Y88.138 E13.3071
G1 X80.976 Y87.646
G1 X83.682 Y90.134 E13.4905
G1 X84.256 Y90.168
G1 X80.977 Y87.155 E13.7127
G1 X81.098 Y86.773
G1 X84.825 Y90.198 E13.9653
G1 X85.382 Y90.217
G1 X81.315 Y86.479 E14.2408
G1 X81.613 Y86.260
G1 X85.938 Y90.235 E14.5339
G1 X86.486 Y90.245
G1 X82.015 Y86.136 E14.8369
G1 X82.430 Y86.024
G1 X87.022 Y90.245 E15.1481
G1 X87.559 Y90.245
G1 X82.844 Y85.912 E15.4676
G1 X83.313 Y85.850
G1 X88.096 Y90.245 E15.7916
G1 X88.632 Y90.245
G1 X83.839 Y85.840 E16.1164
G1 X84.370 Y85.835
G1 X89.169 Y90.245 E16.4416
G1 X89.706 Y90.245
G1 X84.902 Y85.830 E16.7671
G1 X85.433 Y85.826
G1 X90.242 Y90.246 E17.0930
G1 X90.779 Y90.246
G1 X85.965 Y85.821 E17.4192
G1 X86.498 Y85.818
G1 X91.315 Y90.246 E17.7456
G1 X91.852 Y90.246
G1 X87.035 Y85.818 E18.0720
G1 X87.571 Y85.818
G1 X92.389 Y90.246 E18.3984
G1 X92.925 Y90.246
G1 X88.108 Y85.818 E18.7249
G1 X88.644 Y85.818
G1 X93.462 Y90.246 E19.0514
G1 X93.998 Y90.246
G1 X89.180 Y85.818 E19.3779
G1 X89.717 Y85.817
G1 X94.535 Y90.246 E19.7044
G1 X95.072 Y90.246
G1 X90.253 Y85.817 E20.0309
G1 X90.789 Y85.817
G1 X95.608 Y90.246 E20.3574
G1 X96.145 Y90.246
G1 X91.326 Y85.817 E20.6840
G1 X91.862 Y85.817
G1 X96.682 Y90.246 E21.0106
G1 X97.218 Y90.246
G1 X92.399 Y85.817 E21.3372
G1 X92.937 Y85.818
G1 X97.755 Y90.247 E21.6637
G1 X98.291 Y90.247
G1 X93.474 Y85.819 E21.9901
G1 X94.012 Y85.821
G1 X98.828 Y90.247 E22.3164
G1 X99.365 Y90.247
G1 X94.550 Y85.822 E22.6426
G1 X95.088 Y85.823
G1 X99.901 Y90.247 E22.9687
G1 X100.438 Y90.247
G1 X95.626 Y85.824 E23.2948
G1 X96.164 Y85.826
G1 X100.975 Y90.247 E23.6208
G1 X101.511 Y90.247
G1 X96.702 Y85.827 E23.9466
G1 X97.240 Y85.828
G1 X102.048 Y90.247 E24.2724
G1 X102.584 Y90.247
G1 X97.778 Y85.830 E24.5981
G1 X98.316 Y85.831
G1 X103.121 Y90.247 E24.9237
G1 X103.658 Y90.247
G1 X98.854 Y85.832 E25.2493
G1 X99.391 Y85.833
G1 X104.194 Y90.247 E25.5747
G1 X104.731 Y90.248
G1 X99.928 Y85.833 E25.9002
G1 X100.465 Y85.834
G1 X105.267 Y90.248 E26.2256
G1 X105.804 Y90.248
G1 X101.002 Y85.834 E26.5510
G1 X101.540 Y85.835
G1 X106.341 Y90.248 E26.8763
G1 X106.877 Y90.248
G1 X102.077 Y85.836 E27.2016
G1 X102.614 Y85.836
G1 X107.414 Y90.248 E27.5268
G1 X107.951 Y90.248
G1 X103.151 Y85.837 E27.8521
G1 X103.688 Y85.837
G1 X108.487 Y90.248 E28.1772
G1 X109.024 Y90.248
G1 X104.226 Y85.838 E28.5024
G1 X104.763 Y85.839
G1 X109.560 Y90.248 E28.8275
G1 X110.097 Y90.248
G1 X105.300 Y85.839 E29.1525
G1 X105.837 Y85.840
G1 X110.634 Y90.248 E29.4776
G1 X111.171 Y90.249
G1 X106.374 Y85.840 E29.8026
G1 X106.911 Y85.841
G1 X111.707 Y90.249 E30.1276
G1 X112.244 Y90.249
G1 X107.449 Y85.842 E30.4525
G1 X107.986 Y85.842
G1 X112.780 Y90.249 E30.7774
G1 X113.317 Y90.249
G1 X108.523 Y85.843 E31.1022
G1 X109.060 Y85.843
G1 X113.853 Y90.248 E31.4270
G1 X114.389 Y90.248
G1 X109.597 Y85.844 E31.7517
G1 X110.135 Y85.845
G1 X114.926 Y90.248 E32.0764
G1 X115.462 Y90.248
G1 X110.672 Y85.845 E32.4010
G1 X111.209 Y85.846
G1 X115.999 Y90.248 E32.7255
G1 X116.535 Y90.248
G1 X111.746 Y85.846 E33.0500
G1 X112.283 Y85.847
G1 X117.071 Y90.248 E33.3744
G1 X117.608 Y90.247
G1 X112.821 Y85.848 E33.6988
G1 X113.358 Y85.848
G1 X118.144 Y90.247 E34.0232
G1 X118.680 Y90.247
G1 X113.895 Y85.849 E34.3474
G1 X114.432 Y85.849
G1 X119.217 Y90.247 E34.6717
G1 X119.753 Y90.247
G1 X114.969 Y85.850 E34.9958
G1 X115.506 Y85.850
G1 X120.290 Y90.247 E35.3200
G1 X120.826 Y90.247
G1 X116.043 Y85.851 E35.6440
G1 X116.580 Y85.851
G1 X121.362 Y90.246 E35.9681
G1 X121.899 Y90.246
G1 X117.117 Y85.852 E36.2921
G1 X117.654 Y85.852
G1 X122.435 Y90.246 E36.6160
G1 X122.971 Y90.246
G1 X118.192 Y85.853 E36.9399
G1 X118.729 Y85.853
G1 X123.508 Y90.246 E37.2638
G1 X124.044 Y90.246
G1 X119.266 Y85.854 E37.5876
G1 X119.803 Y85.854
G1 X124.581 Y90.246 E37.9113
G1 X125.117 Y90.245
G1 X120.340 Y85.855 E38.2350
G1 X120.878 Y85.856
G1 X125.653 Y90.245 E38.5586
G1 X126.190 Y90.245
G1 X121.415 Y85.856 E38.8822
G1 X121.952 Y85.857
G1 X126.726 Y90.245 E39.2057
G1 X127.263 Y90.245
G1 X122.489 Y85.858 E39.5291
G1 X123.026 Y85.858
G1 X127.799 Y90.245 E39.8525
G1 X128.335 Y90.245
G1 X123.564 Y85.859 E40.1758
G1 X124.101 Y85.860
G1 X128.872 Y90.244 E40.4991
G1 X129.410 Y90.246
G1 X124.638 Y85.860 E40.8224
G1 X125.175 Y85.861
G1 X129.952 Y90.251 E41.1461
G1 X130.491 Y90.253
G1 X125.713 Y85.862 E41.4699
G1 X126.250 Y85.862
G1 X131.025 Y90.251 E41.7934
G1 X131.535 Y90.227
G1 X126.787 Y85.863 E42.1152
G1 X127.324 Y85.863
G1 X132.032 Y90.190 E42.4342
G1 X132.428 Y90.061
G1 X127.862 Y85.864 E42.7436
G1 X128.399 Y85.865
G1 X132.814 Y89.923 E43.0428
G1 X133.195 Y89.780
G1 X128.936 Y85.865 E43.3314
G1 X129.463 Y85.857
G1 X133.525 Y89.590 E43.6066
G1 X133.817 Y89.366
G1 X129.982 Y85.841 E43.8665
G1 X130.501 Y85.825
G1 X133.982 Y89.024 E44.1024
G1 X134.035 Y88.579
G1 X131.020 Y85.809 E44.3066
G1 X131.579 Y85.828
G1 X134.030 Y88.081 E44.4727
G1 X134.066 Y87.622
G1 X132.201 Y85.908 E44.5991
G1 X132.996 Y86.145
G1 X134.113 Y87.172 E44.6748
;segType:Support
G1 F4800 E43.6748
G1 X76.200 Y87.400 F10800
G1 F4800 E44.6748
G1 X78.000 Y87.400 E44.7511 F5400
G1 X79.372 Y87.670 E44.8104
G1 X79.372 Y87.670
;segType:SoftSupport
G1 X79.575 Y87.710 E44.8151 F5400
G1 X80.461 Y85.459 E44.8694
G1 X80.400 Y85.461 E44.8707
G1 X80.400 Y85.461
;segType:Support
G1 X76.200 Y85.600 E45.0489 F5400
G1 X76.200 Y83.800 E45.1253
G1 X81.428 Y83.972 E45.3471
G1 X84.806 Y84.194 E45.4906
G1 X84.453 Y84.547 E45.5118
G1 F4800 E44.5118
G1 X87.420 Y84.220 F10800
G1 F4800 E45.5118
G1 X88.380 Y84.220 E45.5526 F5400
G1 X88.069 Y84.531 E45.5712
G1 F4800 E44.5712
G1 X82.905 Y85.140 F10800
G1 X81.063 Y85.722
G1 X80.599 Y86.070
G1 X80.191 Y86.868
G1 X80.274 Y89.197
G1 X81.452 Y91.005
G1 F4800 E45.5712
;segType:SoftSupport
G1 X81.416 Y91.005 E45.5720 F5400
G1 X81.416 Y91.005
;segType:Support
G1 X76.200 Y91.000 E45.7932 F5400
G1 X76.200 Y89.200 E45.8696
G1 X78.000 Y89.200 E45.9459
G1 X79.403 Y88.923 E46.0066
G1 X79.579 Y88.889 E46.0142
;segType:SoftSupport
G1 X79.403 Y88.923 E46.0182 F5400
;segType:Support
G1 F4800 E45.0182
G1 X76.200 Y92.800 F10800
G1 F4800 E46.0182
G1 X85.191 Y92.791 E46.3995 F5400
G1 X128.311 Y92.711 E48.2280
G1 X135.600 Y92.800 E48.5372
;segType:SoftSupport
G1 F4800 E47.5372
G1 X134.861 Y85.600 F10800
G1 F4800 E48.5372
G1 X134.847 Y85.600 E48.5375 F5400
G1 X134.861 Y85.600 E48.5378
;segType:Support
G1 X135.600 Y85.600 E48.5691 F5400
; ------------------------------------
; Layer #2
; ------------------------------------
G21 ; mm
G90 ; abs
G92 E0 ; reset extr
M106 S255
;segType:Support
G1 F4800 E-1.0000
G1 F300 Z0.900
G1 X133.800 Y83.800 F10800
G1 F4800 E0.0000
G1 X135.600 Y83.800 E0.0763 F5400
G1 F4800 E-0.9237
G1 X135.696 Y88.902 F10800
G1 X135.311 Y89.843
G1 X134.929 Y90.323
G1 X133.965 Y90.912
G1 X132.196 Y91.366
G1 X95.611 Y92.411
G1 F4800 E0.0763
G1 X94.589 Y92.411 E0.1197 F5400
G1 X95.017 Y91.983 E0.1454
G1 F4800 E-0.8546
G1 X84.891 Y92.491 F10800
G1 F4800 E0.1454
G1 X81.453 Y92.653 E0.2913 F5400
G1 X76.200 Y92.800 E0.5142
G1 F4800 E-0.4858
G1 X80.377 Y91.116 F10800
G1 F4800 E0.5142
G1 X76.200 Y91.000 E0.6914 F5400
G1 F4800 E-0.3086
G1 X76.200 Y87.400 F10800
G1 F4800 E0.6914
G1 X78.000 Y87.400 E0.7677 F5400
G1 F4800 E-0.2323
G1 X76.200 Y83.800 F10800
G1 F4800 E0.7677
G1 X78.000 Y83.800 E0.8440 F5400
G1 X80.272 Y84.272 E0.9424
G1 X81.128 Y84.272 E0.9787
;segType:HShell
G1 F4800 E-0.0213
G1 X80.625 Y89.662 F10800
G1 F4800 E0.9787
G1 X85.146 Y85.507 E1.2850 F3600
G1 X84.610 Y85.507
G1 X80.473 Y89.309 E1.5654
;segType:Perimeter
G1 X80.744 Y89.968 F10800
G1 X80.066 Y89.895 E1.5994 F2159
G1 X79.881 Y89.426 E1.6245
G1 X79.585 Y88.847 E1.6569
G1 X79.569 Y88.752 E1.6618
G1 X79.574 Y86.902 E1.7541
G1 X79.715 Y86.583 E1.7715
G1 X80.022 Y85.984 E1.8051
G1 X80.410 Y85.663 E1.8302
G1 X81.217 Y85.288 E1.8746
G1 X82.578 Y85.031 E1.9437
G1 X82.993 Y84.946 E1.9648
G1 X84.946 Y84.957 E2.0623
G1 X86.231 Y84.946 E2.1264
G1 X122.586 Y84.924 E3.9401
G1 X129.251 Y84.933 E4.2726
G1 X129.578 Y84.922 E4.2889
G1 X131.233 Y85.006 E4.3716
G1 X131.544 Y84.999 E4.3872
G1 X132.548 Y85.035 E4.4373
G1 X133.000 Y85.093 E4.4600
G1 X133.853 Y85.276 E4.5035
G1 X134.030 Y85.364 E4.5134
G1 X134.895 Y85.832 E4.5624
G1 X134.965 Y85.884 E4.5668
G1 X135.469 Y86.606 E4.6107
G1 X135.526 Y86.875 E4.6244
G1 X135.501 Y87.102 E4.6358
G1 X135.509 Y88.874 E4.7242
G1 X135.316 Y89.395 E4.7520
G1 X135.146 Y89.757 E4.7719
G1 X134.797 Y90.198 E4.8000
G1 X133.992 Y90.705 E4.8475
G1 X133.891 Y90.751 E4.8530
G1 X133.206 Y90.977 E4.8889
G1 X132.170 Y91.193 E4.9417
G1 X131.445 Y91.222 E4.9780
G1 X130.285 Y91.253 E5.0359
G1 X129.251 Y91.246 E5.0874
G1 X107.901 Y91.247 E6.1526
G1 X86.238 Y91.247 E7.2334
G1 X85.505 Y91.195 E7.2701
G1 X82.985 Y91.122 E7.3958
G1 X82.289 Y91.057 E7.4307
G1 X81.973 Y90.992 E7.4468
G1 X81.116 Y90.707 E7.4919
G1 X80.294 Y90.139 E7.5417
G1 X80.125 Y89.981 E7.5532
G1 X80.347 Y89.387
;segType:Loop
G1 X80.058 Y88.902 F10800
G1 X79.969 Y88.724 E7.5631 F3600
G1 X79.974 Y86.975 E7.6504
G1 X80.082 Y86.731 E7.6637
G1 X80.350 Y86.207 E7.6930
G1 X80.638 Y85.969 E7.7117
G1 X81.350 Y85.638 E7.7509
G1 X82.662 Y85.391 E7.8175
G1 X83.036 Y85.313 E7.8365
G1 X84.947 Y85.325 E7.9319
G1 X86.233 Y85.313 E7.9961
G1 X122.585 Y85.292 E9.8097
G1 X129.258 Y85.301 E10.1425
G1 X129.574 Y85.290 E10.1583
G1 X131.227 Y85.374 E10.2409
G1 X131.541 Y85.367 E10.2566
G1 X132.512 Y85.402 E10.3051
G1 X132.927 Y85.455 E10.3259
G1 X133.709 Y85.623 E10.3659
G1 X134.663 Y86.133 E10.4198
G1 X135.091 Y86.746 E10.4571
G1 X135.122 Y86.891 E10.4645
G1 X135.101 Y87.084 E10.4742
G1 X135.109 Y88.814 E10.5605
G1 X134.942 Y89.263 E10.5844
G1 X134.796 Y89.574 E10.6015
G1 X134.514 Y89.931 E10.6242
G1 X133.789 Y90.387 E10.6670
G1 X133.094 Y90.623 E10.7036
G1 X132.117 Y90.827 E10.7534
G1 X131.431 Y90.855 E10.7877
G1 X130.280 Y90.886 E10.8451
G1 X129.253 Y90.878 E10.8964
G1 X107.901 Y90.880 E11.9616
G1 X86.253 Y90.880 E13.0416
G1 X85.526 Y90.828 E13.0780
G1 X83.012 Y90.755 E13.2035
G1 X82.353 Y90.693 E13.2365
G1 X82.085 Y90.638 E13.2501
G1 X81.308 Y90.380 E13.2910
G1 X80.559 Y89.862 E13.3364
G1 X80.432 Y89.743 E13.3451
G1 X80.251 Y89.285 E13.3697
G1 X80.138 Y89.060 E13.3822
G1 F4800 E12.3822
G1 X80.921 Y89.883 F10800
G1 F4800 E13.3822
;segType:HShell
G1 X85.688 Y85.502 E13.7052 F3600
G1 X86.230 Y85.497
G1 X81.228 Y90.095 E14.0441
G1 X81.571 Y90.272
G1 X86.766 Y85.497 E14.3962
G1 X87.303 Y85.497
G1 X81.965 Y90.403 E14.7579
G1 X82.384 Y90.511
G1 X87.840 Y85.496 E15.1276
G1 X88.377 Y85.496
G1 X82.871 Y90.557 E15.5008
G1 X83.380 Y90.582
G1 X88.914 Y85.496 E15.8757
G1 X89.451 Y85.495
G1 X83.900 Y90.597 E16.2518
G1 X84.421 Y90.612
G1 X89.988 Y85.495 E16.6291
G1 X90.525 Y85.495
G1 X84.941 Y90.627 E17.0075
G1 X85.461 Y90.642
G1 X91.062 Y85.494 E17.3870
G1 X91.598 Y85.494
G1 X85.962 Y90.675 E17.7689
G1 X86.475 Y90.696
G1 X92.135 Y85.494 E18.1524
G1 X92.672 Y85.494
G1 X87.012 Y90.696 E18.5360
G1 X87.549 Y90.696
G1 X93.209 Y85.493 E18.9195
G1 X93.746 Y85.493
G1 X88.085 Y90.696 E19.3031
G1 X88.622 Y90.696
G1 X94.283 Y85.493 E19.6867
G1 X94.820 Y85.492
G1 X89.158 Y90.696 E20.0704
G1 X89.695 Y90.696
G1 X95.357 Y85.492 E20.4540
G1 X95.894 Y85.492
G1 X90.231 Y90.696 E20.8377
G1 X90.768 Y90.696
G1 X96.430 Y85.491 E21.2214
G1 X96.967 Y85.491
G1 X91.304 Y90.696 E21.6052
G1 X91.841 Y90.696
G1 X97.504 Y85.491 E21.9889
G1 X98.041 Y85.490
G1 X92.377 Y90.696 E22.3727
G1 X92.914 Y90.696
G1 X98.578 Y85.490 E22.7565
G1 X99.115 Y85.490
G1 X93.451 Y90.696 E23.1403
G1 X93.987 Y90.696
G1 X99.652 Y85.489 E23.5241
G1 X100.189 Y85.489
G1 X94.524 Y90.696 E23.9080
G1 X95.060 Y90.696
G1 X100.725 Y85.489 E24.2919
G1 X101.262 Y85.488
G1 X95.597 Y90.696 E24.6758
G1 X96.133 Y90.696
G1 X101.799 Y85.488 E25.0597
G1 X102.336 Y85.488
G1 X96.670 Y90.696 E25.4437
G1 X97.206 Y90.696
G1 X102.873 Y85.487 E25.8277
G1 X103.410 Y85.487
G1 X97.743 Y90.696 E26.2117
G1 X98.279 Y90.696
G1 X103.947 Y85.487 E26.5957
G1 X104.484 Y85.487
G1 X98.816 Y90.696 E26.9798
G1 X99.353 Y90.696
G1 X105.021 Y85.486 E27.3638
G1 X105.557 Y85.486
G1 X99.889 Y90.696 E27.7479
G1 X100.426 Y90.696
G1 X106.094 Y85.486 E28.1321
G1 X106.631 Y85.485
G1 X100.962 Y90.696 E28.5162
G1 X101.499 Y90.696
G1 X107.168 Y85.485 E28.9004
G1 X107.705 Y85.485
G1 X102.035 Y90.696 E29.2845
G1 X102.572 Y90.696
G1 X108.242 Y85.484 E29.6688
G1 X108.779 Y85.484
G1 X103.108 Y90.696 E30.0530
G1 X103.645 Y90.696
G1 X109.316 Y85.484 E30.4373
G1 X109.852 Y85.483
G1 X104.181 Y90.696 E30.8215
G1 X104.718 Y90.696
G1 X110.389 Y85.483 E31.2058
G1 X110.926 Y85.483
G1 X105.255 Y90.696 E31.5902
G1 X105.791 Y90.696
G1 X111.463 Y85.482 E31.9745
G1 X112.000 Y85.482
G1 X106.328 Y90.696 E32.3589
G1 X106.864 Y90.696
G1 X112.537 Y85.482 E32.7433
G1 X113.074 Y85.481
G1 X107.401 Y90.696 E33.1277
G1 X107.937 Y90.696
G1 X113.611 Y85.481 E33.5121
G1 X114.148 Y85.481
G1 X108.474 Y90.696 E33.8966
G1 X109.010 Y90.696
G1 X114.684 Y85.480 E34.2811
G1 X115.221 Y85.480
G1 X109.547 Y90.696 E34.6656
G1 X110.084 Y90.695
G1 X115.758 Y85.480 E35.0501
G1 X116.295 Y85.480
G1 X110.620 Y90.695 E35.4347
G1 X111.157 Y90.695
G1 X116.832 Y85.479 E35.8192
G1 X117.369 Y85.479
G1 X111.693 Y90.695 E36.2038
G1 X112.230 Y90.695
G1 X117.906 Y85.479 E36.5884
G1 X118.443 Y85.478
G1 X112.766 Y90.695 E36.9731
G1 X113.303 Y90.695
G1 X118.980 Y85.478 E37.3577
G1 X119.516 Y85.478
G1 X113.840 Y90.695 E37.7424
G1 X114.376 Y90.695
G1 X120.053 Y85.477 E38.1271
G1 X120.590 Y85.477
G1 X114.913 Y90.695 E38.5118
G1 X115.449 Y90.695
G1 X121.127 Y85.477 E38.8966
G1 X121.664 Y85.476
G1 X115.986 Y90.695 E39.2813
G1 X116.522 Y90.695
G1 X122.201 Y85.476 E39.6661
G1 X122.737 Y85.476
G1 X117.059 Y90.695 E40.0509
G1 X117.595 Y90.695
G1 X123.273 Y85.477 E40.4356
G1 X123.809 Y85.477
G1 X118.132 Y90.695 E40.8203
G1 X118.669 Y90.695
G1 X124.345 Y85.478 E41.2049
G1 X124.880 Y85.479
G1 X119.205 Y90.695 E41.5895
G1 X119.742 Y90.695
G1 X125.416 Y85.480 E41.9740
G1 X125.952 Y85.480
G1 X120.278 Y90.695 E42.3585
G1 X120.815 Y90.695
G1 X126.488 Y85.481 E42.7429
G1 X127.024 Y85.482
G1 X121.351 Y90.695 E43.1272
G1 X121.888 Y90.695
G1 X127.559 Y85.482 E43.5115
G1 X128.095 Y85.483
G1 X122.425 Y90.695 E43.8957
G1 X122.961 Y90.695
G1 X128.631 Y85.484 E44.2799
G1 X129.167 Y85.484
G1 X123.498 Y90.695 E44.6641
G1 X124.034 Y90.695
G1 X129.707 Y85.481 E45.0484
G1 X130.215 Y85.507
G1 X124.571 Y90.695 E45.4309
G1 X125.107 Y90.695
G1 X130.724 Y85.533 E45.8115
G1 X131.233 Y85.558
G1 X125.644 Y90.695 E46.1902
G1 X126.181 Y90.695
G1 X131.768 Y85.559 E46.5688
G1 X132.285 Y85.577
G1 X126.717 Y90.695 E46.9461
G1 X127.254 Y90.695
G1 X132.774 Y85.621 E47.3201
G1 X133.218 Y85.706
G1 X127.790 Y90.695 E47.6879
G1 X128.327 Y90.695
G1 X133.649 Y85.803 E48.0486
G1 X133.988 Y85.984
G1 X128.863 Y90.695 E48.3958
G1 X129.399 Y90.695
G1 X134.327 Y86.166 E48.7297
G1 X134.611 Y86.398
G1 X129.931 Y90.699 E49.0468
G1 X130.471 Y90.697
G1 X134.820 Y86.699 E49.3416
G1 X134.901 Y87.118
G1 X131.023 Y90.682 E49.6043
G1 X131.578 Y90.665
G1 X134.903 Y87.609 E49.8296
G1 X134.906 Y88.100
G1 X132.151 Y90.632 E50.0163
G1 X132.845 Y90.487
G1 X134.908 Y88.591 E50.1560
G1 X134.733 Y89.245
G1 X133.653 Y90.237 E50.2292
G1 X82.997 Y85.510 F10800
G1 X80.171 Y88.107 E50.4207 F3600
G1 X80.170 Y88.601
G1 X83.544 Y85.500 E50.6493
G1 X84.077 Y85.504
G1 X80.310 Y88.965 E50.9045
G1 X82.314 Y85.644 F10800
G1 X80.172 Y87.613 E51.0497 F3600
G1 X80.173 Y87.119
G1 X81.639 Y85.771 E51.1490
;segType:Support
G1 F4800 E50.1490
G1 X76.200 Y85.600 F10800
G1 F4800 E51.1490
G1 X78.000 Y85.600 E51.2254 F5400
G1 X79.702 Y85.246 E51.2991
G1 F4800 E50.2991
G1 X76.200 Y89.200 F10800
G1 F4800 E51.2991
G1 X78.000 Y89.200 E51.3754 F5400
G1 F4800 E50.3754
G1 X81.025 Y90.861 F10800
G1 X82.259 Y91.229
G1 X87.817 Y91.983
G1 F4800 E51.3754
G1 X87.388 Y92.412 E51.4011 F5400
G1 X92.011 Y92.411 E51.5972
G1 X91.583 Y91.983 E51.6229
G1 F4800 E50.6229
G1 X98.617 Y91.983 F10800
G1 F4800 E51.6229
G1 X98.189 Y92.411 E51.6485 F5400
G1 X99.211 Y92.411 E51.6918
G1 F4800 E50.6918
G1 X102.217 Y91.983 F10800
G1 F4800 E51.6918
G1 X101.790 Y92.410 E51.7175 F5400
G1 X106.410 Y92.410 E51.9134
G1 X105.983 Y91.983 E51.9391
G1 F4800 E50.9391
G1 X109.583 Y91.983 F10800
G1 F4800 E51.9391
G1 X110.010 Y92.410 E51.9647 F5400
G1 X108.990 Y92.410 E52.0079
G1 F4800 E51.0079
G1 X113.609 Y92.409 F10800
G1 F4800 E52.0079
G1 X112.591 Y92.409 E52.0511 F5400
G1 X113.018 Y91.982 E52.0767
G1 F4800 E51.0767
G1 X116.618 Y91.982 F10800
G1 F4800 E52.0767
G1 X116.191 Y92.409 E52.1024 F5400
G1 X117.209 Y92.409 E52.1456
G1 F4800 E51.1456
G1 X120.218 Y91.982 F10800
G1 F4800 E52.1456
G1 X119.790 Y92.410 E52.1712 F5400
G1 X124.411 Y92.411 E52.3672
G1 X123.982 Y91.982 E52.3929
G1 F4800 E51.3929
G1 X127.418 Y91.982 F10800
G1 F4800 E52.3929
G1 X126.989 Y92.411 E52.4187 F5400
G1 X131.640 Y92.440 E52.6159
G1 X133.885 Y92.715 E52.7118
G1 X135.515 Y92.715 E52.7809
G1 X134.812 Y91.085 E52.8562
G1 X135.515 Y91.085 E52.8860
G1 F4800 E51.8860
G1 X137.400 Y89.200 F10800
G1 F4800 E52.8860
G1 X139.200 Y89.200 E52.9624 F5400
G1 X139.200 Y87.400 E53.0387
G1 X137.400 Y87.400 E53.1150
; ------------------------------------
; Layer #3
; ------------------------------------
G21 ; mm
G90 ; abs
G92 E0 ; reset extr
M106 S255
;segType:Support
G1 F4800 E-1.0000
G1 F300 Z1.200
G1 X139.200 Y89.200 F10800
G1 F4800 E0.0000
G1 X137.400 Y89.200 E0.0763 F5400
G1 F4800 E-0.9237
G1 X134.880 Y89.203 F10800
G1 X84.485 Y89.263
G1 X81.965 Y89.266
G1 X79.446 Y89.269
G1 F4800 E0.0763
;segType:Loop
G1 X79.351 Y88.959 E0.0925 F3600
G1 X79.358 Y88.313 E0.1247
G1 X79.358 Y86.773 E0.2016
G1 X79.726 Y86.100 E0.2398
G1 X80.566 Y85.581 E0.2891
G1 X80.759 Y85.492 E0.2997
G1 X81.363 Y85.336 E0.3308
G1 X82.221 Y85.137 E0.3747
G1 X83.034 Y85.051 E0.4156
G1 X84.230 Y85.039 E0.4752
G1 X95.543 Y85.038 E1.0396
G1 X129.255 Y85.019 E2.7215
G1 X131.227 Y85.118 E2.8200
G1 X131.825 Y85.105 E2.8499
G1 X132.903 Y85.142 E2.9037
G1 X133.738 Y85.336 E2.9465
G1 X134.327 Y85.488 E2.9768
G1 X135.011 Y85.850 E3.0154
G1 X135.562 Y86.277 E3.0502
G1 X135.654 Y86.442 E3.0596
G1 X135.756 Y86.747 E3.0756
G1 X135.785 Y86.912 E3.0840
G1 X135.788 Y88.696 E3.1730
G1 X135.688 Y89.048 E3.1912
G1 X135.481 Y89.574 E3.2195
G1 X135.328 Y89.768 E3.2318
G1 X134.609 Y90.451 E3.2812
G1 X134.349 Y90.546 E3.2951
G1 X133.708 Y90.869 E3.3309
G1 X132.492 Y91.113 E3.3928
G1 X130.739 Y91.164 E3.4803
G1 X129.974 Y91.212 E3.5185
G1 X129.238 Y91.239 E3.5552
G1 X118.198 Y91.239 E4.1060
G1 X117.585 Y91.238 E4.1366
G1 X86.232 Y91.225 E5.7008
G1 X83.045 Y91.205 E5.8598
G1 X82.245 Y91.035 E5.9006
G1 X81.597 Y90.908 E5.9335
G1 X80.881 Y90.651 E5.9715
G1 X80.459 Y90.444 E5.9949
G1 X79.832 Y89.954 E6.0347
G1 X79.760 Y89.871 E6.0401
G1 X79.508 Y89.473 E6.0636
G1 X79.497 Y89.436 E6.0655
G1 F4800 E5.0655
G1 X80.189 Y90.157 F10800
G1 F4800 E6.0655
;segType:Perimeter
G1 X79.506 Y90.168 E6.0996 F2159
G1 X79.429 Y90.080 E6.1054
G1 X79.137 Y89.618 E6.1327
G1 X78.951 Y89.008 E6.1645
G1 X78.958 Y88.311 E6.1993
G1 X78.958 Y86.686 E6.2804
G1 X79.416 Y85.848 E6.3280
G1 X80.364 Y85.264 E6.3836
G1 X80.614 Y85.148 E6.3973
G1 X81.260 Y84.981 E6.4306
G1 X82.149 Y84.774 E6.4761
G1 X83.009 Y84.684 E6.5193
G1 X84.228 Y84.671 E6.5801
G1 X95.542 Y84.670 E7.1446
G1 X129.265 Y84.652 E8.8270
G1 X131.233 Y84.750 E8.9253
G1 X131.828 Y84.737 E8.9550
G1 X132.960 Y84.776 E9.0115
G1 X133.841 Y84.981 E9.0567
G1 X134.483 Y85.146 E9.0897
G1 X135.239 Y85.547 E9.1324
G1 X135.708 Y85.899 E9.1616
G1 X135.887 Y86.053 E9.1734
G1 X136.026 Y86.304 E9.1877
G1 X136.146 Y86.663 E9.2067
G1 X136.185 Y86.882 E9.2177
G1 X136.188 Y88.743 E9.3106
G1 X136.072 Y89.154 E9.3319
G1 X135.913 Y89.582 E9.3547
G1 X135.830 Y89.757 E9.3643
G1 X135.635 Y90.005 E9.3800
G1 X134.837 Y90.763 E9.4350
G1 X134.522 Y90.878 E9.4517
G1 X133.973 Y91.164 E9.4826
G1 X133.832 Y91.220 E9.4902
G1 X132.544 Y91.478 E9.5557
G1 X132.195 Y91.493 E9.5731
G1 X130.758 Y91.531 E9.6448
G1 X129.996 Y91.579 E9.6830
G1 X129.246 Y91.607 E9.7204
G1 X118.197 Y91.607 E10.2716
G1 X117.584 Y91.605 E10.3022
G1 X86.231 Y91.592 E11.8664
G1 X82.998 Y91.572 E12.0277
G1 X82.159 Y91.394 E12.0705
G1 X81.482 Y91.261 E12.1049
G1 X80.714 Y90.985 E12.1456
G1 X80.236 Y90.751 E12.1722
G1 X79.828 Y90.442 E12.1977
G1 X79.585 Y90.243 E12.2134
G1 X79.628 Y89.617
;segType:HShell
G1 X84.118 Y91.027 F10800
G1 X79.558 Y86.836 E12.5224 F3600
G1 X79.730 Y86.501
G1 X82.810 Y89.332 E12.7311
G1 X82.991 Y89.498
G1 X84.658 Y91.031 E12.8441
G1 X85.198 Y91.034
G1 X83.567 Y89.535 E12.9547
;segType:Perimeter
G1 X83.727 Y89.532 F10800
G1 X83.538 Y88.929 E12.9862 F2159
G1 X83.583 Y88.763 E12.9947
G1 X83.516 Y88.472 E13.0096
G1 X83.555 Y86.751 E13.0955
G1 X83.820 Y86.632 E13.1100
G1 X124.381 Y86.632 E15.1336
G1 X127.968 Y86.648 E15.3126
G1 X131.083 Y86.649 E15.4680
G1 X131.306 Y86.622 E15.4792
G1 X131.475 Y86.773 E15.4905
G1 X131.555 Y87.092 E15.5069
G1 X131.596 Y88.863 E15.5953
G1 X131.301 Y89.046 E15.6126
G1 X130.468 Y89.078 E15.6541
G1 X101.509 Y89.078 E17.0990
G1 X84.093 Y89.015 E17.9678
G1 X83.581 Y88.983 E17.9934
G1 X83.015 Y88.632
;segType:Loop
G1 X83.126 Y88.026 F10800
G1 X83.160 Y86.518 E18.0687 F3600
G1 X83.728 Y86.264 E18.0997
G1 X124.382 Y86.264 E20.1279
G1 X127.969 Y86.281 E20.3069
G1 X131.057 Y86.281 E20.4609
G1 X131.447 Y86.235 E20.4805
G1 X131.838 Y86.584 E20.5067
G1 X131.954 Y87.046 E20.5304
G1 X132.000 Y89.055 E20.6307
G1 X131.432 Y89.409 E20.6641
G1 X130.477 Y89.446 E20.7118
G1 X101.508 Y89.446 E22.1570
G1 X84.079 Y89.383 E23.0266
G1 X83.020 Y89.316 E23.0795
G1 X83.172 Y88.756 E23.1084
G1 X83.115 Y88.507 E23.1212
G1 X83.122 Y88.200 E23.1365
G1 X83.395 Y86.657 F10800
G1 X83.778 Y86.462
G1 X132.632 Y85.317
;segType:HShell
G1 X135.587 Y88.033 E23.3367 F3600
G1 X135.588 Y88.527
G1 X132.074 Y85.298 E23.5749
G1 X131.535 Y85.295
G1 X135.510 Y88.949 E23.8442
G1 X135.371 Y89.314
G1 X130.993 Y85.291 E24.1408
G1 X130.426 Y85.262
G1 X131.301 Y86.067 E24.2001
G1 X130.798 Y86.097
G1 X129.858 Y85.234 E24.2638
G1 X129.291 Y85.205
G1 X130.261 Y86.097 E24.3295
G1 X129.725 Y86.097
G1 X128.752 Y85.203 E24.3954
G1 X128.216 Y85.204
G1 X129.188 Y86.097 E24.4613
G1 X128.651 Y86.097
G1 X127.680 Y85.204 E24.5271
G1 X127.144 Y85.204
G1 X128.115 Y86.097 E24.5929
G1 X127.576 Y86.095
G1 X126.608 Y85.205 E24.6585
G1 X126.071 Y85.205
G1 X127.037 Y86.092 E24.7240
G1 X126.498 Y86.090
G1 X125.535 Y85.205 E24.7892
G1 X124.999 Y85.206
G1 X125.959 Y86.088 E24.8542
G1 X125.419 Y86.085
G1 X124.463 Y85.206 E24.9190
G1 X123.927 Y85.206
G1 X124.880 Y86.083 E24.9837
G1 X124.341 Y86.080
G1 X123.390 Y85.206 E25.0481
G1 X122.854 Y85.207
G1 X123.805 Y86.080 E25.1125
G1 X123.268 Y86.080
G1 X122.318 Y85.207 E25.1769
G1 X121.782 Y85.207
G1 X122.732 Y86.080 E25.2413
G1 X122.195 Y86.080
G1 X121.245 Y85.208 E25.3056
G1 X120.709 Y85.208
G1 X121.658 Y86.080 E25.3699
G1 X121.122 Y86.080
G1 X120.173 Y85.208 E25.4342
G1 X119.637 Y85.209
G1 X120.585 Y86.080 E25.4985
G1 X120.049 Y86.080
G1 X119.101 Y85.209 E25.5628
G1 X118.564 Y85.209
G1 X119.512 Y86.080 E25.6270
G1 X118.976 Y86.080
G1 X118.028 Y85.209 E25.6912
G1 X117.492 Y85.210
G1 X118.439 Y86.080 E25.7554
G1 X117.903 Y86.080
G1 X116.956 Y85.210 E25.8196
G1 X116.420 Y85.210
G1 X117.366 Y86.080 E25.8837
G1 X116.830 Y86.080
G1 X115.883 Y85.211 E25.9479
G1 X115.347 Y85.211
G1 X116.293 Y86.080 E26.0120
G1 X115.757 Y86.080
G1 X114.811 Y85.211 E26.0761
G1 X114.275 Y85.212
G1 X115.220 Y86.080 E26.1401
G1 X114.683 Y86.080
G1 X113.738 Y85.212 E26.2041
G1 X113.202 Y85.212
G1 X114.147 Y86.080 E26.2682
G1 X113.610 Y86.080
G1 X112.666 Y85.212 E26.3322
G1 X112.130 Y85.213
G1 X113.074 Y86.080 E26.3961
G1 X112.537 Y86.080
G1 X111.594 Y85.213 E26.4601
G1 X111.057 Y85.213
G1 X112.001 Y86.080 E26.5240
G1 X111.464 Y86.080
G1 X110.521 Y85.214 E26.5879
G1 X109.985 Y85.214
G1 X110.928 Y86.080 E26.6518
G1 X110.391 Y86.080
G1 X109.449 Y85.214 E26.7156
G1 X108.913 Y85.215
G1 X109.855 Y86.080 E26.7795
G1 X109.318 Y86.080
G1 X108.376 Y85.215 E26.8433
G1 X107.840 Y85.215
G1 X108.782 Y86.080 E26.9071
G1 X108.245 Y86.080
G1 X107.304 Y85.215 E26.9709
G1 X106.768 Y85.216
G1 X107.709 Y86.080 E27.0346
G1 X107.172 Y86.080
G1 X106.231 Y85.216 E27.0983
G1 X105.695 Y85.216
G1 X106.635 Y86.080 E27.1620
G1 X106.099 Y86.080
G1 X105.159 Y85.217 E27.2257
G1 X104.623 Y85.217
G1 X105.562 Y86.080 E27.2894
G1 X105.026 Y86.080
G1 X104.087 Y85.217 E27.3530
G1 X103.550 Y85.218
G1 X104.489 Y86.080 E27.4166
G1 X103.953 Y86.080
G1 X103.014 Y85.218 E27.4802
G1 X102.478 Y85.218
G1 X103.416 Y86.080 E27.5438
G1 X102.880 Y86.080
G1 X101.942 Y85.218 E27.6074
G1 X101.406 Y85.219
G1 X102.343 Y86.080 E27.6709
G1 X101.807 Y86.080
G1 X100.869 Y85.219 E27.7344
G1 X100.333 Y85.219
G1 X101.270 Y86.080 E27.7979
G1 X100.734 Y86.080
G1 X99.797 Y85.220 E27.8613
G1 X99.261 Y85.220
G1 X100.197 Y86.080 E27.9248
G1 X99.660 Y86.080
G1 X98.725 Y85.220 E27.9882
G1 X98.188 Y85.221
G1 X99.124 Y86.080 E28.0516
G1 X98.587 Y86.080
G1 X97.652 Y85.221 E28.1150
G1 X97.116 Y85.221
G1 X98.051 Y86.080 E28.1783
G1 X97.514 Y86.080
G1 X96.580 Y85.221 E28.2416
G1 X96.043 Y85.222
G1 X96.978 Y86.080 E28.3050
G1 X96.441 Y86.080
G1 X95.507 Y85.222 E28.3682
G1 X94.971 Y85.222
G1 X95.905 Y86.080 E28.4315
G1 X95.368 Y86.080
G1 X94.434 Y85.222 E28.4948
G1 X93.898 Y85.222
G1 X94.832 Y86.080 E28.5581
G1 X94.295 Y86.080
G1 X93.361 Y85.222 E28.6214
G1 X92.825 Y85.222
G1 X93.759 Y86.080 E28.6847
G1 X93.222 Y86.080
G1 X92.288 Y85.222 E28.7479
G1 X91.752 Y85.222
G1 X92.685 Y86.080 E28.8112
G1 X92.149 Y86.080
G1 X91.215 Y85.222 E28.8745
G1 X90.679 Y85.222
G1 X91.612 Y86.080 E28.9378
G1 X91.076 Y86.080
G1 X90.142 Y85.222 E29.0010
G1 X89.606 Y85.222
G1 X90.539 Y86.080 E29.0643
G1 X90.003 Y86.080
G1 X89.069 Y85.222 E29.1276
G1 X88.533 Y85.222
G1 X89.466 Y86.080 E29.1908
G1 X88.930 Y86.080
G1 X87.996 Y85.222 E29.2541
G1 X87.460 Y85.222
G1 X88.393 Y86.080 E29.3174
G1 X87.857 Y86.080
G1 X86.923 Y85.222 E29.3806
G1 X86.386 Y85.222
G1 X87.320 Y86.080 E29.4439
G1 X86.784 Y86.080
G1 X85.850 Y85.222 E29.5071
G1 X85.313 Y85.222
G1 X86.247 Y86.080 E29.5704
G1 X85.710 Y86.080
G1 X84.777 Y85.222 E29.6336
G1 X84.240 Y85.222
G1 X85.174 Y86.080 E29.6969
G1 X84.637 Y86.080
G1 X83.710 Y85.228 E29.7597
G1 X83.180 Y85.234
G1 X84.101 Y86.080 E29.8222
G1 X83.603 Y86.116
G1 X82.686 Y85.273 E29.8843
G1 X82.210 Y85.329
G1 X83.242 Y86.277 E29.9542
G1 X82.960 Y86.512
G1 X81.782 Y85.428 E30.0341
G1 X81.355 Y85.529
G1 X82.949 Y86.995 E30.1421
G1 X82.938 Y87.478
G1 X80.936 Y85.637 E30.2778
G1 X80.574 Y85.798
G1 X82.927 Y87.961 E30.4373
G1 X82.916 Y88.444
G1 X80.253 Y85.996 E30.6177
G1 X79.932 Y86.194
G1 X82.917 Y88.937 E30.8200
G1 X83.395 Y86.657 F10800
G1 X83.778 Y86.462
G1 X131.366 Y86.457
G1 X132.097 Y86.798
G1 X135.185 Y89.636 E31.0292 F3600
G1 X134.923 Y89.888
G1 X132.161 Y87.350 E31.2164
G1 X132.173 Y87.854
G1 X134.659 Y90.139 E31.3848
G1 X134.349 Y90.348
G1 X132.184 Y88.358 E31.5315
G1 X132.196 Y88.862
G1 X133.995 Y90.515 E31.6534
G1 X133.648 Y90.689
G1 X132.067 Y89.236 E31.7606
G1 X131.746 Y89.435
G1 X133.211 Y90.780 E31.8598
G1 X132.770 Y90.869
G1 X131.384 Y89.594 E31.9537
G1 X130.869 Y89.615
G1 X132.305 Y90.934 E32.0510
G1 X131.785 Y90.949
G1 X130.349 Y89.630 E32.1483
G1 X129.812 Y89.630
G1 X131.265 Y90.964 E32.2467
G1 X130.745 Y90.980
G1 X129.276 Y89.630 E32.3462
G1 X128.739 Y89.630
G1 X130.242 Y91.011 E32.4480
G1 X129.734 Y91.037
G1 X128.203 Y89.630 E32.5518
G1 X127.666 Y89.630
G1 X129.218 Y91.056 E32.6569
G1 X128.681 Y91.056
G1 X127.130 Y89.630 E32.7620
G1 X126.593 Y89.630
G1 X128.145 Y91.055 E32.8671
G1 X127.608 Y91.055
G1 X126.057 Y89.630 E32.9723
G1 X125.520 Y89.630
G1 X127.071 Y91.055 E33.0774
G1 X126.535 Y91.055
G1 X124.984 Y89.630 E33.1825
G1 X124.447 Y89.630
G1 X125.998 Y91.055 E33.2876
G1 X125.462 Y91.055
G1 X123.911 Y89.630 E33.3927
G1 X123.374 Y89.630
G1 X124.925 Y91.055 E33.4978
G1 X124.389 Y91.055
G1 X122.837 Y89.630 E33.6029
G1 X122.301 Y89.630
G1 X123.852 Y91.055 E33.7080
G1 X123.315 Y91.055
G1 X121.764 Y89.630 E33.8131
G1 X121.228 Y89.630
G1 X122.779 Y91.055 E33.9182
G1 X122.242 Y91.055
G1 X120.691 Y89.630 E34.0233
G1 X120.155 Y89.630
G1 X121.706 Y91.055 E34.1284
G1 X121.169 Y91.055
G1 X119.618 Y89.630 E34.2335
G1 X119.082 Y89.630
G1 X120.633 Y91.055 E34.3386
G1 X120.096 Y91.055
G1 X118.545 Y89.630 E34.4437
G1 X118.009 Y89.630
G1 X119.559 Y91.055 E34.5488
G1 X119.023 Y91.055
G1 X117.472 Y89.630 E34.6539
G1 X116.936 Y89.630
G1 X118.486 Y91.055 E34.7590
G1 X117.949 Y91.055
G1 X116.399 Y89.630 E34.8640
G1 X115.862 Y89.630
G1 X117.412 Y91.054 E34.9690
G1 X116.875 Y91.054
G1 X115.326 Y89.630 E35.0740
G1 X114.789 Y89.630
G1 X116.338 Y91.053 E35.1790
G1 X115.802 Y91.053
G1 X114.253 Y89.630 E35.2839
G1 X113.716 Y89.630
G1 X115.265 Y91.053 E35.3889
G1 X114.728 Y91.053
G1 X113.180 Y89.630 E35.4938
G1 X112.643 Y89.630
G1 X114.191 Y91.053 E35.5987
G1 X113.654 Y91.052
G1 X112.107 Y89.630 E35.7036
G1 X111.570 Y89.630
G1 X113.118 Y91.052 E35.8084
G1 X112.581 Y91.052
G1 X111.034 Y89.630 E35.9133
G1 X110.497 Y89.630
G1 X112.044 Y91.052 E36.0181
G1 X111.507 Y91.051
G1 X109.961 Y89.630 E36.1229
G1 X109.424 Y89.630
G1 X110.971 Y91.051 E36.2277
G1 X110.434 Y91.051
G1 X108.887 Y89.630 E36.3325
G1 X108.351 Y89.630
G1 X109.897 Y91.051 E36.4373
G1 X109.360 Y91.050
G1 X107.814 Y89.630 E36.5420
G1 X107.278 Y89.630
G1 X108.823 Y91.050 E36.6467
G1 X108.287 Y91.050
G1 X106.741 Y89.630 E36.7515
G1 X106.205 Y89.630
G1 X107.750 Y91.050 E36.8562
G1 X107.213 Y91.050
G1 X105.668 Y89.630 E36.9608
G1 X105.132 Y89.630
G1 X106.676 Y91.049 E37.0655
G1 X106.140 Y91.049
G1 X104.595 Y89.630 E37.1702
G1 X104.059 Y89.630
G1 X105.603 Y91.049 E37.2748
G1 X105.066 Y91.049
G1 X103.522 Y89.630 E37.3794
G1 X102.986 Y89.630
G1 X104.529 Y91.048 E37.4840
G1 X103.992 Y91.048
G1 X102.449 Y89.630 E37.5886
G1 X101.912 Y89.630
G1 X103.456 Y91.048 E37.6931
G1 X102.919 Y91.048
G1 X101.375 Y89.629 E37.7977
G1 X100.837 Y89.627
G1 X102.382 Y91.048 E37.9024
G1 X101.845 Y91.047
G1 X100.298 Y89.625 E38.0073
G1 X99.759 Y89.623
G1 X101.308 Y91.047 E38.1122
G1 X100.772 Y91.047
G1 X99.221 Y89.621 E38.2173
G1 X98.682 Y89.619
G1 X100.235 Y91.047 E38.3226
G1 X99.698 Y91.046
G1 X98.143 Y89.618 E38.4279
G1 X97.605 Y89.616
G1 X99.161 Y91.046 E38.5334
G1 X98.625 Y91.046
G1 X97.066 Y89.614 E38.6390
G1 X96.527 Y89.612
G1 X98.088 Y91.046 E38.7447
G1 X97.551 Y91.046
G1 X95.989 Y89.610 E38.8506
G1 X95.450 Y89.608
G1 X97.014 Y91.045 E38.9565
G1 X96.477 Y91.045
G1 X94.912 Y89.606 E39.0627
G1 X94.373 Y89.604
G1 X95.941 Y91.045 E39.1689
G1 X95.404 Y91.045
G1 X93.834 Y89.602 E39.2753
G1 X93.296 Y89.600
G1 X94.867 Y91.044 E39.3817
G1 X94.330 Y91.044
G1 X92.757 Y89.598 E39.4884
G1 X92.218 Y89.596
G1 X93.794 Y91.044 E39.5951
G1 X93.257 Y91.044
G1 X91.680 Y89.594 E39.7020
G1 X91.141 Y89.592
G1 X92.720 Y91.043 E39.8090
G1 X92.183 Y91.043
G1 X90.602 Y89.590 E39.9161
G1 X90.064 Y89.588
G1 X91.646 Y91.043 E40.0234
G1 X91.110 Y91.043
G1 X89.525 Y89.586 E40.1307
G1 X88.986 Y89.584
G1 X90.573 Y91.043 E40.2382
G1 X90.036 Y91.042
G1 X88.448 Y89.582 E40.3459
G1 X87.909 Y89.581
G1 X89.499 Y91.042 E40.4536
G1 X88.962 Y91.042
G1 X87.370 Y89.579 E40.5615
G1 X86.832 Y89.577
G1 X88.426 Y91.042 E40.6695
G1 X87.889 Y91.041
G1 X86.293 Y89.575 E40.7777
G1 X85.754 Y89.573
G1 X87.352 Y91.041 E40.8859
G1 X86.815 Y91.041
G1 X85.216 Y89.571 E40.9943
G1 X84.677 Y89.569
G1 X86.279 Y91.041 E41.1029
G1 X85.739 Y91.038
G1 X84.138 Y89.567 E41.2113
G1 X83.028 Y91.012 F10800
G1 X79.558 Y87.823 E41.4464 F3600
G1 X79.558 Y87.330
G1 X83.578 Y91.024 E41.7188
G1 X81.646 Y90.728 F10800
G1 X79.553 Y88.804 E41.8607 F3600
G1 X79.558 Y88.316
G1 X82.331 Y90.864 E42.0485
G1 X79.738 Y89.467 F10800
G1 X80.704 Y90.355 E42.1140 F3600
G1 X83.395 Y86.657 F10800
G1 X83.778 Y86.462
G1 X133.280 Y85.419
G1 X135.586 Y87.539 E42.2703 F3600
G1 X135.585 Y87.045
G1 X134.010 Y85.597 E42.3770
;segType:Support
G1 F4800 E41.3770
G1 X78.000 Y83.800 F10800
G1 F4800 E42.3770
G1 X76.200 Y83.800 E42.4533 F5400
G1 F4800 E41.4533
G1 X79.775 Y91.353 F10800
G1 F4800 E42.4533
G1 X78.000 Y91.000 E42.5301 F5400
G1 X76.200 Y91.000 E42.6064
G1 F4800 E41.6064
G1 X78.000 Y87.400 F10800
G1 F4800 E42.6064
G1 X76.200 Y87.400 E42.6827 F5400
G1 X78.000 Y85.600 E42.7907
G1 X76.200 Y85.600 E42.8670
G1 F4800 E41.8670
G1 X76.200 Y89.200 F10800
G1 F4800 E42.8670
G1 X78.000 Y89.200 E42.9434 F5400
G1 F4800 E41.9434
G1 X76.200 Y92.800 F10800
G1 F4800 E42.9434
G1 X78.000 Y92.800 E43.0197 F5400
G1 X80.247 Y92.353 E43.1168
G1 X82.760 Y92.276 E43.2235
G1 F4800 E42.2235
G1 X132.202 Y91.667 F10800
G1 X134.058 Y91.320
G1 X134.942 Y90.908
G1 X139.200 Y87.400
G1 F4800 E43.2235
G1 X137.400 Y87.400 E43.2998 F5400
G1 F4800 E42.2998
G1 X135.166 Y91.434 F10800
G1 F4800 E43.2998
G1 X134.185 Y92.415 E43.3586 F5400
G1 X135.215 Y92.415 E43.4023
G1 F4800 E42.4023
G1 X136.376 Y88.765 F10800
G1 X136.331 Y86.624
G1 X135.489 Y83.911
G1 F4800 E43.4023
G1 X133.911 Y83.911 E43.4692 F5400
; ------------------------------------
; Layer #4
; ------------------------------------
G21 ; mm
G90 ; abs
G92 E0 ; reset extr
M106 S255
;segType:Support
G1 F4800 E-1.0000
G1 F300 Z1.500
G1 X134.862 Y84.211 F10800
G1 F4800 E0.0000
G1 X135.189 Y84.211 E0.0139 F5400
G1 X135.116 Y84.284 E0.0183
G1 F4800 E-0.9817
G1 X136.341 Y85.842 F10800
G1 X137.565 Y87.400
G1 F4800 E0.0183
G1 X139.200 Y87.400 E0.0876 F5400
G1 X139.200 Y89.200 E0.1639
G1 X137.470 Y89.200 E0.2373
G1 F4800 E-0.7627
G1 X134.494 Y92.106 F10800
G1 F4800 E0.2373
G1 X134.485 Y92.115 E0.2378 F5400
G1 F4800 E-0.7622
G1 X76.200 Y92.800 F10800
G1 F4800 E0.2378
G1 X78.000 Y92.800 E0.3142 F5400
G1 X78.000 Y91.000 E0.3905
G1 X76.200 Y91.000 E0.4668
G1 X77.592 Y89.200 E0.5633
G1 X76.200 Y89.200 E0.6223
G1 F4800 E-0.3777
G1 X76.200 Y85.600 F10800
G1 F4800 E0.6223
G1 X77.963 Y85.600 E0.6971 F5400
G1 X78.000 Y83.800 E0.7734
G1 X76.200 Y83.800 E0.8498
G1 F4800 E-0.1502
G1 X76.200 Y87.400 F10800
G1 F4800 E0.8498
G1 X77.604 Y87.400 E0.9093 F5400
;segType:HShell
G1 F4800 E-0.0907
G1 X79.002 Y88.688 F10800
G1 F4800 E0.9093
G1 X80.746 Y87.085 E1.0275 F3600
G1 X80.666 Y87.652
G1 X79.012 Y89.172 E1.1395
G1 X79.200 Y89.492
G1 X80.664 Y88.147 E1.2387
G1 X80.662 Y88.642
G1 X79.395 Y89.806 E1.3246
G1 X79.641 Y90.074
G1 X80.725 Y89.077 E1.3981
G1 X80.851 Y89.455
G1 X79.907 Y90.322 E1.4620
;segType:Perimeter
G1 X79.643 Y90.250 F10800
G1 X78.961 Y90.210 E1.4961 F2159
G1 X78.790 Y89.954 E1.5114
G1 X78.412 Y89.311 E1.5486
G1 X78.390 Y89.217 E1.5535
G1 X78.402 Y88.769 E1.5758
G1 X78.405 Y86.866 E1.6708
G1 X78.400 Y86.495 E1.6893
G1 X78.530 Y86.179 E1.7063
G1 X78.622 Y86.025 E1.7153
G1 X78.900 Y85.735 E1.7353
G1 X79.165 Y85.586 E1.7505
G1 X79.542 Y85.252 E1.7756
G1 X80.164 Y85.003 E1.8091
G1 X80.422 Y84.936 E1.8224
G1 X81.453 Y84.646 E1.8758
G1 X81.844 Y84.616 E1.8954
G1 X82.473 Y84.540 E1.9270
G1 X83.030 Y84.499 E1.9548
G1 X113.365 Y84.470 E3.4682
G1 X120.119 Y84.470 E3.8052
G1 X130.619 Y84.464 E4.3290
G1 X131.233 Y84.495 E4.3597
G1 X131.925 Y84.479 E4.3943
G1 X132.110 Y84.489 E4.4035
G1 X132.916 Y84.590 E4.4440
G1 X133.646 Y84.646 E4.4806
G1 X133.974 Y84.727 E4.4974
G1 X134.935 Y85.002 E4.5473
G1 X135.585 Y85.265 E4.5822
G1 X136.491 Y86.043 E4.6418
G1 X136.561 Y86.237 E4.6521
G1 X136.709 Y86.766 E4.6795
G1 X136.764 Y86.900 E4.6868
G1 X136.767 Y88.394 E4.7613
G1 X136.758 Y88.745 E4.7788
G1 X136.559 Y89.601 E4.8226
G1 X136.499 Y89.771 E4.8316
G1 X135.203 Y91.002 E4.9208
G1 X134.854 Y91.162 E4.9400
G1 X133.783 Y91.587 E4.9974
G1 X132.906 Y91.763 E5.0421
G1 X132.737 Y91.778 E5.0505
G1 X130.592 Y91.899 E5.1577
G1 X129.250 Y91.900 E5.2247
G1 X119.401 Y91.900 E5.7160
G1 X84.773 Y91.899 E7.4437
G1 X83.750 Y91.894 E7.4947
G1 X83.039 Y91.865 E7.5302
G1 X82.204 Y91.764 E7.5722
G1 X81.335 Y91.547 E7.6168
G1 X80.939 Y91.459 E7.6371
G1 X80.452 Y91.289 E7.6628
G1 X79.984 Y91.053 E7.6889
G1 X79.720 Y90.900 E7.7042
G1 X79.531 Y90.757 E7.7160
G1 X79.031 Y90.292 E7.7501
G1 X79.151 Y89.674
;segType:Loop
G1 X78.828 Y89.246 F10800
G1 X78.791 Y89.183 E7.7538 F3600
G1 X78.802 Y88.774 E7.7741
G1 X78.805 Y86.864 E7.8695
G1 X78.801 Y86.560 E7.8846
G1 X78.952 Y86.237 E7.9024
G1 X79.160 Y86.019 E7.9174
G1 X79.411 Y85.879 E7.9317
G1 X79.768 Y85.563 E7.9555
G1 X80.299 Y85.350 E7.9841
G1 X81.529 Y85.009 E8.0478
G1 X81.887 Y84.981 E8.0657
G1 X82.515 Y84.905 E8.0973
G1 X83.046 Y84.867 E8.1238
G1 X113.365 Y84.838 E9.6364
G1 X120.120 Y84.837 E9.9734
G1 X130.608 Y84.831 E10.4967
G1 X131.227 Y84.863 E10.5276
G1 X131.919 Y84.847 E10.5622
G1 X132.071 Y84.855 E10.5698
G1 X132.872 Y84.956 E10.6100
G1 X133.577 Y85.009 E10.6453
G1 X133.862 Y85.080 E10.6600
G1 X134.794 Y85.347 E10.7083
G1 X135.361 Y85.576 E10.7388
G1 X136.143 Y86.248 E10.7903
G1 X136.327 Y86.877 E10.8230
G1 X136.364 Y86.968 E10.8279
G1 X136.367 Y88.390 E10.8988
G1 X136.359 Y88.702 E10.9144
G1 X136.147 Y89.576 E10.9593
G1 X134.962 Y90.701 E11.0408
G1 X134.685 Y90.829 E11.0560
G1 X133.660 Y91.236 E11.1110
G1 X132.844 Y91.399 E11.1525
G1 X132.705 Y91.412 E11.1595
G1 X130.580 Y91.532 E11.2657
G1 X129.250 Y91.532 E11.3320
G1 X119.401 Y91.532 E11.8234
G1 X84.774 Y91.532 E13.5510
G1 X83.760 Y91.527 E13.6015
G1 X83.074 Y91.498 E13.6358
G1 X82.283 Y91.403 E13.6756
G1 X81.435 Y91.191 E13.7192
G1 X81.058 Y91.107 E13.7385
G1 X80.620 Y90.954 E13.7616
G1 X80.188 Y90.737 E13.7857
G1 X79.801 Y90.485 E13.8087
G1 X79.308 Y90.026 E13.8424
G1 X79.137 Y89.771 E13.8577
G1 X78.919 Y89.400 E13.8792
G1 F4800 E12.8792
G1 X81.191 Y86.912 F10800
G1 X81.250 Y86.417
G1 X81.840 Y85.856
G1 X82.933 Y85.604
G1 X112.500 Y85.022
G1 F4800 E13.8792
;segType:HShell
G1 X112.349 Y85.161 E13.8894 F3600
G1 X112.887 Y85.160
G1 X113.037 Y85.022 E13.8996
G1 X113.574 Y85.022
G1 X113.425 Y85.159 E13.9097
G1 X113.963 Y85.158
G1 X114.111 Y85.022 E13.9197
G1 X114.647 Y85.021
G1 X114.500 Y85.156 E13.9297
G1 X115.038 Y85.155
G1 X115.184 Y85.021 E13.9396
G1 X115.720 Y85.021
G1 X115.576 Y85.154 E13.9493
G1 X116.114 Y85.153
G1 X116.257 Y85.021 E13.9590
G1 X116.794 Y85.021
G1 X116.652 Y85.152 E13.9687
G1 X117.189 Y85.151
G1 X117.330 Y85.021 E13.9782
G1 X117.867 Y85.021
G1 X117.727 Y85.149 E13.9876
G1 X118.265 Y85.148
G1 X118.403 Y85.021 E13.9970
G1 X118.940 Y85.021
G1 X118.803 Y85.147 E14.0063
G1 X119.341 Y85.146
G1 X119.476 Y85.021 E14.0155
G1 X120.013 Y85.021
G1 X119.878 Y85.145 E14.0246
G1 X120.416 Y85.144
G1 X120.550 Y85.021 E14.0336
G1 X121.087 Y85.021
G1 X120.953 Y85.143 E14.0427
G1 X121.490 Y85.143
G1 X121.623 Y85.020 E14.0517
G1 X122.160 Y85.020
G1 X122.026 Y85.143 E14.0608
G1 X122.563 Y85.143
G1 X122.697 Y85.020 E14.0699
G1 X123.234 Y85.020
G1 X123.099 Y85.143 E14.0790
G1 X123.636 Y85.143
G1 X123.771 Y85.019 E14.0882
G1 X124.308 Y85.019
G1 X124.172 Y85.143 E14.0974
G1 X124.709 Y85.143
G1 X124.845 Y85.019 E14.1066
G1 X125.382 Y85.018
G1 X125.245 Y85.143 E14.1158
G1 X125.782 Y85.143
G1 X125.918 Y85.018 E14.1250
G1 X126.455 Y85.018
G1 X126.318 Y85.143 E14.1343
G1 X126.855 Y85.143
G1 X126.992 Y85.017 E14.1436
G1 X127.529 Y85.017
G1 X127.391 Y85.143 E14.1529
G1 X127.928 Y85.143
G1 X128.066 Y85.017 E14.1623
G1 X128.603 Y85.017
G1 X128.465 Y85.144 E14.1716
G1 X129.001 Y85.144
G1 X129.140 Y85.016 E14.1810
G1 X129.676 Y85.016
G1 X129.539 Y85.142 E14.1903
G1 X130.080 Y85.139
G1 X130.213 Y85.016 E14.1994
G1 X130.742 Y85.022
G1 X130.620 Y85.135 E14.2077
G1 X131.160 Y85.132
G1 X131.254 Y85.046 E14.2140
G1 X131.803 Y85.034
G1 X131.645 Y85.179 E14.2248
G1 X132.113 Y85.242
G1 X132.301 Y85.069 E14.2375
G1 X132.773 Y85.129
G1 X132.574 Y85.312 E14.2510
G1 X133.029 Y85.387
G1 X133.265 Y85.170 E14.2670
G1 X133.728 Y85.237
G1 X133.340 Y85.594 E14.2933
G1 X133.651 Y85.801
G1 X134.140 Y85.352 E14.3264
G1 X134.549 Y85.469
G1 X133.980 Y85.992 E14.3650
;segType:Perimeter
G1 X133.798 Y85.961 F10800
G1 X133.821 Y86.588 E14.3963 F2159
G1 X133.799 Y86.873 E14.4105
G1 X133.801 Y87.438 E14.4387
G1 X133.922 Y88.269 E14.4806
G1 X133.861 Y88.803 E14.5074
G1 X133.762 Y89.116 E14.5238
G1 X133.448 Y89.640 E14.5543
G1 X133.276 Y89.710 E14.5636
G1 X133.150 Y89.817 E14.5718
G1 X132.678 Y90.050 E14.5981
G1 X132.160 Y90.157 E14.6244
G1 X131.774 Y90.194 E14.6438
G1 X131.261 Y90.315 E14.6701
G1 X130.482 Y90.316 E14.7089
G1 X129.249 Y90.306 E14.7705
G1 X112.730 Y90.306 E15.5946
G1 X109.631 Y90.307 E15.7492
G1 X105.505 Y90.296 E15.9551
G1 X86.227 Y90.294 E16.9168
G1 X85.098 Y90.264 E16.9732
G1 X83.946 Y90.209 E17.0307
G1 X83.158 Y90.210 E17.0700
G1 X82.170 Y89.939 E17.1211
G1 X81.931 Y89.852 E17.1338
G1 X81.764 Y89.743 E17.1438
G1 X81.387 Y89.202 E17.1766
G1 X81.261 Y88.792 E17.1981
G1 X81.266 Y87.679 E17.2536
G1 X81.379 Y86.890 E17.2933
G1 X81.330 Y86.776 E17.2995
G1 X81.414 Y86.504 E17.3137
G1 X81.936 Y86.006 E17.3497
G1 X82.730 Y85.807 E17.3906
G1 X82.953 Y85.777 E17.4018
G1 X83.860 Y85.728 E17.4471
G1 X84.955 Y85.719 E17.5017
G1 X101.181 Y85.737 E18.3113
G1 X120.590 Y85.695 E19.2796
G1 X129.250 Y85.695 E19.7116
G1 X131.250 Y85.683 E19.8114
G1 X132.160 Y85.806 E19.8572
G1 X132.784 Y85.905 E19.8887
G1 X133.539 Y86.407 E19.9340
G1 X133.774 Y86.513 E19.9468
G1 X134.353 Y86.846
;segType:Loop
G1 X134.214 Y87.499 F10800
G1 X134.325 Y88.263 E19.9854 F3600
G1 X134.255 Y88.874 E20.0160
G1 X134.133 Y89.257 E20.0361
G1 X133.733 Y89.926 E20.0750
G1 X133.499 Y90.022 E20.0876
G1 X133.385 Y90.119 E20.0951
G1 X132.819 Y90.398 E20.1266
G1 X132.225 Y90.520 E20.1568
G1 X131.845 Y90.557 E20.1759
G1 X131.312 Y90.682 E20.2032
G1 X130.481 Y90.683 E20.2446
G1 X129.247 Y90.674 E20.3062
G1 X112.730 Y90.674 E21.1302
G1 X109.631 Y90.675 E21.2848
G1 X105.504 Y90.663 E21.4907
G1 X86.221 Y90.661 E22.4527
G1 X85.082 Y90.631 E22.5096
G1 X83.936 Y90.577 E22.5669
G1 X83.100 Y90.578 E22.6085
G1 X82.039 Y90.287 E22.6635
G1 X81.738 Y90.177 E22.6794
G1 X81.469 Y90.001 E22.6955
G1 X81.019 Y89.355 E22.7348
G1 X80.861 Y88.842 E22.7615
G1 X80.866 Y87.654 E22.8208
G1 X80.969 Y86.937 E22.8569
G1 X80.908 Y86.796 E22.8646
G1 X81.057 Y86.315 E22.8897
G1 X81.725 Y85.678 E22.9358
G1 X82.648 Y85.447 E22.9832
G1 X82.912 Y85.411 E22.9965
G1 X83.846 Y85.360 E23.0432
G1 X84.954 Y85.352 E23.0985
G1 X101.181 Y85.369 E23.9081
G1 X120.589 Y85.327 E24.8763
G1 X129.248 Y85.327 E25.3083
G1 X131.278 Y85.315 E25.4096
G1 X132.223 Y85.443 E25.4572
G1 X132.944 Y85.557 E25.4936
G1 X133.745 Y86.091 E25.5416
G1 X134.243 Y86.315 E25.5688
G1 X134.199 Y86.885 E25.5974
G1 X134.201 Y87.326 E25.6193
;segType:HShell
G1 X134.340 Y86.154 F10800
G1 X134.937 Y85.605 E25.6598 F3600
G1 X135.294 Y85.770
G1 X134.424 Y86.570 E25.7188
G1 X134.400 Y87.085
G1 X135.572 Y86.008 E25.7982
G1 X135.849 Y86.247
G1 X134.424 Y87.557 E25.8948
G1 X134.487 Y87.992
G1 X136.033 Y86.570 E25.9995
G1 X136.151 Y86.956
G1 X134.502 Y88.471 E26.1112
G1 X134.407 Y89.051
G1 X136.165 Y87.435 E26.2304
G1 X136.166 Y87.928
G1 X133.924 Y89.988 E26.3823
G1 X133.805 Y90.098
G1 X132.567 Y91.235 E26.4661
G1 X133.210 Y91.138
G1 X136.166 Y88.421 E26.6664
G1 X136.085 Y88.989
G1 X134.008 Y90.897 E26.8072
G1 X132.713 Y90.608 F10800
G1 X131.996 Y91.268 E26.8558 F3600
G1 X131.424 Y91.300
G1 X132.053 Y90.722 E26.8984
G1 X131.367 Y90.859
G1 X130.852 Y91.332 E26.9333
G1 X130.299 Y91.348
G1 X130.822 Y90.867 E26.9688
G1 X130.287 Y90.866
G1 X129.762 Y91.348 E27.0044
G1 X129.225 Y91.349
G1 X129.755 Y90.862 E27.0403
G1 X129.222 Y90.858
G1 X128.688 Y91.349 E27.0765
G1 X128.152 Y91.349
G1 X128.686 Y90.858 E27.1126
G1 X128.149 Y90.858
G1 X127.615 Y91.349 E27.1488
G1 X127.079 Y91.349
G1 X127.613 Y90.858 E27.1850
G1 X127.076 Y90.858
G1 X126.542 Y91.349 E27.2212
G1 X126.006 Y91.349
G1 X126.540 Y90.858 E27.2574
G1 X126.003 Y90.858
G1 X125.469 Y91.349 E27.2935
G1 X124.933 Y91.349
G1 X125.467 Y90.858 E27.3297
G1 X124.930 Y90.858
G1 X124.396 Y91.349 E27.3659
G1 X123.860 Y91.349
G1 X124.393 Y90.858 E27.4021
G1 X123.857 Y90.858
G1 X123.323 Y91.349 E27.4383
G1 X122.786 Y91.349
G1 X123.320 Y90.858 E27.4744
G1 X122.784 Y90.858
G1 X122.250 Y91.349 E27.5106
G1 X121.713 Y91.349
G1 X122.247 Y90.858 E27.5468
G1 X121.711 Y90.858
G1 X121.177 Y91.349 E27.5830
G1 X120.640 Y91.349
G1 X121.174 Y90.858 E27.6191
G1 X120.638 Y90.858
G1 X120.104 Y91.349 E27.6553
G1 X119.567 Y91.349
G1 X120.101 Y90.858 E27.6915
G1 X119.565 Y90.858
G1 X119.031 Y91.349 E27.7276
G1 X118.494 Y91.349
G1 X119.028 Y90.858 E27.7638
G1 X118.491 Y90.858
G1 X117.958 Y91.349 E27.8000
G1 X117.421 Y91.348
G1 X117.955 Y90.858 E27.8362
G1 X117.418 Y90.858
G1 X116.885 Y91.348 E27.8723
G1 X116.348 Y91.348
G1 X116.882 Y90.858 E27.9085
G1 X116.345 Y90.858
G1 X115.812 Y91.348 E27.9447
G1 X115.275 Y91.348
G1 X115.809 Y90.858 E27.9808
G1 X115.272 Y90.858
G1 X114.738 Y91.348 E28.0170
G1 X114.202 Y91.348
G1 X114.736 Y90.858 E28.0531
G1 X114.199 Y90.858
G1 X113.665 Y91.348 E28.0893
G1 X113.129 Y91.348
G1 X113.663 Y90.858 E28.1255
G1 X113.126 Y90.858
G1 X112.592 Y91.348 E28.1616
G1 X112.056 Y91.348
G1 X112.589 Y90.858 E28.1978
G1 X112.053 Y90.858
G1 X111.519 Y91.348 E28.2339
G1 X110.983 Y91.348
G1 X111.516 Y90.858 E28.2701
G1 X110.980 Y90.858
G1 X110.446 Y91.348 E28.3062
G1 X109.910 Y91.348
G1 X110.443 Y90.858 E28.3423
G1 X109.906 Y90.858
G1 X109.373 Y91.348 E28.3784
G1 X108.837 Y91.348
G1 X109.370 Y90.858 E28.4146
G1 X108.836 Y90.856
G1 X108.300 Y91.348 E28.4509
G1 X107.764 Y91.348
G1 X108.301 Y90.855 E28.4873
G1 X107.766 Y90.853
G1 X107.227 Y91.348 E28.5238
G1 X106.691 Y91.348
G1 X107.231 Y90.852 E28.5604
G1 X106.696 Y90.850
G1 X106.154 Y91.348 E28.5971
G1 X105.618 Y91.348
G1 X106.161 Y90.849 E28.6339
G1 X105.626 Y90.847
G1 X105.081 Y91.348 E28.6708
G1 X104.544 Y91.348
G1 X105.090 Y90.847 E28.7077
G1 X104.553 Y90.847
G1 X104.008 Y91.348 E28.7447
G1 X103.471 Y91.348
G1 X104.017 Y90.847 E28.7817
G1 X103.480 Y90.847
G1 X102.935 Y91.348 E28.8186
G1 X102.398 Y91.348
G1 X102.944 Y90.847 E28.8556
G1 X102.407 Y90.847
G1 X101.862 Y91.348 E28.8925
G1 X101.325 Y91.348
G1 X101.871 Y90.847 E28.9295
G1 X101.334 Y90.847
G1 X100.789 Y91.348 E28.9665
G1 X100.252 Y91.348
G1 X100.798 Y90.847 E29.0034
G1 X100.261 Y90.847
G1 X99.716 Y91.348 E29.0404
G1 X99.179 Y91.348
G1 X99.725 Y90.847 E29.0774
G1 X99.188 Y90.847
G1 X98.643 Y91.348 E29.1144
G1 X98.106 Y91.348
G1 X98.652 Y90.846 E29.1514
G1 X98.115 Y90.846
G1 X97.570 Y91.348 E29.1883
G1 X97.033 Y91.348
G1 X97.579 Y90.846 E29.2253
G1 X97.043 Y90.846
G1 X96.497 Y91.348 E29.2623
G1 X95.960 Y91.348
G1 X96.506 Y90.846 E29.2993
G1 X95.970 Y90.846
G1 X95.424 Y91.348 E29.3363
G1 X94.887 Y91.348
G1 X95.433 Y90.846 E29.3733
G1 X94.897 Y90.846
G1 X94.350 Y91.348 E29.4103
G1 X93.814 Y91.348
G1 X94.360 Y90.846 E29.4473
G1 X93.824 Y90.846
G1 X93.277 Y91.348 E29.4844
G1 X92.741 Y91.348
G1 X93.287 Y90.846 E29.5214
G1 X92.751 Y90.846
G1 X92.204 Y91.348 E29.5584
G1 X91.668 Y91.348
G1 X92.214 Y90.846 E29.5954
G1 X91.678 Y90.846
G1 X91.131 Y91.348 E29.6324
G1 X90.595 Y91.348
G1 X91.141 Y90.846 E29.6695
G1 X90.605 Y90.846
G1 X90.058 Y91.348 E29.7065
G1 X89.522 Y91.348
G1 X90.068 Y90.846 E29.7435
G1 X89.532 Y90.846
G1 X88.985 Y91.348 E29.7805
G1 X88.449 Y91.348
G1 X88.995 Y90.846 E29.8176
G1 X88.459 Y90.845
G1 X87.912 Y91.348 E29.8546
G1 X87.376 Y91.348
G1 X87.922 Y90.845 E29.8917
G1 X87.386 Y90.845
G1 X86.839 Y91.348 E29.9287
G1 X86.303 Y91.348
G1 X86.849 Y90.845 E29.9658
G1 X86.313 Y90.845
G1 X85.766 Y91.348 E30.0028
G1 X85.230 Y91.348
G1 X85.789 Y90.834 E30.0407
G1 X85.267 Y90.820
G1 X84.693 Y91.347 E30.0796
G1 X84.160 Y91.345
G1 X84.753 Y90.800 E30.1198
G1 X84.243 Y90.775
G1 X83.631 Y91.338 E30.1613
G1 X83.118 Y91.316
G1 X83.722 Y90.761 E30.2022
G1 X83.185 Y90.761
G1 X82.641 Y91.261 E30.2391
G1 X82.184 Y91.188
G1 X82.745 Y90.672 E30.2771
G1 X82.332 Y90.559
G1 X81.763 Y91.082 E30.3156
G1 X81.337 Y90.980
G1 X81.922 Y90.443 E30.3553
G1 X81.557 Y90.285
G1 X80.926 Y90.865 E30.3980
G1 X80.556 Y90.712
G1 X81.270 Y90.056 E30.4464
G1 X81.060 Y89.755
G1 X80.217 Y90.530 E30.5036
G1 X79.003 Y88.194 F10800
G1 X80.770 Y86.570 E30.6233 F3600
G1 X79.003 Y86.715 F10800
G1 X80.247 Y85.571 E30.7076 F3600
G1 X81.039 Y85.337
G1 X79.005 Y87.206 E30.8455
G1 X79.004 Y87.700
G1 X81.750 Y85.176 E31.0316
G1 X82.359 Y85.110
G1 X82.032 Y85.411 E31.0537
G1 X82.745 Y85.248
G1 X82.952 Y85.058 E31.0677
G1 X83.497 Y85.050
G1 X83.329 Y85.204 E31.0791
G1 X83.897 Y85.176
G1 X84.034 Y85.050 E31.0884
G1 X84.571 Y85.049
G1 X84.438 Y85.172 E31.0975
G1 X84.978 Y85.168
G1 X85.108 Y85.049 E31.1063
G1 X85.645 Y85.048
G1 X85.514 Y85.168 E31.1151
G1 X86.050 Y85.169
G1 X86.182 Y85.048 E31.1241
G1 X86.720 Y85.047
G1 X86.586 Y85.170 E31.1331
G1 X87.122 Y85.170
G1 X87.257 Y85.046 E31.1422
G1 X87.794 Y85.046
G1 X87.658 Y85.171 E31.1514
G1 X88.194 Y85.171
G1 X88.331 Y85.045 E31.1607
G1 X88.868 Y85.045
G1 X88.730 Y85.172 E31.1701
G1 X89.266 Y85.172
G1 X89.405 Y85.044 E31.1795
G1 X89.942 Y85.044
G1 X89.802 Y85.173 E31.1890
G1 X90.338 Y85.174
G1 X90.479 Y85.043 E31.1986
G1 X91.016 Y85.043
G1 X90.874 Y85.174 E31.2083
G1 X91.409 Y85.175
G1 X91.553 Y85.042 E31.2180
G1 X92.091 Y85.042
G1 X91.945 Y85.175 E31.2279
G1 X92.481 Y85.176
G1 X92.628 Y85.041 E31.2378
G1 X93.165 Y85.041
G1 X93.017 Y85.176 E31.2478
G1 X93.553 Y85.177
G1 X93.702 Y85.040 E31.2579
G1 X94.239 Y85.040
G1 X94.089 Y85.178 E31.2680
G1 X94.625 Y85.178
G1 X94.776 Y85.039 E31.2783
G1 X95.313 Y85.039
G1 X95.161 Y85.179 E31.2886
G1 X95.697 Y85.179
G1 X95.850 Y85.038 E31.2990
G1 X96.387 Y85.038
G1 X96.233 Y85.180 E31.3095
G1 X96.769 Y85.181
G1 X96.924 Y85.037 E31.3200
G1 X97.462 Y85.037
G1 X97.304 Y85.181 E31.3307
G1 X97.840 Y85.182
G1 X97.999 Y85.036 E31.3414
G1 X98.536 Y85.036
G1 X98.376 Y85.182 E31.3522
G1 X98.912 Y85.183
G1 X99.073 Y85.035 E31.3631
G1 X99.610 Y85.035
G1 X99.448 Y85.183 E31.3741
G1 X99.984 Y85.184
G1 X100.147 Y85.034 E31.3851
G1 X100.684 Y85.034
G1 X100.520 Y85.185 E31.3962
G1 X101.056 Y85.185
G1 X101.221 Y85.033 E31.4074
G1 X101.758 Y85.033
G1 X101.593 Y85.184 E31.4186
G1 X102.131 Y85.183
G1 X102.295 Y85.032 E31.4298
G1 X102.832 Y85.032
G1 X102.669 Y85.182 E31.4409
G1 X103.207 Y85.181
G1 X103.370 Y85.031 E31.4519
G1 X103.907 Y85.031
G1 X103.744 Y85.180 E31.4629
G1 X104.282 Y85.179
G1 X104.444 Y85.030 E31.4738
G1 X104.981 Y85.030
G1 X104.820 Y85.177 E31.4848
G1 X105.358 Y85.176
G1 X105.518 Y85.029 E31.4956
G1 X106.055 Y85.029
G1 X105.896 Y85.175 E31.5064
G1 X106.433 Y85.174
G1 X106.592 Y85.028 E31.5172
G1 X107.129 Y85.027
G1 X106.971 Y85.173 E31.5279
G1 X107.509 Y85.172
G1 X107.666 Y85.027 E31.5385
G1 X108.203 Y85.026
G1 X108.047 Y85.170 E31.5492
G1 X108.585 Y85.169
G1 X108.741 Y85.026 E31.5597
G1 X109.278 Y85.025
G1 X109.122 Y85.168 E31.5702
G1 X109.660 Y85.167
G1 X109.815 Y85.025 E31.5807
G1 X110.352 Y85.024
G1 X110.198 Y85.166 E31.5911
G1 X110.736 Y85.165
G1 X110.889 Y85.024 E31.6015
G1 X111.426 Y85.023
G1 X111.274 Y85.163 E31.6118
G1 X111.811 Y85.162
G1 X111.963 Y85.023 E31.6221
; ------------------------------------
; Layer #5
; ------------------------------------
G21 ; mm
G90 ; abs
G92 E0 ; reset extr
M106 S255
;segType:SoftSupport
G1 F4800 E-1.0000
G1 F300 Z1.800
G1 X134.122 Y87.403 F10800
G1 F4800 E0.0000
G1 X133.800 Y87.400 E0.0072 F5400
G1 F4800 E-0.9928
G1 X136.472 Y87.428 F10800
G1 X139.144 Y87.456
G1 F4800 E0.0072
;segType:Support
G1 X138.065 Y87.444 E0.0530 F5400
G1 X137.955 Y89.157 E0.1258
G1 X139.144 Y89.144 E0.1762
G1 F4800 E-0.8238
G1 X136.517 Y89.172 F10800
G1 X133.889 Y89.199
G1 F4800 E0.1762
;segType:SoftSupport
G1 X133.800 Y89.200 E0.1782 F5400
G1 F4800 E-0.8218
G1 X81.161 Y87.400 F10800
G1 F4800 E0.1782
G1 X81.508 Y87.400 E0.1860 F5400
G1 X81.508 Y87.400
;segType:Support
G1 X81.600 Y87.400 E0.1899 F5400
G1 X81.600 Y89.200 E0.2662
;segType:SoftSupport
G1 X81.199 Y89.200 E0.2752 F5400
G1 F4800 E-0.7248
G1 X79.532 Y90.400 F10800
G1 X76.200 Y92.800
G1 F4800 E0.2752
;segType:Support
G1 X78.000 Y92.800 E0.3516 F5400
G1 F4800 E-0.6484
G1 X77.043 Y88.917 F10800
G1 F4800 E0.3516
G1 X76.483 Y88.917 E0.3754 F5400
G1 X76.200 Y91.000 E0.4645
G1 X78.000 Y91.000 E0.5408
G1 F4800 E-0.4592
G1 X77.744 Y88.300 F10800
G1 X77.488 Y85.600
G1 F4800 E0.5408
G1 X76.200 Y85.600 E0.5954 F5400
G1 X78.000 Y83.800 E0.7034
G1 X76.200 Y83.800 E0.7797
G1 F4800 E-0.2203
G1 X77.046 Y87.683 F10800
G1 F4800 E0.7797
G1 X76.483 Y87.683 E0.8036 F5400
;segType:Loop
G1 F4800 E-0.1964
G1 X78.365 Y89.353 F10800
G1 F4800 E0.8036
G1 X78.243 Y88.824 E0.8307 F3600
G1 X78.248 Y86.860 E0.9287
G1 X78.490 Y86.219 E0.9628
G1 X78.785 Y85.838 E0.9869
G1 X79.201 Y85.590 E1.0111
G1 X79.337 Y85.464 E1.0203
G1 X79.970 Y85.192 E1.0547
G1 X80.642 Y85.019 E1.0893
G1 X81.017 Y84.907 E1.1088
G1 X81.447 Y84.831 E1.1306
G1 X81.793 Y84.797 E1.1479
G1 X83.071 Y84.704 E1.2119
G1 X99.710 Y84.688 E2.0420
G1 X129.479 Y84.671 E3.5272
G1 X131.974 Y84.704 E3.6517
G1 X132.520 Y84.732 E3.6789
G1 X132.822 Y84.770 E3.6941
G1 X133.654 Y84.832 E3.7358
G1 X134.056 Y84.912 E3.7562
G1 X134.696 Y85.066 E3.7891
G1 X135.131 Y85.191 E3.8116
G1 X135.322 Y85.267 E3.8219
G1 X135.983 Y85.571 E3.8582
G1 X136.196 Y85.725 E3.8713
G1 X136.420 Y85.927 E3.8863
G1 X136.546 Y86.082 E3.8963
G1 X136.646 Y86.440 E3.9148
G1 X136.838 Y86.715 E3.9315
G1 X136.870 Y86.909 E3.9414
G1 X136.870 Y87.240 E3.9579
G1 X136.832 Y88.703 E4.0309
G1 X136.641 Y89.541 E4.0738
G1 X136.519 Y89.845 E4.0901
G1 X136.396 Y90.041 E4.1017
G1 X136.169 Y90.268 E4.1177
G1 X135.485 Y90.820 E4.1615
G1 X135.303 Y90.921 E4.1719
G1 X133.990 Y91.425 E4.2421
G1 X133.484 Y91.554 E4.2681
G1 X132.861 Y91.606 E4.2993
G1 X132.184 Y91.705 E4.3335
G1 X131.222 Y91.742 E4.3815
G1 X129.585 Y91.765 E4.4632
G1 X121.499 Y91.765 E4.8666
G1 X95.570 Y91.737 E6.1602
G1 X83.875 Y91.742 E6.7436
G1 X83.078 Y91.720 E6.7834
G1 X82.233 Y91.606 E6.8260
G1 X81.881 Y91.581 E6.8436
G1 X81.515 Y91.489 E6.8624
G1 X80.640 Y91.287 E6.9072
G1 X80.495 Y91.243 E6.9148
G1 X79.846 Y90.926 E6.9508
G1 X79.644 Y90.792 E6.9629
G1 X79.500 Y90.730 E6.9707
G1 X78.763 Y90.036 E7.0212
G1 X78.432 Y89.514 E7.0520
G1 F4800 E6.0520
G1 X79.093 Y90.261 F10800
G1 F4800 E7.0520
;segType:Perimeter
G1 X78.412 Y90.213 E7.0861 F2159
G1 X78.135 Y89.759 E7.1126
G1 X78.009 Y89.582 E7.1234
G1 X77.843 Y88.862 E7.1603
G1 X77.848 Y86.798 E7.2633
G1 X78.136 Y86.034 E7.3040
G1 X78.269 Y85.890 E7.3138
G1 X78.497 Y85.572 E7.3333
G1 X78.947 Y85.303 E7.3595
G1 X79.104 Y85.159 E7.3701
G1 X79.830 Y84.846 E7.4095
G1 X80.526 Y84.667 E7.4454
G1 X80.917 Y84.550 E7.4658
G1 X81.388 Y84.468 E7.4896
G1 X81.756 Y84.431 E7.5080
G1 X83.055 Y84.336 E7.5730
G1 X99.709 Y84.320 E8.4039
G1 X129.481 Y84.303 E9.8893
G1 X131.988 Y84.337 E10.0143
G1 X132.558 Y84.365 E10.0428
G1 X132.866 Y84.404 E10.0583
G1 X133.713 Y84.468 E10.1007
G1 X134.149 Y84.555 E10.1229
G1 X134.806 Y84.713 E10.1566
G1 X135.271 Y84.846 E10.1807
G1 X135.491 Y84.934 E10.1925
G1 X136.198 Y85.259 E10.2313
G1 X136.460 Y85.448 E10.2475
G1 X136.722 Y85.685 E10.2651
G1 X136.913 Y85.920 E10.2802
G1 X137.018 Y86.291 E10.2994
G1 X137.220 Y86.582 E10.3171
G1 X137.270 Y86.881 E10.3322
G1 X137.270 Y87.245 E10.3504
G1 X137.231 Y88.746 E10.4253
G1 X137.026 Y89.644 E10.4712
G1 X136.882 Y90.001 E10.4905
G1 X136.721 Y90.260 E10.5057
G1 X136.449 Y90.531 E10.5248
G1 X135.722 Y91.118 E10.5714
G1 X135.484 Y91.250 E10.5850
G1 X134.121 Y91.773 E10.6579
G1 X133.556 Y91.918 E10.6869
G1 X132.911 Y91.972 E10.7193
G1 X132.228 Y92.071 E10.7537
G1 X131.860 Y92.092 E10.7721
G1 X131.232 Y92.110 E10.8034
G1 X129.588 Y92.133 E10.8854
G1 X121.499 Y92.133 E11.2890
G1 X95.570 Y92.105 E12.5826
G1 X83.869 Y92.110 E13.1664
G1 X83.042 Y92.087 E13.2076
G1 X82.189 Y91.971 E13.2506
G1 X81.812 Y91.945 E13.2694
G1 X81.413 Y91.844 E13.2900
G1 X80.528 Y91.640 E13.3353
G1 X80.337 Y91.582 E13.3453
G1 X79.634 Y91.239 E13.3843
G1 X79.440 Y91.110 E13.3959
G1 X79.265 Y91.035 E13.4054
G1 X78.480 Y90.296 E13.4592
G1 X78.621 Y89.681
G1 X80.389 Y86.115 F10800
G1 X81.441 Y85.116
;segType:HShell
G1 X81.354 Y85.035 E13.4652 F3600
G1 X80.920 Y85.129
G1 X81.031 Y85.231 E13.4727
G1 X80.693 Y85.414
G1 X80.508 Y85.244 E13.4852
G1 X80.089 Y85.352
G1 X80.393 Y85.631 E13.5058
G1 X80.093 Y85.849
G1 X79.718 Y85.504 E13.5313
G1 X79.379 Y85.686
G1 X79.814 Y86.086 E13.5607
G1 X79.695 Y86.470
G1 X79.065 Y85.890 E13.6034
G1 X78.798 Y86.138
G1 X79.798 Y87.057 E13.6711
;segType:Loop
G1 X80.741 Y85.613 F10800
G1 X80.887 Y85.507 E13.6802 F3600
G1 X81.233 Y85.342 E13.6993
G1 X81.701 Y85.255 E13.7230
G1 X82.007 Y85.164 E13.7390
G1 X82.358 Y85.142 E13.7565
G1 X82.760 Y85.033 E13.7773
G1 X82.985 Y85.016 E13.7885
G1 X83.866 Y85.037 E13.8325
G1 X85.803 Y84.985 E13.9292
G1 X104.705 Y84.978 E14.8722
G1 X108.495 Y84.977 E15.0613
G1 X129.251 Y84.983 E16.0968
G1 X131.460 Y84.989 E16.2070
G1 X132.316 Y85.030 E16.2497
G1 X133.569 Y85.296 E16.3136
G1 X134.121 Y85.494 E16.3429
G1 X134.564 Y85.679 E16.3669
G1 X134.812 Y85.952 E16.3853
G1 X135.321 Y86.659 E16.4287
G1 X135.324 Y88.620 E16.5266
G1 X135.357 Y88.843 E16.5378
G1 X134.824 Y89.997 E16.6012
G1 X134.197 Y90.450 E16.6398
G1 X133.993 Y90.533 E16.6508
G1 X133.830 Y90.673 E16.6616
G1 X133.162 Y90.883 E16.6965
G1 X132.433 Y91.082 E16.7342
G1 X132.179 Y91.127 E16.7471
G1 X131.257 Y91.183 E16.7931
G1 X129.656 Y91.188 E16.8730
G1 X129.247 Y91.184 E16.8934
G1 X123.828 Y91.184 E17.1638
G1 X122.319 Y91.187 E17.2390
G1 X86.237 Y91.153 E19.0392
G1 X84.769 Y91.186 E19.1124
G1 X83.437 Y91.137 E19.1790
G1 X82.505 Y91.025 E19.2258
G1 X81.920 Y90.795 E19.2571
G1 X80.951 Y90.541 E19.3071
G1 X80.348 Y89.992 E19.3478
G1 X79.958 Y89.529 E19.3780
G1 X79.827 Y89.156 E19.3977
G1 X79.821 Y88.303 E19.4403
G1 X80.017 Y86.937 E19.5091
G1 X79.866 Y86.588 E19.5281
G1 X80.003 Y86.149 E19.5510
G1 X80.592 Y85.721 E19.5873
;segType:Perimeter
G1 X79.934 Y87.046 F10800
G1 X80.304 Y86.519 E19.6195 F2159
G1 X80.352 Y86.364 E19.6276
G1 X81.105 Y85.817 E19.6740
G1 X81.367 Y85.692 E19.6885
G1 X81.802 Y85.611 E19.7105
G1 X82.083 Y85.528 E19.7252
G1 X82.429 Y85.506 E19.7425
G1 X82.834 Y85.396 E19.7634
G1 X82.996 Y85.384 E19.7715
G1 X83.866 Y85.405 E19.8149
G1 X85.809 Y85.353 E19.9119
G1 X104.705 Y85.346 E20.8546
G1 X108.495 Y85.344 E21.0437
G1 X129.251 Y85.351 E22.0792
G1 X131.449 Y85.356 E22.1889
G1 X132.260 Y85.395 E22.2294
G1 X133.451 Y85.648 E22.2901
G1 X133.966 Y85.833 E22.3174
G1 X134.315 Y85.978 E22.3363
G1 X134.490 Y86.172 E22.3493
G1 X134.921 Y86.770 E22.3861
G1 X134.924 Y88.646 E22.4797
G1 X134.946 Y88.793 E22.4871
G1 X134.497 Y89.767 E22.5406
G1 X133.990 Y90.132 E22.5718
G1 X133.770 Y90.222 E22.5836
G1 X133.620 Y90.350 E22.5935
G1 X133.040 Y90.533 E22.6238
G1 X132.338 Y90.724 E22.6601
G1 X132.127 Y90.762 E22.6708
G1 X131.243 Y90.816 E22.7150
G1 X129.658 Y90.821 E22.7941
G1 X129.249 Y90.816 E22.8145
G1 X123.828 Y90.816 E23.0849
G1 X122.319 Y90.819 E23.1602
G1 X86.233 Y90.785 E24.9606
G1 X84.772 Y90.819 E25.0334
G1 X83.471 Y90.770 E25.0984
G1 X82.612 Y90.667 E25.1416
G1 X82.054 Y90.448 E25.1715
G1 X81.160 Y90.213 E25.2176
G1 X80.648 Y89.747 E25.2521
G1 X80.317 Y89.354 E25.2778
G1 X80.227 Y89.097 E25.2914
G1 X80.221 Y88.326 E25.3298
G1 X80.427 Y86.891 E25.4022
G1 X80.309 Y86.618 E25.4170
G1 X79.885 Y86.126
;segType:HShell
G1 X79.735 Y87.492 F10800
G1 X78.611 Y86.459 E25.4932 F3600
G1 X78.473 Y86.825
G1 X79.673 Y87.928 E25.5745
G1 X79.621 Y88.374
G1 X78.447 Y87.295 E25.6541
G1 X78.446 Y87.787
G1 X79.625 Y88.871 E25.7340
G1 X79.721 Y89.452
G1 X78.445 Y88.279 E25.8204
G1 X78.444 Y88.771
G1 X81.087 Y91.201 E25.9996
G1 X81.179 Y90.792
G1 X81.811 Y91.373 E26.0424
G1 X82.427 Y91.446
G1 X81.948 Y91.006 E26.0749
G1 X82.738 Y91.238
G1 X83.056 Y91.531 E26.0965
G1 X83.614 Y91.551
G1 X83.355 Y91.313 E26.1140
G1 X83.920 Y91.339
G1 X84.159 Y91.558 E26.1302
G1 X84.695 Y91.558
G1 X84.479 Y91.360 E26.1448
G1 X85.021 Y91.364
G1 X85.231 Y91.558 E26.1590
G1 X85.767 Y91.557
G1 X85.545 Y91.352 E26.1741
G1 X86.068 Y91.340
G1 X86.304 Y91.557 E26.1901
G1 X86.840 Y91.557
G1 X86.601 Y91.337 E26.2063
G1 X87.138 Y91.337
G1 X87.376 Y91.557 E26.2225
G1 X87.913 Y91.556
G1 X87.675 Y91.338 E26.2386
G1 X88.212 Y91.338
G1 X88.449 Y91.556 E26.2546
G1 X88.985 Y91.556
G1 X88.749 Y91.339 E26.2706
G1 X89.286 Y91.339
G1 X89.521 Y91.556 E26.2866
G1 X90.058 Y91.555
G1 X89.823 Y91.340 E26.3025
G1 X90.360 Y91.340
G1 X90.594 Y91.555 E26.3183
G1 X91.130 Y91.555
G1 X90.897 Y91.341 E26.3341
G1 X91.435 Y91.341
G1 X91.667 Y91.555 E26.3498
G1 X92.203 Y91.555
G1 X91.972 Y91.342 E26.3655
G1 X92.509 Y91.343
G1 X92.739 Y91.554 E26.3811
G1 X93.275 Y91.554
G1 X93.046 Y91.343 E26.3966
G1 X93.583 Y91.344
G1 X93.812 Y91.554 E26.4121
G1 X94.348 Y91.554
G1 X94.120 Y91.344 E26.4276
G1 X94.657 Y91.345
G1 X94.884 Y91.553 E26.4430
G1 X95.421 Y91.553
G1 X95.194 Y91.345 E26.4583
G1 X95.731 Y91.346
G1 X95.958 Y91.554 E26.4737
G1 X96.495 Y91.554
G1 X96.268 Y91.346 E26.4890
G1 X96.806 Y91.347
G1 X97.032 Y91.555 E26.5044
G1 X97.569 Y91.555
G1 X97.343 Y91.347 E26.5197
G1 X97.880 Y91.348
G1 X98.106 Y91.556 E26.5351
G1 X98.643 Y91.556
G1 X98.417 Y91.348 E26.5504
G1 X98.954 Y91.349
G1 X99.181 Y91.557 E26.5658
G1 X99.718 Y91.558
G1 X99.491 Y91.349 E26.5811
G1 X100.028 Y91.350
G1 X100.255 Y91.558 E26.5965
G1 X100.792 Y91.559
G1 X100.565 Y91.350 E26.6119
G1 X101.102 Y91.351
G1 X101.329 Y91.559 E26.6273
G1 X101.867 Y91.560
G1 X101.639 Y91.351 E26.6427
G1 X102.176 Y91.352
G1 X102.404 Y91.561 E26.6581
G1 X102.941 Y91.561
G1 X102.714 Y91.352 E26.6735
G1 X103.251 Y91.353
G1 X103.478 Y91.562 E26.6889
G1 X104.015 Y91.562
G1 X103.788 Y91.353 E26.7043
G1 X104.325 Y91.354
G1 X104.552 Y91.563 E26.7197
G1 X105.090 Y91.564
G1 X104.862 Y91.354 E26.7352
G1 X105.399 Y91.355
G1 X105.627 Y91.564 E26.7506
G1 X106.164 Y91.565
G1 X105.936 Y91.355 E26.7660
G1 X106.473 Y91.356
G1 X106.701 Y91.565 E26.7815
G1 X107.238 Y91.566
G1 X107.010 Y91.356 E26.7969
G1 X107.547 Y91.357
G1 X107.775 Y91.566 E26.8124
G1 X108.313 Y91.567
G1 X108.085 Y91.357 E26.8278
G1 X108.622 Y91.358
G1 X108.850 Y91.568 E26.8433
G1 X109.387 Y91.568
G1 X109.159 Y91.358 E26.8587
G1 X109.696 Y91.359
G1 X109.924 Y91.569 E26.8742
G1 X110.461 Y91.569
G1 X110.233 Y91.359 E26.8897
G1 X110.770 Y91.360
G1 X110.999 Y91.570 E26.9052
G1 X111.536 Y91.571
G1 X111.307 Y91.360 E26.9207
G1 X111.844 Y91.361
G1 X112.073 Y91.571 E26.9362
G1 X112.610 Y91.572
G1 X112.381 Y91.361 E26.9517
G1 X112.918 Y91.362
G1 X113.147 Y91.572 E26.9672
G1 X113.684 Y91.573
G1 X113.455 Y91.363 E26.9827
G1 X113.993 Y91.363
G1 X114.222 Y91.573 E26.9982
G1 X114.759 Y91.574
G1 X114.530 Y91.364 E27.0137
G1 X115.067 Y91.364
G1 X115.296 Y91.575 E27.0293
G1 X115.833 Y91.575
G1 X115.604 Y91.365 E27.0448
G1 X116.141 Y91.365
G1 X116.370 Y91.576 E27.0603
G1 X116.907 Y91.576
G1 X116.678 Y91.366 E27.0759
G1 X117.215 Y91.366
G1 X117.445 Y91.577 E27.0914
G1 X117.982 Y91.578
G1 X117.752 Y91.367 E27.1070
G1 X118.289 Y91.367
G1 X118.519 Y91.578 E27.1225
G1 X119.056 Y91.579
G1 X118.826 Y91.368 E27.1381
G1 X119.364 Y91.368
G1 X119.593 Y91.579 E27.1537
G1 X120.131 Y91.580
G1 X119.901 Y91.369 E27.1693
G1 X120.438 Y91.369
G1 X120.668 Y91.581 E27.1848
G1 X121.205 Y91.581
G1 X120.975 Y91.370 E27.2004
G1 X121.512 Y91.370
G1 X121.742 Y91.581 E27.2160
G1 X122.278 Y91.581
G1 X122.049 Y91.371 E27.2315
G1 X122.585 Y91.370
G1 X122.815 Y91.581 E27.2471
G1 X123.351 Y91.581
G1 X123.121 Y91.369 E27.2627
G1 X123.656 Y91.368
G1 X123.888 Y91.581 E27.2784
G1 X124.424 Y91.581
G1 X124.192 Y91.368 E27.2942
G1 X124.729 Y91.368
G1 X124.961 Y91.581 E27.3099
G1 X125.498 Y91.581
G1 X125.265 Y91.368 E27.3256
G1 X125.802 Y91.368
G1 X126.034 Y91.581 E27.3414
G1 X126.571 Y91.581
G1 X126.338 Y91.368 E27.3571
G1 X126.875 Y91.368
G1 X127.107 Y91.581 E27.3729
G1 X127.644 Y91.581
G1 X127.411 Y91.368 E27.3886
G1 X127.948 Y91.368
G1 X128.180 Y91.581 E27.4044
G1 X128.717 Y91.581
G1 X128.484 Y91.368 E27.4201
G1 X129.021 Y91.368
G1 X129.253 Y91.581 E27.4359
G1 X129.787 Y91.579
G1 X129.561 Y91.371 E27.4511
G1 X130.097 Y91.371
G1 X130.315 Y91.571 E27.4659
G1 X130.844 Y91.564
G1 X130.632 Y91.369 E27.4802
G1 X131.167 Y91.367
G1 X131.368 Y91.553 E27.4939
G1 X131.883 Y91.533
G1 X131.676 Y91.342 E27.5080
G1 X132.179 Y91.312
G1 X132.374 Y91.491 E27.5212
G1 X132.837 Y91.424
G1 X132.619 Y91.223 E27.5360
G1 X133.033 Y91.110
G1 X133.329 Y91.383 E27.5561
G1 X133.767 Y91.291
G1 X133.439 Y90.990 E27.5784
G1 X133.838 Y90.864
G1 X134.161 Y91.160 E27.6002
G1 X134.539 Y91.015
G1 X134.159 Y90.666 E27.6259
G1 X134.487 Y90.474
G1 X134.917 Y90.870 E27.6551
G1 X135.286 Y90.716
G1 X134.788 Y90.258 E27.6888
G1 X135.042 Y89.998
G1 X135.584 Y90.496 E27.7256
G1 X135.869 Y90.265
G1 X135.201 Y89.651 E27.7708
G1 X135.361 Y89.305
G1 X136.142 Y90.023 E27.8238
G1 X136.354 Y89.725
G1 X135.521 Y88.959 E27.8802
G1 X135.524 Y88.468
G1 X136.481 Y89.348 E27.9450
G1 X136.574 Y88.940
G1 X135.523 Y87.974 E28.0162
G1 X135.522 Y87.481
G1 X136.637 Y88.505 E28.0918
G1 X136.650 Y88.024
G1 X135.521 Y86.987 E28.1682
G1 X134.723 Y85.266 F10800
G1 X136.670 Y87.056 E28.3002 F3600
G1 X136.662 Y87.542
G1 X135.285 Y86.276 E28.3935
G1 X136.406 Y86.320 F10800
G1 X135.646 Y85.622 E28.4450 F3600
G1 X134.291 Y85.363 F10800
G1 X133.992 Y85.088 E28.4653 F3600
G1 X133.353 Y84.994
G1 X133.449 Y85.081 E28.4717
G1 X82.799 Y85.225 F10800
G1 X81.002 Y85.671
G1 X80.194 Y86.267
G1 X78.592 Y89.400
G1 X80.228 Y90.905 E28.5826 F3600
; ------------------------------------
; Layer #6
; ------------------------------------
G21 ; mm
G90 ; abs
G92 E0 ; reset extr
M106 S255
;segType:SoftSupport
G1 F4800 E-1.0000
G1 F300 Z2.100
G1 X80.468 Y89.200 F10800
G1 F4800 E0.0000
G1 X80.473 Y89.200 E0.0001 F5400
G1 X80.473 Y89.200
;segType:Support
G1 X81.600 Y89.200 E0.0479 F5400
;segType:SoftSupport
G1 F4800 E-0.9521
G1 X134.722 Y87.400 F10800
G1 F4800 E0.0479
G1 X134.833 Y87.400 E0.0504 F5400
G1 F4800 E-0.9496
G1 X136.666 Y88.122 F10800
G1 X138.500 Y88.844
G1 F4800 E0.0504
;segType:Support
G1 X138.844 Y88.844 E0.0650 F5400
G1 X138.510 Y87.756 E0.1133
G1 X138.844 Y87.756 E0.1275
G1 F4800 E-0.8725
G1 X136.693 Y88.478 F10800
G1 X134.541 Y89.200
G1 F4800 E0.1275
G1 X133.800 Y89.200 E0.1589 F5400
G1 X134.693 Y89.200 E0.1968
;segType:SoftSupport
G1 X134.541 Y89.200 E0.2002 F5400
G1 X133.800 Y87.400 E0.2439
;segType:Support
G1 X134.722 Y87.400 E0.2830 F5400
G1 F4800 E-0.7170
G1 X81.365 Y86.903 F10800
G1 X78.824 Y86.879
G1 F4800 E0.2830
;segType:HShell
G1 X77.985 Y87.651 E0.3399 F3600
G1 X77.984 Y88.145
G1 X78.835 Y87.362 E0.3976
G1 X78.835 Y87.856
G1 X77.983 Y88.638 E0.4553
G1 X78.046 Y89.073
G1 X78.834 Y88.349 E0.5086
G1 X78.834 Y88.843
G1 X78.139 Y89.482 E0.5557
G1 X78.310 Y89.817
G1 X78.938 Y89.240 E0.5983
G1 X79.120 Y89.566
G1 X78.546 Y90.094 E0.6372
;segType:Perimeter
G1 X78.539 Y90.266 F10800
G1 X77.859 Y90.214 E0.6712 F2159
G1 X77.618 Y89.812 E0.6946
G1 X77.575 Y89.699 E0.7006
G1 X77.401 Y88.928 E0.7401
G1 X77.383 Y88.759 E0.7486
G1 X77.385 Y87.549 E0.8089
G1 X77.406 Y86.748 E0.8489
G1 X77.681 Y86.025 E0.8875
G1 X77.810 Y85.856 E0.8981
G1 X77.972 Y85.718 E0.9087
G1 X78.203 Y85.397 E0.9284
G1 X78.682 Y85.068 E0.9574
G1 X79.535 Y84.710 E1.0036
G1 X80.417 Y84.472 E1.0492
G1 X80.600 Y84.453 E1.0584
G1 X81.316 Y84.335 E1.0945
G1 X81.709 Y84.303 E1.1142
G1 X82.773 Y84.232 E1.1674
G1 X83.058 Y84.227 E1.1816
G1 X118.669 Y84.216 E2.9583
G1 X129.249 Y84.213 E3.4861
G1 X132.826 Y84.255 E3.6646
G1 X134.132 Y84.377 E3.7300
G1 X134.626 Y84.476 E3.7551
G1 X135.388 Y84.659 E3.7942
G1 X135.650 Y84.741 E3.8080
G1 X136.638 Y85.198 E3.8623
G1 X137.341 Y85.833 E3.9095
G1 X137.608 Y86.335 E3.9379
G1 X137.694 Y86.882 E3.9655
G1 X137.718 Y88.230 E4.0328
G1 X137.705 Y88.747 E4.0586
G1 X137.543 Y89.478 E4.0959
G1 X137.238 Y90.232 E4.1365
G1 X136.607 Y90.891 E4.1820
G1 X136.313 Y91.092 E4.1998
G1 X135.742 Y91.430 E4.2329
G1 X135.359 Y91.603 E4.2539
G1 X134.469 Y91.955 E4.3016
G1 X133.838 Y92.069 E4.3336
G1 X133.625 Y92.132 E4.3447
G1 X132.911 Y92.180 E4.3804
G1 X132.476 Y92.243 E4.4023
G1 X131.575 Y92.295 E4.4473
G1 X130.053 Y92.321 E4.5233
G1 X129.251 Y92.315 E4.5633
G1 X109.600 Y92.293 E5.5437
G1 X83.869 Y92.305 E6.8274
G1 X83.034 Y92.281 E6.8691
G1 X82.629 Y92.244 E6.8894
G1 X82.193 Y92.180 E6.9114
G1 X81.425 Y92.121 E6.9498
G1 X80.150 Y91.787 E7.0156
G1 X79.662 Y91.608 E7.0415
G1 X79.293 Y91.363 E7.0636
G1 X78.839 Y91.167 E7.0883
G1 X77.926 Y90.297 E7.1512
G1 X78.072 Y89.684
;segType:Loop
G1 X77.894 Y89.303 F10800
G1 X77.797 Y88.873 E7.1732 F3600
G1 X77.783 Y88.741 E7.1798
G1 X77.785 Y87.554 E7.2390
G1 X77.804 Y86.815 E7.2759
G1 X78.040 Y86.195 E7.3090
G1 X78.280 Y85.957 E7.3259
G1 X78.498 Y85.653 E7.3445
G1 X78.887 Y85.386 E7.3681
G1 X79.675 Y85.056 E7.4107
G1 X80.497 Y84.834 E7.4532
G1 X80.658 Y84.817 E7.4613
G1 X81.369 Y84.700 E7.4972
G1 X82.792 Y84.599 E7.5684
G1 X83.062 Y84.595 E7.5818
G1 X118.669 Y84.583 E9.3583
G1 X129.247 Y84.581 E9.8860
G1 X132.803 Y84.623 E10.0634
G1 X134.069 Y84.741 E10.1269
G1 X134.533 Y84.833 E10.1505
G1 X135.272 Y85.011 E10.1884
G1 X135.495 Y85.081 E10.2001
G1 X136.402 Y85.501 E10.2499
G1 X137.012 Y86.051 E10.2909
G1 X137.221 Y86.445 E10.3131
G1 X137.295 Y86.912 E10.3367
G1 X137.318 Y88.229 E10.4025
G1 X137.306 Y88.706 E10.4262
G1 X137.158 Y89.376 E10.4605
G1 X136.889 Y90.041 E10.4963
G1 X136.335 Y90.619 E10.5362
G1 X136.085 Y90.789 E10.5513
G1 X135.545 Y91.110 E10.5827
G1 X135.191 Y91.269 E10.6020
G1 X134.350 Y91.602 E10.6471
G1 X133.738 Y91.712 E10.6782
G1 X133.548 Y91.769 E10.6881
G1 X132.865 Y91.815 E10.7222
G1 X132.432 Y91.878 E10.7440
G1 X131.559 Y91.928 E10.7877
G1 X130.051 Y91.954 E10.8629
G1 X129.253 Y91.947 E10.9027
G1 X109.600 Y91.926 E11.8832
G1 X83.875 Y91.937 E13.1666
G1 X83.059 Y91.914 E13.2073
G1 X82.680 Y91.879 E13.2263
G1 X82.241 Y91.815 E13.2485
G1 X81.498 Y91.758 E13.2857
G1 X80.279 Y91.439 E13.3485
G1 X79.857 Y91.284 E13.3710
G1 X79.497 Y91.044 E13.3925
G1 X79.075 Y90.863 E13.4154
G1 X78.211 Y90.039 E13.4750
G1 X77.961 Y89.600 E13.5002
G1 X77.932 Y89.474 E13.5067
G1 F4800 E12.5067
G1 X79.711 Y85.714 F10800
G1 F4800 E13.5067
G1 X80.116 Y85.380 E13.5329 F3600
G1 X80.838 Y85.162 E13.5705
G1 X81.199 Y85.094 E13.5888
G1 X81.765 Y84.928 E13.6183
G1 X82.098 Y84.879 E13.6350
G1 X83.002 Y84.800 E13.6803
G1 X83.862 Y84.810 E13.7232
G1 X84.905 Y84.782 E13.7753
G1 X109.876 Y84.783 E15.0211
G1 X129.247 Y84.790 E15.9875
G1 X130.973 Y84.773 E16.0736
G1 X132.114 Y84.784 E16.1306
G1 X133.138 Y84.897 E16.1820
G1 X134.052 Y85.049 E16.2282
G1 X135.115 Y85.496 E16.2857
G1 X135.383 Y85.657 E16.3013
G1 X135.814 Y86.217 E16.3366
G1 X136.032 Y86.770 E16.3662
G1 X136.036 Y88.834 E16.4692
G1 X135.873 Y89.444 E16.5007
G1 X135.697 Y89.931 E16.5265
G1 X135.457 Y90.182 E16.5439
G1 X135.106 Y90.456 E16.5661
G1 X134.555 Y90.851 E16.5999
G1 X133.110 Y91.369 E16.6765
G1 X132.375 Y91.470 E16.7135
G1 X131.255 Y91.521 E16.7694
G1 X129.254 Y91.545 E16.8692
G1 X121.821 Y91.545 E17.2401
G1 X96.269 Y91.539 E18.5149
G1 X86.237 Y91.529 E19.0154
G1 X85.429 Y91.546 E19.0557
G1 X83.128 Y91.511 E19.1705
G1 X82.028 Y91.375 E19.2258
G1 X81.080 Y91.096 E19.2751
G1 X80.813 Y90.985 E19.2896
G1 X79.860 Y90.374 E19.3460
G1 X79.560 Y90.106 E19.3661
G1 X79.313 Y89.509 E19.3983
G1 X79.033 Y89.007 E19.4270
G1 X79.035 Y87.137 E19.5203
G1 X79.064 Y86.937 E19.5303
G1 X78.992 Y86.769 E19.5395
G1 X79.358 Y86.004 E19.5818
G1 X79.569 Y85.830 E19.5955
;segType:Perimeter
G1 X79.059 Y87.245 F10800
G1 X79.448 Y86.729 E19.6277 F2159
G1 X79.689 Y86.225 E19.6556
G1 X80.321 Y85.705 E19.6964
G1 X80.941 Y85.518 E19.7287
G1 X81.301 Y85.451 E19.7470
G1 X81.858 Y85.286 E19.7760
G1 X82.148 Y85.244 E19.7906
G1 X83.019 Y85.168 E19.8342
G1 X83.865 Y85.178 E19.8764
G1 X84.911 Y85.150 E19.9286
G1 X109.876 Y85.151 E21.1741
G1 X129.249 Y85.157 E22.1407
G1 X130.973 Y85.141 E22.2267
G1 X132.088 Y85.152 E22.2823
G1 X133.079 Y85.261 E22.3320
G1 X133.932 Y85.402 E22.3752
G1 X134.921 Y85.818 E22.4287
G1 X135.101 Y85.926 E22.4392
G1 X135.456 Y86.389 E22.4683
G1 X135.632 Y86.835 E22.4922
G1 X135.636 Y88.790 E22.5897
G1 X135.488 Y89.342 E22.6182
G1 X135.342 Y89.745 E22.6396
G1 X135.176 Y89.920 E22.6517
G1 X134.853 Y90.171 E22.6721
G1 X134.355 Y90.528 E22.7026
G1 X133.006 Y91.012 E22.7741
G1 X132.335 Y91.104 E22.8079
G1 X131.242 Y91.153 E22.8625
G1 X129.252 Y91.178 E22.9618
G1 X121.821 Y91.178 E23.3325
G1 X96.270 Y91.171 E24.6073
G1 X86.232 Y91.162 E25.1081
G1 X85.427 Y91.178 E25.1482
G1 X83.158 Y91.144 E25.2615
G1 X82.116 Y91.015 E25.3138
G1 X81.224 Y90.752 E25.3602
G1 X81.011 Y90.664 E25.3717
G1 X80.115 Y90.090 E25.4248
G1 X79.902 Y89.899 E25.4391
G1 X79.678 Y89.360 E25.4682
G1 X79.433 Y88.919 E25.4934
G1 X79.435 Y87.162 E25.5810
G1 X79.474 Y86.891 E25.5947
G1 X79.446 Y86.826 E25.5982
G1 X79.078 Y86.297
G1 X79.505 Y89.431 F10800
G1 X79.744 Y89.995
G1 X81.833 Y91.511
;segType:HShell
G1 X81.744 Y91.593 E25.6043 F3600
G1 X81.294 Y91.513
G1 X81.427 Y91.391 E25.6133
G1 X81.020 Y91.272
G1 X80.876 Y91.404 E25.6230
G1 X80.459 Y91.294
G1 X80.659 Y91.111 E25.6366
G1 X80.343 Y90.908
G1 X80.066 Y91.162 E25.6554
G1 X79.734 Y90.975
G1 X80.027 Y90.705 E25.6752
G1 X79.713 Y90.500
G1 X79.391 Y90.796 E25.6970
G1 X79.073 Y90.596
G1 X79.442 Y90.257 E25.7220
G1 X79.270 Y89.922
G1 X78.809 Y90.345 E25.7532
G1 X78.121 Y86.539 F10800
G1 X79.381 Y85.381 E25.8386 F3600
G1 X80.225 Y85.099
G1 X80.136 Y85.180 E25.8447
G1 X79.060 Y86.169 F10800
G1 X77.995 Y87.148 E25.9168 F3600
G1 X79.994 Y90.224 F10800
G1 X81.156 Y90.915
G1 X83.144 Y91.318
G1 X132.354 Y91.277
G1 X133.055 Y91.180
G1 X134.973 Y90.306
G1 X136.063 Y89.502
G1 X137.110 Y88.540 E25.9878 F3600
G1 X137.115 Y88.042
G1 X136.236 Y88.849 E26.0473
G1 X136.235 Y88.357
G1 X137.106 Y87.557 E26.1063
G1 X137.097 Y87.072
G1 X136.234 Y87.865 E26.1648
G1 X136.233 Y87.373
G1 X137.047 Y86.625 E26.2200
G1 X136.903 Y86.264
G1 X136.232 Y86.881 E26.2655
G1 X136.130 Y86.481
G1 X136.662 Y85.993 E26.3015
G1 X136.391 Y85.748
G1 X135.985 Y86.121 E26.3290
G1 X135.763 Y85.832
G1 X136.068 Y85.552 E26.3497
G1 X135.711 Y85.387
G1 X135.541 Y85.544 E26.3612
G1 X135.224 Y85.341
G1 X135.347 Y85.229 E26.3695
G1 X134.930 Y85.119
G1 X134.858 Y85.185 E26.3744
G1 X135.819 Y86.805 F10800
G1 X135.825 Y88.810
G1 X135.507 Y89.831
G1 X133.390 Y91.466
G1 X133.238 Y91.605 E26.3847 F3600
G1 X133.892 Y91.497
G1 X134.269 Y91.151 E26.4102
G1 X137.009 Y89.126 F10800
G1 X134.670 Y91.275 E26.5687 F3600
G1 X135.770 Y90.757 F10800
G1 X136.750 Y89.857 E26.6351 F3600
G1 F4800 E25.6351
G1 X135.961 Y86.147 F10800
G1 X134.102 Y84.903
G1 X99.887 Y84.628
G1 X81.726 Y84.778
G1 X77.204 Y85.370
G1 F4800 E26.6351
;segType:Support
G1 X76.430 Y85.370 E26.6679 F5400
G1 X76.430 Y84.030 E26.7247
G1 X77.770 Y84.030 E26.7815
G1 F4800 E25.7815
G1 X79.002 Y85.715 F10800
G1 X80.235 Y87.400
G1 F4800 E26.7815
;segType:SoftSupport
G1 X80.555 Y87.400 E26.7887 F5400
G1 X80.555 Y87.400
;segType:Support
G1 X81.600 Y87.400 E26.8330 F5400
G1 F4800 E25.8330
G1 X77.552 Y91.000 F10800
G1 F4800 E26.8330
G1 X76.200 Y91.000 E26.8904 F5400
G1 X76.200 Y92.800 E26.9667
G1 X78.000 Y92.800 E27.0430
; ------------------------------------
; Layer #7
; ------------------------------------
G21 ; mm
G90 ; abs
G92 E0 ; reset extr
M106 S255
;segType:Support
G1 F4800 E-1.0000
G1 F300 Z2.400
G1 X76.386 Y92.614 F10800
G1 F4800 E0.0000
G1 X77.814 Y92.614 E0.0605 F5400
G1 X77.236 Y91.186 E0.1258
G1 X76.386 Y91.186 E0.1619
;segType:Loop
G1 F4800 E-0.8381
G1 X77.421 Y89.176 F10800
G1 F4800 E0.1619
G1 X77.364 Y88.742 E0.1837 F3600
G1 X77.364 Y88.571 E0.1923
G1 X77.424 Y86.875 E0.2769
G1 X77.421 Y86.573 E0.2920
G1 X77.576 Y86.203 E0.3120
G1 X77.739 Y85.989 E0.3254
G1 X77.981 Y85.782 E0.3413
G1 X78.214 Y85.483 E0.3602
G1 X78.508 Y85.308 E0.3773
G1 X79.077 Y85.087 E0.4078
G1 X79.426 Y84.939 E0.4266
G1 X80.066 Y84.758 E0.4598
G1 X80.761 Y84.686 E0.4947
G1 X81.168 Y84.619 E0.5152
G1 X82.389 Y84.519 E0.5764
G1 X83.065 Y84.507 E0.6101
G1 X107.259 Y84.499 E1.8171
G1 X129.246 Y84.494 E2.9141
G1 X131.376 Y84.520 E3.0204
G1 X132.756 Y84.533 E3.0892
G1 X134.160 Y84.651 E3.1595
G1 X134.931 Y84.739 E3.1982
G1 X135.146 Y84.787 E3.2092
G1 X135.936 Y85.035 E3.2505
G1 X136.759 Y85.413 E3.2957
G1 X137.267 Y85.866 E3.3296
G1 X137.513 Y86.155 E3.3486
G1 X137.557 Y86.238 E3.3533
G1 X137.680 Y86.918 E3.3877
G1 X137.704 Y88.308 E3.4571
G1 X137.698 Y89.103 E3.4968
G1 X137.674 Y89.209 E3.5022
G1 X137.361 Y89.977 E3.5436
G1 X136.959 Y90.509 E3.5768
G1 X136.368 Y90.951 E3.6137
G1 X135.736 Y91.320 E3.6502
G1 X135.081 Y91.616 E3.6860
G1 X134.644 Y91.733 E3.7086
G1 X133.945 Y91.858 E3.7440
G1 X133.613 Y91.956 E3.7613
G1 X133.318 Y91.999 E3.7762
G1 X132.867 Y92.023 E3.7987
G1 X132.682 Y92.050 E3.8080
G1 X131.213 Y92.132 E3.8814
G1 X131.023 Y92.135 E3.8909
G1 X129.253 Y92.121 E3.9792
G1 X123.631 Y92.115 E4.2597
G1 X83.876 Y92.132 E6.2431
G1 X83.059 Y92.109 E6.2839
G1 X82.227 Y92.023 E6.3256
G1 X81.942 Y92.003 E6.3398
G1 X81.030 Y91.874 E6.3858
G1 X80.004 Y91.610 E6.4386
G1 X79.498 Y91.395 E6.4661
G1 X79.350 Y91.297 E6.4749
G1 X79.140 Y91.207 E6.4863
G1 X78.384 Y90.719 E6.5312
G1 X78.253 Y90.595 E6.5402
G1 X77.717 Y89.941 E6.5824
G1 X77.637 Y89.796 E6.5907
G1 X77.464 Y89.345 E6.6148
G1 F4800 E5.6148
G1 X78.022 Y90.204 F10800
G1 F4800 E6.6148
;segType:Perimeter
G1 X77.351 Y90.090 E6.6488 F2159
G1 X77.268 Y89.941 E6.6573
G1 X77.046 Y89.362 E6.6882
G1 X77.011 Y89.206 E6.6962
G1 X76.964 Y88.759 E6.7186
G1 X76.964 Y88.564 E6.7283
G1 X77.024 Y86.870 E6.8129
G1 X77.021 Y86.506 E6.8311
G1 X77.220 Y86.029 E6.8569
G1 X77.435 Y85.747 E6.8746
G1 X77.679 Y85.538 E6.8906
G1 X77.933 Y85.212 E6.9112
G1 X78.320 Y84.982 E6.9336
G1 X78.916 Y84.750 E6.9655
G1 X79.282 Y84.595 E6.9854
G1 X79.984 Y84.397 E7.0217
G1 X80.703 Y84.322 E7.0578
G1 X81.115 Y84.254 E7.0786
G1 X82.367 Y84.152 E7.1413
G1 X83.061 Y84.140 E7.1759
G1 X107.259 Y84.132 E8.3832
G1 X129.249 Y84.127 E9.4803
G1 X131.381 Y84.152 E9.5866
G1 X132.777 Y84.166 E9.6563
G1 X134.203 Y84.285 E9.7277
G1 X135.003 Y84.377 E9.7679
G1 X135.258 Y84.434 E9.7809
G1 X136.090 Y84.695 E9.8244
G1 X136.993 Y85.110 E9.8740
G1 X137.565 Y85.619 E9.9122
G1 X137.854 Y85.959 E9.9345
G1 X137.942 Y86.124 E9.9438
G1 X138.079 Y86.884 E9.9823
G1 X138.104 Y88.307 E10.0533
G1 X138.097 Y89.141 E10.0949
G1 X138.060 Y89.311 E10.1036
G1 X137.718 Y90.149 E10.1488
G1 X137.256 Y90.761 E10.1870
G1 X136.603 Y91.250 E10.2277
G1 X135.932 Y91.641 E10.2665
G1 X135.226 Y91.960 E10.3051
G1 X134.738 Y92.091 E10.3303
G1 X134.045 Y92.214 E10.3654
G1 X133.706 Y92.315 E10.3831
G1 X133.361 Y92.365 E10.4005
G1 X132.910 Y92.389 E10.4230
G1 X132.725 Y92.416 E10.4323
G1 X131.229 Y92.500 E10.5071
G1 X131.025 Y92.503 E10.5173
G1 X129.251 Y92.489 E10.6058
G1 X123.631 Y92.482 E10.8862
G1 X83.870 Y92.500 E12.8699
G1 X83.030 Y92.475 E12.9118
G1 X82.189 Y92.389 E12.9539
G1 X81.896 Y92.368 E12.9686
G1 X80.946 Y92.233 E13.0165
G1 X79.865 Y91.957 E13.0721
G1 X79.295 Y91.714 E13.1030
G1 X79.146 Y91.615 E13.1119
G1 X78.939 Y91.527 E13.1232
G1 X78.123 Y91.000 E13.1717
G1 X77.949 Y90.834 E13.1836
G1 X77.411 Y90.179 E13.2260
G1 X77.594 Y89.574
;segType:HShell
G1 X78.448 Y89.761 F10800
G1 X77.596 Y88.978 E13.2837 F3600
G1 X77.568 Y88.459
G1 X78.239 Y89.076 E13.3291
G1 X78.200 Y88.547
G1 X77.585 Y87.982 E13.3708
G1 X77.602 Y87.504
G1 X78.201 Y88.054 E13.4114
G1 X78.214 Y87.573
G1 X77.619 Y87.026 E13.4517
G1 X77.643 Y86.556
G1 X78.235 Y87.100 E13.4918
;segType:Loop
G1 X79.171 Y85.580 F10800
G1 X79.584 Y85.294 E13.5169 F3600
G1 X80.288 Y85.041 E13.5542
G1 X80.925 Y84.868 E13.5872
G1 X82.147 Y84.690 E13.6487
G1 X82.346 Y84.670 E13.6587
G1 X83.034 Y84.658 E13.6931
G1 X83.854 Y84.626 E13.7340
G1 X129.251 Y84.626 E15.9989
G1 X129.765 Y84.626 E16.0245
G1 X131.240 Y84.644 E16.0981
G1 X132.256 Y84.643 E16.1488
G1 X132.936 Y84.723 E16.1829
G1 X133.474 Y84.760 E16.2098
G1 X134.449 Y84.914 E16.2591
G1 X134.970 Y85.085 E16.2864
G1 X135.456 Y85.291 E16.3128
G1 X136.116 Y85.699 E16.3515
G1 X136.397 Y86.000 E16.3720
G1 X136.697 Y86.802 E16.4148
G1 X136.700 Y88.835 E16.5162
G1 X136.472 Y89.682 E16.5599
G1 X136.350 Y89.949 E16.5746
G1 X136.189 Y90.116 E16.5862
G1 X135.952 Y90.432 E16.6059
G1 X135.188 Y90.972 E16.6526
G1 X134.877 Y91.136 E16.6701
G1 X133.843 Y91.504 E16.7248
G1 X132.962 Y91.699 E16.7699
G1 X131.260 Y91.790 E16.8549
G1 X130.270 Y91.809 E16.9043
G1 X129.253 Y91.816 E16.9551
G1 X99.947 Y91.815 E18.4171
G1 X85.518 Y91.814 E19.1370
G1 X83.853 Y91.790 E19.2201
G1 X83.009 Y91.767 E19.2622
G1 X82.619 Y91.725 E19.2818
G1 X81.719 Y91.586 E19.3272
G1 X80.995 Y91.429 E19.3642
G1 X80.236 Y91.142 E19.4046
G1 X79.179 Y90.460 E19.4674
G1 X78.792 Y89.992 E19.4977
G1 X78.640 Y89.710 E19.5137
G1 X78.446 Y89.108 E19.5452
G1 X78.399 Y88.807 E19.5604
G1 X78.401 Y87.855 E19.6079
G1 X78.446 Y86.866 E19.6573
G1 X78.432 Y86.527 E19.6742
G1 X78.595 Y86.320 E19.6874
G1 X78.806 Y85.832 E19.7139
G1 X79.019 Y85.685 E19.7268
;segType:Perimeter
G1 X78.329 Y86.981 F10800
G1 X78.870 Y86.598 E19.7599 F2159
G1 X78.949 Y86.499 E19.7662
G1 X79.136 Y86.064 E19.7898
G1 X79.781 Y85.618 E19.8289
G1 X80.417 Y85.390 E19.8627
G1 X81.014 Y85.228 E19.8935
G1 X82.199 Y85.054 E19.9533
G1 X82.371 Y85.038 E19.9618
G1 X83.046 Y85.025 E19.9956
G1 X83.862 Y84.994 E20.0363
G1 X129.251 Y84.993 E22.3007
G1 X129.762 Y84.994 E22.3262
G1 X131.237 Y85.012 E22.3999
G1 X132.231 Y85.011 E22.4494
G1 X132.895 Y85.089 E22.4828
G1 X133.425 Y85.125 E22.5093
G1 X134.348 Y85.271 E22.5559
G1 X134.819 Y85.425 E22.5806
G1 X135.259 Y85.613 E22.6045
G1 X135.847 Y85.976 E22.6390
G1 X136.043 Y86.186 E22.6533
G1 X136.297 Y86.864 E22.6894
G1 X136.300 Y88.790 E22.7855
G1 X136.092 Y89.566 E22.8256
G1 X136.007 Y89.751 E22.8357
G1 X135.873 Y89.890 E22.8454
G1 X135.659 Y90.176 E22.8632
G1 X134.965 Y90.665 E22.9056
G1 X134.704 Y90.804 E22.9203
G1 X133.724 Y91.153 E22.9722
G1 X132.903 Y91.334 E23.0141
G1 X131.244 Y91.422 E23.0970
G1 X130.264 Y91.441 E23.1459
G1 X129.251 Y91.448 E23.1965
G1 X99.947 Y91.447 E24.6584
G1 X85.522 Y91.446 E25.3781
G1 X83.862 Y91.422 E25.4609
G1 X83.038 Y91.400 E25.5021
G1 X82.675 Y91.361 E25.5203
G1 X81.798 Y91.226 E25.5646
G1 X81.118 Y91.078 E25.5993
G1 X80.430 Y90.817 E25.6360
G1 X79.460 Y90.192 E25.6936
G1 X79.133 Y89.798 E25.7191
G1 X79.013 Y89.575 E25.7317
G1 X78.838 Y89.029 E25.7603
G1 X78.799 Y88.781 E25.7729
G1 X78.801 Y87.863 E25.8186
G1 X78.846 Y86.867 E25.8684
G1 X78.839 Y86.693 E25.8771
G1 X78.621 Y86.098
;segType:HShell
G1 X78.980 Y85.319 F10800
G1 X79.081 Y85.412 E25.8839 F3600
G1 X78.775 Y85.624
G1 X78.607 Y85.469 E25.8953
G1 X78.304 Y85.684
G1 X78.555 Y85.915 E25.9123
G1 X78.395 Y86.261
G1 X78.067 Y85.959 E25.9346
G1 X77.810 Y86.216
G1 X78.235 Y86.607 E25.9634
G1 X78.650 Y89.054 F10800
G1 X79.372 Y91.103
G1 X77.794 Y89.653 E26.0703 F3600
G1 X80.096 Y91.276 F10800
G1 X80.348 Y91.508 E26.0874 F3600
G1 X81.089 Y91.696
G1 X81.007 Y91.620 E26.0930
G1 X131.252 Y91.597 F10800
G1 X132.931 Y91.506
G1 X135.071 Y90.810
G1 X136.023 Y89.997
G1 X136.272 Y89.621
G1 X136.897 Y86.771
G1 X137.487 Y87.314 E26.1330 F3600
G1 X137.496 Y87.815
G1 X136.898 Y87.265 E26.1735
G1 X136.898 Y87.759
G1 X137.504 Y88.316 E26.2145
G1 X137.500 Y88.805
G1 X136.899 Y88.253 E26.2553
G1 X136.900 Y88.747
G1 X137.445 Y89.248 E26.2922
G1 X137.299 Y89.606
G1 X136.818 Y89.164 E26.3247
G1 X136.711 Y89.560
G1 X137.137 Y89.951 E26.3536
G1 X136.917 Y90.242
G1 X136.576 Y89.929 E26.3767
G1 X136.356 Y90.220
G1 X136.658 Y90.497 E26.3971
G1 X136.362 Y90.718
G1 X136.136 Y90.511 E26.4124
G1 X135.847 Y90.738
G1 X136.046 Y90.921 E26.4259
