; GCode generated by CraftWare

; filename = composition.3w 
; machine = daVinciF10 
; material = abs 
; extruder = 1 
M140 S90 ; Bed (no wait) 
M106 S255 ; Start fan 
G90 ; set absolute coordinates 
G28 ; home all axis 
M190 S90 ; Bed (wait) 
M104 S210 ; Extruder (no wait) 
M109 S210 ; Extruder (wait) 
M117 Start 
M117 Cleaning 
M100 ; Cleaning 
M117 Printing 
M190 S75 ;set bed temp (wait)
M109 S220 ;set head temp (wait)
; ------------------------------------
; Layer #0
; ------------------------------------
G21 ; mm
G90 ; abs
G92 E0 ; reset extr
M106 S0
;segType:Support
G1 F4800 E-1.0000
G1 F300 Z0.300
G1 X139.200 Y92.800 F10800
G1 F4800 E0.0000
G1 X69.000 Y92.800 E2.9769 F900
G1 X69.000 Y94.600 E3.0533
G1 X139.200 Y94.600 E6.0302
G1 X139.200 Y96.400 E6.1066
G1 X69.000 Y96.400 E9.0835
G1 F4800 E8.0835
G1 X69.000 Y103.600 F10800
G1 F4800 E9.0835
G1 X139.200 Y103.600 E12.0605 F900
G1 F4800 E11.0605
G1 X139.200 Y98.200 F10800
G1 F4800 E12.0605
G1 X108.600 Y98.200 E13.3581 F900
;segType:Perimeter
G1 F4800 E12.3581
G1 X101.333 Y99.469 F10800
G1 F4800 E13.3581
G1 X100.700 Y99.737 E13.3924 F359
G1 X100.700 Y99.205 E13.4190
G1 X107.300 Y99.205 E13.7482
G1 X107.300 Y99.795 E13.7777
G1 X100.757 Y99.795 E14.1041
;segType:Support
G1 F4800 E13.1041
G1 X135.600 Y114.400 F10800
G1 F4800 E14.1041
G1 X72.600 Y114.400 E16.7758 F900
G1 F4800 E15.7758
G1 X69.000 Y109.000 F10800
G1 F4800 E16.7758
G1 X139.200 Y109.000 E19.7527 F900
G1 F4800 E18.7527
G1 X69.000 Y105.400 F10800
G1 F4800 E19.7527
G1 X139.200 Y105.400 E22.7297 F900
G1 F4800 E21.7297
G1 X69.000 Y107.200 F10800
G1 F4800 E22.7297
G1 X139.200 Y107.200 E25.7066 F900
G1 F4800 E24.7066
G1 X135.600 Y112.600 F10800
G1 F4800 E25.7066
G1 X72.600 Y112.600 E28.3782 F900
G1 F4800 E27.3782
G1 X99.600 Y98.200 F10800
G1 F4800 E28.3782
G1 X69.000 Y98.200 E29.6759 F900
G1 X69.000 Y100.000 E29.7522
G1 X99.600 Y100.000 E31.0498
G1 F4800 E30.0498
G1 X69.000 Y101.800 F10800
G1 F4800 E31.0498
G1 X139.200 Y101.800 E34.0268 F900
G1 X139.200 Y100.000 E34.1031
G1 X108.600 Y100.000 E35.4008
G1 F4800 E34.4008
G1 X139.200 Y110.800 F10800
G1 F4800 E35.4008
G1 X69.000 Y110.800 E38.3777 F900
G1 F4800 E37.3777
G1 X69.000 Y87.400 F10800
G1 F4800 E38.3777
G1 X139.200 Y87.400 E41.3547 F900
G1 X139.200 Y85.600 E41.4310
G1 X123.000 Y85.600 E42.1180
G1 X123.000 Y83.800 E42.1943
G1 X139.200 Y83.800 E42.8813
G1 F4800 E41.8813
G1 X139.200 Y89.200 F10800
G1 F4800 E42.8813
G1 X69.000 Y89.200 E45.8583 F900
G1 X69.000 Y91.000 E45.9346
G1 X139.200 Y91.000 E48.9115
; ------------------------------------
; Layer #1
; ------------------------------------
G21 ; mm
G90 ; abs
G92 E0 ; reset extr
M106 S255
;segType:Support
G1 F4800 E-1.0000
G1 F300 Z0.600
G1 X139.200 Y92.800 F10800
G1 F4800 E0.0000
G1 X69.000 Y92.800 E2.9769 F5400
G1 F4800 E1.9769
G1 X108.600 Y98.200 F10800
G1 F4800 E2.9769
G1 X139.200 Y98.200 E4.2746 F5400
G1 F4800 E3.2746
G1 X135.600 Y112.600 F10800
G1 F4800 E4.2746
G1 X72.600 Y112.600 E6.9462 F5400
G1 F4800 E5.9462
G1 X123.000 Y85.600 F10800
G1 F4800 E6.9462
G1 X139.200 Y85.600 E7.6332 F5400
G1 F4800 E6.6332
G1 X139.200 Y96.400 F10800
G1 F4800 E7.6332
G1 X69.000 Y96.400 E10.6101 F5400
G1 F4800 E9.6101
G1 X69.000 Y89.200 F10800
G1 F4800 E10.6101
G1 X139.200 Y89.200 E13.5871 F5400
G1 F4800 E12.5871
G1 X139.200 Y83.800 F10800
G1 F4800 E13.5871
G1 X123.000 Y83.800 E14.2741 F5400
G1 F4800 E13.2741
G1 X99.600 Y98.200 F10800
G1 F4800 E14.2741
G1 X69.000 Y98.200 E15.5717 F5400
G1 F4800 E14.5717
G1 X69.000 Y94.600 F10800
G1 F4800 E15.5717
G1 X139.200 Y94.600 E18.5487 F5400
G1 F4800 E17.5487
G1 X69.000 Y87.400 F10800
G1 F4800 E18.5487
G1 X139.200 Y87.400 E21.5256 F5400
G1 F4800 E20.5256
G1 X135.600 Y114.400 F10800
G1 F4800 E21.5256
G1 X72.600 Y114.400 E24.1972 F5400
G1 F4800 E23.1972
G1 X69.000 Y110.800 F10800
G1 F4800 E24.1972
G1 X139.200 Y110.800 E27.1742 F5400
G1 F4800 E26.1742
G1 X103.700 Y100.177 F10800
G1 X101.333 Y99.469
G1 F4800 E27.1742
;segType:Perimeter
G1 X100.700 Y99.737 E27.2085 F2159
G1 X100.700 Y99.205 E27.2350
G1 X107.300 Y99.205 E27.5643
G1 X107.300 Y99.795 E27.5938
G1 X100.757 Y99.795 E27.9202
;segType:Support
G1 F4800 E26.9202
G1 X108.600 Y100.000 F10800
G1 F4800 E27.9202
G1 X139.200 Y100.000 E29.2179 F5400
G1 F4800 E28.2179
G1 X139.200 Y103.600 F10800
G1 F4800 E29.2179
G1 X69.000 Y103.600 E32.1948 F5400
G1 X69.000 Y105.400 E32.2712
G1 X139.200 Y105.400 E35.2481
G1 F4800 E34.2481
G1 X139.200 Y101.800 F10800
G1 F4800 E35.2481
G1 X69.000 Y101.800 E38.2251 F5400
G1 F4800 E37.2251
G1 X69.000 Y91.000 F10800
G1 F4800 E38.2251
G1 X139.200 Y91.000 E41.2020 F5400
G1 F4800 E40.2020
G1 X69.000 Y100.000 F10800
G1 F4800 E41.2020
G1 X99.600 Y100.000 E42.4997 F5400
G1 F4800 E41.4997
G1 X69.000 Y107.200 F10800
G1 F4800 E42.4997
G1 X139.200 Y107.200 E45.4766 F5400
G1 X139.200 Y109.000 E45.5529
G1 X69.000 Y109.000 E48.5299
; ------------------------------------
; Layer #2
; ------------------------------------
G21 ; mm
G90 ; abs
G92 E0 ; reset extr
M106 S255
;segType:Support
G1 F4800 E-1.0000
G1 F300 Z0.900
G1 X69.000 Y91.000 F10800
G1 F4800 E0.0000
G1 X70.118 Y91.000 E0.0474 F5400
G1 X69.000 Y92.800 E0.1372
G1 X70.179 Y92.800 E0.1872
G1 F4800 E-0.8128
G1 X69.000 Y103.600 F10800
G1 F4800 E0.1872
G1 X70.543 Y103.600 E0.2527 F5400
G1 F4800 E-0.7473
G1 X69.000 Y109.000 F10800
G1 F4800 E0.2527
G1 X70.726 Y109.000 E0.3258 F5400
G1 F4800 E-0.6742
G1 X69.000 Y105.400 F10800
G1 F4800 E0.3258
G1 X70.604 Y105.400 E0.3938 F5400
G1 X69.000 Y107.200 E0.4961
G1 X70.665 Y107.200 E0.5666
G1 F4800 E-0.4334
G1 X69.000 Y98.200 F10800
G1 F4800 E0.5666
G1 X70.361 Y98.200 E0.6244 F5400
G1 F4800 E-0.3756
G1 X69.000 Y101.800 F10800
G1 F4800 E0.6244
G1 X70.483 Y101.800 E0.6872 F5400
G1 X69.000 Y100.000 E0.7861
G1 X70.422 Y100.000 E0.8464
G1 F4800 E-0.1536
G1 X69.000 Y89.200 F10800
G1 F4800 E0.8464
G1 X70.058 Y89.200 E0.8912 F5400
G1 F4800 E-0.1088
G1 X69.000 Y94.600 F10800
G1 F4800 E0.8912
G1 X70.240 Y94.600 E0.9438 F5400
G1 X69.000 Y96.400 E1.0365
G1 X70.300 Y96.400 E1.0916
G1 F4800 E0.0916
G1 X69.000 Y87.400 F10800
G1 F4800 E1.0916
G1 X72.678 Y87.400 E1.2476 F5400
;segType:SoftSupport
G1 F4800 E0.2476
G1 X72.600 Y114.400 F10800
G1 F4800 E1.2476
G1 X87.533 Y114.400 E1.5828 F5400
G1 F4800 E0.5828
G1 X72.600 Y112.600 F10800
G1 F4800 E1.5828
G1 X135.600 Y112.600 E2.9972 F5400
G1 F4800 E1.9972
G1 X108.600 Y98.200 F10800
G1 F4800 E2.9972
G1 X109.475 Y98.200 E3.0168 F5400
G1 X108.600 Y100.000 E3.0617
G1 X113.205 Y100.000 E3.1651
G1 F4800 E2.1651
G1 X123.000 Y85.600 F10800
G1 F4800 E3.1651
G1 X139.092 Y85.600 E3.5264 F5400
G1 X139.092 Y85.600
;segType:Support
G1 X139.200 Y85.600 E3.5309 F5400
G1 F4800 E2.5309
G1 X123.000 Y83.800 F10800
G1 F4800 E3.5309
G1 X139.200 Y83.800 E4.2179 F5400
G1 F4800 E3.2179
G1 X69.000 Y110.800 F10800
G1 F4800 E4.2179
G1 X70.786 Y110.800 E4.2937 F5400
G1 X70.786 Y110.800
;segType:SoftSupport
G1 X139.200 Y110.800 E5.8296 F5400
G1 F4800 E4.8296
G1 X93.643 Y97.916 F10800
G1 X70.118 Y91.000
G1 F4800 E5.8296
G1 X85.972 Y91.000 E6.1855 F5400
G1 X85.972 Y91.000
;segType:Support
G1 X87.228 Y91.000 E6.2387 F5400
G1 X87.228 Y91.000
;segType:SoftSupport
G1 X87.489 Y91.000 E6.2446 F5400
G1 X87.489 Y91.000
;segType:Support
G1 X89.595 Y91.000 E6.3339 F5400
G1 X89.595 Y91.000
;segType:SoftSupport
G1 X90.875 Y91.000 E6.3627 F5400
G1 X90.875 Y91.000
;segType:Support
G1 X93.539 Y91.000 E6.4756 F5400
G1 X93.539 Y91.000
;segType:SoftSupport
G1 X95.495 Y91.000 E6.5195 F5400
G1 X95.495 Y91.000
;segType:Support
G1 X98.741 Y91.000 E6.6572 F5400
G1 X98.741 Y91.000
;segType:SoftSupport
G1 X99.979 Y91.000 E6.6850 F5400
G1 X99.979 Y91.000
;segType:Support
G1 X104.217 Y91.000 E6.8647 F5400
G1 X104.217 Y91.000
;segType:SoftSupport
G1 X105.989 Y91.000 E6.9045 F5400
G1 X105.989 Y91.000
;segType:Support
G1 X107.646 Y91.000 E6.9748 F5400
G1 X107.646 Y91.000
;segType:SoftSupport
G1 X109.912 Y91.000 E7.0256 F5400
G1 X109.912 Y91.000
;segType:Support
G1 X111.568 Y91.000 E7.0959 F5400
G1 X111.568 Y91.000
;segType:SoftSupport
G1 X112.930 Y91.000 E7.1264 F5400
G1 X112.930 Y91.000
;segType:Support
G1 X114.303 Y91.000 E7.1846 F5400
G1 X114.303 Y91.000
;segType:SoftSupport
G1 X116.194 Y91.000 E7.2271 F5400
G1 X116.194 Y91.000
;segType:Support
G1 X117.025 Y91.000 E7.2623 F5400
G1 X117.025 Y91.000
;segType:SoftSupport
G1 X118.267 Y91.000 E7.2902 F5400
G1 X118.267 Y91.000
;segType:Support
G1 X119.579 Y91.000 E7.3459 F5400
G1 X119.579 Y91.000
;segType:SoftSupport
G1 X121.601 Y91.000 E7.3912 F5400
G1 X121.601 Y91.000
;segType:Support
G1 X122.307 Y91.000 E7.4212 F5400
G1 X122.307 Y91.000
;segType:SoftSupport
G1 X123.558 Y91.000 E7.4493 F5400
G1 X123.558 Y91.000
;segType:Support
G1 X124.192 Y91.000 E7.4762 F5400
G1 X124.192 Y91.000
;segType:SoftSupport
G1 X126.733 Y91.000 E7.5332 F5400
G1 X126.733 Y91.000
;segType:Support
G1 X128.078 Y91.000 E7.5903 F5400
G1 X128.078 Y91.000
;segType:SoftSupport
G1 X129.954 Y91.000 E7.6324 F5400
G1 X129.954 Y91.000
;segType:Support
G1 X131.176 Y91.000 E7.6842 F5400
G1 X131.176 Y91.000
;segType:SoftSupport
G1 X133.162 Y91.000 E7.7288 F5400
G1 X133.162 Y91.000
;segType:Support
G1 X134.384 Y91.000 E7.7806 F5400
G1 X134.384 Y91.000
;segType:SoftSupport
G1 X139.200 Y91.000 E7.8887 F5400
G1 F4800 E6.8887
G1 X70.179 Y92.800 F10800
G1 F4800 E7.8887
G1 X80.654 Y92.800 E8.1239 F5400
G1 X80.654 Y92.800
;segType:Support
G1 X81.529 Y92.800 E8.1610 F5400
G1 X81.529 Y92.800
;segType:SoftSupport
G1 X82.895 Y92.800 E8.1916 F5400
G1 X82.895 Y92.800
;segType:Support
G1 X83.824 Y92.800 E8.2310 F5400
G1 X83.824 Y92.800
;segType:SoftSupport
G1 X85.221 Y92.800 E8.2624 F5400
G1 X85.221 Y92.800
;segType:Support
G1 X86.565 Y92.800 E8.3194 F5400
G1 X86.565 Y92.800
;segType:SoftSupport
G1 X88.092 Y92.800 E8.3537 F5400
G1 X88.092 Y92.800
;segType:Support
G1 X88.928 Y92.800 E8.3891 F5400
G1 X88.928 Y92.800
;segType:SoftSupport
G1 X91.567 Y92.800 E8.4484 F5400
G1 X91.567 Y92.800
;segType:Support
G1 X92.922 Y92.800 E8.5059 F5400
G1 X92.922 Y92.800
;segType:SoftSupport
G1 X94.699 Y92.800 E8.5457 F5400
G1 X94.699 Y92.800
;segType:Support
G1 X96.001 Y92.800 E8.6009 F5400
G1 X96.001 Y92.800
;segType:SoftSupport
G1 X97.707 Y92.800 E8.6392 F5400
G1 X97.707 Y92.800
;segType:Support
G1 X98.981 Y92.800 E8.6933 F5400
G1 X98.981 Y92.800
;segType:SoftSupport
G1 X100.771 Y92.800 E8.7335 F5400
G1 X100.771 Y92.800
;segType:Support
G1 X102.047 Y92.800 E8.7876 F5400
G1 X102.047 Y92.800
;segType:SoftSupport
G1 X103.618 Y92.800 E8.8229 F5400
G1 X103.618 Y92.800
;segType:Support
G1 X104.967 Y92.800 E8.8801 F5400
G1 X104.967 Y92.800
;segType:SoftSupport
G1 X106.786 Y92.800 E8.9209 F5400
G1 X106.786 Y92.800
;segType:Support
G1 X107.483 Y92.800 E8.9504 F5400
G1 X107.483 Y92.800
;segType:SoftSupport
G1 X109.986 Y92.800 E9.0067 F5400
G1 X109.986 Y92.800
;segType:Support
G1 X111.263 Y92.800 E9.0608 F5400
G1 X111.263 Y92.800
;segType:SoftSupport
G1 X113.058 Y92.800 E9.1011 F5400
G1 X113.058 Y92.800
;segType:Support
G1 X114.339 Y92.800 E9.1554 F5400
G1 X114.339 Y92.800
;segType:SoftSupport
G1 X116.523 Y92.800 E9.2044 F5400
G1 X116.523 Y92.800
;segType:Support
G1 X117.061 Y92.800 E9.2273 F5400
G1 X117.061 Y92.800
;segType:SoftSupport
G1 X118.336 Y92.800 E9.2559 F5400
G1 X118.336 Y92.800
;segType:Support
G1 X119.615 Y92.800 E9.3102 F5400
G1 X119.615 Y92.800
;segType:SoftSupport
G1 X121.794 Y92.800 E9.3591 F5400
G1 X121.794 Y92.800
;segType:Support
G1 X122.344 Y92.800 E9.3824 F5400
G1 X122.344 Y92.800
;segType:SoftSupport
G1 X123.612 Y92.800 E9.4109 F5400
G1 X123.612 Y92.800
;segType:Support
G1 X124.217 Y92.800 E9.4365 F5400
G1 X124.217 Y92.800
;segType:SoftSupport
G1 X126.334 Y92.800 E9.4840 F5400
G1 X126.334 Y92.800
;segType:Support
G1 X128.115 Y92.800 E9.5596 F5400
G1 X128.115 Y92.800
;segType:SoftSupport
G1 X129.670 Y92.800 E9.5945 F5400
G1 X129.670 Y92.800
;segType:Support
G1 X130.945 Y92.800 E9.6485 F5400
G1 X130.945 Y92.800
;segType:SoftSupport
G1 X133.439 Y92.800 E9.7045 F5400
G1 X133.439 Y92.800
;segType:Support
G1 X134.727 Y92.800 E9.7592 F5400
G1 X134.727 Y92.800
;segType:SoftSupport
G1 X139.200 Y92.800 E9.8596 F5400
G1 F4800 E8.8596
G1 X70.543 Y103.600 F10800
G1 F4800 E9.8596
G1 X80.996 Y103.600 E10.0943 F5400
G1 X80.996 Y103.600
;segType:Support
G1 X81.602 Y103.600 E10.1199 F5400
G1 X81.602 Y103.600
;segType:SoftSupport
G1 X81.840 Y103.600 E10.1253 F5400
G1 X81.840 Y103.600
;segType:Support
G1 X83.072 Y103.600 E10.1775 F5400
G1 X83.072 Y103.600
;segType:SoftSupport
G1 X84.729 Y103.600 E10.2147 F5400
G1 X84.729 Y103.600
;segType:Support
G1 X85.288 Y103.600 E10.2384 F5400
G1 X85.288 Y103.600
;segType:SoftSupport
G1 X85.494 Y103.600 E10.2430 F5400
G1 X85.494 Y103.600
;segType:Support
G1 X86.739 Y103.600 E10.2959 F5400
G1 X86.739 Y103.600
;segType:SoftSupport
G1 X89.752 Y103.600 E10.3635 F5400
G1 X89.752 Y103.600
;segType:Support
G1 X90.359 Y103.600 E10.3893 F5400
G1 X90.359 Y103.600
;segType:SoftSupport
G1 X90.634 Y103.600 E10.3954 F5400
G1 X90.634 Y103.600
;segType:Support
G1 X91.802 Y103.600 E10.4450 F5400
G1 X91.802 Y103.600
;segType:SoftSupport
G1 X94.647 Y103.600 E10.5088 F5400
G1 X94.647 Y103.600
;segType:Support
G1 X95.905 Y103.600 E10.5622 F5400
G1 X95.905 Y103.600
;segType:SoftSupport
G1 X98.182 Y103.600 E10.6133 F5400
G1 X98.182 Y103.600
;segType:Support
G1 X99.197 Y103.600 E10.6563 F5400
G1 X99.197 Y103.600
;segType:SoftSupport
G1 X100.991 Y103.600 E10.6966 F5400
G1 X100.991 Y103.600
;segType:Support
G1 X102.265 Y103.600 E10.7506 F5400
G1 X102.265 Y103.600
;segType:SoftSupport
G1 X103.953 Y103.600 E10.7885 F5400
G1 X103.953 Y103.600
;segType:Support
G1 X105.264 Y103.600 E10.8441 F5400
G1 X105.264 Y103.600
;segType:SoftSupport
G1 X108.394 Y103.600 E10.9144 F5400
G1 X108.394 Y103.600
;segType:Support
G1 X108.983 Y103.600 E10.9393 F5400
G1 X108.983 Y103.600
;segType:SoftSupport
G1 X109.016 Y103.600 E10.9401 F5400
G1 X109.016 Y103.600
;segType:Support
G1 X110.166 Y103.600 E10.9889 F5400
G1 X110.166 Y103.600
;segType:SoftSupport
G1 X113.270 Y103.600 E11.0585 F5400
G1 X113.270 Y103.600
;segType:Support
G1 X114.568 Y103.600 E11.1136 F5400
G1 X114.568 Y103.600
;segType:SoftSupport
G1 X118.532 Y103.600 E11.2026 F5400
G1 X118.532 Y103.600
;segType:Support
G1 X119.835 Y103.600 E11.2578 F5400
G1 X119.835 Y103.600
;segType:SoftSupport
G1 X121.564 Y103.600 E11.2967 F5400
G1 X121.564 Y103.600
;segType:Support
G1 X122.302 Y103.600 E11.3279 F5400
G1 X122.302 Y103.600
;segType:SoftSupport
G1 X123.777 Y103.600 E11.3611 F5400
G1 X123.777 Y103.600
;segType:Support
G1 X125.291 Y103.600 E11.4252 F5400
G1 X125.291 Y103.600
;segType:SoftSupport
G1 X127.623 Y103.600 E11.4776 F5400
G1 X127.623 Y103.600
;segType:Support
G1 X128.453 Y103.600 E11.5128 F5400
G1 X128.453 Y103.600
;segType:SoftSupport
G1 X130.603 Y103.600 E11.5610 F5400
G1 X130.603 Y103.600
;segType:Support
G1 X132.276 Y103.600 E11.6320 F5400
G1 X132.276 Y103.600
;segType:SoftSupport
G1 X132.476 Y103.600 E11.6365 F5400
G1 X132.476 Y103.600
;segType:Support
G1 X134.067 Y103.600 E11.7040 F5400
G1 X134.067 Y103.600
;segType:SoftSupport
G1 X139.200 Y103.600 E11.8192 F5400
G1 F4800 E10.8192
G1 X70.726 Y109.000 F10800
G1 F4800 E11.8192
G1 X139.200 Y109.000 E13.3565 F5400
G1 F4800 E12.3565
G1 X70.604 Y105.400 F10800
G1 F4800 E13.3565
G1 X81.030 Y105.400 E13.5906 F5400
G1 X81.030 Y105.400
;segType:Support
G1 X81.638 Y105.400 E13.6163 F5400
G1 X81.638 Y105.400
;segType:SoftSupport
G1 X81.664 Y105.400 E13.6169 F5400
G1 X81.664 Y105.400
;segType:Support
G1 X82.896 Y105.400 E13.6691 F5400
G1 X82.896 Y105.400
;segType:SoftSupport
G1 X84.973 Y105.400 E13.7158 F5400
G1 X84.973 Y105.400
;segType:Support
G1 X86.793 Y105.400 E13.7930 F5400
G1 X86.793 Y105.400
;segType:SoftSupport
G1 X90.020 Y105.400 E13.8654 F5400
G1 X90.020 Y105.400
;segType:Support
G1 X91.619 Y105.400 E13.9332 F5400
G1 X91.619 Y105.400
;segType:SoftSupport
G1 X95.216 Y105.400 E14.0140 F5400
G1 X95.216 Y105.400
;segType:Support
G1 X96.599 Y105.400 E14.0726 F5400
G1 X96.599 Y105.400
;segType:SoftSupport
G1 X97.748 Y105.400 E14.0984 F5400
G1 X97.748 Y105.400
;segType:Support
G1 X99.190 Y105.400 E14.1596 F5400
G1 X99.190 Y105.400
;segType:SoftSupport
G1 X100.835 Y105.400 E14.1965 F5400
G1 X100.835 Y105.400
;segType:Support
G1 X104.614 Y105.400 E14.3568 F5400
G1 X104.614 Y105.400
;segType:SoftSupport
G1 X108.662 Y105.400 E14.4476 F5400
G1 X108.662 Y105.400
;segType:Support
G1 X109.983 Y105.400 E14.5037 F5400
G1 X109.983 Y105.400
;segType:SoftSupport
G1 X112.558 Y105.400 E14.5615 F5400
G1 X112.558 Y105.400
;segType:Support
G1 X115.351 Y105.400 E14.6799 F5400
G1 X115.351 Y105.400
;segType:SoftSupport
G1 X117.835 Y105.400 E14.7357 F5400
G1 X117.835 Y105.400
;segType:Support
G1 X122.338 Y105.400 E14.9266 F5400
G1 X122.338 Y105.400
;segType:SoftSupport
G1 X123.117 Y105.400 E14.9441 F5400
G1 X123.117 Y105.400
;segType:Support
G1 X123.698 Y105.400 E14.9688 F5400
G1 X123.698 Y105.400
;segType:SoftSupport
G1 X139.200 Y105.400 E15.3168 F5400
G1 F4800 E14.3168
G1 X70.665 Y107.200 F10800
G1 F4800 E15.3168
G1 X74.045 Y107.200 E15.3927 F5400
G1 X74.045 Y107.200
;segType:Support
G1 X76.952 Y107.200 E15.5159 F5400
G1 X76.952 Y107.200
;segType:SoftSupport
G1 X80.320 Y107.200 E15.5915 F5400
G1 X80.320 Y107.200
;segType:Support
G1 X82.719 Y107.200 E15.6933 F5400
G1 X82.719 Y107.200
;segType:SoftSupport
G1 X85.218 Y107.200 E15.7494 F5400
G1 X85.218 Y107.200
;segType:Support
G1 X87.556 Y107.200 E15.8485 F5400
G1 X87.556 Y107.200
;segType:SoftSupport
G1 X90.288 Y107.200 E15.9099 F5400
G1 X90.288 Y107.200
;segType:Support
G1 X91.436 Y107.200 E15.9586 F5400
G1 X91.436 Y107.200
;segType:SoftSupport
G1 X96.992 Y107.200 E16.0833 F5400
G1 X96.992 Y107.200
;segType:Support
G1 X97.500 Y107.200 E16.1048 F5400
G1 X97.500 Y107.200
;segType:SoftSupport
G1 X139.200 Y107.200 E17.0410 F5400
G1 F4800 E16.0410
G1 X70.361 Y98.200 F10800
G1 F4800 E17.0410
G1 X80.887 Y98.200 E17.2773 F5400
G1 X80.887 Y98.200
;segType:Support
G1 X81.492 Y98.200 E17.3030 F5400
G1 X81.492 Y98.200
;segType:SoftSupport
G1 X82.368 Y98.200 E17.3227 F5400
G1 X82.368 Y98.200
;segType:Support
G1 X83.602 Y98.200 E17.3750 F5400
G1 X83.602 Y98.200
;segType:SoftSupport
G1 X83.996 Y98.200 E17.3838 F5400
G1 X83.996 Y98.200
;segType:Support
G1 X84.556 Y98.200 E17.4076 F5400
G1 X84.556 Y98.200
;segType:SoftSupport
G1 X85.384 Y98.200 E17.4262 F5400
G1 X85.384 Y98.200
;segType:Support
G1 X86.629 Y98.200 E17.4790 F5400
G1 X86.629 Y98.200
;segType:SoftSupport
G1 X88.947 Y98.200 E17.5310 F5400
G1 X88.947 Y98.200
;segType:Support
G1 X89.594 Y98.200 E17.5584 F5400
G1 X89.594 Y98.200
;segType:SoftSupport
G1 X91.099 Y98.200 E17.5922 F5400
G1 X91.099 Y98.200
;segType:Support
G1 X92.350 Y98.200 E17.6453 F5400
G1 X92.350 Y98.200
;segType:SoftSupport
G1 X94.144 Y98.200 E17.6856 F5400
G1 X94.144 Y98.200
;segType:Support
G1 X95.494 Y98.200 E17.7428 F5400
G1 X95.494 Y98.200
;segType:SoftSupport
G1 X99.600 Y98.200 E17.8350 F5400
G1 F4800 E16.8350
G1 X70.483 Y101.800 F10800
G1 F4800 E17.8350
G1 X80.960 Y101.800 E18.0702 F5400
G1 X80.960 Y101.800
;segType:Support
G1 X81.565 Y101.800 E18.0959 F5400
G1 X81.565 Y101.800
;segType:SoftSupport
G1 X82.016 Y101.800 E18.1060 F5400
G1 X82.016 Y101.800
;segType:Support
G1 X83.249 Y101.800 E18.1583 F5400
G1 X83.249 Y101.800
;segType:SoftSupport
G1 X84.485 Y101.800 E18.1860 F5400
G1 X84.485 Y101.800
;segType:Support
G1 X85.044 Y101.800 E18.2097 F5400
G1 X85.044 Y101.800
;segType:SoftSupport
G1 X85.457 Y101.800 E18.2190 F5400
G1 X85.457 Y101.800
;segType:Support
G1 X86.703 Y101.800 E18.2718 F5400
G1 X86.703 Y101.800
;segType:SoftSupport
G1 X89.484 Y101.800 E18.3343 F5400
G1 X89.484 Y101.800
;segType:Support
G1 X90.105 Y101.800 E18.3606 F5400
G1 X90.105 Y101.800
;segType:SoftSupport
G1 X90.774 Y101.800 E18.3756 F5400
G1 X90.774 Y101.800
;segType:Support
G1 X91.985 Y101.800 E18.4270 F5400
G1 X91.985 Y101.800
;segType:SoftSupport
G1 X94.349 Y101.800 E18.4801 F5400
G1 X94.349 Y101.800
;segType:Support
G1 X95.654 Y101.800 E18.5354 F5400
G1 X95.654 Y101.800
;segType:SoftSupport
G1 X100.955 Y101.800 E18.6544 F5400
G1 X100.955 Y101.800
;segType:Support
G1 X102.229 Y101.800 E18.7084 F5400
G1 X102.229 Y101.800
;segType:SoftSupport
G1 X104.221 Y101.800 E18.7532 F5400
G1 X104.221 Y101.800
;segType:Support
G1 X105.549 Y101.800 E18.8095 F5400
G1 X105.549 Y101.800
;segType:SoftSupport
G1 X108.126 Y101.800 E18.8673 F5400
G1 X108.126 Y101.800
;segType:Support
G1 X108.739 Y101.800 E18.8934 F5400
G1 X108.739 Y101.800
;segType:SoftSupport
G1 X109.160 Y101.800 E18.9028 F5400
G1 X109.160 Y101.800
;segType:Support
G1 X110.349 Y101.800 E18.9532 F5400
G1 X110.349 Y101.800
;segType:SoftSupport
G1 X113.242 Y101.800 E19.0182 F5400
G1 X113.242 Y101.800
;segType:Support
G1 X114.522 Y101.800 E19.0724 F5400
G1 X114.522 Y101.800
;segType:SoftSupport
G1 X118.519 Y101.800 E19.1622 F5400
G1 X118.519 Y101.800
;segType:Support
G1 X119.798 Y101.800 E19.2164 F5400
G1 X119.798 Y101.800
;segType:SoftSupport
G1 X121.694 Y101.800 E19.2590 F5400
G1 X121.694 Y101.800
;segType:Support
G1 X122.265 Y101.800 E19.2832 F5400
G1 X122.265 Y101.800
;segType:SoftSupport
G1 X123.795 Y101.800 E19.3175 F5400
G1 X123.795 Y101.800
;segType:Support
G1 X125.689 Y101.800 E19.3979 F5400
G1 X125.689 Y101.800
;segType:SoftSupport
G1 X127.693 Y101.800 E19.4429 F5400
G1 X127.693 Y101.800
;segType:Support
G1 X128.298 Y101.800 E19.4685 F5400
G1 X128.298 Y101.800
;segType:SoftSupport
G1 X130.042 Y101.800 E19.5077 F5400
G1 X130.042 Y101.800
;segType:Support
G1 X131.303 Y101.800 E19.5611 F5400
G1 X131.303 Y101.800
;segType:SoftSupport
G1 X133.416 Y101.800 E19.6086 F5400
G1 X133.416 Y101.800
;segType:Support
G1 X134.617 Y101.800 E19.6595 F5400
G1 X134.617 Y101.800
;segType:SoftSupport
G1 X139.200 Y101.800 E19.7624 F5400
G1 F4800 E18.7624
G1 X70.422 Y100.000 F10800
G1 F4800 E19.7624
G1 X80.923 Y100.000 E19.9982 F5400
G1 X80.923 Y100.000
;segType:Support
G1 X81.529 Y100.000 E20.0238 F5400
G1 X81.529 Y100.000
;segType:SoftSupport
G1 X82.192 Y100.000 E20.0387 F5400
G1 X82.192 Y100.000
;segType:Support
G1 X83.425 Y100.000 E20.0910 F5400
G1 X83.425 Y100.000
;segType:SoftSupport
G1 X84.240 Y100.000 E20.1093 F5400
G1 X84.240 Y100.000
;segType:Support
G1 X84.800 Y100.000 E20.1331 F5400
G1 X84.800 Y100.000
;segType:SoftSupport
G1 X85.420 Y100.000 E20.1470 F5400
G1 X85.420 Y100.000
;segType:Support
G1 X86.666 Y100.000 E20.1998 F5400
G1 X86.666 Y100.000
;segType:SoftSupport
G1 X94.190 Y100.000 E20.3687 F5400
G1 X94.190 Y100.000
;segType:Support
G1 X95.540 Y100.000 E20.4259 F5400
G1 X95.540 Y100.000
;segType:SoftSupport
G1 X99.600 Y100.000 E20.5171 F5400
G1 F4800 E19.5171
G1 X70.058 Y89.200 F10800
G1 F4800 E20.5171
G1 X115.974 Y89.200 E21.5480 F5400
G1 X115.974 Y89.200
;segType:Support
G1 X116.988 Y89.200 E21.5910 F5400
G1 X116.988 Y89.200
;segType:SoftSupport
G1 X117.506 Y89.200 E21.6026 F5400
G1 X117.506 Y89.200
;segType:Support
G1 X122.271 Y89.200 E21.8046 F5400
G1 X122.271 Y89.200
;segType:SoftSupport
G1 X122.788 Y89.200 E21.8163 F5400
G1 X122.788 Y89.200
;segType:Support
G1 X124.900 Y89.200 E21.9058 F5400
G1 X124.900 Y89.200
;segType:SoftSupport
G1 X127.132 Y89.200 E21.9559 F5400
G1 X127.132 Y89.200
;segType:Support
G1 X128.042 Y89.200 E21.9945 F5400
G1 X128.042 Y89.200
;segType:SoftSupport
G1 X130.568 Y89.200 E22.0512 F5400
G1 X130.568 Y89.200
;segType:Support
G1 X133.713 Y89.200 E22.1846 F5400
G1 X133.713 Y89.200
;segType:SoftSupport
G1 X139.200 Y89.200 E22.3078 F5400
G1 F4800 E21.3078
G1 X70.240 Y94.600 F10800
G1 F4800 E22.3078
G1 X80.814 Y94.600 E22.5452 F5400
G1 X80.814 Y94.600
;segType:Support
G1 X81.419 Y94.600 E22.5708 F5400
G1 X81.419 Y94.600
;segType:SoftSupport
G1 X82.719 Y94.600 E22.6000 F5400
G1 X82.719 Y94.600
;segType:Support
G1 X84.068 Y94.600 E22.6572 F5400
G1 X84.068 Y94.600
;segType:SoftSupport
G1 X85.311 Y94.600 E22.6851 F5400
G1 X85.311 Y94.600
;segType:Support
G1 X86.556 Y94.600 E22.7379 F5400
G1 X86.556 Y94.600
;segType:SoftSupport
G1 X88.410 Y94.600 E22.7795 F5400
G1 X88.410 Y94.600
;segType:Support
G1 X89.096 Y94.600 E22.8086 F5400
G1 X89.096 Y94.600
;segType:SoftSupport
G1 X91.440 Y94.600 E22.8613 F5400
G1 X91.440 Y94.600
;segType:Support
G1 X92.716 Y94.600 E22.9154 F5400
G1 X92.716 Y94.600
;segType:SoftSupport
G1 X94.343 Y94.600 E22.9519 F5400
G1 X94.343 Y94.600
;segType:Support
G1 X95.625 Y94.600 E23.0063 F5400
G1 X95.625 Y94.600
;segType:SoftSupport
G1 X97.743 Y94.600 E23.0538 F5400
G1 X97.743 Y94.600
;segType:Support
G1 X99.017 Y94.600 E23.1079 F5400
G1 X99.017 Y94.600
;segType:SoftSupport
G1 X100.808 Y94.600 E23.1481 F5400
G1 X100.808 Y94.600
;segType:Support
G1 X102.083 Y94.600 E23.2021 F5400
G1 X102.083 Y94.600
;segType:SoftSupport
G1 X104.009 Y94.600 E23.2454 F5400
G1 X104.009 Y94.600
;segType:Support
G1 X105.348 Y94.600 E23.3021 F5400
G1 X105.348 Y94.600
;segType:SoftSupport
G1 X107.054 Y94.600 E23.3404 F5400
G1 X107.054 Y94.600
;segType:Support
G1 X107.724 Y94.600 E23.3689 F5400
G1 X107.724 Y94.600
;segType:SoftSupport
G1 X109.806 Y94.600 E23.4156 F5400
G1 X109.806 Y94.600
;segType:Support
G1 X111.080 Y94.600 E23.4696 F5400
G1 X111.080 Y94.600
;segType:SoftSupport
G1 X113.095 Y94.600 E23.5149 F5400
G1 X113.095 Y94.600
;segType:Support
G1 X114.376 Y94.600 E23.5692 F5400
G1 X114.376 Y94.600
;segType:SoftSupport
G1 X118.372 Y94.600 E23.6589 F5400
G1 X118.372 Y94.600
;segType:Support
G1 X119.652 Y94.600 E23.7132 F5400
G1 X119.652 Y94.600
;segType:SoftSupport
G1 X123.649 Y94.600 E23.8029 F5400
G1 X123.649 Y94.600
;segType:Support
G1 X124.254 Y94.600 E23.8286 F5400
G1 X124.254 Y94.600
;segType:SoftSupport
G1 X125.935 Y94.600 E23.8663 F5400
G1 X125.935 Y94.600
;segType:Support
G1 X127.284 Y94.600 E23.9235 F5400
G1 X127.284 Y94.600
;segType:SoftSupport
G1 X127.546 Y94.600 E23.9294 F5400
G1 X127.546 Y94.600
;segType:Support
G1 X128.151 Y94.600 E23.9551 F5400
G1 X128.151 Y94.600
;segType:SoftSupport
G1 X129.552 Y94.600 E23.9865 F5400
G1 X129.552 Y94.600
;segType:Support
G1 X130.877 Y94.600 E24.0427 F5400
G1 X130.877 Y94.600
;segType:SoftSupport
G1 X133.574 Y94.600 E24.1033 F5400
G1 X133.574 Y94.600
;segType:Support
G1 X134.915 Y94.600 E24.1601 F5400
G1 X134.915 Y94.600
;segType:SoftSupport
G1 X139.200 Y94.600 E24.2563 F5400
G1 F4800 E23.2563
G1 X70.300 Y96.400 F10800
G1 F4800 E24.2563
G1 X80.850 Y96.400 E24.4932 F5400
G1 X80.850 Y96.400
;segType:Support
G1 X81.455 Y96.400 E24.5188 F5400
G1 X81.455 Y96.400
;segType:SoftSupport
G1 X82.544 Y96.400 E24.5433 F5400
G1 X82.544 Y96.400
;segType:Support
G1 X84.312 Y96.400 E24.6183 F5400
G1 X84.312 Y96.400
;segType:SoftSupport
G1 X85.347 Y96.400 E24.6415 F5400
G1 X85.347 Y96.400
;segType:Support
G1 X86.593 Y96.400 E24.6943 F5400
G1 X86.593 Y96.400
;segType:SoftSupport
G1 X88.678 Y96.400 E24.7412 F5400
G1 X88.678 Y96.400
;segType:Support
G1 X92.533 Y96.400 E24.9046 F5400
G1 X92.533 Y96.400
;segType:SoftSupport
G1 X94.180 Y96.400 E24.9416 F5400
G1 X94.180 Y96.400
;segType:Support
G1 X95.506 Y96.400 E24.9978 F5400
G1 X95.506 Y96.400
;segType:SoftSupport
G1 X97.665 Y96.400 E25.0463 F5400
G1 X97.665 Y96.400
;segType:Support
G1 X99.163 Y96.400 E25.1098 F5400
G1 X99.163 Y96.400
;segType:SoftSupport
G1 X100.845 Y96.400 E25.1476 F5400
G1 X100.845 Y96.400
;segType:Support
G1 X102.120 Y96.400 E25.2016 F5400
G1 X102.120 Y96.400
;segType:SoftSupport
G1 X104.198 Y96.400 E25.2483 F5400
G1 X104.198 Y96.400
;segType:Support
G1 X105.561 Y96.400 E25.3061 F5400
G1 X105.561 Y96.400
;segType:SoftSupport
G1 X107.322 Y96.400 E25.3456 F5400
G1 X107.322 Y96.400
;segType:Support
G1 X110.897 Y96.400 E25.4972 F5400
G1 X110.897 Y96.400
;segType:SoftSupport
G1 X113.132 Y96.400 E25.5474 F5400
G1 X113.132 Y96.400
;segType:Support
G1 X114.412 Y96.400 E25.6017 F5400
G1 X114.412 Y96.400
;segType:SoftSupport
G1 X118.409 Y96.400 E25.6914 F5400
G1 X118.409 Y96.400
;segType:Support
G1 X119.688 Y96.400 E25.7457 F5400
G1 X119.688 Y96.400
;segType:SoftSupport
G1 X123.685 Y96.400 E25.8354 F5400
G1 X123.685 Y96.400
;segType:Support
G1 X124.291 Y96.400 E25.8611 F5400
G1 X124.291 Y96.400
;segType:SoftSupport
G1 X125.535 Y96.400 E25.8890 F5400
G1 X125.535 Y96.400
;segType:Support
G1 X126.886 Y96.400 E25.9463 F5400
G1 X126.886 Y96.400
;segType:SoftSupport
G1 X127.583 Y96.400 E25.9619 F5400
G1 X127.583 Y96.400
;segType:Support
G1 X128.188 Y96.400 E25.9876 F5400
G1 X128.188 Y96.400
;segType:SoftSupport
G1 X139.200 Y96.400 E26.2348 F5400
G1 F4800 E25.2348
G1 X72.678 Y87.400 F10800
G1 F4800 E26.2348
G1 X139.153 Y87.400 E27.7272 F5400
G1 X139.153 Y87.400
;segType:Support
G1 X139.200 Y87.400 E27.7292 F5400
G1 F4800 E26.7292
G1 X87.533 Y114.400 F10800
G1 F4800 E27.7292
G1 X135.600 Y114.400 E29.7676 F5400
G1 F4800 E28.7676
G1 X109.475 Y98.200 F10800
G1 F4800 E29.7676
G1 X110.715 Y98.200 E29.8201 F5400
G1 X110.715 Y98.200
;segType:SoftSupport
G1 X113.168 Y98.200 E29.8752 F5400
G1 X113.168 Y98.200
;segType:Support
G1 X114.449 Y98.200 E29.9295 F5400
G1 X114.449 Y98.200
;segType:SoftSupport
G1 X118.445 Y98.200 E30.0192 F5400
G1 X118.445 Y98.200
;segType:Support
G1 X121.645 Y98.200 E30.1549 F5400
G1 X121.645 Y98.200
;segType:SoftSupport
G1 X123.722 Y98.200 E30.2015 F5400
G1 X123.722 Y98.200
;segType:Support
G1 X124.327 Y98.200 E30.2272 F5400
G1 X124.327 Y98.200
;segType:SoftSupport
G1 X125.136 Y98.200 E30.2454 F5400
G1 X125.136 Y98.200
;segType:Support
G1 X126.487 Y98.200 E30.3027 F5400
G1 X126.487 Y98.200
;segType:SoftSupport
G1 X127.619 Y98.200 E30.3281 F5400
G1 X127.619 Y98.200
;segType:Support
G1 X128.225 Y98.200 E30.3537 F5400
G1 X128.225 Y98.200
;segType:SoftSupport
G1 X129.591 Y98.200 E30.3844 F5400
G1 X129.591 Y98.200
;segType:Support
G1 X130.937 Y98.200 E30.4415 F5400
G1 X130.937 Y98.200
;segType:SoftSupport
G1 X133.648 Y98.200 E30.5024 F5400
G1 X133.648 Y98.200
;segType:Support
G1 X134.983 Y98.200 E30.5590 F5400
G1 X134.983 Y98.200
;segType:SoftSupport
G1 X139.200 Y98.200 E30.6537 F5400
;segType:Support
G1 F4800 E29.6537
G1 X113.205 Y100.000 F10800
G1 F4800 E30.6537
G1 X114.485 Y100.000 E30.7079 F5400
G1 X114.485 Y100.000
;segType:SoftSupport
G1 X118.482 Y100.000 E30.7977 F5400
G1 X118.482 Y100.000
;segType:Support
G1 X119.762 Y100.000 E30.8519 F5400
G1 X119.762 Y100.000
;segType:SoftSupport
G1 X123.758 Y100.000 E30.9417 F5400
G1 X123.758 Y100.000
;segType:Support
G1 X124.364 Y100.000 E30.9673 F5400
G1 X124.364 Y100.000
;segType:SoftSupport
G1 X124.737 Y100.000 E30.9757 F5400
G1 X124.737 Y100.000
;segType:Support
G1 X126.088 Y100.000 E31.0330 F5400
G1 X126.088 Y100.000
;segType:SoftSupport
G1 X127.656 Y100.000 E31.0682 F5400
G1 X127.656 Y100.000
;segType:Support
G1 X128.261 Y100.000 E31.0939 F5400
G1 X128.261 Y100.000
;segType:SoftSupport
G1 X129.747 Y100.000 E31.1272 F5400
G1 X129.747 Y100.000
;segType:Support
G1 X131.053 Y100.000 E31.1826 F5400
G1 X131.053 Y100.000
;segType:SoftSupport
G1 X133.598 Y100.000 E31.2397 F5400
G1 X133.598 Y100.000
;segType:Support
G1 X134.879 Y100.000 E31.2941 F5400
G1 X134.879 Y100.000
;segType:SoftSupport
G1 X139.200 Y100.000 E31.3911 F5400
G1 F4800 E30.3911
G1 X108.906 Y99.575 F10800
G1 X106.382 Y99.540
G1 X103.857 Y99.504
G1 X101.333 Y99.469
G1 F4800 E31.3911
;segType:Perimeter
G1 X100.700 Y99.737 E31.4254 F2159
G1 X100.700 Y99.205 E31.4519
G1 X107.300 Y99.205 E31.7812
G1 X107.300 Y99.795 E31.8107
G1 X100.757 Y99.795 E32.1371
; ------------------------------------
; Layer #3
; ------------------------------------
G21 ; mm
G90 ; abs
G92 E0 ; reset extr
M106 S255
G1 F4800 E-1.0000
G1 F300 Z1.200
G1 X100.715 Y99.211 F10800
G1 X97.649 Y101.751
G1 X99.426 Y102.243
G1 X100.033 Y105.004
G1 X99.977 Y105.420
G1 X99.882 Y105.830
G1 X99.746 Y106.227
G1 X98.022 Y107.890
G1 X91.998 Y107.954
G1 X88.201 Y108.153
G1 X71.685 Y113.712
G1 F4800 E0.0000
;segType:HShell
G1 X72.102 Y114.139 E0.0297 F3600
;segType:Loop
G1 X71.485 Y113.704 F10800
G1 X70.620 Y88.089 E1.3084 F3600
G1 X138.493 Y85.635 E4.6968
G1 X139.380 Y111.911 E6.0085
G1 X71.507 Y114.365 E9.3969
G1 X71.491 Y113.898 E9.4202
;segType:Perimeter
G1 X71.742 Y114.439 F10800
G1 X71.119 Y114.730 E9.4545 F2159
G1 X70.207 Y87.694 E10.8041
G1 X138.879 Y85.212 E14.2324
G1 X139.793 Y112.306 E15.5849
G1 X71.178 Y114.786 E19.0104
G1 X71.418 Y114.130
;segType:HShell
G1 X71.204 Y99.451 F10800
G1 X79.535 Y107.976 E19.6051 F3600
G1 X79.547 Y108.539
G1 X77.753 Y106.704 E19.7331
;segType:Perimeter
G1 X77.599 Y106.466 F10800
G1 X77.192 Y107.030 E19.7678 F2159
G1 X77.115 Y107.399 E19.7866
G1 X76.853 Y107.742 E19.8081
G1 X76.470 Y107.997 E19.8311
G1 X76.006 Y108.154 E19.8555
G1 X75.500 Y108.208 E19.8809
G1 X74.994 Y108.154 E19.9063
G1 X74.530 Y107.997 E19.9308
G1 X74.147 Y107.742 E19.9537
G1 X73.887 Y107.401 E19.9751
G1 X73.792 Y107.000 E19.9957
G1 X73.887 Y106.599 E20.0162
G1 X74.147 Y106.258 E20.0376
G1 X74.530 Y106.003 E20.0605
G1 X74.994 Y105.846 E20.0850
G1 X75.500 Y105.791 E20.1104
G1 X76.006 Y105.846 E20.1358
G1 X76.470 Y106.003 E20.1602
G1 X76.853 Y106.258 E20.1832
G1 X77.097 Y106.578 E20.2032
G1 X77.189 Y106.917 E20.2208
G1 X77.627 Y107.455
;segType:Loop
G1 X76.907 Y108.194 F10800
G1 X76.645 Y108.369 E20.2365 F3600
G1 X76.091 Y108.557 E20.2657
G1 X75.500 Y108.619 E20.2953
G1 X74.910 Y108.557 E20.3249
G1 X74.355 Y108.369 E20.3542
G1 X73.873 Y108.048 E20.3831
G1 X73.518 Y107.583 E20.4122
G1 X73.381 Y107.000 E20.4421
G1 X73.518 Y106.417 E20.4720
G1 X73.873 Y105.952 E20.5011
G1 X74.355 Y105.631 E20.5300
G1 X74.909 Y105.443 E20.5592
G1 X75.500 Y105.380 E20.5889
G1 X76.091 Y105.443 E20.6186
G1 X76.645 Y105.631 E20.6477
G1 X77.127 Y105.952 E20.6766
G1 X77.461 Y106.390 E20.7041
G1 X77.615 Y106.961 E20.7336
G1 X77.487 Y107.576 E20.7650
G1 X77.127 Y108.048 E20.7946
G1 X77.067 Y108.088 E20.7982
G1 X79.967 Y106.452 F10800
G1 X80.011 Y108.362
G1 X87.919 Y107.891
G1 X87.843 Y105.985
G1 X87.092 Y101.755
G1 X89.882 Y99.899
G1 X90.367 Y99.370
G1 X90.210 Y98.272 E20.8535 F3600
G1 X90.491 Y98.255 E20.8676
G1 X90.389 Y99.370 E20.9235
;segType:Perimeter
G1 X90.762 Y100.295 F10800
G1 X92.339 Y100.295 E21.0021 F2159
G1 X91.603 Y107.531 E21.3650
G1 X90.148 Y107.618 E21.4377
G1 X89.057 Y100.295 E21.8071
G1 X90.094 Y100.295 E21.8588
G1 X90.477 Y102.998 E21.9950
G1 X90.520 Y102.413 E22.0242
G1 X90.700 Y100.354 E22.1274
G1 X90.976 Y99.712
G1 F4800 E21.1274
G1 X90.889 Y95.848 F10800
G1 X90.767 Y93.032
G1 F4800 E22.1274
;segType:HShell
G1 X90.519 Y92.779 E22.1450 F3600
;segType:Loop
G1 X90.277 Y91.096 F10800
G1 X90.257 Y90.129 E22.1933 F3600
G1 X94.117 Y89.897 E22.3863
G1 X94.165 Y92.308 E22.5066
G1 X93.623 Y92.401 E22.5340
G1 X93.564 Y92.612 E22.5450
G1 X93.495 Y93.011 E22.5652
G1 X93.424 Y93.569 E22.5933
G1 X92.782 Y99.886 E22.9100
G1 X91.966 Y107.920 E23.3129
G1 X89.807 Y108.048 E23.4208
G1 X88.626 Y100.114 E23.8210
G1 X87.673 Y93.726 E24.1432
G1 X87.573 Y93.201 E24.1698
G1 X87.453 Y92.771 E24.1922
G1 X87.180 Y92.787 E24.2058
G1 X87.143 Y93.064 E24.2197
G1 X87.135 Y93.571 E24.2450
G1 X87.367 Y104.983 E24.8145
G1 X87.407 Y105.588 E24.8447
G1 X87.434 Y105.728 E24.8518
G1 X88.097 Y105.705 E24.8849
G1 X88.193 Y108.146 E25.0068
G1 X84.768 Y108.351 E25.1780
G1 X83.863 Y101.683 E25.5137
G1 X83.200 Y108.445 E25.8527
G1 X79.749 Y108.652 E26.0251
G1 X79.699 Y106.202 E26.1474
G1 X80.392 Y106.152 E26.1821
G1 X80.427 Y105.811 E26.1992
G1 X80.431 Y105.308 E26.2243
G1 X80.201 Y93.958 E26.7906
G1 X80.166 Y93.364 E26.8203
G1 X80.142 Y93.214 E26.8279
G1 X79.436 Y93.237 E26.8632
G1 X79.386 Y90.781 E26.9857
G1 X82.508 Y90.593 E27.1417
G1 X86.877 Y90.331 E27.3601
G1 X86.877 Y90.330 E27.3601
G1 X90.178 Y90.133 E27.5251
G1 X90.228 Y92.603 E27.6484
G1 X89.548 Y92.645 E27.6823
G1 X89.529 Y93.041 E27.7021
G1 X89.607 Y93.902 E27.7452
G1 X89.842 Y95.635 E27.8324
G1 X90.738 Y95.581 E27.8772
G1 X90.928 Y93.691 E27.9719
G1 X90.968 Y93.071 E28.0029
G1 X90.947 Y92.568 E28.0281
G1 X90.307 Y92.577 E28.0600
G1 X90.281 Y91.291 E28.1242
G1 X90.508 Y92.163 F10800
G1 X90.974 Y92.741
;segType:Perimeter
G1 X90.697 Y92.100 E28.1591 F2159
G1 X90.665 Y90.514 E28.2382
G1 X93.726 Y90.330 E28.3912
G1 X93.758 Y91.963 E28.4727
G1 X93.378 Y92.028 E28.4919
G1 X93.255 Y92.230 E28.5037
G1 X93.174 Y92.520 E28.5188
G1 X93.100 Y92.949 E28.5405
G1 X93.027 Y93.522 E28.5693
G1 X92.398 Y99.705 E28.8793
G1 X90.760 Y99.705 E28.9611
G1 X90.933 Y97.818 E29.0556
G1 X89.752 Y97.889 E29.1146
G1 X90.010 Y99.705 E29.2061
G1 X88.969 Y99.705 E29.2580
G1 X88.067 Y93.656 E29.5632
G1 X87.964 Y93.111 E29.5908
G1 X87.866 Y92.726 E29.6107
G1 X87.774 Y92.487 E29.6234
G1 X87.657 Y92.360 E29.6320
G1 X87.455 Y92.355 E29.6421
G1 X87.455 Y92.361 E29.6424
G1 X86.980 Y92.389 E29.6661
G1 X86.868 Y92.434 E29.6721
G1 X86.769 Y92.764 E29.6893
G1 X86.743 Y93.042 E29.7033
G1 X86.735 Y93.572 E29.7297
G1 X86.968 Y105.001 E30.3000
G1 X87.010 Y105.642 E30.3321
G1 X87.077 Y105.989 E30.3497
G1 X87.173 Y106.146 E30.3589
G1 X87.714 Y106.128 E30.3859
G1 X87.778 Y107.761 E30.4674
G1 X85.113 Y107.920 E30.6006
G1 X83.799 Y98.237 E31.0881
G1 X82.836 Y108.057 E31.5804
G1 X80.140 Y108.219 E31.7151
G1 X80.107 Y106.583 E31.7967
G1 X80.633 Y106.545 E31.8230
G1 X80.748 Y106.396 E31.8324
G1 X80.794 Y106.190 E31.8430
G1 X80.827 Y105.832 E31.8609
G1 X80.831 Y105.305 E31.8872
G1 X80.600 Y93.942 E32.4542
G1 X80.564 Y93.319 E32.4854
G1 X80.514 Y93.011 E32.5009
G1 X80.421 Y92.796 E32.5126
G1 X79.827 Y92.815 E32.5422
G1 X79.794 Y91.166 E32.6245
G1 X82.200 Y91.022 E32.7447
G1 X82.172 Y92.657 E32.8263
G1 X81.864 Y92.714 E32.8419
G1 X81.722 Y92.853 E32.8519
G1 X81.656 Y93.085 E32.8639
G1 X81.614 Y93.462 E32.8828
G1 X81.607 Y94.031 E32.9112
G1 X81.774 Y102.223 E33.3200
G1 X82.872 Y90.981 E33.8835
G1 X83.773 Y90.928 E33.9285
G1 X85.259 Y101.898 E34.4808
G1 X85.090 Y93.589 E34.8954
G1 X85.055 Y93.012 E34.9243
G1 X85.006 Y92.732 E34.9384
G1 X84.902 Y92.539 E34.9493
G1 X84.475 Y92.531 E34.9706
G1 X84.442 Y90.887 E35.0527
G1 X87.283 Y90.717 E35.1947
G1 X87.283 Y90.716 E35.1947
G1 X89.787 Y90.566 E35.3198
G1 X89.820 Y92.218 E35.4023
G1 X89.320 Y92.250 E35.4273
G1 X89.243 Y92.306 E35.4320
G1 X89.153 Y92.549 E35.4449
G1 X89.128 Y93.049 E35.4699
G1 X89.209 Y93.950 E35.5150
G1 X89.497 Y96.065 E35.6216
G1 X91.101 Y95.969 E35.7017
G1 X91.327 Y93.726 E35.8142
G1 X91.369 Y93.076 E35.8467
G1 X91.345 Y92.496 E35.8756
G1 X91.254 Y92.202 E35.8910
G1 X91.193 Y92.147 E35.8951
G1 X90.755 Y92.157 E35.9170
G1 X90.117 Y91.903
G1 F4800 E34.9170
G1 X89.394 Y92.425 F10800
G1 X91.136 Y93.723
G1 X93.822 Y95.932
G1 X93.803 Y100.100
G1 X94.297 Y103.843
G1 X94.972 Y105.827
G1 X95.963 Y107.154
G1 X97.057 Y107.614
G1 X98.251 Y107.378
G1 X99.043 Y106.703
G1 X99.603 Y105.348
G1 X100.138 Y100.970
G1 F4800 E35.9170
;segType:HShell
G1 X98.141 Y98.926 E36.0595 F3600
G1 X97.632 Y98.956
G1 X100.149 Y101.532 E36.2392
G1 X100.161 Y102.094
G1 X97.124 Y98.987 E36.4560
;segType:Perimeter
G1 X97.231 Y98.958 F10800
G1 X96.938 Y98.324 E36.4908 F2159
G1 X96.906 Y96.773 E36.5682
G1 X97.290 Y96.694 E36.5878
G1 X97.443 Y96.466 E36.6014
G1 X97.511 Y96.189 E36.6157
G1 X97.550 Y95.774 E36.6365
G1 X97.556 Y95.221 E36.6640
G1 X97.489 Y91.939 E36.8278
G1 X97.189 Y91.884 E36.8430
G1 X96.862 Y91.942 E36.8596
G1 X96.654 Y92.073 E36.8719
G1 X96.456 Y92.299 E36.8869
G1 X96.277 Y92.629 E36.9056
G1 X96.117 Y93.064 E36.9287
G1 X95.980 Y93.600 E36.9563
G1 X95.869 Y94.234 E36.9884
G1 X95.784 Y94.963 E37.0250
G1 X95.727 Y95.785 E37.0661
G1 X95.697 Y96.688 E37.1112
G1 X95.688 Y97.682 E37.1608
G1 X95.701 Y98.765 E37.2148
G1 X95.732 Y99.839 E37.2685
G1 X95.781 Y100.829 E37.3179
G1 X95.848 Y101.735 E37.3632
G1 X95.934 Y102.558 E37.4045
G1 X96.043 Y103.281 E37.4410
G1 X96.172 Y103.904 E37.4727
G1 X96.320 Y104.435 E37.5002
G1 X96.486 Y104.860 E37.5230
G1 X96.667 Y105.176 E37.5412
G1 X96.858 Y105.384 E37.5553
G1 X97.052 Y105.492 E37.5663
G1 X97.360 Y105.496 E37.5817
G1 X97.550 Y105.336 E37.5941
G1 X97.735 Y104.984 E37.6139
G1 X97.881 Y104.444 E37.6418
G1 X97.974 Y103.734 E37.6775
G1 X97.997 Y103.340 E37.6972
G1 X98.007 Y102.206 E37.7538
G1 X98.680 Y102.349 E37.7882
G1 X98.991 Y102.621 E37.8088
G1 X99.216 Y102.999 E37.8307
G1 X99.373 Y103.441 E37.8541
G1 X99.460 Y103.961 E37.8804
G1 X99.486 Y104.566 E37.9106
G1 X99.465 Y104.948 E37.9297
G1 X99.416 Y105.313 E37.9481
G1 X99.334 Y105.667 E37.9662
G1 X99.220 Y106.001 E37.9838
G1 X99.072 Y106.309 E38.0009
G1 X98.893 Y106.583 E38.0172
G1 X98.683 Y106.821 E38.0330
G1 X98.442 Y107.029 E38.0489
G1 X98.166 Y107.204 E38.0652
G1 X97.856 Y107.331 E38.0820
G1 X97.513 Y107.406 E38.0995
G1 X97.070 Y107.420 E38.1216
G1 X96.803 Y107.375 E38.1351
G1 X96.550 Y107.289 E38.1484
G1 X96.309 Y107.165 E38.1619
G1 X96.082 Y107.002 E38.1759
G1 X95.865 Y106.800 E38.1907
G1 X95.481 Y106.327 E38.2211
G1 X95.142 Y105.739 E38.2549
G1 X94.846 Y105.042 E38.2927
G1 X94.714 Y104.649 E38.3134
G1 X94.482 Y103.797 E38.3574
G1 X94.291 Y102.845 E38.4059
G1 X94.211 Y102.327 E38.4321
G1 X94.081 Y101.247 E38.4863
G1 X93.993 Y100.089 E38.5443
G1 X93.947 Y98.854 E38.6059
G1 X93.941 Y97.598 E38.6686
G1 X93.978 Y96.416 E38.7276
G1 X94.057 Y95.309 E38.7829
G1 X94.179 Y94.288 E38.8343
G1 X94.347 Y93.363 E38.8811
G1 X94.449 Y92.933 E38.9032
G1 X94.685 Y92.152 E38.9439
G1 X94.966 Y91.478 E38.9803
G1 X95.130 Y91.172 E38.9976
G1 X95.487 Y90.658 E39.0289
G1 X95.695 Y90.442 E39.0438
G1 X95.912 Y90.263 E39.0579
G1 X96.146 Y90.118 E39.0716
G1 X96.393 Y90.009 E39.0851
G1 X96.653 Y89.937 E39.0985
G1 X96.927 Y89.902 E39.1123
G1 X97.322 Y89.915 E39.1320
G1 X97.704 Y90.004 E39.1516
G1 X98.068 Y90.168 E39.1715
G1 X98.420 Y90.413 E39.1929
G1 X98.763 Y90.723 E39.2160
G1 X99.147 Y91.149 E39.2446
G1 X99.230 Y95.216 E39.4475
G1 X99.256 Y95.764 E39.4749
G1 X99.306 Y96.158 E39.4947
G1 X99.374 Y96.413 E39.5079
G1 X99.494 Y96.575 E39.5180
G1 X99.845 Y96.593 E39.5355
G1 X99.878 Y98.207 E39.6160
G1 X96.996 Y98.379 E39.7600
G1 X96.356 Y98.131
G1 F4800 E38.7600
G1 X96.092 Y97.304 F10800
G1 F4800 E39.7600
;segType:Loop
G1 X96.097 Y96.697 E39.7903 F3600
G1 X96.126 Y95.806 E39.8348
G1 X96.182 Y95.001 E39.8750
G1 X96.265 Y94.295 E39.9105
G1 X96.371 Y93.688 E39.9413
G1 X96.499 Y93.188 E39.9670
G1 X96.641 Y92.802 E39.9875
G1 X96.784 Y92.538 E40.0025
G1 X97.006 Y92.332 E40.0176
G1 X97.096 Y92.316 E40.0222
G1 X97.156 Y95.223 E40.1673
G1 X97.150 Y95.752 E40.1937
G1 X97.116 Y96.119 E40.2120
G1 X97.052 Y96.326 E40.2229
G1 X96.500 Y96.440 E40.2510
G1 X96.548 Y98.816 E40.3696
G1 X100.286 Y98.592 E40.5564
G1 X100.237 Y96.204 E40.6755
G1 X99.725 Y96.177 E40.7011
G1 X99.655 Y95.728 E40.7238
G1 X99.630 Y95.202 E40.7501
G1 X99.565 Y92.012 E40.9092
G1 X100.103 Y92.000 E40.9361
G1 X100.138 Y92.237 E40.9480
G1 X100.169 Y92.723 E40.9723
G1 X100.306 Y99.386 E41.3048
G1 X100.404 Y104.238 E41.5469
G1 X100.392 Y104.701 E41.5700
G1 X100.365 Y104.930 E41.5815
G1 X99.864 Y104.986 E41.6067
G1 X99.887 Y104.569 E41.6276
G1 X99.859 Y103.917 E41.6601
G1 X99.761 Y103.336 E41.6895
G1 X99.579 Y102.821 E41.7168
G1 X99.299 Y102.353 E41.7440
G1 X98.862 Y101.970 E41.7730
G1 X97.612 Y101.703 E41.8368
G1 X97.597 Y103.326 E41.9177
G1 X97.576 Y103.694 E41.9361
G1 X97.488 Y104.362 E41.9697
G1 X97.362 Y104.831 E41.9939
G1 X97.219 Y105.085 E42.0085
G1 X97.106 Y105.056 E42.0143
G1 X96.989 Y104.929 E42.0229
G1 X96.846 Y104.679 E42.0372
G1 X96.699 Y104.302 E42.0574
G1 X96.561 Y103.805 E42.0832
G1 X96.436 Y103.208 E42.1136
G1 X96.331 Y102.505 E42.1491
G1 X96.247 Y101.697 E42.1896
G1 X96.181 Y100.803 E42.2343
G1 X96.131 Y99.822 E42.2833
G1 X96.101 Y98.756 E42.3365
G1 X96.088 Y97.681 E42.3902
G1 X96.090 Y97.499 E42.3993
G1 X96.810 Y98.526 F10800
G1 X99.666 Y98.834
;segType:HShell
G1 X100.104 Y99.282 E42.4305 F3600
G1 X100.115 Y99.845
G1 X99.158 Y98.865 E42.4989
G1 X98.649 Y98.895
G1 X100.127 Y100.407 E42.6043
G1 X100.524 Y99.799 F10800
G1 X101.495 Y99.399
G1 X102.758 Y98.096
;segType:Loop
G1 X102.654 Y92.176 E42.8997 F3600
G1 X102.796 Y92.382 E42.9122
G1 X102.955 Y92.719 E42.9308
G1 X103.111 Y93.177 E42.9549
G1 X103.254 Y93.749 E42.9843
G1 X103.379 Y94.422 E43.0185
G1 X103.484 Y95.189 E43.0571
G1 X103.571 Y96.048 E43.1002
G1 X103.639 Y96.987 E43.1471
G1 X103.684 Y98.002 E43.1978
G1 X103.710 Y99.435 E43.2693
G1 X103.692 Y100.547 E43.3248
G1 X103.652 Y101.406 E43.3677
G1 X103.588 Y102.165 E43.4057
G1 X103.500 Y102.823 E43.4389
G1 X103.392 Y103.377 E43.4670
G1 X103.264 Y103.829 E43.4904
G1 X103.127 Y104.174 E43.5090
G1 X102.991 Y104.408 E43.5225
G1 X102.884 Y104.527 E43.5305
G1 X102.785 Y99.614 E43.7756
G1 X102.761 Y98.290 E43.8417
G1 X101.299 Y99.399 F10800
G1 X100.967 Y99.793
;segType:Perimeter
G1 X100.701 Y99.146 E43.8765 F2159
G1 X100.569 Y92.705 E44.1980
G1 X100.536 Y92.193 E44.2236
G1 X100.486 Y91.850 E44.2409
G1 X100.381 Y91.585 E44.2551
G1 X99.791 Y91.598 E44.2845
G1 X99.758 Y89.968 E44.3658
G1 X102.443 Y89.807 E44.5000
G1 X102.858 Y89.799 E44.5207
G1 X103.115 Y89.841 E44.5337
G1 X103.392 Y89.937 E44.5484
G1 X103.802 Y90.196 E44.5725
G1 X104.041 Y90.425 E44.5891
G1 X104.405 Y90.916 E44.6195
G1 X104.728 Y91.519 E44.6537
G1 X105.008 Y92.231 E44.6919
G1 X105.248 Y93.041 E44.7340
G1 X105.448 Y93.954 E44.7806
G1 X105.608 Y94.970 E44.8320
G1 X105.727 Y95.988 E44.8831
G1 X105.775 Y96.564 E44.9119
G1 X105.843 Y97.767 E44.9720
G1 X105.874 Y99.205 E45.0438
G1 X104.106 Y99.205 E45.1320
G1 X104.084 Y97.988 E45.1927
G1 X104.038 Y96.962 E45.2439
G1 X103.970 Y96.012 E45.2914
G1 X103.881 Y95.140 E45.3352
G1 X103.774 Y94.355 E45.3747
G1 X103.645 Y93.660 E45.4100
G1 X103.495 Y93.058 E45.4409
G1 X103.325 Y92.562 E45.4671
G1 X103.141 Y92.173 E45.4885
G1 X102.950 Y91.897 E45.5053
G1 X102.762 Y91.735 E45.5177
G1 X102.577 Y91.668 E45.5275
G1 X102.224 Y91.680 E45.5451
G1 X102.376 Y99.205 E45.9206
G1 X100.759 Y99.205 E46.0012
G1 X100.123 Y98.947
G1 X100.569 Y99.344 F10800
G1 X106.010 Y99.341
G1 X105.917 Y95.968
G1 X105.656 Y93.031
;segType:Loop
G1 X105.841 Y93.876 E46.0444 F3600
G1 X106.005 Y94.913 E46.0968
G1 X106.125 Y95.947 E46.1487
G1 X106.174 Y96.535 E46.1781
G1 X106.243 Y97.751 E46.2389
G1 X106.278 Y99.386 E46.3205
G1 X106.284 Y99.386 E46.3208
G1 X106.283 Y99.614 E46.3322
G1 X106.275 Y99.614 E46.3326
G1 X106.224 Y100.923 E46.3979
G1 X106.133 Y102.019 E46.4528
G1 X105.996 Y103.006 E46.5025
G1 X105.817 Y103.895 E46.5478
G1 X105.591 Y104.689 E46.5889
G1 X105.312 Y105.387 E46.6264
G1 X104.978 Y105.987 E46.6607
G1 X104.584 Y106.484 E46.6924
G1 X104.122 Y106.882 E46.7228
G1 X103.587 Y107.149 E46.7526
G1 X103.042 Y107.255 E46.7803
G1 X99.714 Y107.454 E46.9466
G1 X99.682 Y105.890 E47.0247
G1 X99.589 Y106.160 E47.0389
G1 X99.419 Y106.514 E47.0585
G1 X99.210 Y106.835 E47.0776
G1 X98.962 Y107.116 E47.0963
G1 X98.677 Y107.362 E47.1151
G1 X98.347 Y107.571 E47.1346
G1 X97.972 Y107.725 E47.1548
G1 X97.561 Y107.814 E47.1758
G1 X97.043 Y107.830 E47.2016
G1 X96.707 Y107.774 E47.2187
G1 X96.396 Y107.668 E47.2350
G1 X96.103 Y107.517 E47.2515
G1 X95.831 Y107.322 E47.2682
G1 X95.575 Y107.083 E47.2857
G1 X95.153 Y106.564 E47.3190
G1 X94.784 Y105.925 E47.3558
G1 X94.473 Y105.191 E47.3956
G1 X94.332 Y104.770 E47.4177
G1 X94.093 Y103.893 E47.4631
G1 X93.898 Y102.918 E47.5127
G1 X93.815 Y102.384 E47.5397
G1 X93.683 Y101.287 E47.5948
G1 X93.594 Y100.113 E47.6536
G1 X93.547 Y98.863 E47.7159
G1 X93.541 Y97.593 E47.7793
G1 X93.579 Y96.395 E47.8391
G1 X93.659 Y95.270 E47.8954
G1 X93.784 Y94.225 E47.9479
G1 X93.955 Y93.277 E47.9959
G1 X94.064 Y92.823 E48.0192
G1 X94.309 Y92.011 E48.0615
G1 X94.606 Y91.299 E48.1000
G1 X94.791 Y90.955 E48.1195
G1 X95.179 Y90.395 E48.1535
G1 X95.425 Y90.138 E48.1713
G1 X95.682 Y89.927 E48.1879
G1 X95.963 Y89.753 E48.2043
G1 X96.261 Y89.622 E48.2206
G1 X96.576 Y89.534 E48.2369
G1 X96.908 Y89.492 E48.2536
G1 X97.373 Y89.507 E48.2768
G1 X97.830 Y89.613 E48.3002
G1 X98.263 Y89.809 E48.3239
G1 X98.666 Y90.089 E48.3484
G1 X99.043 Y90.430 E48.3738
G1 X99.375 Y90.798 E48.3985
G1 X99.350 Y89.583 E48.4591
G1 X102.427 Y89.398 E48.6129
G1 X102.886 Y89.389 E48.6358
G1 X103.211 Y89.442 E48.6522
G1 X103.564 Y89.564 E48.6708
G1 X104.046 Y89.869 E48.6993
G1 X104.339 Y90.150 E48.7196
G1 X104.742 Y90.692 E48.7533
G1 X105.090 Y91.344 E48.7901
G1 X105.386 Y92.095 E48.8304
G1 X105.607 Y92.843 E48.8693
G1 F4800 E47.8693
G1 X107.413 Y99.352 F10800
G1 X108.718 Y99.332
G1 X109.183 Y99.795
G1 F4800 E48.8693
;segType:Perimeter
G1 X110.754 Y99.795 E48.9477 F2159
G1 X110.080 Y106.422 E49.2800
G1 X108.625 Y106.510 E49.3528
G1 X107.625 Y99.795 E49.6914
G1 X108.658 Y99.795 E49.7430
G1 X108.953 Y101.883 E49.8481
G1 X109.121 Y99.854 E49.9497
G1 X109.397 Y99.212
G1 F4800 E48.9497
G1 X111.693 Y92.436 F10800
G1 X112.861 Y102.256
G1 X115.038 Y104.228
G1 X115.116 Y104.333
G1 X115.953 Y105.529
G1 F4800 E49.9497
;segType:Loop
G1 X115.973 Y106.479 E49.9972 F3600
G1 X111.985 Y106.718 E50.1965
G1 X111.935 Y104.263 E50.3190
G1 X112.620 Y104.223 E50.3532
G1 X112.668 Y103.822 E50.3733
G1 X112.672 Y103.272 E50.4008
G1 X112.442 Y91.997 E50.9634
G1 X112.410 Y91.502 E50.9882
G1 X112.377 Y91.281 E50.9993
G1 X112.137 Y91.286 E51.0113
G1 X112.101 Y91.292 E51.0131
G1 X112.041 Y91.505 E51.0241
G1 X111.972 Y91.902 E51.0442
G1 X111.901 Y92.460 E51.0723
G1 X111.197 Y99.386 E51.4196
G1 X110.443 Y106.810 E51.7919
G1 X108.284 Y106.941 E51.8998
G1 X107.194 Y99.614 E52.2694
G1 X106.176 Y92.780 E52.6141
G1 X106.051 Y92.091 E52.6490
G1 X105.928 Y91.655 E52.6716
G1 X105.402 Y91.642 E52.6979
G1 X105.353 Y89.223 E52.8186
G1 X108.655 Y89.023 E52.9836
G1 X108.705 Y91.493 E53.1068
G1 X108.025 Y91.537 E53.1408
G1 X108.006 Y91.930 E53.1604
G1 X108.085 Y92.795 E53.2038
G1 X108.320 Y94.526 E53.2909
G1 X109.215 Y94.472 E53.3357
G1 X109.406 Y92.576 E53.4307
G1 X109.429 Y92.297 E53.4447
G1 X109.443 Y91.637 E53.4776
G1 X109.428 Y91.470 E53.4860
G1 X108.785 Y91.471 E53.5181
G1 X108.734 Y89.020 E53.6404
G1 X112.422 Y88.798 E53.8247
G1 X117.574 Y88.489 E54.0822
G1 X122.168 Y88.214 E54.3118
G1 X125.476 Y88.015 E54.4771
G1 X125.527 Y90.462 E54.5993
G1 X124.826 Y90.539 E54.6344
G1 X124.795 Y90.805 E54.6478
G1 X124.787 Y91.301 E54.6725
G1 X124.893 Y96.522 E54.9331
G1 X126.798 Y87.935 E55.3719
G1 X128.614 Y87.827 E55.4627
G1 X128.909 Y102.355 E56.1876
G1 X128.941 Y102.999 E56.2198
G1 X128.971 Y103.224 E56.2311
G1 X129.507 Y103.236 E56.2579
G1 X129.690 Y103.831 E56.2889
G1 X129.727 Y105.653 E56.3798
G1 X126.419 Y105.852 E56.5452
G1 X126.369 Y103.397 E56.6677
G1 X127.063 Y103.356 E56.7024
G1 X127.102 Y103.007 E56.7199
G1 X127.107 Y102.506 E56.7449
G1 X127.026 Y98.543 E56.9427
G1 X125.393 Y105.914 E57.3193
G1 X122.952 Y106.060 E57.4414
G1 X117.255 Y106.402 E57.7261
G1 X117.205 Y103.930 E57.8495
G1 X117.893 Y103.889 E57.8838
G1 X117.938 Y103.499 E57.9034
G1 X117.942 Y102.956 E57.9305
G1 X117.713 Y91.708 E58.4918
G1 X117.679 Y91.125 E58.5210
G1 X117.653 Y90.963 E58.5292
G1 X117.624 Y90.964 E58.5306
G1 X117.705 Y94.924 E58.7282
G1 X116.133 Y95.018 E58.8068
G1 X115.908 Y92.681 E58.9239
G1 X115.842 Y92.098 E58.9532
G1 X115.764 Y91.643 E58.9762
G1 X115.652 Y91.264 E58.9960
G1 X114.909 Y91.308 E59.0331
G1 X115.152 Y103.269 E59.6300
G1 X115.182 Y103.867 E59.6599
G1 X115.215 Y104.063 E59.6697
G1 X115.923 Y104.050 E59.7051
G1 X115.949 Y105.334 E59.7692
G1 X115.722 Y104.462 F10800
G1 X115.259 Y103.882
;segType:Perimeter
G1 X115.533 Y104.525 E59.8040 F2159
G1 X115.565 Y106.094 E59.8823
G1 X112.376 Y106.285 E60.0417
G1 X112.343 Y104.649 E60.1233
G1 X112.825 Y104.620 E60.1474
G1 X112.945 Y104.550 E60.1544
G1 X113.036 Y104.225 E60.1712
G1 X113.068 Y103.841 E60.1904
G1 X113.072 Y103.270 E60.2189
G1 X112.841 Y91.980 E60.7823
G1 X112.808 Y91.457 E60.8084
G1 X112.758 Y91.122 E60.8254
G1 X112.657 Y90.867 E60.8390
G1 X112.100 Y90.877 E60.8669
G1 X111.854 Y90.919 E60.8793
G1 X111.733 Y91.121 E60.8910
G1 X111.651 Y91.412 E60.9061
G1 X111.577 Y91.840 E60.9278
G1 X111.504 Y92.413 E60.9566
G1 X110.814 Y99.205 E61.2972
G1 X109.182 Y99.205 E61.3786
G1 X109.411 Y96.710 E61.5036
G1 X108.229 Y96.781 E61.5627
G1 X108.574 Y99.205 E61.6848
G1 X107.537 Y99.205 E61.7365
G1 X106.571 Y92.712 E62.0640
G1 X106.442 Y92.001 E62.1001
G1 X106.344 Y91.617 E62.1199
G1 X106.251 Y91.378 E62.1326
G1 X106.134 Y91.251 E62.1412
G1 X105.794 Y91.243 E62.1582
G1 X105.761 Y89.608 E62.2398
G1 X108.264 Y89.457 E62.3649
G1 X108.297 Y91.109 E62.4473
G1 X107.797 Y91.141 E62.4723
G1 X107.720 Y91.198 E62.4770
G1 X107.630 Y91.440 E62.4899
G1 X107.605 Y91.938 E62.5148
G1 X107.688 Y92.842 E62.5601
G1 X107.975 Y94.957 E62.6666
G1 X109.578 Y94.861 E62.7467
G1 X109.804 Y92.615 E62.8593
G1 X109.828 Y92.319 E62.8741
G1 X109.844 Y91.622 E62.9089
G1 X109.822 Y91.388 E62.9206
G1 X109.731 Y91.093 E62.9360
G1 X109.671 Y91.038 E62.9401
G1 X109.176 Y91.051 E62.9648
G1 X109.142 Y89.405 E63.0469
G1 X112.030 Y89.231 E63.1913
G1 X117.183 Y88.922 E63.4488
G1 X117.297 Y94.539 E63.7290
G1 X116.494 Y94.587 E63.7692
G1 X116.306 Y92.637 E63.8669
G1 X116.238 Y92.039 E63.8969
G1 X116.156 Y91.555 E63.9214
G1 X116.059 Y91.187 E63.9404
G1 X115.956 Y90.962 E63.9527
G1 X115.777 Y90.846 E63.9634
G1 X114.501 Y90.923 E64.0272
G1 X114.752 Y103.284 E64.6440
G1 X114.784 Y103.912 E64.6754
G1 X114.836 Y104.228 E64.6913
G1 X114.890 Y104.386 E64.6996
G1 X114.988 Y104.477 E64.7063
G1 X115.475 Y104.468 E64.7306
G1 X116.113 Y104.723
G1 X117.473 Y104.184 F10800
G1 X117.517 Y106.112
G1 X122.684 Y105.807
G1 X122.577 Y100.822
G1 X121.990 Y98.584
G1 X122.929 Y90.728
;segType:Loop
G1 X122.950 Y90.867 E64.7376 F3600
G1 X122.986 Y91.525 E64.7705
G1 X123.214 Y102.740 E65.3302
G1 X123.209 Y103.241 E65.3552
G1 X123.171 Y103.586 E65.3724
G1 X122.902 Y103.605 E65.3859
G1 X122.839 Y100.531 E65.5393
G1 X121.117 Y100.636 E65.6253
G1 X121.079 Y102.558 E65.7212
G1 X121.051 Y103.007 E65.7437
G1 X120.966 Y103.519 E65.7696
G1 X120.434 Y103.551 E65.7962
G1 X120.341 Y98.952 E66.0257
G1 X122.258 Y98.837 E66.1215
G1 X122.205 Y96.215 E66.2524
G1 X120.287 Y96.330 E66.3483
G1 X120.179 Y91.000 E66.6142
G1 X120.974 Y90.967 E66.6539
G1 X121.056 Y91.343 E66.6731
G1 X121.107 Y91.746 E66.6934
G1 X121.271 Y93.785 E66.7955
G1 X122.962 Y93.683 E66.8800
G1 X122.902 Y90.746 E67.0265
;segType:Perimeter
G1 X122.881 Y90.829 F10800
G1 X122.608 Y90.186 E67.0614 F2159
G1 X122.576 Y88.599 E67.1406
G1 X125.084 Y88.448 E67.2659
G1 X125.119 Y90.095 E67.3481
G1 X124.531 Y90.160 E67.3776
G1 X124.435 Y90.437 E67.3922
G1 X124.396 Y90.778 E67.4094
G1 X124.387 Y91.302 E67.4355
G1 X124.561 Y99.868 E67.8630
G1 X127.121 Y88.325 E68.4528
G1 X128.223 Y88.261 E68.5079
G1 X128.509 Y102.369 E69.2119
G1 X128.542 Y103.037 E69.2453
G1 X128.578 Y103.309 E69.2589
G1 X128.653 Y103.571 E69.2725
G1 X128.701 Y103.640 E69.2767
G1 X129.213 Y103.643 E69.3022
G1 X129.291 Y103.898 E69.3155
G1 X129.319 Y105.268 E69.3839
G1 X126.811 Y105.419 E69.5093
G1 X126.777 Y103.783 E69.5909
G1 X127.279 Y103.753 E69.6160
G1 X127.419 Y103.595 E69.6265
G1 X127.467 Y103.387 E69.6372
G1 X127.502 Y103.030 E69.6551
G1 X127.507 Y102.504 E69.6813
G1 X127.358 Y95.193 E70.0461
G1 X125.070 Y105.523 E70.5740
G1 X122.923 Y105.652 E70.6813
G1 X122.889 Y104.016 E70.7629
G1 X123.414 Y103.979 E70.7892
G1 X123.525 Y103.830 E70.7985
G1 X123.574 Y103.621 E70.8092
G1 X123.609 Y103.264 E70.8271
G1 X123.614 Y102.738 E70.8533
G1 X123.386 Y91.509 E71.4136
G1 X123.348 Y90.824 E71.4479
G1 X123.298 Y90.490 E71.4647
G1 X123.193 Y90.234 E71.4785
G1 X122.666 Y90.243 E71.5048
G1 F4800 E70.5048
G1 X121.182 Y90.924 F10800
G1 X119.985 Y91.783
G1 X117.462 Y93.276
G1 X117.437 Y94.671
G1 X115.705 Y106.226
G1 X112.247 Y106.428
G1 X110.941 Y99.349
G1 X109.041 Y99.336
G1 X108.844 Y98.264
G1 F4800 E71.5048
;segType:Loop
G1 X108.687 Y97.164 E71.5602 F3600
G1 X108.969 Y97.147 E71.5743
G1 X108.867 Y98.264 E71.6303
G1 X104.772 Y99.669 F10800
G1 X100.579 Y99.659
G1 X100.143 Y100.074
;segType:Perimeter
G1 X100.772 Y99.795 E71.6646 F2159
G1 X102.388 Y99.795 E71.7452
G1 X102.495 Y105.038 E72.0069
G1 X102.730 Y105.025 E72.0186
G1 X102.944 Y104.974 E72.0296
G1 X103.132 Y104.857 E72.0407
G1 X103.314 Y104.654 E72.0542
G1 X103.486 Y104.357 E72.0714
G1 X103.643 Y103.963 E72.0925
G1 X103.780 Y103.474 E72.1178
G1 X103.895 Y102.891 E72.1475
G1 X103.985 Y102.211 E72.1818
G1 X104.051 Y101.433 E72.2207
G1 X104.092 Y100.560 E72.2643
G1 X104.104 Y99.795 E72.3024
G1 X105.868 Y99.795 E72.3904
G1 X105.825 Y100.897 E72.4454
G1 X105.736 Y101.973 E72.4993
G1 X105.602 Y102.936 E72.5478
G1 X105.428 Y103.796 E72.5916
G1 X105.213 Y104.554 E72.6309
G1 X104.951 Y105.208 E72.6660
G1 X104.647 Y105.756 E72.6973
G1 X104.297 Y106.196 E72.7253
G1 X103.902 Y106.536 E72.7514
G1 X103.460 Y106.757 E72.7760
G1 X102.993 Y106.848 E72.7998
G1 X100.105 Y107.021 E72.9441
G1 X100.071 Y105.375 E73.0262
G1 X100.654 Y105.310 E73.0555
G1 X100.754 Y105.047 E73.0695
G1 X100.791 Y104.731 E73.0854
G1 X100.804 Y104.239 E73.1099
G1 X100.716 Y99.854 E73.3288
G1 X100.975 Y99.205
G1 F4800 E72.3288
G1 X103.891 Y97.936 F10800
G1 X107.123 Y97.718
G1 X107.413 Y99.352
G1 X110.941 Y99.349
G1 X112.247 Y106.428
G1 X115.705 Y106.226
G1 X115.664 Y104.326
G1 X117.202 Y90.705
G1 X117.160 Y88.783
G1 X122.588 Y88.463
G1 X122.641 Y90.947
G1 X123.247 Y94.008
G1 X122.477 Y90.384
G1 X122.436 Y88.467
G1 X126.998 Y88.177
G1 X128.352 Y88.118
G1 X129.479 Y103.866
G1 X129.459 Y105.400
G1 X126.681 Y105.562
G1 X129.459 Y105.400
G1 X129.479 Y103.866
G1 X128.924 Y96.093
G1 F4800 E73.3288
;segType:Loop
G1 X128.937 Y94.916 E73.3875 F3600
G1 X128.988 Y93.749 E73.4458
G1 X129.080 Y92.655 E73.5005
G1 X129.215 Y91.658 E73.5508
G1 X129.390 Y90.757 E73.5965
G1 X129.512 Y90.274 E73.6214
G1 X129.741 Y89.569 E73.6584
G1 X129.889 Y89.212 E73.6776
G1 X130.075 Y88.836 E73.6986
G1 X130.438 Y88.280 E73.7317
G1 X130.681 Y88.010 E73.7498
G1 X131.157 Y87.648 E73.7797
G1 X131.463 Y87.508 E73.7965
G1 X131.763 Y87.422 E73.8120
G1 X132.075 Y87.382 E73.8277
G1 X132.408 Y87.392 E73.8443
G1 X132.954 Y87.546 E73.8726
G1 X133.263 Y87.721 E73.8903
G1 X133.724 Y88.126 E73.9209
G1 X134.118 Y88.672 E73.9545
G1 X134.426 Y89.261 E73.9877
G1 X134.581 Y89.629 E74.0077
G1 X134.844 Y90.399 E74.0483
G1 X134.978 Y90.895 E74.0739
G1 X135.166 Y91.754 E74.1177
G1 X135.255 Y92.258 E74.1432
G1 X135.342 Y92.855 E74.1734
G1 X135.458 Y93.887 E74.2252
G1 X135.513 Y94.557 E74.2587
G1 X135.614 Y96.591 E74.3603
G1 X135.603 Y96.591 E74.3609
G1 X135.600 Y97.669 E74.4147
G1 X135.563 Y98.869 E74.4746
G1 X135.483 Y99.996 E74.5310
G1 X135.360 Y101.029 E74.5828
G1 X135.196 Y101.972 E74.6306
G1 X134.988 Y102.829 E74.6746
G1 X134.733 Y103.594 E74.7148
G1 X134.428 Y104.257 E74.7513
G1 X134.063 Y104.823 E74.7848
G1 X133.637 Y105.273 E74.8158
G1 X133.366 Y105.466 E74.8323
G1 X133.088 Y105.606 E74.8479
G1 X132.792 Y105.698 E74.8634
G1 X132.486 Y105.742 E74.8787
G1 X132.166 Y105.737 E74.8947
G1 X131.853 Y105.681 E74.9106
G1 X131.553 Y105.575 E74.9264
G1 X131.274 Y105.422 E74.9423
G1 X131.017 Y105.226 E74.9584
G1 X130.780 Y104.988 E74.9752
G1 X130.391 Y104.478 E75.0072
G1 X130.052 Y103.848 E75.0429
G1 X129.765 Y103.117 E75.0821
G1 X129.529 Y102.279 E75.1255
G1 X129.334 Y101.350 E75.1729
G1 X129.178 Y100.324 E75.2247
G1 X129.059 Y99.212 E75.2804
G1 X128.978 Y98.024 E75.3399
G1 X128.926 Y96.614 E75.4103
G1 X128.918 Y96.614 E75.4106
G1 X128.921 Y96.386 E75.4220
G1 X128.922 Y96.288 E75.4269
G1 X129.188 Y96.342 F10800
G1 X131.212 Y96.342
G1 X131.652 Y95.934
;segType:Perimeter
G1 X131.020 Y96.205 E75.4612 F2159
G1 X129.323 Y96.205 E75.5459
G1 X129.337 Y94.927 E75.6096
G1 X129.388 Y93.775 E75.6671
G1 X129.478 Y92.701 E75.7209
G1 X129.609 Y91.725 E75.7700
G1 X129.780 Y90.848 E75.8146
G1 X129.895 Y90.390 E75.8382
G1 X130.116 Y89.713 E75.8737
G1 X130.252 Y89.384 E75.8914
G1 X130.421 Y89.043 E75.9104
G1 X130.753 Y88.534 E75.9408
G1 X130.950 Y88.316 E75.9554
G1 X131.361 Y88.003 E75.9812
G1 X131.599 Y87.894 E75.9943
G1 X131.842 Y87.825 E76.0068
G1 X132.095 Y87.792 E76.0196
G1 X132.349 Y87.800 E76.0322
G1 X132.802 Y87.927 E76.0557
G1 X133.033 Y88.058 E76.0690
G1 X133.429 Y88.406 E76.0953
G1 X133.779 Y88.891 E76.1251
G1 X134.066 Y89.439 E76.1560
G1 X134.208 Y89.778 E76.1743
G1 X134.462 Y90.521 E76.2135
G1 X134.590 Y90.994 E76.2380
G1 X134.774 Y91.835 E76.2809
G1 X134.860 Y92.324 E76.3057
G1 X134.946 Y92.909 E76.3352
G1 X135.060 Y93.928 E76.3863
G1 X135.114 Y94.584 E76.4192
G1 X135.194 Y96.186 E76.4992
G1 X133.436 Y96.207 E76.5869
G1 X133.390 Y94.903 E76.6520
G1 X133.337 Y93.955 E76.6994
G1 X133.269 Y93.090 E76.7426
G1 X133.186 Y92.318 E76.7814
G1 X133.086 Y91.639 E76.8157
G1 X132.970 Y91.055 E76.8454
G1 X132.834 Y90.573 E76.8703
G1 X132.684 Y90.197 E76.8905
G1 X132.524 Y89.934 E76.9059
G1 X132.365 Y89.783 E76.9168
G1 X132.211 Y89.722 E76.9251
G1 X132.054 Y89.731 E76.9329
G1 X131.902 Y89.811 E76.9415
G1 X131.749 Y89.987 E76.9531
G1 X131.597 Y90.275 E76.9694
G1 X131.459 Y90.669 E76.9902
G1 X131.342 Y91.168 E77.0158
G1 X131.245 Y91.765 E77.0460
G1 X131.169 Y92.456 E77.0806
G1 X131.115 Y93.236 E77.1197
G1 X131.083 Y94.105 E77.1631
G1 X131.072 Y95.058 E77.2106
G1 X131.077 Y96.146 E77.2649
G1 X130.816 Y96.794
G1 F4800 E76.2649
G1 X133.052 Y97.848 F10800
G1 F4800 E77.2649
;segType:Loop
G1 X133.041 Y98.970 E77.3209 F3600
G1 X133.025 Y99.459 E77.3453
G1 X132.982 Y100.272 E77.3859
G1 X132.922 Y100.990 E77.4218
G1 X132.848 Y101.569 E77.4510
G1 X132.749 Y102.097 E77.4778
G1 X132.690 Y102.325 E77.4895
G1 X132.505 Y102.809 E77.5154
G1 X132.387 Y102.968 E77.5253
G1 X132.267 Y102.825 E77.5345
G1 X132.139 Y102.563 E77.5491
G1 X132.010 Y102.178 E77.5693
G1 X131.832 Y101.371 E77.6106
G1 X131.737 Y100.755 E77.6417
G1 X131.688 Y100.346 E77.6622
G1 X131.613 Y99.536 E77.7028
G1 X131.558 Y98.645 E77.7473
G1 X131.514 Y97.664 E77.7963
G1 X131.478 Y96.386 E77.8601
G1 X131.478 Y96.386 E77.8601
G1 X131.472 Y95.059 E77.9263
G1 X131.483 Y94.115 E77.9734
G1 X131.514 Y93.258 E78.0162
G1 X131.568 Y92.493 E78.0545
G1 X131.642 Y91.822 E78.0882
G1 X131.734 Y91.249 E78.1171
G1 X131.843 Y90.787 E78.1408
G1 X131.964 Y90.441 E78.1591
G1 X132.151 Y90.141 E78.1768
G1 X132.213 Y90.196 E78.1809
G1 X132.327 Y90.384 E78.1918
G1 X132.455 Y90.707 E78.2092
G1 X132.581 Y91.153 E78.2323
G1 X132.692 Y91.710 E78.2607
G1 X132.789 Y92.371 E78.2940
G1 X132.871 Y93.129 E78.3320
G1 X132.938 Y93.983 E78.3748
G1 X132.991 Y94.922 E78.4217
G1 X133.048 Y96.569 E78.5039
G1 X133.047 Y96.569 E78.5039
G1 X133.054 Y97.590 E78.5549
G1 X133.053 Y97.653 E78.5580
G1 X133.254 Y98.597 F10800
G1 X133.296 Y96.758
G1 X134.941 Y96.209
;segType:Perimeter
G1 X135.202 Y96.857 E78.5929 F2159
G1 X135.200 Y97.662 E78.6330
G1 X135.164 Y98.848 E78.6922
G1 X135.085 Y99.957 E78.7477
G1 X134.965 Y100.968 E78.7985
G1 X134.805 Y101.887 E78.8450
G1 X134.604 Y102.713 E78.8875
G1 X134.362 Y103.440 E78.9257
G1 X134.078 Y104.057 E78.9596
G1 X133.750 Y104.566 E78.9898
G1 X133.377 Y104.960 E79.0168
G1 X133.163 Y105.112 E79.0299
G1 X132.940 Y105.224 E79.0424
G1 X132.705 Y105.297 E79.0547
G1 X132.461 Y105.332 E79.0669
G1 X132.203 Y105.328 E79.0798
G1 X131.954 Y105.284 E79.0925
G1 X131.715 Y105.199 E79.1051
G1 X131.489 Y105.075 E79.1179
G1 X131.278 Y104.914 E79.1312
G1 X131.078 Y104.715 E79.1453
G1 X130.725 Y104.252 E79.1743
G1 X130.414 Y103.673 E79.2071
G1 X130.144 Y102.984 E79.2441
G1 X129.917 Y102.179 E79.2858
G1 X129.727 Y101.275 E79.3318
G1 X129.575 Y100.270 E79.3826
G1 X129.458 Y99.175 E79.4375
G1 X129.377 Y98.002 E79.4962
G1 X129.333 Y96.795 E79.5564
G1 X131.090 Y96.795 E79.6441
G1 X131.115 Y97.679 E79.6882
G1 X131.158 Y98.667 E79.7375
G1 X131.214 Y99.568 E79.7826
G1 X131.290 Y100.390 E79.8237
G1 X131.341 Y100.812 E79.8449
G1 X131.439 Y101.448 E79.8770
G1 X131.625 Y102.290 E79.9201
G1 X131.770 Y102.721 E79.9428
G1 X131.931 Y103.053 E79.9612
G1 X132.167 Y103.334 E79.9795
G1 X132.335 Y103.403 E79.9885
G1 X132.488 Y103.394 E79.9962
G1 X132.705 Y103.240 E80.0095
G1 X132.862 Y102.999 E80.0238
G1 X133.071 Y102.451 E80.0531
G1 X133.139 Y102.188 E80.0666
G1 X133.243 Y101.634 E80.0947
G1 X133.320 Y101.034 E80.1249
G1 X133.381 Y100.300 E80.1616
G1 X133.425 Y99.477 E80.2028
G1 X133.441 Y98.979 E80.2277
G1 X133.454 Y97.591 E80.2969
G1 X133.449 Y96.874 E80.3327
G1 X133.711 Y96.795 E80.3463
G1 X135.145 Y96.798 E80.4178
G1 X135.777 Y97.068
G1 X135.337 Y96.661 F10800
G1 X130.170 Y96.601
G1 X128.585 Y96.714
G1 X129.479 Y103.866
G1 X129.459 Y105.400
G1 X126.681 Y105.562
G1 X129.459 Y105.400
G1 X129.479 Y103.866
G1 X128.352 Y88.118
G1 X126.998 Y88.177
G1 X125.262 Y90.224
G1 X125.214 Y88.305
G1 X122.436 Y88.467
G1 X122.477 Y90.384
G1 X123.297 Y96.509
G1 X121.513 Y93.500
G1 X122.694 Y93.430
G1 X122.641 Y90.947
G1 X122.588 Y88.463
G1 X117.160 Y88.783
G1 X117.202 Y90.705
G1 X118.016 Y96.280
G1 X115.705 Y106.226
G1 X112.247 Y106.428
G1 X110.941 Y99.349
G1 X100.569 Y99.344
G1 X100.018 Y98.339
G1 X96.810 Y98.526
G1 X100.018 Y98.339
G1 X99.982 Y96.458
G1 X99.324 Y91.076
G1 X98.161 Y89.998
G1 X96.918 Y89.707
G1 X93.855 Y90.187
G1 X90.525 Y90.382
G1 X93.855 Y90.187
G1 X93.905 Y92.087
G1 X92.526 Y99.849
G1 X90.620 Y99.836
G1 X92.526 Y99.849
G1 X93.905 Y92.087
G1 X93.855 Y90.187
G1 X89.916 Y90.423
G1 X84.302 Y90.755
G1 X84.341 Y92.669
G1 X84.704 Y94.822
;segType:Loop
G1 X84.449 Y92.940 E80.5126 F3600
G1 X84.637 Y92.944 E80.5219
G1 X84.691 Y93.606 E80.5551
G1 X84.715 Y94.821 E80.6157
G1 F4800 E79.6157
G1 X117.613 Y91.145 F10800
G1 F4800 E80.6157
;segType:Perimeter
G1 X117.332 Y90.505 E80.6506 F2159
G1 X117.300 Y88.915 E80.7299
G1 X122.459 Y88.606 E80.9877
G1 X122.554 Y93.298 E81.2218
G1 X121.638 Y93.353 E81.2676
G1 X121.505 Y91.703 E81.3502
G1 X121.450 Y91.276 E81.3717
G1 X121.381 Y90.920 E81.3898
G1 X121.296 Y90.664 E81.4032
G1 X121.224 Y90.547 E81.4101
G1 X119.771 Y90.607 E81.4827
G1 X119.896 Y96.763 E81.7899
G1 X121.814 Y96.648 E81.8857
G1 X121.850 Y98.452 E81.9757
G1 X119.933 Y98.567 E82.0716
G1 X120.043 Y103.985 E82.3419
G1 X121.147 Y103.919 E82.3971
G1 X121.268 Y103.845 E82.4042
G1 X121.335 Y103.705 E82.4119
G1 X121.399 Y103.426 E82.4262
G1 X121.449 Y103.048 E82.4452
G1 X121.479 Y102.575 E82.4689
G1 X121.510 Y101.022 E82.5464
G1 X122.448 Y100.965 E82.5932
G1 X122.544 Y105.675 E82.8282
G1 X117.646 Y105.969 E83.0730
G1 X117.613 Y104.316 E83.1555
G1 X118.101 Y104.287 E83.1799
G1 X118.214 Y104.229 E83.1863
G1 X118.306 Y103.899 E83.2034
G1 X118.338 Y103.518 E83.2224
G1 X118.342 Y102.953 E83.2506
G1 X118.113 Y91.691 E83.8126
G1 X118.077 Y91.080 E83.8431
G1 X118.027 Y90.768 E83.8589
G1 X117.929 Y90.544 E83.8711
G1 X117.390 Y90.562 E83.8980
G1 F4800 E82.8980
G1 X115.820 Y91.124 F10800
G1 X114.698 Y91.225
G1 X112.618 Y91.473
G1 X111.834 Y91.466
G1 X109.649 Y91.814
G1 X107.809 Y92.081
G1 X105.247 Y92.365
G1 X105.797 Y94.943
G1 X106.033 Y97.759
G1 X106.010 Y99.341
G1 X100.569 Y99.344
G1 X99.982 Y96.458
G1 X100.018 Y98.339
G1 X96.810 Y98.526
G1 X100.018 Y98.339
G1 X99.982 Y96.458
G1 X99.324 Y91.076
G1 X98.161 Y89.998
G1 X96.918 Y89.707
G1 X93.855 Y90.187
G1 X90.525 Y90.382
G1 X93.855 Y90.187
G1 X93.905 Y92.087
G1 X92.526 Y99.849
G1 X90.620 Y99.836
G1 X92.526 Y99.849
G1 X93.905 Y92.087
G1 X93.855 Y90.187
G1 X89.916 Y90.423
G1 X83.894 Y90.778
G1 X82.741 Y90.840
G1 X82.034 Y95.332
G1 F4800 E83.8980
;segType:Loop
G1 X82.007 Y94.029 E83.9630 F3600
G1 X82.014 Y93.488 E83.9900
G1 X82.071 Y93.091 E84.0100
G1 X82.267 Y93.055 E84.0200
G1 X82.045 Y95.332 E84.1341
G1 X81.828 Y95.517 F10800
G1 X82.317 Y92.783
G1 X82.331 Y90.881
G1 X79.654 Y91.034
G1 X79.696 Y92.956
G1 X79.977 Y93.557
;segType:HShell
G1 X79.851 Y93.428 E84.1431 F3600
G1 X79.329 Y93.445
G1 X80.004 Y94.136 E84.1913
G1 X80.016 Y94.699
G1 X73.649 Y88.184 E84.6458
G1 X73.129 Y88.203
G1 X80.027 Y95.261 E85.1382
G1 X80.039 Y95.824
G1 X72.610 Y88.222 E85.6685
G1 X72.090 Y88.240
G1 X80.050 Y96.386 E86.2367
G1 X80.061 Y96.948
G1 X71.570 Y88.259 E86.8428
G1 X71.050 Y88.278
G1 X80.073 Y97.511 E87.4869
G1 X80.084 Y98.073
G1 X70.838 Y88.612 E88.1469
G1 X70.857 Y89.182
G1 X80.096 Y98.636 E88.8063
G1 X80.107 Y99.198
G1 X70.877 Y89.753 E89.4652
G1 X70.896 Y90.323
G1 X80.118 Y99.761 E90.1235
G1 X80.130 Y100.323
G1 X70.915 Y90.894 E90.7813
G1 X70.934 Y91.464
G1 X80.141 Y100.886 E91.4385
G1 X80.153 Y101.448
G1 X70.954 Y92.035 E92.0952
G1 X70.973 Y92.605
G1 X80.164 Y102.010 E92.7513
G1 X80.175 Y102.573
G1 X70.992 Y93.176 E93.4068
G1 X71.011 Y93.746
G1 X80.187 Y103.135 E94.0618
G1 X80.198 Y103.698
G1 X71.031 Y94.317 E94.7162
G1 X71.050 Y94.887
G1 X80.210 Y104.260 E95.3700
G1 X80.221 Y104.823
G1 X71.069 Y95.457 E96.0233
G1 X71.088 Y96.028
G1 X80.230 Y105.383 E96.6759
G1 X80.215 Y105.918
G1 X71.108 Y96.598 E97.3260
G1 X71.127 Y97.169
G1 X79.750 Y105.993 E97.9416
G1 X79.501 Y106.289
G1 X71.146 Y97.739 E98.5380
G1 X71.165 Y98.310
G1 X79.512 Y106.851 E99.1338
G1 X79.524 Y107.414
G1 X71.185 Y98.880 E99.7290
G1 X79.238 Y93.352 F10800
G1 X74.169 Y88.165 E100.0909 F3600
G1 X74.689 Y88.146
G1 X79.227 Y92.790 E100.4148
G1 X79.215 Y92.227
G1 X75.209 Y88.128 E100.7007
G1 X75.729 Y88.109
G1 X79.204 Y91.665 E100.9488
G1 X79.193 Y91.103
G1 X76.249 Y88.090 E101.1590
G1 X76.768 Y88.071
G1 X79.226 Y90.585 E101.3343
G1 X79.734 Y90.555
G1 X77.288 Y88.052 E101.5089
G1 X77.808 Y88.034
G1 X80.242 Y90.524 E101.6827
G1 X80.751 Y90.494
G1 X78.328 Y88.015 E101.8556
G1 X78.848 Y87.996
G1 X81.259 Y90.463 E102.0277
G1 X81.767 Y90.433
G1 X79.368 Y87.977 E102.1990
G1 X79.888 Y87.958
G1 X82.276 Y90.402 E102.3694
G1 X82.784 Y90.372
G1 X80.408 Y87.940 E102.5391
G1 X80.927 Y87.921
G1 X83.293 Y90.341 E102.7079
G1 X83.801 Y90.311
G1 X81.447 Y87.902 E102.8759
G1 X81.967 Y87.883
G1 X84.309 Y90.280 E103.0431
G1 X84.818 Y90.249
G1 X82.487 Y87.864 E103.2095
G1 X83.007 Y87.846
G1 X85.326 Y90.219 E103.3750
G1 X85.834 Y90.188
G1 X83.527 Y87.827 E103.5398
G1 X84.047 Y87.808
G1 X86.343 Y90.158 E103.7037
G1 X86.851 Y90.127
G1 X84.567 Y87.789 E103.8668
G1 X85.086 Y87.771
G1 X87.360 Y90.097 E104.0290
G1 X87.868 Y90.066
G1 X85.606 Y87.752 E104.1905
G1 X86.126 Y87.733
G1 X88.377 Y90.036 E104.3512
G1 X88.885 Y90.005
G1 X86.646 Y87.714 E104.5110
G1 X87.166 Y87.695
G1 X89.393 Y89.975 E104.6700
G1 X89.902 Y89.944
G1 X87.686 Y87.677 E104.8282
G1 X88.206 Y87.658
G1 X90.410 Y89.914 E104.9856
G1 X90.919 Y89.883
G1 X88.725 Y87.639 E105.1421
G1 X89.245 Y87.620
G1 X91.427 Y89.853 E105.2979
G1 X91.936 Y89.822
G1 X89.765 Y87.601 E105.4528
G1 X90.285 Y87.583
G1 X92.444 Y89.792 E105.6069
G1 X92.952 Y89.761
G1 X90.805 Y87.564 E105.7602
G1 X91.325 Y87.545
G1 X93.461 Y89.731 E105.9127
G1 X93.969 Y89.700
G1 X91.845 Y87.526 E106.0644
G1 X92.365 Y87.507
G1 X95.041 Y90.247 E106.2554
G1 X95.310 Y89.971
G1 X92.884 Y87.489 E106.4286
G1 X93.404 Y87.470
G1 X95.613 Y89.730 E106.5863
G1 X95.958 Y89.532
G1 X93.924 Y87.451 E106.7315
G1 X94.444 Y87.432
G1 X96.352 Y89.384 E106.8676
G1 X96.806 Y89.299
G1 X94.964 Y87.413 E106.9991
G1 X95.484 Y87.395
G1 X97.347 Y89.302 E107.1322
G1 X94.320 Y90.060 F10800
G1 X94.815 Y90.566 E107.1675 F3600
G1 X94.596 Y90.892
G1 X94.332 Y90.622 E107.1863
G1 X94.343 Y91.184
G1 X94.408 Y91.251 E107.1910
G1 X93.744 Y92.775 F10800
G1 X93.845 Y92.878 E107.1982 F3600
G1 X93.743 Y93.324
G1 X93.667 Y93.246 E107.2036
G1 X93.905 Y92.087 F10800
G1 X93.855 Y90.187
G1 X90.525 Y90.382
G1 X90.567 Y92.299
G1 X90.737 Y93.552
G1 X90.016 Y92.815 E107.2551 F3600
G1 X89.733 Y93.076
G1 X90.690 Y94.056 E107.3234
G1 X90.640 Y94.555
G1 X89.788 Y93.683 E107.3842
G1 X89.865 Y94.312
G1 X90.589 Y95.054 E107.4359
G1 X90.386 Y95.397
G1 X89.951 Y94.952 E107.4670
G1 X90.525 Y90.382 F10800
G1 X93.855 Y90.187
G1 X93.905 Y92.087
G1 X93.349 Y97.327
G1 X93.253 Y97.229 E107.4738 F3600
G1 X93.203 Y97.728
G1 X93.342 Y97.871 E107.4838
G1 X93.345 Y98.424
G1 X93.152 Y98.227 E107.4976
G1 X93.101 Y98.726
G1 X93.351 Y98.982 E107.5154
G1 X93.373 Y99.554
G1 X93.050 Y99.225 E107.5384
G1 X93.000 Y99.724
G1 X93.394 Y100.127 E107.5666
G1 X93.440 Y100.724
G1 X92.949 Y100.223 E107.6016
G1 X92.898 Y100.721
G1 X93.486 Y101.322 E107.6435
G1 X93.561 Y101.950
G1 X92.848 Y101.220 E107.6944
G1 X92.797 Y101.719
G1 X93.644 Y102.586 E107.7549
G1 X95.325 Y106.440 F10800
G1 X96.211 Y107.332
G1 X97.057 Y107.614
G1 X98.251 Y107.378
G1 X99.043 Y106.703
G1 X99.603 Y105.348
G1 X99.557 Y103.391
G1 X99.136 Y102.495
G1 X95.878 Y97.679
G1 X96.321 Y95.962
G1 X96.570 Y96.217 E107.7726 F3600
G1 X96.914 Y96.018
G1 X96.352 Y95.443 E107.8127
G1 X96.392 Y94.933
G1 X96.953 Y95.507 E107.8527
G1 X96.950 Y94.954
G1 X96.449 Y94.441 E107.8885
G1 X96.525 Y93.968
G1 X96.939 Y94.391 E107.9181
G1 X96.927 Y93.829
G1 X96.622 Y93.516 E107.9399
G1 X96.747 Y93.094
G1 X96.916 Y93.266 E107.9519
G1 X96.758 Y96.652 F10800
G1 X96.810 Y98.526
G1 X100.018 Y98.339
G1 X99.982 Y96.458
G1 X99.324 Y91.076
G1 X98.083 Y89.503
G1 X96.004 Y87.376 E108.1004 F3600
G1 X96.523 Y87.357
G1 X99.160 Y90.055 E108.2885
G1 X99.148 Y89.492
G1 X97.043 Y87.338 E108.4388
G1 X97.563 Y87.319
G1 X99.562 Y89.365 E108.5815
G1 X100.071 Y89.334
G1 X98.083 Y87.301 E108.7233
G1 X98.603 Y87.282
G1 X100.579 Y89.304 E108.8644
G1 X101.087 Y89.273
G1 X99.123 Y87.263 E109.0046
G1 X99.643 Y87.244
G1 X101.596 Y89.243 E109.1440
G1 X102.104 Y89.212
G1 X100.163 Y87.226 E109.2826
G1 X100.682 Y87.207
G1 X102.620 Y89.189 E109.4209
G1 X103.201 Y89.234
G1 X101.202 Y87.188 E109.5636
G1 X101.722 Y87.169
G1 X105.183 Y90.710 E109.8106
G1 X105.172 Y90.148
G1 X102.242 Y87.150 E110.0198
G1 X102.762 Y87.132
G1 X105.160 Y89.586 E110.1910
G1 X105.155 Y89.030
G1 X103.282 Y87.113 E110.3247
G1 X103.802 Y87.094
G1 X105.664 Y88.999 E110.4576
G1 X106.172 Y88.969
G1 X104.321 Y87.075 E110.5897
G1 X104.841 Y87.056
G1 X106.680 Y88.938 E110.7209
G1 X107.188 Y88.907
G1 X105.361 Y87.038 E110.8513
G1 X105.881 Y87.019
G1 X107.696 Y88.876 E110.9809
G1 X108.205 Y88.846
G1 X106.401 Y87.000 E111.1097
G1 X106.921 Y86.981
G1 X108.713 Y88.815 E111.2376
G1 X109.221 Y88.785
G1 X107.441 Y86.962 E111.3647
G1 X107.961 Y86.944
G1 X109.730 Y88.754 E111.4910
G1 X110.238 Y88.724
G1 X108.480 Y86.925 E111.6165
G1 X109.000 Y86.906
G1 X110.747 Y88.693 E111.7412
G1 X111.255 Y88.663
G1 X109.520 Y86.887 E111.8650
G1 X110.040 Y86.868
G1 X111.764 Y88.632 E111.9881
G1 X112.272 Y88.602
G1 X110.560 Y86.850 E112.1103
G1 X111.080 Y86.831
G1 X112.781 Y88.572 E112.2317
G1 X113.289 Y88.541
G1 X111.600 Y86.812 E112.3523
G1 X112.120 Y86.793
G1 X113.798 Y88.511 E112.4721
G1 X114.306 Y88.480
G1 X112.639 Y86.774 E112.5911
G1 X113.159 Y86.756
G1 X114.815 Y88.450 E112.7093
G1 X115.323 Y88.419
G1 X113.679 Y86.737 E112.8266
G1 X114.199 Y86.718
G1 X115.831 Y88.389 E112.9431
G1 X116.340 Y88.358
G1 X114.719 Y86.699 E113.0589
G1 X115.239 Y86.680
G1 X116.848 Y88.328 E113.1738
G1 X117.357 Y88.297
G1 X115.759 Y86.662 E113.2878
G1 X116.278 Y86.643
G1 X117.865 Y88.267 E113.4011
G1 X118.374 Y88.236
G1 X116.798 Y86.624 E113.5135
G1 X117.318 Y86.605
G1 X118.882 Y88.206 E113.6252
G1 X119.391 Y88.175
G1 X117.838 Y86.587 E113.7360
G1 X118.358 Y86.568
G1 X119.899 Y88.145 E113.8460
G1 X120.408 Y88.114
G1 X118.878 Y86.549 E113.9552
G1 X119.398 Y86.530
G1 X120.916 Y88.084 E114.0636
G1 X121.424 Y88.053
G1 X119.918 Y86.511 E114.1712
G1 X120.437 Y86.493
G1 X121.933 Y88.023 E114.2779
G1 X122.441 Y87.992
G1 X120.957 Y86.474 E114.3839
G1 X121.477 Y86.455
G1 X122.950 Y87.962 E114.4890
G1 X123.458 Y87.931
G1 X121.997 Y86.436 E114.5933
G1 X122.517 Y86.417
G1 X123.966 Y87.901 E114.6967
G1 X124.475 Y87.870
G1 X123.037 Y86.399 E114.7994
G1 X123.557 Y86.380
G1 X124.983 Y87.839 E114.9012
G1 X125.491 Y87.809
G1 X124.076 Y86.361 E115.0021
G1 X124.596 Y86.342
G1 X126.511 Y88.302 E115.1388
G1 X126.611 Y87.853
G1 X125.116 Y86.323 E115.2455
G1 X125.636 Y86.305
G1 X127.016 Y87.717 E115.3440
G1 X127.525 Y87.687
G1 X126.156 Y86.286 E115.4418
G1 X126.676 Y86.267
G1 X128.034 Y87.657 E115.5387
G1 X128.543 Y87.627
G1 X127.196 Y86.248 E115.6348
G1 X127.716 Y86.229
G1 X130.006 Y88.573 E115.7983
G1 X130.221 Y88.243
G1 X128.235 Y86.211 E115.9401
G1 X128.755 Y86.192
G1 X130.468 Y87.945 E116.0624
G1 X130.761 Y87.694
G1 X129.275 Y86.173 E116.1685
G1 X129.795 Y86.154
G1 X131.073 Y87.462 E116.2597
G1 X131.451 Y87.299
G1 X130.315 Y86.135 E116.3408
G1 X130.835 Y86.117
G1 X131.893 Y87.200 E116.4164
G1 X132.419 Y87.187
G1 X131.355 Y86.098 E116.4924
G1 X131.874 Y86.079
G1 X133.235 Y87.471 E116.5895
G1 X134.248 Y88.508 F10800
G1 X138.538 Y92.898 E116.8957 F3600
G1 X138.519 Y92.327
G1 X132.394 Y86.060 E117.3329
G1 X132.914 Y86.042
G1 X138.500 Y91.757 E117.7316
G1 X138.480 Y91.187
G1 X133.434 Y86.023 E118.0918
G1 X133.954 Y86.004
G1 X138.461 Y90.616 E118.4135
G1 X138.442 Y90.046
G1 X134.474 Y85.985 E118.6968
G1 X134.994 Y85.966
G1 X138.423 Y89.475 E118.9415
G1 X138.403 Y88.905
G1 X135.514 Y85.948 E119.1478
G1 X136.033 Y85.929
G1 X138.384 Y88.334 E119.3156
G1 X138.365 Y87.764
G1 X136.553 Y85.910 E119.4449
G1 X137.073 Y85.891
G1 X138.346 Y87.193 E119.5357
G1 X138.326 Y86.623
G1 X137.593 Y85.872 E119.5881
G1 X138.113 Y85.854
G1 X138.307 Y86.052 E119.6019
G1 X134.786 Y89.609 F10800
G1 X138.557 Y93.468 E119.8711 F3600
G1 X138.577 Y94.039
G1 X135.064 Y90.444 E120.1219
G1 X135.246 Y91.181
G1 X138.596 Y94.609 E120.3610
G1 X138.615 Y95.180
G1 X135.391 Y91.881 E120.5911
G1 X135.498 Y92.541
G1 X138.634 Y95.750 E120.8150
G1 X138.654 Y96.321
G1 X135.579 Y93.175 E121.0344
G1 X135.649 Y93.797
G1 X138.673 Y96.891 E121.2502
G1 X138.692 Y97.462
G1 X135.701 Y94.401 E121.4637
G1 X135.735 Y94.986
G1 X138.711 Y98.032 E121.6762
G1 X138.731 Y98.603
G1 X135.764 Y95.566 E121.8880
G1 X135.792 Y96.147
G1 X138.750 Y99.173 E122.0991
G1 X138.769 Y99.743
G1 X135.821 Y96.727 E122.3095
G1 X135.801 Y97.257
G1 X138.788 Y100.314 E122.5227
G1 X138.808 Y100.884
G1 X135.796 Y97.803 E122.7377
G1 X135.780 Y98.337
G1 X138.827 Y101.455 E122.9552
G1 X138.846 Y102.025
G1 X135.763 Y98.871 E123.1753
G1 X135.727 Y99.384
G1 X138.865 Y102.596 E123.3993
G1 X138.885 Y103.166
G1 X135.691 Y99.898 E123.6273
G1 X135.637 Y100.394
G1 X138.904 Y103.737 E123.8605
G1 X138.923 Y104.307
G1 X135.579 Y100.885 E124.0992
G1 X135.506 Y101.361
G1 X138.942 Y104.878 E124.3445
G1 X138.962 Y105.448
G1 X135.424 Y101.829 E124.5970
G1 X135.327 Y102.280
G1 X138.981 Y106.019 E124.8578
G1 X139.000 Y106.589
G1 X135.220 Y102.721 E125.1276
G1 X135.095 Y103.143
G1 X139.019 Y107.160 E125.4077
G1 X139.039 Y107.730
G1 X134.958 Y103.554 E125.6990
G1 X134.795 Y103.939
G1 X139.058 Y108.300 E126.0033
G1 X139.077 Y108.871
G1 X134.623 Y104.313 E126.3212
G1 X134.414 Y104.650
G1 X139.096 Y109.441 E126.6555
G1 X139.116 Y110.012
G1 X134.196 Y104.977 E127.0067
G1 X133.931 Y105.257
G1 X139.135 Y110.582 E127.3781
G1 X139.154 Y111.153
G1 X133.646 Y105.516 E127.7713
G1 X133.309 Y105.722
G1 X139.165 Y111.714 E128.1893
G1 X138.645 Y111.733
G1 X132.918 Y105.873 E128.5981
G1 X132.451 Y105.946
G1 X138.125 Y111.752 E129.0031
G1 X137.605 Y111.771
G1 X131.858 Y105.890 E129.4134
G1 X129.902 Y104.439 F10800
G1 X137.085 Y111.790 E129.9261 F3600
G1 X136.565 Y111.808
G1 X129.914 Y105.002 E130.4009
G1 X129.925 Y105.564
G1 X136.045 Y111.827 E130.8378
G1 X135.526 Y111.846
G1 X129.677 Y105.861 E131.2553
G1 X129.169 Y105.892
G1 X135.006 Y111.865 E131.6719
G1 X134.486 Y111.884
G1 X128.661 Y105.923 E132.0877
G1 X128.152 Y105.953
G1 X133.966 Y111.902 E132.5027
G1 X133.446 Y111.921
G1 X127.644 Y105.984 E132.9169
G1 X127.136 Y106.014
G1 X132.926 Y111.940 E133.3302
G1 X132.406 Y111.959
G1 X126.627 Y106.045 E133.7427
G1 X126.262 Y102.918 F10800
G1 X126.522 Y103.183 E133.7613 F3600
G1 X126.900 Y103.019
G1 X126.362 Y102.469 E133.7997
G1 X126.461 Y102.020
G1 X126.906 Y102.475 E133.8315
G1 X126.895 Y101.913
G1 X126.561 Y101.571 E133.8553
G1 X126.660 Y101.122
G1 X126.883 Y101.350 E133.8713
G1 X126.872 Y100.788
G1 X126.759 Y100.673 E133.8793
G1 X126.637 Y103.651 F10800
G1 X126.681 Y105.562
G1 X129.459 Y105.400
G1 X129.479 Y103.866
G1 X129.118 Y102.536
G1 X129.504 Y102.931 E133.9069 F3600
G1 X129.155 Y101.471 F10800
G1 X129.090 Y101.405 E133.9115 F3600
G1 X129.101 Y101.968
G1 X129.302 Y102.173 E133.9258
G1 X129.196 Y96.660 F10800
G1 X131.222 Y96.656
G1 X132.520 Y102.162
G1 X132.122 Y101.753 E133.9543 F3600
G1 X131.988 Y101.066
G1 X132.615 Y101.708 E133.9990
G1 X132.689 Y101.233
G1 X131.899 Y100.424 E134.0555
G1 X131.840 Y99.813
G1 X132.743 Y100.737 E134.1199
G1 X132.784 Y100.229
G1 X131.794 Y99.215 E134.1906
G1 X131.757 Y98.627
G1 X132.812 Y99.706 E134.2660
G1 X132.834 Y99.178
G1 X131.732 Y98.050 E134.3447
G1 X131.709 Y97.476
G1 X132.844 Y98.637 E134.4257
G1 X132.849 Y98.092
G1 X131.693 Y96.909 E134.5082
G1 X131.678 Y96.342
G1 X132.854 Y97.546 E134.5921
G1 X132.850 Y96.991
G1 X131.675 Y95.789 E134.6760
G1 X131.673 Y95.236
G1 X132.844 Y96.434 E134.7595
G1 X132.824 Y95.863
G1 X131.676 Y94.689 E134.8414
G1 X131.683 Y94.144
G1 X132.804 Y95.291 E134.9215
G1 X132.779 Y94.715
G1 X131.702 Y93.613 E134.9984
G1 X131.727 Y93.088
G1 X132.746 Y94.131 E135.0711
G1 X132.702 Y93.535
G1 X131.763 Y92.574 E135.1382
G1 X131.815 Y92.077
G1 X132.648 Y92.929 E135.1977
G1 X132.577 Y92.306
G1 X131.881 Y91.594 E135.2473
G1 X131.968 Y91.131
G1 X132.476 Y91.652 E135.2836
G1 X132.087 Y90.703 F10800
G1 X132.310 Y90.931 E135.2995 F3600
G1 X131.212 Y96.342 F10800
G1 X129.188 Y96.342
G1 X128.816 Y87.906
G1 X129.808 Y88.922 E135.3704 F3600
G1 X129.636 Y89.297
G1 X128.827 Y88.468 E135.4282
G1 X128.838 Y89.031
G1 X129.489 Y89.696 E135.4746
G1 X129.354 Y90.109
G1 X128.850 Y89.593 E135.5106
G1 X128.861 Y90.156
G1 X129.238 Y90.541 E135.5375
G1 X129.140 Y90.992
G1 X128.873 Y90.718 E135.5566
G1 X128.884 Y91.281
G1 X129.051 Y91.451 E135.5685
G1 X128.977 Y91.926
G1 X128.896 Y91.843 E135.5743
G1 X128.352 Y88.118 F10800
G1 X125.675 Y87.997
G1 X126.412 Y88.751 E135.6268 F3600
G1 X126.312 Y89.200
G1 X125.687 Y88.560 E135.6715
G1 X125.699 Y89.123
G1 X126.213 Y89.649 E135.7082
G1 X126.113 Y90.097
G1 X125.710 Y89.685 E135.7369
G1 X125.722 Y90.248
G1 X126.014 Y90.546 E135.7577
G1 X125.914 Y90.995
G1 X125.588 Y90.661 E135.7810
G1 X125.102 Y90.715
G1 X125.814 Y91.444 E135.8319
G1 X125.715 Y91.893
G1 X124.992 Y91.153 E135.8835
G1 X124.995 Y91.707
G1 X125.615 Y92.342 E135.9277
G1 X125.516 Y92.791
G1 X125.007 Y92.270 E135.9641
G1 X125.018 Y92.832
G1 X125.416 Y93.240 E135.9925
G1 X125.317 Y93.688
G1 X125.030 Y93.395 E136.0130
G1 X125.041 Y93.957
G1 X125.217 Y94.137 E136.0255
G1 X125.117 Y94.586
G1 X125.052 Y94.520 E136.0302
G1 X125.262 Y90.224 F10800
G1 X125.214 Y88.305
G1 X122.436 Y88.467
G1 X122.477 Y90.384
G1 X122.793 Y105.795
G1 X125.193 Y105.672
G1 X126.063 Y103.816
G1 X126.180 Y103.935 E136.0385 F3600
G1 X126.192 Y104.498
G1 X125.964 Y104.265 E136.0548
G1 X125.864 Y104.714
G1 X126.203 Y105.060 E136.0789
G1 X126.214 Y105.623
G1 X125.765 Y105.163 E136.1110
G1 X125.665 Y105.612
G1 X131.887 Y111.978 E136.5551
G1 X131.367 Y111.996
G1 X125.566 Y106.061 E136.9692
G1 X125.102 Y106.136
G1 X130.847 Y112.015 E137.3793
G1 X130.327 Y112.034
G1 X124.593 Y106.167 E137.7885
G1 X124.085 Y106.197
G1 X129.807 Y112.053 E138.1970
G1 X129.287 Y112.071
G1 X123.576 Y106.228 E138.6047
G1 X123.068 Y106.258
G1 X128.767 Y112.090 E139.0115
G1 X128.247 Y112.109
G1 X122.559 Y106.289 E139.4175
G1 X122.051 Y106.319
G1 X127.728 Y112.128 E139.8227
G1 X127.208 Y112.147
G1 X121.543 Y106.350 E140.2271
G1 X121.034 Y106.380
G1 X126.688 Y112.165 E140.6306
G1 X126.168 Y112.184
G1 X120.526 Y106.411 E141.0334
G1 X120.018 Y106.441
G1 X125.648 Y112.203 E141.4353
G1 X125.128 Y112.222
G1 X119.509 Y106.472 E141.8364
G1 X119.001 Y106.502
G1 X124.608 Y112.241 E142.2366
G1 X124.088 Y112.259
G1 X118.492 Y106.533 E142.6361
G1 X117.984 Y106.564
G1 X123.569 Y112.278 E143.0347
G1 X123.049 Y112.297
G1 X117.476 Y106.594 E143.4325
G1 X115.355 Y103.322 F10800
G1 X115.863 Y103.842 E143.4688 F3600
G1 X117.517 Y106.112 F10800
G1 X122.684 Y105.807
G1 X122.577 Y100.822
G1 X121.372 Y100.887
G1 X120.627 Y103.210
G1 X120.743 Y103.328 E143.4771 F3600
G1 X120.857 Y102.895
G1 X120.616 Y102.647 E143.4943
G1 X120.604 Y102.085
G1 X120.883 Y102.370 E143.5142
G1 X120.894 Y101.830
G1 X120.593 Y101.522 E143.5357
G1 X120.581 Y100.960
G1 X120.904 Y101.290 E143.5588
G1 X120.915 Y100.750
G1 X120.570 Y100.398 E143.5833
G1 X120.559 Y99.835
G1 X121.140 Y100.430 E143.6248
G1 X121.648 Y100.399
G1 X120.547 Y99.273 E143.7033
G1 X120.938 Y99.121
G1 X122.156 Y100.368 E143.7903
G1 X122.664 Y100.337
G1 X121.446 Y99.091 E143.8772
G1 X121.955 Y99.060
G1 X122.960 Y100.089 E143.9490
G1 X122.949 Y99.527
G1 X122.462 Y99.029 E143.9837
G1 X122.451 Y98.466
G1 X122.937 Y98.964 E144.0185
G1 X122.926 Y98.402
G1 X122.439 Y97.904 E144.0532
G1 X122.428 Y97.342
G1 X122.914 Y97.840 E144.0879
G1 X122.903 Y97.277
G1 X122.417 Y96.779 E144.1227
G1 X122.405 Y96.217
G1 X122.892 Y96.715 E144.1574
G1 X122.880 Y96.152
G1 X120.433 Y93.648 E144.3321
G1 X120.421 Y93.085
G1 X121.068 Y93.747 E144.3782
G1 X121.019 Y93.146
G1 X120.410 Y92.523 E144.4217
G1 X120.399 Y91.961
G1 X120.971 Y92.546 E144.4625
G1 X120.922 Y91.946
G1 X120.387 Y91.398 E144.5008
G1 X120.715 Y91.182
G1 X120.835 Y91.306 E144.5094
G1 X121.513 Y93.500 F10800
G1 X122.846 Y94.465
G1 X122.320 Y93.927 E144.5469 F3600
G1 X121.812 Y93.958
G1 X122.857 Y95.027 E144.6215
G1 X122.869 Y95.590
G1 X121.304 Y93.988 E144.7332
G1 X122.203 Y96.010 F10800
G1 X120.444 Y94.210 E144.8588 F3600
G1 X120.455 Y94.773
G1 X121.694 Y96.040 E144.9472
G1 X121.186 Y96.071
G1 X120.467 Y95.335 E144.9986
G1 X120.478 Y95.897
G1 X120.677 Y96.101 E145.0128
G1 F4800 E144.0128
G1 X117.595 Y95.700 F10800
G1 F4800 E145.0128
G1 X117.073 Y95.167 E145.0500 F3600
G1 X116.565 Y95.198
G1 X117.606 Y96.263 E145.1243
G1 X117.617 Y96.825
G1 X116.057 Y95.228 E145.2357
G1 F4800 E144.2357
G1 X114.154 Y92.730 F10800
G1 X112.250 Y90.232
G1 F4800 E145.2357
G1 X112.019 Y89.995 E145.2523 F3600
G1 X112.030 Y90.557
G1 X112.342 Y90.877 E145.2745
G1 F4800 E144.2745
G1 X115.113 Y91.509 F10800
G1 F4800 E145.2745
G1 X115.628 Y92.036 E145.3113 F3600
G1 X115.705 Y92.666
G1 X115.125 Y92.071 E145.3528
G1 X115.136 Y92.634
G1 X115.765 Y93.277 E145.3977
G1 X115.824 Y93.888
G1 X115.147 Y93.196 E145.4460
G1 X115.159 Y93.759
G1 X115.883 Y94.499 E145.4976
G1 X115.941 Y95.110
G1 X115.170 Y94.321 E145.5527
G1 X115.182 Y94.884
G1 X117.629 Y97.388 E145.7273
G1 X117.640 Y97.950
G1 X115.193 Y95.446 E145.9020
G1 X115.204 Y96.009
G1 X117.652 Y98.513 E146.0767
G1 X117.663 Y99.075
G1 X115.216 Y96.571 E146.2514
G1 X115.227 Y97.133
G1 X117.675 Y99.638 E146.4261
G1 X117.686 Y100.200
G1 X115.239 Y97.696 E146.6008
G1 X115.250 Y98.258
G1 X117.697 Y100.763 E146.7754
G1 X117.709 Y101.325
G1 X115.262 Y98.821 E146.9501
G1 X115.273 Y99.383
G1 X117.720 Y101.887 E147.1248
G1 X117.732 Y102.450
G1 X115.284 Y99.946 E147.2995
G1 X115.296 Y100.508
G1 X117.742 Y103.011 E147.4741
G1 X117.731 Y103.551
G1 X115.307 Y101.071 E147.6471
G1 X115.319 Y101.633
G1 X117.354 Y103.716 E147.7924
G1 X117.005 Y103.909
G1 X115.330 Y102.196 E147.9119
G1 X115.342 Y102.758
G1 X117.016 Y104.471 E148.0314
G1 X117.027 Y105.034
G1 X116.125 Y104.110 E148.0958
G1 X116.136 Y104.673
G1 X117.038 Y105.596 E148.1602
G1 X117.050 Y106.158
G1 X116.148 Y105.235 E148.2246
G1 X116.159 Y105.798
G1 X122.529 Y112.316 E148.6793
G1 X122.009 Y112.335
G1 X116.170 Y106.360 E149.0961
G1 X115.950 Y106.686
G1 X121.489 Y112.353 E149.4914
G1 X120.969 Y112.372
G1 X115.442 Y106.716 E149.8860
G1 X114.934 Y106.747
G1 X120.449 Y112.391 E150.2797
G1 X119.930 Y112.410
G1 X114.425 Y106.777 E150.6726
G1 X113.917 Y106.808
G1 X119.410 Y112.429 E151.0647
G1 X118.890 Y112.447
G1 X113.408 Y106.838 E151.4560
G1 X112.900 Y106.869
G1 X118.370 Y112.466 E151.8465
G1 X117.850 Y112.485
G1 X112.391 Y106.899 E152.2361
G1 X111.883 Y106.929
G1 X117.330 Y112.504 E152.6250
G1 X116.810 Y112.522
G1 X110.699 Y106.269 E153.0612
G1 X110.648 Y106.768
G1 X116.290 Y112.541 E153.4639
G1 X115.771 Y112.560
G1 X110.357 Y107.020 E153.8504
G1 X109.849 Y107.051
G1 X115.251 Y112.579 E154.2360
G1 X114.731 Y112.598
G1 X109.341 Y107.082 E154.6207
G1 X108.832 Y107.113
G1 X114.211 Y112.616 E155.0046
G1 X113.691 Y112.635
G1 X108.324 Y107.143 E155.3877
G1 X111.787 Y106.832 F10800
G1 X110.750 Y105.770 E155.4618 F3600
G1 X110.800 Y105.271
G1 X111.776 Y106.269 E155.5314
G1 X111.765 Y105.707
G1 X110.851 Y104.772 E155.5966
G1 X110.902 Y104.273
G1 X111.753 Y105.144 E155.6574
G1 X111.742 Y104.582
G1 X110.953 Y103.774 E155.7137
G1 X111.003 Y103.276
G1 X111.777 Y104.068 E155.7690
G1 X112.286 Y104.037
G1 X111.054 Y102.777 E155.8569
G1 X111.105 Y102.278
G1 X112.469 Y103.674 E155.9543
G1 X112.469 Y103.123
G1 X111.155 Y101.779 E156.0481
G1 X111.206 Y101.280
G1 X112.457 Y102.561 E156.1374
G1 X112.446 Y101.998
G1 X111.257 Y100.781 E156.2223
G1 X111.307 Y100.282
G1 X112.434 Y101.435 E156.3028
G1 X112.423 Y100.873
G1 X111.358 Y99.783 E156.3788
G1 X111.409 Y99.284
G1 X112.411 Y100.310 E156.4504
G1 X112.400 Y99.748
G1 X111.459 Y98.785 E156.5175
G1 X111.510 Y98.287
G1 X112.388 Y99.185 E156.5802
G1 X112.377 Y98.623
G1 X111.561 Y97.788 E156.6384
G1 X111.612 Y97.289
G1 X112.365 Y98.060 E156.6923
G1 X112.354 Y97.498
G1 X111.662 Y96.790 E156.7416
G1 X111.713 Y96.291
G1 X112.342 Y96.935 E156.7866
G1 X112.331 Y96.373
G1 X111.764 Y95.792 E156.8271
G1 X111.814 Y95.293
G1 X112.320 Y95.810 E156.8631
G1 X112.308 Y95.248
G1 X111.865 Y94.794 E156.8948
G1 X111.916 Y94.295
G1 X112.297 Y94.685 E156.9220
G1 X112.285 Y94.123
G1 X111.966 Y93.797 E156.9447
G1 X112.017 Y93.298
G1 X112.274 Y93.560 E156.9630
G1 X112.262 Y92.998
G1 X112.068 Y92.799 E156.9769
G1 X112.123 Y92.304
G1 X112.251 Y92.435 E156.9860
G1 F4800 E155.9860
G1 X108.459 Y94.063 F10800
G1 F4800 E156.9860
G1 X108.689 Y94.299 E157.0024 F3600
G1 X109.050 Y94.117
G1 X108.372 Y93.424 E157.0508
G1 X108.286 Y92.784
G1 X109.100 Y93.618 E157.1090
G1 X109.150 Y93.118
G1 X108.229 Y92.176 E157.1747
G1 X108.323 Y91.721
G1 X109.201 Y92.619 E157.2373
G1 X109.233 Y92.101
G1 X108.823 Y91.682 E157.2666
G1 X108.393 Y89.314 F10800
G1 X105.621 Y89.476
G1 X105.654 Y92.294
G1 X105.937 Y92.584 E157.2868 F3600
G1 X105.868 Y93.063
G1 X106.043 Y93.242 E157.2993
G1 X106.139 Y93.892
G1 X106.024 Y93.774 E157.3075
G1 X106.132 Y94.435
G1 X106.236 Y94.542 E157.3150
G1 X106.333 Y95.192
G1 X106.226 Y95.082 E157.3226
G1 X106.299 Y95.708
G1 X106.430 Y95.842 E157.3319
G1 X106.526 Y96.491
G1 X106.357 Y96.318 E157.3440
G1 X106.396 Y96.908
G1 X106.623 Y97.141 E157.3602
G1 X106.720 Y97.791
G1 X106.428 Y97.493 E157.3810
G1 X106.449 Y98.065
G1 X106.817 Y98.441 E157.4072
G1 X106.913 Y99.090
G1 X106.462 Y98.628 E157.4395
G1 X106.474 Y99.192
G1 X107.010 Y99.740 E157.4777
G1 X107.107 Y100.390
G1 X106.471 Y99.739 E157.5231
G1 X106.450 Y100.269
G1 X107.204 Y101.040 E157.5769
G1 X107.300 Y101.689
G1 X106.429 Y100.798 E157.6391
G1 X106.393 Y101.311
G1 X107.397 Y102.339 E157.7108
G1 X107.494 Y102.989
G1 X106.350 Y101.819 E157.7924
G1 X106.294 Y102.313
G1 X107.590 Y103.638 E157.8849
G1 X107.687 Y104.288
G1 X106.228 Y102.795 E157.9890
G1 X106.148 Y103.265
G1 X107.784 Y104.938 E158.1058
G1 X107.880 Y105.588
G1 X106.056 Y103.721 E158.2360
G1 X105.949 Y104.162
G1 X107.977 Y106.237 E158.3807
G1 X108.074 Y106.887
G1 X105.828 Y104.589 E158.5410
G1 X105.685 Y104.994
G1 X113.171 Y112.654 E159.0754
G1 X112.651 Y112.673
G1 X105.529 Y105.384 E159.5838
G1 X105.343 Y105.745
G1 X112.131 Y112.692 E160.0684
G1 X111.612 Y112.710
G1 X105.148 Y106.096 E160.5298
G1 X104.908 Y106.401
G1 X111.092 Y112.729 E160.9712
G1 X110.572 Y112.748
G1 X104.654 Y106.692 E161.3937
G1 X104.361 Y106.943
G1 X110.052 Y112.767 E161.7999
G1 X109.532 Y112.786
G1 X104.030 Y107.155 E162.1926
G1 X103.668 Y107.336
G1 X109.012 Y112.804 E162.5741
G1 X108.492 Y112.823
G1 X103.220 Y107.428 E162.9504
G1 X102.731 Y107.478
G1 X107.972 Y112.842 E163.3245
G1 X107.453 Y112.861
G1 X102.223 Y107.509 E163.6979
G1 X101.714 Y107.539
G1 X106.933 Y112.879 E164.0704
G1 X106.413 Y112.898
G1 X101.206 Y107.570 E164.4421
G1 X100.697 Y107.600
G1 X105.893 Y112.917 E164.8129
G1 X105.373 Y112.936
G1 X100.189 Y107.631 E165.1830
G1 X99.681 Y107.661
G1 X104.853 Y112.955 E165.5522
G1 X104.333 Y112.973
G1 X98.912 Y107.426 E165.9392
G1 X98.596 Y107.654
G1 X103.814 Y112.992 E166.3116
G1 X103.294 Y113.011
G1 X98.237 Y107.837 E166.6725
G1 X97.825 Y107.966
G1 X102.774 Y113.030 E167.0258
G1 X102.254 Y113.049
G1 X97.345 Y108.026 E167.3762
G1 X96.775 Y107.993
G1 X101.734 Y113.067 E167.7302
G1 X101.214 Y113.086
G1 X95.813 Y107.559 E168.1157
G1 X99.515 Y107.492 F10800
G1 X99.192 Y107.161 E168.1388 F3600
G1 X99.435 Y106.859
G1 X99.503 Y106.929 E168.1437
G1 X100.071 Y104.206 F10800
G1 X100.200 Y104.338 E168.1529 F3600
G1 X100.195 Y103.782
G1 X100.007 Y103.589 E168.1663
G1 X99.790 Y102.816
G1 X100.183 Y103.219 E168.1944
G1 X100.172 Y102.657
G1 X96.615 Y99.017 E168.4483
G1 X102.521 Y99.656 F10800
G1 X103.062 Y103.411
G1 X103.148 Y103.499 E168.4545 F3600
G1 X103.251 Y103.054
G1 X103.050 Y102.848 E168.4688
G1 X103.039 Y102.286
G1 X103.330 Y102.584 E168.4896
G1 X103.393 Y102.097
G1 X103.028 Y101.723 E168.5156
G1 X103.016 Y101.161
G1 X103.436 Y101.590 E168.5456
G1 X103.468 Y101.072
G1 X103.005 Y100.599 E168.5786
G1 X102.993 Y100.036
G1 X103.492 Y100.546 E168.6142
G1 X103.501 Y100.005
G1 X102.982 Y99.474 E168.6512
G1 X102.973 Y98.913
G1 X103.510 Y99.463 E168.6896
G1 X103.501 Y98.903
G1 X102.963 Y98.352 E168.7280
G1 X102.953 Y97.791
G1 X103.490 Y98.341 E168.7663
G1 X103.474 Y97.774
G1 X102.943 Y97.231 E168.8042
G1 X102.933 Y96.670
G1 X103.448 Y97.197 E168.8410
G1 X103.411 Y96.608
G1 X102.923 Y96.109 E168.8758
G1 X102.913 Y95.548
G1 X103.366 Y96.012 E168.9082
G1 X103.304 Y95.397
G1 X102.903 Y94.987 E168.9368
G1 X102.893 Y94.426
G1 X103.224 Y94.764 E168.9604
G1 X103.116 Y94.103
G1 X102.884 Y93.865 E168.9770
G1 X102.874 Y93.304
G1 X102.948 Y93.380 E168.9823
G1 X102.512 Y99.341 F10800
G1 X100.569 Y99.344
G1 X99.857 Y95.725
G1 X100.035 Y95.907 E168.9950 F3600
G1 X100.023 Y95.344
G1 X99.829 Y95.146 E169.0089
G1 X99.817 Y94.583
G1 X100.012 Y94.782 E169.0227
G1 X100.000 Y94.219
G1 X99.806 Y94.021 E169.0366
G1 X99.794 Y93.458
G1 X99.989 Y93.657 E169.0505
G1 X99.977 Y93.094
G1 X99.783 Y92.896 E169.0643
G1 X99.772 Y92.333
G1 X99.954 Y92.520 E169.0774
G1 X100.018 Y98.339 F10800
G1 X98.731 Y101.733
G1 X96.315 Y99.261 E169.2498 F3600
G1 X96.332 Y99.829
G1 X98.051 Y101.588 E169.3725
G1 X97.414 Y101.486
G1 X96.361 Y100.409 E169.4477
G1 X96.395 Y100.995
G1 X97.409 Y102.032 E169.5200
G1 X97.404 Y102.578
G1 X96.439 Y101.591 E169.5888
G1 X96.501 Y102.204
G1 X97.399 Y103.124 E169.6529
G1 X97.378 Y103.653
G1 X96.584 Y102.840 E169.7096
G1 X96.705 Y103.515
G1 X97.315 Y104.139 E169.7532
G1 X97.212 Y104.585
G1 X96.899 Y104.265 E169.7755
G1 X97.888 Y102.054 F10800
G1 X98.764 Y102.175
G1 X99.388 Y102.914
G1 X99.677 Y104.567
G1 X99.395 Y106.077
G1 X98.815 Y106.961
G1 X97.911 Y107.518
G1 X96.757 Y107.564
G1 X95.727 Y106.934
G1 X94.972 Y105.827
G1 X93.762 Y103.257
G1 X92.746 Y102.218 E169.8480 F3600
G1 X92.696 Y102.717
G1 X93.901 Y103.951 E169.9341
G1 X94.109 Y104.714
G1 X92.645 Y103.216 E170.0385
G1 X92.594 Y103.715
G1 X94.423 Y105.586 E170.1690
G1 X95.153 Y106.884 F10800
G1 X92.544 Y104.214 E170.3553 F3600
G1 X92.493 Y104.713
G1 X100.694 Y113.105 E170.9407
G1 X100.174 Y113.124
G1 X92.442 Y105.212 E171.4927
G1 X92.392 Y105.710
G1 X99.655 Y113.143 E172.0111
G1 X99.135 Y113.161
G1 X92.341 Y106.209 E172.4961
G1 X92.290 Y106.708
G1 X98.615 Y113.180 E172.9475
G1 X98.095 Y113.199
G1 X92.240 Y107.207 E173.3655
G1 X92.189 Y107.706
G1 X97.575 Y113.218 E173.7500
G1 X97.055 Y113.237
G1 X92.055 Y108.119 E174.1069
G1 X91.546 Y108.150
G1 X96.535 Y113.255 E174.4631
G1 X96.015 Y113.274
G1 X91.037 Y108.180 E174.8184
G1 X90.529 Y108.210
G1 X95.496 Y113.293 E175.1730
G1 X94.976 Y113.312
G1 X90.020 Y108.241 E175.5267
G1 X88.307 Y105.936 F10800
G1 X89.467 Y107.124 E175.6096 F3600
G1 X89.564 Y107.774
G1 X88.329 Y106.510 E175.6977
G1 X88.352 Y107.084
G1 X94.456 Y113.331 E176.1334
G1 X93.936 Y113.349
G1 X88.374 Y107.658 E176.5305
G1 X88.397 Y108.232
G1 X93.416 Y113.368 E176.8888
G1 X92.896 Y113.387
G1 X87.987 Y108.363 E177.2392
G1 X87.478 Y108.393
G1 X92.376 Y113.406 E177.5889
G1 X91.857 Y113.424
G1 X86.970 Y108.424 E177.9377
G1 X86.461 Y108.454
G1 X91.337 Y113.443 E178.2857
G1 X90.817 Y113.462
G1 X85.953 Y108.485 E178.6329
G1 X85.445 Y108.516
G1 X90.297 Y113.481 E178.9792
G1 X89.777 Y113.500
G1 X84.936 Y108.546 E179.3248
G1 X80.011 Y108.362 F10800
G1 X77.758 Y107.259
G1 X84.059 Y113.706 E179.7746 F3600
G1 X83.539 Y113.725
G1 X77.648 Y107.697 E180.1950
G1 X77.412 Y108.007
G1 X83.019 Y113.744 E180.5952
G1 X82.499 Y113.763
G1 X77.143 Y108.282 E180.9775
G1 X76.817 Y108.499
G1 X81.979 Y113.782 E181.3460
G1 X81.459 Y113.800
G1 X76.432 Y108.657 E181.7049
G1 X76.007 Y108.772
G1 X80.939 Y113.819 E182.0570
G1 X80.419 Y113.838
G1 X75.518 Y108.823 E182.4068
G1 X74.923 Y108.764
G1 X79.900 Y113.857 E182.7620
G1 X79.380 Y113.875
G1 X74.017 Y108.388 E183.1448
G1 X72.621 Y114.120 F10800
G1 X71.666 Y113.142 E183.2130 F3600
G1 X71.647 Y112.571
G1 X73.141 Y114.101 E183.3197
G1 X73.661 Y114.082
G1 X71.627 Y112.001 E183.4649
G1 X71.608 Y111.431
G1 X74.181 Y114.063 E183.6486
G1 X74.701 Y114.045
G1 X71.589 Y110.860 E183.8707
G1 X71.570 Y110.290
G1 X75.221 Y114.026 E184.1314
G1 X75.741 Y114.007
G1 X71.550 Y109.719 E184.4305
G1 X71.531 Y109.149
G1 X76.260 Y113.988 E184.7681
G1 X76.780 Y113.969
G1 X71.512 Y108.578 E185.1442
G1 X71.493 Y108.008
G1 X77.300 Y113.951 E185.5587
G1 X77.820 Y113.932
G1 X71.473 Y107.437 E186.0118
G1 X71.454 Y106.867
G1 X78.340 Y113.913 E186.5033
G1 X78.860 Y113.894
G1 X71.435 Y106.296 E187.0333
G1 X71.416 Y105.726
G1 X73.385 Y107.741 E187.1739
G1 X73.715 Y106.514 F10800
G1 X74.447 Y105.828
G1 X76.420 Y105.340
G1 X71.223 Y100.021 E187.5449 F3600
G1 X71.242 Y100.592
G1 X75.746 Y105.201 E187.8664
G1 X75.212 Y105.205
G1 X71.262 Y101.162 E188.1484
G1 X71.281 Y101.733
G1 X74.749 Y105.282 E188.3960
G1 X74.345 Y105.419
G1 X71.300 Y102.303 E188.6134
G1 X71.319 Y102.874
G1 X74.004 Y105.621 E188.8050
G1 X73.694 Y105.854
G1 X71.339 Y103.444 E188.9731
G1 X71.358 Y104.014
