; GCode generated by CraftWare

; filename = composition.3w 
; machine = daVinciF10 
; material = abs 
; extruder = 1 
M140 S90 ; Bed (no wait) 
M106 S255 ; Start fan 
G90 ; set absolute coordinates 
G28 ; home all axis 
M190 S90 ; Bed (wait) 
M104 S210 ; Extruder (no wait) 
M109 S210 ; Extruder (wait) 
M117 Start 
M117 Cleaning 
M100 ; Cleaning 
M117 Printing 
M190 S75 ;set bed temp (wait)
M109 S220 ;set head temp (wait)
; ------------------------------------
; Layer #0
; ------------------------------------
G21 ; mm
G90 ; abs
G92 E0 ; reset extr
M106 S0
G1 F4800 E-1.0000
G1 F300 Z0.400
G1 X137.863 Y108.017 F10800
G1 X139.200 Y101.800
G1 F4800 E0.0000
;segType:Support
G1 X138.528 Y101.800 E0.0380 F1800
G1 X138.528 Y103.600 E0.1398
G1 X139.200 Y103.600 E0.1778
G1 X138.528 Y105.400 E0.2864
G1 X139.200 Y105.400 E0.3244
G1 X138.528 Y107.200 E0.4330
G1 X139.200 Y107.200 E0.4710
G1 F4800 E-0.5290
G1 X136.941 Y106.850 F10800
G1 X124.365 Y107.620
G1 X123.927 Y107.679
G1 X119.944 Y107.726
G1 X118.819 Y107.577
G1 X118.652 Y103.726
G1 X119.020 Y103.546
G1 X116.626 Y103.152
G1 X118.853 Y103.185
G1 X118.853 Y107.613
G1 X109.543 Y107.613
G1 X109.459 Y104.863
G1 X109.376 Y102.112
G1 X107.005 Y92.385
G1 X102.465 Y92.385
G1 X99.988 Y96.791
G1 X100.054 Y92.415
G1 X80.799 Y92.385
G1 X79.119 Y97.368
G1 X76.261 Y96.253
G1 F4800 E0.4710
;segType:HShell
G1 X76.591 Y95.958 E0.5005 F1200
G1 X76.919 Y96.147
G1 X76.716 Y96.329 E0.5186
G1 X77.044 Y96.518
G1 X77.247 Y96.337 E0.5367
G1 X77.574 Y96.526
G1 X77.371 Y96.707 E0.5548
G1 X77.699 Y96.896
G1 X77.902 Y96.715 E0.5729
G1 X78.230 Y96.904
G1 X78.027 Y97.085 E0.5910
G1 X78.355 Y97.275
G1 X78.557 Y97.094 E0.6090
G1 X78.885 Y97.283
G1 X78.682 Y97.464 E0.6271
G1 X79.010 Y97.653
G1 X79.256 Y97.434 E0.6490
G1 X79.480 Y97.115 F10800
G1 X80.004 Y96.023
;segType:Loop
G1 X80.004 Y92.461 E0.8860 F1200
G1 X80.804 Y92.461 E0.9392
G1 X80.804 Y107.539 E1.9422
G1 X80.004 Y107.539 E1.9954
G1 X80.004 Y103.220 E2.2827
G1 X79.816 Y102.590 E2.3264
G1 X79.122 Y102.792 E2.3745
G1 X76.405 Y104.361 E2.5832
G1 X72.672 Y102.180 E2.8708
G1 X72.672 Y97.791 E3.1628
G1 X76.404 Y95.637 E3.4494
G1 X79.122 Y97.207 E3.6582
G1 X79.817 Y97.408 E3.7063
G1 X80.004 Y96.779 E3.7500
G1 X80.004 Y96.194 E3.7889
G1 X79.237 Y97.044 F10800
G1 X79.115 Y97.375
;segType:Perimeter
G1 X79.553 Y96.903 E3.8318 F719
G1 X79.604 Y96.732 E3.8436
G1 X79.604 Y92.103 E4.1516
G1 X137.728 Y92.103 E8.0180
G1 X137.728 Y107.897 E9.0685
G1 X79.604 Y107.897 E12.9350
G1 X79.604 Y103.267 E13.2429
G1 X79.538 Y103.046 E13.2582
G1 X79.295 Y103.117 E13.2751
G1 X76.404 Y104.787 E13.4972
G1 X72.272 Y102.373 E13.8155
G1 X72.272 Y97.596 E14.1332
G1 X76.404 Y95.212 E14.4506
G1 X79.296 Y96.882 E14.6727
G1 X79.484 Y96.937 E14.6858
G1 X80.166 Y96.863
;segType:HShell
G1 X80.204 Y92.733 F10800
G1 X80.309 Y92.639 E14.6951 F1200
G1 X80.604 Y92.858
G1 X80.204 Y93.215 E14.7308
G1 X80.204 Y93.696
G1 X80.604 Y93.340 E14.7664
G1 X81.069 Y92.626 F10800
G1 X85.350 Y92.661
;segType:Loop
G1 X85.350 Y92.461 E14.7797 F1200
G1 X90.744 Y92.461 E15.1385
G1 X90.744 Y101.516 E15.7409
G1 X90.717 Y101.280 E15.7567
G1 X90.636 Y100.868 E15.7846
G1 X90.523 Y100.470 E15.8122
G1 X90.380 Y100.085 E15.8394
G1 X90.207 Y99.715 E15.8666
G1 X90.001 Y99.359 E15.8940
G1 X89.766 Y99.017 E15.9216
G1 X89.501 Y98.690 E15.9496
G1 X89.208 Y98.380 E15.9780
G1 X88.890 Y98.091 E16.0066
G1 X88.554 Y97.827 E16.0350
G1 X88.202 Y97.595 E16.0630
G1 X87.835 Y97.395 E16.0908
G1 X87.452 Y97.225 E16.1187
G1 X87.055 Y97.088 E16.1466
G1 X86.645 Y96.981 E16.1748
G1 X86.219 Y96.909 E16.2036
G1 X85.786 Y96.868 E16.2325
G1 X85.350 Y96.860 E16.2615
G1 X85.350 Y92.832 E16.5295
G1 F4800 E15.5295
G1 X81.204 Y92.576 F10800
G1 X80.627 Y92.981
G1 F4800 E16.5295
;segType:Perimeter
G1 X81.261 Y92.746 E16.5745 F719
G1 X84.368 Y92.746 E16.7811
G1 X84.950 Y92.787 E16.8200
G1 X84.950 Y97.210 E17.1142
G1 X85.760 Y97.225 E17.1681
G1 X86.160 Y97.263 E17.1948
G1 X86.551 Y97.329 E17.2212
G1 X86.927 Y97.427 E17.2471
G1 X87.291 Y97.552 E17.2726
G1 X87.641 Y97.708 E17.2982
G1 X87.978 Y97.891 E17.3237
G1 X88.302 Y98.106 E17.3495
G1 X88.615 Y98.350 E17.3759
G1 X88.911 Y98.621 E17.4026
G1 X89.186 Y98.910 E17.4292
G1 X89.433 Y99.215 E17.4553
G1 X89.652 Y99.534 E17.4810
G1 X89.844 Y99.866 E17.5065
G1 X90.005 Y100.210 E17.5318
G1 X90.138 Y100.570 E17.5573
G1 X90.245 Y100.943 E17.5831
G1 X90.320 Y101.329 E17.6093
G1 X90.366 Y101.728 E17.6360
G1 X90.386 Y102.141 E17.6635
G1 X90.374 Y102.549 E17.6907
G1 X90.336 Y102.943 E17.7170
G1 X90.266 Y103.328 E17.7430
G1 X90.170 Y103.700 E17.7686
G1 X90.042 Y104.060 E17.7940
G1 X89.888 Y104.409 E17.8194
G1 X89.706 Y104.744 E17.8447
G1 X89.493 Y105.068 E17.8705
G1 X89.254 Y105.378 E17.8966
G1 X88.987 Y105.678 E17.9233
G1 X88.690 Y105.955 E17.9503
G1 X88.381 Y106.203 E17.9767
G1 X88.057 Y106.425 E18.0028
G1 X87.722 Y106.619 E18.0285
G1 X87.373 Y106.787 E18.0543
G1 X87.012 Y106.926 E18.0801
G1 X86.637 Y107.038 E18.1060
G1 X86.253 Y107.118 E18.1322
G1 X85.859 Y107.171 E18.1586
G1 X85.457 Y107.197 E18.1854
G1 X81.923 Y107.215 E18.4205
G1 X81.204 Y107.216 E18.4683
G1 X81.204 Y92.798 E19.4274
G1 X81.467 Y92.231
G1 F4800 E18.4274
G1 X79.393 Y98.707 F10800
G1 X77.881 Y102.997
G1 F4800 E19.4274
;segType:HShell
G1 X76.933 Y103.843 E19.5119 F1200
;segType:Loop
G1 X75.305 Y103.003 F10800
G1 X73.204 Y101.791 E19.6733 F1200
G1 X73.204 Y98.798 E19.8724
G1 X73.221 Y98.198 E19.9123
G1 X75.364 Y96.961 E20.0769
G1 X76.424 Y96.373 E20.1576
G1 X79.602 Y98.207 E20.4017
G1 X79.602 Y99.615 E20.4953
G1 X79.572 Y101.808 E20.6412
G1 X76.404 Y103.637 E20.8845
G1 X75.466 Y103.096 E20.9566
;segType:Perimeter
G1 X76.959 Y103.477 F10800
G1 X76.356 Y103.184 E21.0012 F719
G1 X73.604 Y101.596 E21.2125
G1 X73.604 Y98.802 E21.3984
G1 X73.615 Y98.395 E21.4255
G1 X75.579 Y97.263 E21.5762
G1 X76.420 Y96.796 E21.6402
G1 X79.202 Y98.402 E21.8539
G1 X79.202 Y99.613 E21.9345
G1 X79.174 Y101.612 E22.0675
G1 X76.452 Y103.184 E22.2766
G1 X75.849 Y103.477
G1 F4800 E21.2766
G1 X77.536 Y103.930 F10800
G1 X81.013 Y103.911
G1 X81.069 Y107.336
G1 X91.009 Y107.372
G1 X99.779 Y107.372
G1 X99.779 Y103.426
G1 X101.071 Y103.011
G1 F4800 E22.2766
;segType:HShell
G1 X102.270 Y101.941 E22.3835 F1200
G1 X102.270 Y101.459
G1 X100.531 Y103.011 E22.5385
G1 X99.992 Y103.011
G1 X102.270 Y100.977 E22.7417
G1 X102.270 Y100.495
G1 X99.452 Y103.011 E22.9930
;segType:Perimeter
G1 X99.381 Y103.031 F10800
G1 X99.644 Y103.598 E23.0345 F719
G1 X99.644 Y107.252 E23.2776
G1 X91.144 Y107.252 E23.8430
G1 X91.144 Y92.746 E24.8079
G1 X98.671 Y92.746 E25.3086
G1 X99.644 Y92.771 E25.3733
G1 X99.644 Y95.927 E25.5832
G1 X99.600 Y96.416 E25.6159
G1 X95.135 Y96.416 E25.9129
G1 X94.858 Y96.423 E25.9313
G1 X94.858 Y98.052 E26.0397
G1 X97.885 Y98.074 E26.2410
G1 X98.420 Y98.106 E26.2767
G1 X98.420 Y101.286 E26.4882
G1 X98.387 Y101.780 E26.5211
G1 X95.004 Y101.780 E26.7462
G1 X94.858 Y101.785 E26.7559
G1 X94.863 Y103.546 E26.8731
G1 X99.587 Y103.546 E27.1873
G1 X100.221 Y103.781
G1 F4800 E26.1873
G1 X104.128 Y103.448 F10800
G1 X107.008 Y103.104
G1 F4800 E27.1873
;segType:Loop
G1 X107.000 Y102.511 E27.2267 F1200
G1 X107.000 Y92.461 E27.8953
G1 X109.548 Y92.461 E28.0648
G1 X109.548 Y103.252 E28.7826
G1 X108.769 Y103.189 E28.8346
G1 X107.104 Y103.189 E28.9454
G1 F4800 E27.9454
G1 X107.954 Y102.826 F10800
G1 X109.757 Y102.121
G1 X109.813 Y107.372
G1 X118.583 Y107.372
G1 X118.624 Y98.904
G1 F4800 E28.9454
;segType:HShell
G1 X117.824 Y99.617 E29.0167 F1200
G1 X117.824 Y100.099
G1 X118.624 Y99.385 E29.0880
G1 X118.624 Y99.867
G1 X117.824 Y100.581 E29.1593
G1 X117.824 Y101.063
G1 X118.624 Y100.349 E29.2306
G1 X118.624 Y100.831
G1 X117.824 Y101.544 E29.3019
G1 X117.824 Y102.026
G1 X118.624 Y101.312 E29.3732
G1 X118.624 Y101.794
G1 X117.261 Y103.011 E29.4948
G1 X117.801 Y103.011
G1 X118.624 Y102.276 E29.5682
G1 X118.624 Y102.758
G1 X118.340 Y103.011 E29.5934
;segType:Perimeter
G1 X118.185 Y103.031 F10800
G1 X118.448 Y103.598 E29.6350 F719
G1 X118.448 Y107.252 E29.8780
G1 X109.948 Y107.252 E30.4435
G1 X109.948 Y92.746 E31.4084
G1 X118.448 Y92.746 E31.9738
G1 X118.448 Y96.416 E32.2179
G1 X113.660 Y96.416 E32.5364
G1 X113.660 Y98.074 E32.6467
G1 X117.224 Y98.074 E32.8838
G1 X117.224 Y101.780 E33.1303
G1 X113.660 Y101.780 E33.3673
G1 X113.660 Y103.546 E33.4849
G1 X118.391 Y103.546 E33.7996
G1 X119.025 Y103.781
G1 F4800 E32.7996
G1 X118.353 Y103.189 F10800
G1 F4800 E33.7996
;segType:Loop
G1 X114.060 Y103.189 E34.0851 F1200
G1 X114.060 Y102.137 E34.1551
G1 X117.624 Y102.137 E34.3922
G1 X117.624 Y97.717 E34.6862
G1 X114.060 Y97.717 E34.9233
G1 X114.060 Y96.773 E34.9861
G1 X118.824 Y96.773 E35.3030
G1 X118.824 Y103.189 E35.7298
G1 X118.543 Y103.189 E35.7485
G1 X119.089 Y92.626 F10800
G1 X123.356 Y92.661
G1 X123.356 Y92.461 E35.7618 F1200
G1 X124.655 Y92.461 E35.8482
G1 X124.281 Y93.031 E35.8935
G1 X123.356 Y94.587 E36.0140
G1 X123.356 Y92.832 E36.1308
G1 F4800 E35.1308
G1 X119.224 Y92.576 F10800
G1 X118.647 Y92.981
G1 F4800 E36.1308
;segType:Perimeter
G1 X119.281 Y92.746 E36.1758 F719
G1 X122.956 Y92.746 E36.4202
G1 X122.956 Y96.023 E36.6382
G1 X124.630 Y93.205 E36.8563
G1 X124.931 Y92.746 E36.8927
G1 X128.563 Y92.746 E37.1344
G1 X129.228 Y92.804 E37.1787
G1 X126.352 Y97.587 E37.5499
G1 X126.114 Y98.035 E37.5837
G1 X126.361 Y98.196 E37.6033
G1 X126.781 Y98.522 E37.6386
G1 X127.153 Y98.878 E37.6729
G1 X127.476 Y99.263 E37.7063
G1 X127.743 Y99.662 E37.7383
G1 X127.970 Y100.102 E37.7712
G1 X128.150 Y100.570 E37.8046
G1 X128.277 Y101.062 E37.8384
G1 X128.357 Y101.581 E37.8733
G1 X128.387 Y102.124 E37.9095
G1 X128.378 Y102.549 E37.9377
G1 X128.340 Y102.943 E37.9641
G1 X128.270 Y103.328 E37.9901
G1 X128.174 Y103.700 E38.0157
G1 X128.030 Y104.105 E38.0443
G1 X127.872 Y104.452 E38.0697
G1 X127.686 Y104.789 E38.0952
G1 X127.470 Y105.110 E38.1210
G1 X127.255 Y105.382 E38.1440
G1 X126.991 Y105.678 E38.1704
G1 X126.694 Y105.955 E38.1975
G1 X126.385 Y106.203 E38.2238
G1 X126.061 Y106.425 E38.2499
G1 X125.726 Y106.619 E38.2757
G1 X125.377 Y106.787 E38.3014
G1 X125.016 Y106.926 E38.3272
G1 X124.641 Y107.038 E38.3532
G1 X124.257 Y107.118 E38.3793
G1 X123.863 Y107.171 E38.4057
G1 X123.461 Y107.197 E38.4325
G1 X119.942 Y107.215 E38.6666
G1 X119.224 Y107.216 E38.7144
G1 X119.224 Y92.798 E39.6735
G1 X119.487 Y92.231
G1 F4800 E38.6735
G1 X102.735 Y92.626 F10800
G1 X102.270 Y94.714
G1 F4800 E39.6735
;segType:HShell
G1 X100.188 Y96.573 E39.8591 F1200
G1 X100.235 Y96.049
G1 X102.270 Y94.232 E40.0406
G1 X102.270 Y93.751
G1 X100.244 Y95.559 E40.2212
G1 X100.244 Y95.077
G1 X102.270 Y93.269 E40.4018
;segType:Perimeter
G1 X102.293 Y92.981 F10800
G1 X102.927 Y92.746 E40.4469 F719
G1 X106.600 Y92.746 E40.6912
G1 X106.600 Y102.513 E41.3408
G1 X106.613 Y103.546 E41.4096
G1 X108.751 Y103.546 E41.5518
G1 X109.190 Y103.582 E41.5811
G1 X109.190 Y107.215 E41.8228
G1 X100.404 Y107.215 E42.4073
G1 X100.404 Y103.546 E42.6513
G1 X102.870 Y103.546 E42.8154
G1 X102.870 Y92.798 E43.5304
G1 X103.133 Y92.231
G1 F4800 E42.5304
G1 X102.470 Y92.832 F10800
G1 F4800 E43.5304
;segType:Loop
G1 X102.470 Y103.189 E44.2194 F1200
G1 X100.044 Y103.189 E44.3808
G1 X100.004 Y103.189 E44.3834
G1 X95.262 Y103.189 E44.6988
G1 X95.259 Y102.137 E44.7689
G1 X98.764 Y102.137 E45.0020
G1 X98.820 Y101.296 E45.0580
G1 X98.820 Y97.772 E45.2925
G1 X97.900 Y97.718 E45.3538
G1 X95.258 Y97.698 E45.5295
G1 X95.258 Y96.773 E45.5911
G1 X99.969 Y96.773 E45.9044
G1 X100.044 Y95.942 E45.9599
G1 X100.044 Y92.461 E46.1915
G1 X102.470 Y92.461 E46.3529
G1 X102.470 Y92.661 E46.3662
G1 X101.339 Y94.775 F10800
G1 X99.835 Y95.934
G1 X99.781 Y92.653
G1 X91.009 Y92.626
G1 X90.744 Y102.961
G1 X90.744 Y107.539 E46.6708 F1200
G1 X85.700 Y107.539 E47.0063
G1 X85.904 Y107.527 E47.0198
G1 X86.329 Y107.469 E47.0483
G1 X86.746 Y107.382 E47.0767
G1 X87.154 Y107.260 E47.1050
G1 X87.548 Y107.109 E47.1331
G1 X87.926 Y106.926 E47.1610
G1 X88.288 Y106.717 E47.1889
G1 X88.636 Y106.478 E47.2169
G1 X88.969 Y106.212 E47.2453
G1 X89.288 Y105.913 E47.2744
G1 X89.576 Y105.591 E47.3031
G1 X89.831 Y105.259 E47.3309
G1 X90.059 Y104.912 E47.3585
G1 X90.254 Y104.553 E47.3857
G1 X90.420 Y104.180 E47.4129
G1 X90.556 Y103.794 E47.4401
G1 X90.659 Y103.397 E47.4674
G1 X90.733 Y102.987 E47.4951
G1 X90.736 Y102.961 E47.4969
G1 X90.953 Y101.971 F10800
G1 X91.009 Y107.372
G1 X99.779 Y107.372
G1 X99.779 Y103.426
G1 X102.735 Y92.626
G1 X119.089 Y92.626
G1 X128.573 Y92.576
G1 X129.396 Y92.724
G1 X127.628 Y96.219
G1 X129.864 Y92.501 E47.7855 F1200
G1 X129.398 Y92.461 E47.8166
G1 X137.328 Y92.461 E48.3441
G1 X137.328 Y107.539 E49.3471
G1 X123.704 Y107.539 E50.2533
G1 X123.908 Y107.527 E50.2669
G1 X124.332 Y107.469 E50.2954
G1 X124.751 Y107.382 E50.3238
G1 X125.158 Y107.260 E50.3521
G1 X125.552 Y107.109 E50.3802
G1 X125.931 Y106.926 E50.4081
G1 X126.292 Y106.717 E50.4359
G1 X126.640 Y106.478 E50.4640
G1 X126.973 Y106.212 E50.4923
G1 X127.292 Y105.913 E50.5215
G1 X127.575 Y105.596 E50.5497
G1 X127.805 Y105.305 E50.5744
G1 X128.037 Y104.960 E50.6020
G1 X128.237 Y104.599 E50.6295
G1 X128.407 Y104.227 E50.6567
G1 X128.560 Y103.794 E50.6873
G1 X128.663 Y103.397 E50.7145
G1 X128.737 Y102.987 E50.7422
G1 X128.778 Y102.568 E50.7703
G1 X128.787 Y102.119 E50.8001
G1 X128.756 Y101.548 E50.8382
G1 X128.671 Y100.997 E50.8752
G1 X128.535 Y100.472 E50.9113
G1 X128.341 Y99.969 E50.9472
G1 X128.098 Y99.495 E50.9826
G1 X127.808 Y99.063 E51.0172
G1 X127.460 Y98.648 E51.0533
G1 X127.059 Y98.264 E51.0902
G1 X126.617 Y97.922 E51.1274
G1 X126.710 Y97.748 E51.1405
G1 X127.538 Y96.370 E51.2475
;segType:HShell
G1 X127.564 Y96.703 F10800
G1 X132.117 Y92.639 E51.6534 F1200
G1 X132.657 Y92.639
G1 X126.939 Y97.743 E52.1633
G1 X127.113 Y98.070
G1 X133.197 Y92.639 E52.7058
G1 X133.736 Y92.639
G1 X127.382 Y98.312 E53.2724
G1 X127.639 Y98.564
G1 X134.276 Y92.639 E53.8642
G1 X134.816 Y92.639
G1 X127.870 Y98.839 E54.4835
G1 X128.085 Y99.129
G1 X135.355 Y92.639 E55.1317
G1 X135.895 Y92.639
G1 X128.285 Y99.432 E55.8103
G1 X128.455 Y99.762
G1 X136.435 Y92.639 E56.5218
G1 X136.974 Y92.639
G1 X128.607 Y100.109 E57.2679
G1 X128.740 Y100.472
G1 X137.128 Y92.984 E58.0159
G1 X137.128 Y93.466
G1 X128.841 Y100.863 E58.7548
G1 X128.916 Y101.278
G1 X137.128 Y93.947 E59.4870
G1 X137.128 Y94.429
G1 X128.965 Y101.716 E60.2149
G1 X128.986 Y102.179
G1 X137.128 Y94.911 E60.9409
G1 X137.128 Y95.393
G1 X128.968 Y102.677 E61.6685
G1 X128.897 Y103.222
G1 X137.128 Y95.874 E62.4024
G1 X137.128 Y96.356
G1 X128.756 Y103.829 E63.1489
G1 X128.467 Y104.570
G1 X137.128 Y96.838 E63.9212
G1 X137.128 Y97.320
G1 X127.731 Y105.708 E64.7591
G1 X136.673 Y107.361 F10800
G1 X137.128 Y106.955 E64.7997 F1200
G1 X137.128 Y106.473
G1 X136.133 Y107.361 E64.8884
G1 X135.594 Y107.361
G1 X137.128 Y105.991 E65.0252
G1 X137.128 Y105.509
G1 X135.054 Y107.361 E65.2101
G1 X134.514 Y107.361
G1 X137.128 Y105.028 E65.4432
G1 X137.128 Y104.546
G1 X133.975 Y107.361 E65.7243
G1 X133.435 Y107.361
G1 X137.128 Y104.064 E66.0536
G1 X137.128 Y103.582
G1 X132.895 Y107.361 E66.4311
G1 X132.356 Y107.361
G1 X137.128 Y103.101 E66.8566
G1 X137.128 Y102.619
G1 X131.816 Y107.361 E67.3303
G1 X131.276 Y107.361
G1 X137.128 Y102.137 E67.8520
G1 X137.128 Y101.655
G1 X130.737 Y107.361 E68.4220
G1 X130.197 Y107.361
G1 X137.128 Y101.174 E69.0400
G1 X137.128 Y100.692
G1 X129.657 Y107.361 E69.7061
G1 X129.118 Y107.361
G1 X137.128 Y100.210 E70.4204
G1 X137.128 Y99.728
G1 X128.578 Y107.361 E71.1828
G1 X128.038 Y107.361
G1 X137.128 Y99.247 E71.9933
G1 X137.128 Y98.765
G1 X127.499 Y107.361 E72.8519
G1 X126.959 Y107.361
G1 X137.128 Y98.283 E73.7587
G1 X137.128 Y97.801
G1 X126.419 Y107.361 E74.7136
G1 X125.880 Y107.361
G1 X126.538 Y106.773 E74.7723
G1 X123.469 Y107.367 F10800
G1 X119.089 Y107.336
G1 X118.583 Y103.426
G1 X114.802 Y102.315
G1 X114.260 Y102.799 E74.8206 F1200
G1 X114.563 Y103.011
G1 X115.342 Y102.315 E74.8901
G1 X115.881 Y102.315
G1 X115.102 Y103.011 E74.9595
G1 X115.642 Y103.011
G1 X116.421 Y102.315 E75.0290
G1 X116.961 Y102.315
G1 X116.182 Y103.011 E75.0985
G1 X116.721 Y103.011
G1 X117.500 Y102.315 E75.1679
G1 X118.624 Y98.422 F10800
G1 X117.824 Y99.136 E75.2392 F1200
G1 X117.824 Y98.654
G1 X118.624 Y97.940 E75.3105
G1 X118.624 Y97.458
G1 X117.824 Y98.172 E75.3818
G1 X117.824 Y97.690
G1 X118.624 Y96.977 E75.4532
G1 X118.112 Y96.951
G1 X117.454 Y97.539 E75.5118
G1 X116.915 Y97.539
G1 X117.573 Y96.951 E75.5705
G1 X117.033 Y96.951
G1 X116.375 Y97.539 E75.6292
G1 X115.835 Y97.539
G1 X116.493 Y96.951 E75.6878
G1 X115.954 Y96.951
G1 X115.296 Y97.539 E75.7465
G1 X114.756 Y97.539
G1 X115.414 Y96.951 E75.8052
G1 X114.874 Y96.951
G1 X114.260 Y97.500 E75.8599
G1 X114.260 Y97.018
G1 X114.335 Y96.951 E75.8666
G1 X118.583 Y94.581 F10800
G1 X118.583 Y92.626
G1 X109.813 Y92.626
G1 X109.134 Y103.040
G1 X109.348 Y102.848 E75.8857 F1200
G1 X109.348 Y102.366
G1 X108.626 Y103.011 E75.9500
G1 X108.087 Y103.011
G1 X109.348 Y101.885 E76.0625
G1 X109.348 Y101.403
G1 X107.547 Y103.011 E76.2231
G1 X107.204 Y102.835
G1 X109.348 Y100.921 E76.4143
G1 X109.348 Y100.439
G1 X107.200 Y102.357 E76.6058
G1 X107.200 Y101.875
G1 X109.348 Y99.958 E76.7973
G1 X109.348 Y99.476
G1 X107.200 Y101.393 E76.9888
G1 X107.200 Y100.912
G1 X109.348 Y98.994 E77.1803
G1 X109.348 Y98.512
G1 X107.200 Y100.430 E77.3719
G1 X107.200 Y99.948
G1 X109.348 Y98.031 E77.5634
G1 X109.348 Y97.549
G1 X107.200 Y99.466 E77.7549
G1 X107.200 Y98.985
G1 X109.348 Y97.067 E77.9464
G1 X109.348 Y96.585
G1 X107.200 Y98.503 E78.1380
G1 X107.200 Y98.021
G1 X109.348 Y96.104 E78.3295
G1 X109.348 Y95.622
G1 X107.200 Y97.539 E78.5210
G1 X107.200 Y97.058
G1 X109.348 Y95.140 E78.7125
G1 X109.348 Y94.658
G1 X107.200 Y96.576 E78.9040
G1 X107.200 Y96.094
G1 X109.348 Y94.177 E79.0956
G1 X109.348 Y93.695
G1 X107.200 Y95.612 E79.2871
G1 X107.200 Y95.130
G1 X109.348 Y93.213 E79.4786
G1 X109.348 Y92.731
G1 X107.200 Y94.649 E79.6701
G1 X107.200 Y94.167
G1 X108.912 Y92.639 E79.8227
G1 X108.372 Y92.639
G1 X107.200 Y93.685 E79.9272
G1 X107.200 Y93.203
G1 X107.832 Y92.639 E79.9836
G1 X107.293 Y92.639
G1 X107.200 Y92.722 E79.9918
G1 X105.337 Y92.576 F10800
G1 X102.870 Y92.576
G1 X102.270 Y92.787
G1 X100.244 Y94.595 E80.1724 F1200
G1 X100.244 Y94.114
G1 X101.896 Y92.639 E80.3197
G1 X101.356 Y92.639
G1 X100.244 Y93.632 E80.4189
G1 X100.244 Y93.150
G1 X100.817 Y92.639 E80.4700
G1 X99.764 Y96.951 F10800
G1 X99.020 Y97.615 E80.5362 F1200
G1 X98.525 Y97.576
G1 X99.224 Y96.951 E80.5986
G1 X98.684 Y96.951
G1 X98.019 Y97.546 E80.6579
G1 X97.490 Y97.536
G1 X98.145 Y96.951 E80.7163
G1 X97.605 Y96.951
G1 X96.955 Y97.532 E80.7743
G1 X96.420 Y97.528
G1 X97.065 Y96.951 E80.8319
G1 X96.526 Y96.951
G1 X95.884 Y97.524 E80.8891
G1 X95.458 Y97.423
G1 X95.986 Y96.951 E80.9361
G1 X99.835 Y95.934 F10800
G1 X99.781 Y92.653
G1 X91.009 Y92.626
G1 X90.544 Y99.401
G1 X90.350 Y99.574 E80.9534 F1200
G1 X90.166 Y99.257
G1 X90.544 Y98.919 E80.9871
G1 X90.544 Y98.437
G1 X89.961 Y98.958 E81.0391
G1 X89.737 Y98.676
G1 X90.544 Y97.956 E81.1111
G1 X90.544 Y97.474
G1 X89.496 Y98.409 E81.2045
G1 X89.241 Y98.155
G1 X90.544 Y96.992 E81.3207
G1 X90.544 Y96.510
G1 X88.970 Y97.916 E81.4611
G1 X88.682 Y97.691
G1 X90.544 Y96.029 E81.6271
G1 X90.544 Y95.547
G1 X88.372 Y97.485 E81.8207
G1 X88.042 Y97.299
G1 X90.544 Y95.065 E82.0438
G1 X90.544 Y94.583
G1 X87.690 Y97.131 E82.2984
G1 X87.313 Y96.986
G1 X90.544 Y94.101 E82.5864
G1 X90.544 Y93.620
G1 X86.909 Y96.864 E82.9105
G1 X86.474 Y96.771
G1 X90.544 Y93.138 E83.2734
G1 X90.544 Y92.656
G1 X86.004 Y96.709 E83.6783
G1 X85.550 Y96.632
G1 X90.023 Y92.639 E84.0771
G1 X89.484 Y92.639
G1 X85.550 Y96.150 E84.4279
G1 X85.550 Y95.669
G1 X88.944 Y92.639 E84.7305
G1 X88.404 Y92.639
G1 X85.550 Y95.187 E84.9850
G1 X85.550 Y94.705
G1 X87.865 Y92.639 E85.1913
G1 X87.325 Y92.639
G1 X85.550 Y94.223 E85.3496
G1 X85.550 Y93.742
G1 X86.785 Y92.639 E85.4597
G1 X86.246 Y92.639
G1 X85.550 Y93.260 E85.5217
G1 X85.550 Y92.778
G1 X85.706 Y92.639 E85.5356
G1 X81.069 Y92.626 F10800
G1 X77.131 Y95.835
G1 X75.751 Y96.226
G1 X74.804 Y97.072 E85.6201 F1200
G1 X74.225 Y97.107
G1 X73.279 Y97.952 E85.7044
G1 X76.421 Y96.625 F10800
G1 X79.663 Y97.552
G1 X79.338 Y97.842 E85.7334 F1200
G1 X79.666 Y98.031
G1 X80.604 Y97.194 E85.8171
G1 X80.604 Y97.676
G1 X79.802 Y98.391 E85.8886
G1 X79.802 Y98.873
G1 X80.604 Y98.157 E85.9600
G1 X80.604 Y98.639
G1 X79.802 Y99.355 E86.0315
G1 X79.799 Y99.839
G1 X80.604 Y99.121 E86.1033
G1 X80.604 Y99.603
G1 X79.792 Y100.327 E86.1757
G1 X79.785 Y100.815
G1 X80.604 Y100.084 E86.2486
G1 X80.604 Y100.566
G1 X79.779 Y101.303 E86.3222
G1 X79.772 Y101.791
G1 X80.604 Y101.048 E86.3964
G1 X80.604 Y101.530
G1 X79.534 Y102.485 E86.4918
G1 X80.009 Y102.542
G1 X80.604 Y102.011 E86.5448
G1 X80.604 Y102.493
G1 X80.122 Y102.923 E86.5878
G1 X80.204 Y103.332
G1 X80.604 Y102.975 E86.6234
G1 X80.604 Y103.457
G1 X80.204 Y103.813 E86.6590
G1 X80.204 Y104.295
G1 X80.604 Y103.938 E86.6946
G1 X80.604 Y104.420
G1 X80.204 Y104.777 E86.7303
G1 X80.204 Y105.259
G1 X80.604 Y104.902 E86.7659
G1 X80.604 Y105.384
G1 X80.204 Y105.740 E86.8015
G1 X80.204 Y106.222
G1 X80.604 Y105.865 E86.8372
G1 X80.604 Y106.347
G1 X80.204 Y106.704 E86.8728
G1 X80.204 Y107.186
G1 X80.604 Y106.829 E86.9084
G1 X81.069 Y107.336 F10800
G1 X86.289 Y107.285
G1 X87.820 Y106.765
G1 X90.257 Y104.956
G1 X90.544 Y104.700 E86.9340 F1200
G1 X90.544 Y105.182
G1 X88.103 Y107.361 E87.1516
G1 X88.643 Y107.361
G1 X90.544 Y105.664 E87.3211
G1 X90.544 Y106.145
G1 X89.182 Y107.361 E87.4425
G1 X89.722 Y107.361
G1 X90.544 Y106.627 E87.5158
G1 X90.544 Y107.109
G1 X90.262 Y107.361 E87.5410
G1 X81.069 Y107.336 F10800
G1 X79.629 Y102.897
G1 X76.393 Y103.843
G1 X76.192 Y104.023 E87.5589 F1200
G1 X75.866 Y103.832
G1 X76.065 Y103.654 E87.5767
G1 X75.737 Y103.465
G1 X75.539 Y103.642 E87.5944
G1 X75.213 Y103.451
G1 X75.410 Y103.276 E87.6119
G1 X75.082 Y103.087
G1 X74.887 Y103.261 E87.6293
G1 X74.561 Y103.070
G1 X74.754 Y102.898 E87.6465
G1 X74.426 Y102.708
G1 X74.234 Y102.880 E87.6636
G1 X73.908 Y102.689
G1 X74.098 Y102.519 E87.6805
G1 X73.771 Y102.330
G1 X73.582 Y102.499 E87.6974
G1 X73.256 Y102.308
G1 X73.443 Y102.141 E87.7140
G1 X73.115 Y101.952
G1 X72.930 Y102.117 E87.7306
G1 X72.872 Y101.687
G1 X73.004 Y101.569 E87.7423
G1 X73.004 Y101.088
G1 X72.872 Y101.205 E87.7541
G1 X72.872 Y100.723
G1 X73.004 Y100.606 E87.7658
G1 X73.004 Y100.124
G1 X72.872 Y100.242 E87.7776
G1 X72.872 Y99.760
G1 X73.004 Y99.642 E87.7893
G1 X73.004 Y99.161
G1 X72.872 Y99.278 E87.8011
G1 X72.872 Y98.796
G1 X73.007 Y98.676 E87.8131
G1 X73.021 Y98.182
G1 X72.872 Y98.315 E87.8264
G1 X77.207 Y95.878 F10800
G1 X80.604 Y93.821
G1 X80.204 Y94.178 E87.8620 F1200
G1 X80.204 Y94.660
G1 X80.604 Y94.303 E87.8976
G1 X80.604 Y94.785
G1 X80.204 Y95.142 E87.9333
G1 X80.204 Y95.623
G1 X80.604 Y95.267 E87.9689
G1 X80.604 Y95.749
G1 X80.204 Y96.105 E88.0045
G1 X80.204 Y96.587
G1 X80.604 Y96.230 E88.0401
G1 X80.604 Y96.712
G1 X80.096 Y97.165 E88.0854
G1 X81.069 Y107.336 F10800
G1 X87.563 Y107.361
G1 X87.701 Y107.238 E88.0977 F1200
G1 X81.924 Y107.385 F10800
G1 X81.069 Y107.336
G1 X79.629 Y102.897
G1 X78.461 Y102.961
G1 X79.409 Y102.115 E88.1822 F1200
G1 X81.069 Y107.336 F10800
G1 X91.009 Y107.372
G1 X99.779 Y107.372
G1 X99.779 Y103.426
G1 X95.461 Y102.719
G1 X95.914 Y102.315 E88.2226 F1200
G1 X96.453 Y102.315
G1 X95.674 Y103.011 E88.2920
G1 X96.214 Y103.011
G1 X96.993 Y102.315 E88.3615
G1 X97.533 Y102.315
G1 X96.754 Y103.011 E88.4310
G1 X97.293 Y103.011
G1 X98.072 Y102.315 E88.5004
G1 X98.612 Y102.315
G1 X97.833 Y103.011 E88.5699
G1 X98.373 Y103.011
G1 X102.270 Y99.532 E88.9174
G1 X102.270 Y100.013
G1 X98.912 Y103.011 E89.2168
G1 X101.611 Y103.011 F10800
G1 X102.270 Y102.422 E89.2756 F1200
G1 X102.270 Y102.904
G1 X102.150 Y103.011 E89.2863
G1 X98.974 Y101.992 F10800
G1 X102.270 Y99.050 E89.5801 F1200
G1 X102.270 Y98.568
G1 X99.008 Y101.480 E89.8710
G1 X99.020 Y100.987
G1 X102.270 Y98.086 E90.1607
G1 X102.270 Y97.605
G1 X99.020 Y100.506 E90.4505
G1 X99.020 Y100.024
G1 X102.270 Y97.123 E90.7403
G1 X102.270 Y96.641
G1 X99.020 Y99.542 E91.0300
G1 X99.020 Y99.060
G1 X102.270 Y96.159 E91.3198
G1 X102.270 Y95.678
G1 X99.020 Y98.579 E91.6096
G1 X99.020 Y98.097
G1 X102.270 Y95.196 E91.8993
G1 X102.735 Y92.626 F10800
G1 X123.091 Y92.626
G1 X123.556 Y93.055
G1 X124.022 Y92.639 E91.9409 F1200
G1 X123.977 Y93.162
G1 X123.556 Y93.537 E91.9784
G1 X124.836 Y92.599 F10800
G1 X130.498 Y92.639
G1 X129.440 Y93.584 E92.0727 F1200
G1 X128.815 Y94.624 F10800
G1 X131.038 Y92.639 E92.2709 F1200
G1 X131.578 Y92.639
G1 X128.190 Y95.664 E92.5730
;segType:Support
G1 F4800 E91.5730
G1 X138.528 Y98.200 F10800
G1 F4800 E92.5730
G1 X139.200 Y98.200 E92.6110 F1800
G1 F4800 E91.6110
G1 X139.200 Y94.600 F10800
G1 F4800 E92.6110
G1 X138.528 Y94.600 E92.6490 F1800
G1 X138.528 Y96.400 E92.7508
G1 X139.200 Y96.400 E92.7888
G1 F4800 E91.7888
G1 X139.200 Y100.000 F10800
G1 F4800 E92.7888
G1 X138.528 Y100.000 E92.8268 F1800
; ------------------------------------
; Layer #1
; ------------------------------------
G21 ; mm
G90 ; abs
G92 E0 ; reset extr
M106 S255
;segType:Support
G1 F4800 E-1.0000
G1 F300 Z0.700
G1 X138.528 Y101.800 F10800
G1 F4800 E0.0000
G1 X139.200 Y101.800 E0.0285 F5400
G1 F4800 E-0.9715
G1 X139.200 Y107.200 F10800
G1 F4800 E0.0285
G1 X138.528 Y107.200 E0.0570 F5400
G1 F4800 E-0.9430
G1 X139.200 Y100.000 F10800
G1 F4800 E0.0570
G1 X138.528 Y100.000 E0.0855 F5400
G1 F4800 E-0.9145
G1 X138.528 Y103.600 F10800
G1 F4800 E0.0855
G1 X139.200 Y103.600 E0.1140 F5400
G1 F4800 E-0.8860
G1 X138.528 Y94.600 F10800
G1 F4800 E0.1140
G1 X139.200 Y94.600 E0.1425 F5400
G1 F4800 E-0.8575
G1 X136.607 Y94.588 F10800
G1 X128.998 Y92.239
G1 X118.853 Y92.385
G1 X81.250 Y92.235
G1 X80.640 Y93.047
G1 F4800 E0.1425
;segType:HShell
G1 X80.204 Y92.658 E0.1716 F3600
G1 X80.204 Y93.139
G1 X80.625 Y93.515 E0.1998
G1 X80.611 Y93.984
G1 X80.204 Y93.621 E0.2270
G1 X80.204 Y94.103
G1 X80.604 Y94.460 E0.2537
G1 X80.604 Y94.941
G1 X80.204 Y94.585 E0.2804
G1 X80.204 Y95.066
G1 X80.604 Y95.423 E0.3071
G1 X80.604 Y95.905
G1 X80.204 Y95.548 E0.3339
G1 X80.204 Y96.030
G1 X80.604 Y96.387 E0.3606
G1 X80.604 Y96.868
G1 X80.204 Y96.512 E0.3873
G1 X80.159 Y96.953
G1 X80.604 Y97.350 E0.4170
G1 X80.604 Y97.832
G1 X80.046 Y97.334 E0.4544
G1 X79.792 Y97.589
G1 X80.604 Y98.314 E0.5086
G1 X80.604 Y98.795
G1 X78.956 Y97.325 E0.6188
;segType:Perimeter
G1 X79.115 Y97.375 F10800
G1 X79.553 Y96.904 E0.6509 F2159
G1 X79.604 Y96.733 E0.6598
G1 X79.604 Y92.103 E0.8908
G1 X137.728 Y92.103 E3.7906
G1 X137.728 Y107.897 E4.5785
G1 X79.604 Y107.897 E7.4783
G1 X79.604 Y103.267 E7.7093
G1 X79.538 Y103.046 E7.7208
G1 X79.295 Y103.117 E7.7334
G1 X76.414 Y104.781 E7.8994
G1 X76.358 Y104.760 E7.9024
G1 X72.272 Y102.402 E8.1377
G1 X72.272 Y97.596 E8.3775
G1 X76.394 Y95.217 E8.6149
G1 X76.549 Y95.295 E8.6236
G1 X79.296 Y96.883 E8.7819
G1 X79.484 Y96.937 E8.7916
G1 X80.166 Y96.864
;segType:Loop
G1 X80.004 Y96.024 F10800
G1 X80.004 Y92.461 E8.9694 F3600
G1 X80.858 Y92.461 E9.0120
G1 X80.804 Y94.217 E9.0997
G1 X80.804 Y107.539 E9.7643
G1 X80.004 Y107.539 E9.8042
G1 X80.004 Y103.220 E10.0197
G1 X79.816 Y102.590 E10.0525
G1 X79.122 Y102.792 E10.0886
G1 X76.404 Y104.361 E10.2452
G1 X72.672 Y102.208 E10.4602
G1 X72.672 Y97.791 E10.6805
G1 X76.404 Y95.637 E10.8955
G1 X79.122 Y97.208 E11.0521
G1 X79.817 Y97.409 E11.0882
G1 X80.004 Y96.779 E11.1209
G1 X80.004 Y96.194 E11.1501
G1 X81.117 Y92.624 F10800
G1 X85.155 Y92.461
G1 X90.744 Y92.461 E11.4290 F3600
G1 X90.744 Y101.512 E11.8806
G1 X90.720 Y101.296 E11.8914
G1 X90.640 Y100.883 E11.9124
G1 X90.528 Y100.485 E11.9330
G1 X90.386 Y100.100 E11.9535
G1 X90.214 Y99.729 E11.9739
G1 X90.010 Y99.372 E11.9944
G1 X89.776 Y99.029 E12.0151
G1 X89.512 Y98.702 E12.0361
G1 X89.219 Y98.391 E12.0574
G1 X88.902 Y98.101 E12.0788
G1 X88.567 Y97.837 E12.1001
G1 X88.216 Y97.603 E12.1212
G1 X87.849 Y97.402 E12.1420
G1 X87.467 Y97.230 E12.1629
G1 X87.071 Y97.093 E12.1839
G1 X86.661 Y96.985 E12.2050
G1 X86.235 Y96.911 E12.2266
G1 X85.802 Y96.868 E12.2483
G1 X85.350 Y96.860 E12.2708
G1 X85.350 Y92.497 E12.4885
G1 X85.154 Y92.472 E12.4984
G1 X83.476 Y92.576 F10800
G1 X81.117 Y92.624
G1 X80.667 Y92.969
;segType:Perimeter
G1 X81.307 Y92.746 E12.5322 F2159
G1 X84.457 Y92.746 E12.6894
G1 X84.950 Y92.808 E12.7142
G1 X84.950 Y96.977 E12.9222
G1 X84.954 Y97.210 E12.9338
G1 X85.776 Y97.225 E12.9748
G1 X86.175 Y97.265 E12.9948
G1 X86.566 Y97.332 E13.0146
G1 X86.941 Y97.431 E13.0340
G1 X87.304 Y97.557 E13.0532
G1 X87.654 Y97.714 E13.0723
G1 X87.991 Y97.899 E13.0914
G1 X88.315 Y98.114 E13.1108
G1 X88.626 Y98.359 E13.1306
G1 X88.923 Y98.631 E13.1507
G1 X89.196 Y98.921 E13.1706
G1 X89.443 Y99.227 E13.1902
G1 X89.660 Y99.546 E13.2095
G1 X89.851 Y99.879 E13.2286
G1 X90.011 Y100.224 E13.2476
G1 X90.143 Y100.584 E13.2667
G1 X90.249 Y100.957 E13.2860
G1 X90.323 Y101.344 E13.3057
G1 X90.368 Y101.744 E13.3258
G1 X90.386 Y102.157 E13.3464
G1 X90.375 Y102.537 E13.3654
G1 X90.337 Y102.932 E13.3851
G1 X90.269 Y103.317 E13.4047
G1 X90.173 Y103.688 E13.4238
G1 X90.046 Y104.050 E13.4429
G1 X89.893 Y104.398 E13.4619
G1 X89.711 Y104.734 E13.4809
G1 X89.500 Y105.058 E13.5003
G1 X89.261 Y105.369 E13.5198
G1 X88.995 Y105.669 E13.5398
G1 X88.699 Y105.947 E13.5601
G1 X88.390 Y106.196 E13.5799
G1 X88.067 Y106.418 E13.5994
G1 X87.732 Y106.614 E13.6188
G1 X87.384 Y106.782 E13.6381
G1 X87.023 Y106.922 E13.6574
G1 X86.648 Y107.034 E13.6769
G1 X86.265 Y107.116 E13.6965
G1 X85.871 Y107.170 E13.7163
G1 X85.469 Y107.196 E13.7364
G1 X82.043 Y107.214 E13.9073
G1 X81.204 Y107.216 E13.9492
G1 X81.204 Y94.222 E14.5975
G1 X81.248 Y92.798 E14.6685
G1 X81.515 Y92.233
G1 F4800 E13.6685
G1 X79.795 Y94.996 F10800
G1 X78.243 Y97.645
G1 X79.370 Y98.320
G1 X79.370 Y101.678
G1 X75.295 Y103.210
G1 F4800 E14.6685
;segType:HShell
G1 X76.243 Y104.056 E14.7319 F3600
G1 X76.493 Y103.798
G1 X76.697 Y103.979 E14.7455
G1 X77.025 Y103.790
G1 X76.821 Y103.609 E14.7591
G1 X77.149 Y103.419
G1 X77.352 Y103.601 E14.7727
;segType:Loop
G1 X75.305 Y103.003 F10800
G1 X73.204 Y101.791 E14.8937 F3600
G1 X73.204 Y98.372 E15.0643
G1 X73.425 Y98.080 E15.0826
G1 X75.437 Y96.919 E15.1985
G1 X76.445 Y96.385 E15.2554
G1 X79.602 Y98.207 E15.4372
G1 X79.602 Y101.791 E15.6160
G1 X76.404 Y103.637 E15.8002
G1 X75.466 Y103.096 E15.8543
;segType:Perimeter
G1 X76.959 Y103.477 F10800
G1 X76.356 Y103.184 E15.8877 F2159
G1 X73.604 Y101.596 E16.0462
G1 X73.604 Y98.481 E16.2016
G1 X73.711 Y98.341 E16.2105
G1 X75.648 Y97.223 E16.3220
G1 X76.436 Y96.805 E16.3665
G1 X79.202 Y98.402 E16.5259
G1 X79.202 Y101.596 E16.6852
G1 X76.452 Y103.184 E16.8437
G1 X75.849 Y103.477
G1 F4800 E15.8437
G1 X78.231 Y103.529 F10800
G1 X81.013 Y103.204
G1 X81.069 Y107.336
G1 X91.009 Y107.372
G1 X99.417 Y107.419
G1 X99.793 Y105.375
G1 X99.786 Y103.490
G1 X99.020 Y100.301
G1 F4800 E16.8437
;segType:HShell
G1 X102.055 Y103.011 E17.0467 F3600
G1 X101.516 Y103.011
G1 X99.020 Y100.783 E17.2136
G1 X99.020 Y101.265
G1 X100.976 Y103.011 E17.3444
G1 X100.436 Y103.011
G1 X99.020 Y101.746 E17.4391
G1 X99.020 Y102.228
G1 X99.897 Y103.011 E17.4977
;segType:Perimeter
G1 X99.431 Y103.073 F10800
G1 X99.644 Y103.655 E17.5287 F2159
G1 X99.644 Y107.163 E17.7036
G1 X99.383 Y107.252 E17.7174
G1 X91.144 Y107.252 E18.1284
G1 X91.144 Y92.746 E18.8521
G1 X99.644 Y92.746 E19.2762
G1 X99.644 Y96.416 E19.4592
G1 X94.858 Y96.416 E19.6980
G1 X94.858 Y98.074 E19.7808
G1 X98.420 Y98.074 E19.9585
G1 X98.420 Y101.780 E20.1433
G1 X94.858 Y101.780 E20.3210
G1 X94.858 Y103.546 E20.4092
G1 X99.015 Y103.546 E20.6166
G1 X99.587 Y103.599 E20.6452
G1 X100.215 Y103.848
G1 F4800 E19.6452
G1 X100.623 Y105.695 F10800
G1 X100.004 Y107.508
G1 F4800 E20.6452
;segType:Loop
G1 X100.004 Y107.539 E20.6468 F3600
G1 X99.660 Y107.539 E20.6640
G1 X99.915 Y107.453 E20.6774
G1 F4800 E19.6774
G1 X100.599 Y104.560 F10800
G1 X100.528 Y102.289
G1 X100.244 Y93.204
G1 F4800 E20.6774
;segType:HShell
G1 X102.270 Y95.012 E20.8129 F3600
G1 X102.270 Y94.530
G1 X100.244 Y92.722 E20.9483
G1 X100.691 Y92.639
G1 X102.270 Y94.049 E21.0539
G1 X102.270 Y93.567
G1 X101.231 Y92.639 E21.1234
G1 X101.770 Y92.639
G1 X102.270 Y93.085 E21.1568
;segType:Perimeter
G1 X102.293 Y92.981 F10800
G1 X102.927 Y92.746 E21.1906 F2159
G1 X106.600 Y92.746 E21.3738
G1 X106.600 Y102.729 E21.8719
G1 X106.626 Y103.546 E21.9127
G1 X108.771 Y103.546 E22.0197
G1 X109.190 Y103.617 E22.0409
G1 X109.190 Y107.215 E22.2204
G1 X100.404 Y107.215 E22.6588
G1 X100.404 Y103.546 E22.8418
G1 X102.870 Y103.546 E22.9649
G1 X102.870 Y92.798 E23.5011
G1 X103.133 Y92.231
G1 F4800 E22.5011
G1 X102.470 Y92.832 F10800
G1 F4800 E23.5011
;segType:Loop
G1 X102.470 Y103.189 E24.0179 F3600
G1 X100.004 Y103.189 E24.1409
G1 X100.004 Y103.278 E24.1454
G1 X99.035 Y103.189 E24.1939
G1 X95.258 Y103.189 E24.3823
G1 X95.258 Y102.137 E24.4348
G1 X98.820 Y102.137 E24.6125
G1 X98.820 Y97.717 E24.8330
G1 X95.258 Y97.717 E25.0107
G1 X95.258 Y96.773 E25.0579
G1 X100.044 Y96.773 E25.2966
G1 X100.044 Y92.461 E25.5118
G1 X102.470 Y92.461 E25.6328
G1 X102.470 Y92.661 E25.6428
G1 X102.679 Y93.512 F10800
G1 X102.735 Y92.626
G1 X123.356 Y92.661
G1 X123.356 Y92.461 E25.6528 F3600
G1 X124.691 Y92.461 E25.7194
G1 X124.296 Y93.005 E25.7529
G1 X123.356 Y94.587 E25.8448
G1 X123.356 Y92.832 E25.9324
G1 F4800 E24.9324
G1 X119.224 Y92.576 F10800
G1 X118.647 Y92.981
G1 F4800 E25.9324
;segType:Perimeter
G1 X119.281 Y92.746 E25.9661 F2159
G1 X122.956 Y92.746 E26.1495
G1 X122.956 Y96.023 E26.3129
G1 X124.641 Y93.186 E26.4776
G1 X124.960 Y92.746 E26.5047
G1 X128.928 Y92.746 E26.7026
G1 X129.163 Y92.799 E26.7147
G1 X129.104 Y93.009 E26.7256
G1 X127.114 Y96.321 E26.9183
G1 X126.091 Y98.020 E27.0173
G1 X126.363 Y98.197 E27.0335
G1 X126.782 Y98.523 E27.0600
G1 X127.154 Y98.879 E27.0857
G1 X127.477 Y99.264 E27.1107
G1 X127.735 Y99.649 E27.1339
G1 X127.963 Y100.088 E27.1585
G1 X128.144 Y100.556 E27.1835
G1 X128.274 Y101.047 E27.2089
G1 X128.355 Y101.566 E27.2351
G1 X128.387 Y102.108 E27.2622
G1 X128.379 Y102.536 E27.2836
G1 X128.341 Y102.932 E27.3034
G1 X128.273 Y103.317 E27.3229
G1 X128.177 Y103.688 E27.3420
G1 X128.030 Y104.105 E27.3641
G1 X127.872 Y104.452 E27.3831
G1 X127.686 Y104.789 E27.4023
G1 X127.470 Y105.110 E27.4216
G1 X127.260 Y105.375 E27.4385
G1 X126.999 Y105.669 E27.4581
G1 X126.703 Y105.947 E27.4783
G1 X126.394 Y106.196 E27.4981
G1 X126.071 Y106.418 E27.5177
G1 X125.736 Y106.614 E27.5370
G1 X125.388 Y106.782 E27.5563
G1 X125.027 Y106.922 E27.5757
G1 X124.653 Y107.034 E27.5952
G1 X124.269 Y107.116 E27.6147
G1 X123.875 Y107.170 E27.6345
G1 X123.473 Y107.196 E27.6546
G1 X120.062 Y107.214 E27.8249
G1 X119.224 Y107.216 E27.8666
G1 X119.224 Y92.798 E28.5860
G1 X119.487 Y92.231
G1 F4800 E27.5860
G1 X118.639 Y93.624 F10800
G1 X117.359 Y101.900
G1 X114.260 Y102.825
G1 F4800 E28.5860
;segType:HShell
G1 X114.468 Y103.011 E28.5999 F3600
G1 X115.007 Y103.011
G1 X114.260 Y102.344 E28.6498
G1 X114.768 Y102.315
G1 X115.547 Y103.011 E28.7019
G1 X116.087 Y103.011
G1 X115.308 Y102.315 E28.7540
G1 X115.847 Y102.315
G1 X116.626 Y103.011 E28.8061
G1 X117.166 Y103.011
G1 X116.387 Y102.315 E28.8582
G1 X116.927 Y102.315
G1 X117.706 Y103.011 E28.9103
G1 X118.245 Y103.011
G1 X117.466 Y102.315 E28.9624
G1 X117.824 Y102.153
G1 X118.624 Y102.867 E29.0159
;segType:Perimeter
G1 X118.185 Y103.031 F10800
G1 X118.448 Y103.598 E29.0471 F2159
G1 X118.448 Y107.252 E29.2294
G1 X109.948 Y107.252 E29.6535
G1 X109.948 Y92.746 E30.3771
G1 X118.448 Y92.746 E30.8012
G1 X118.448 Y96.416 E30.9842
G1 X113.660 Y96.416 E31.2231
G1 X113.660 Y98.074 E31.3059
G1 X117.224 Y98.074 E31.4837
G1 X117.224 Y101.780 E31.6685
G1 X113.660 Y101.780 E31.8463
G1 X113.660 Y103.546 E31.9345
G1 X118.391 Y103.546 E32.1705
G1 X119.025 Y103.781
G1 F4800 E31.1705
G1 X118.353 Y103.189 F10800
G1 F4800 E32.1705
;segType:Loop
G1 X114.060 Y103.189 E32.3847 F3600
G1 X114.060 Y102.137 E32.4372
G1 X117.624 Y102.137 E32.6150
G1 X117.624 Y97.717 E32.8355
G1 X114.060 Y97.717 E33.0133
G1 X114.060 Y96.773 E33.0604
G1 X118.824 Y96.773 E33.2981
G1 X118.824 Y103.189 E33.6182
G1 X118.543 Y103.189 E33.6322
G1 X113.851 Y103.199 F10800
G1 X118.583 Y103.426
G1 X118.583 Y107.372
G1 X109.813 Y107.372
G1 X109.757 Y102.887
G1 X107.000 Y102.639
G1 X107.000 Y92.461 E34.1400 F3600
G1 X109.548 Y92.461 E34.2671
G1 X109.548 Y103.314 E34.8086
G1 X108.808 Y103.189 E34.8460
G1 X107.015 Y103.189 E34.9355
G1 X107.003 Y102.809 E34.9545
G1 F4800 E33.9545
G1 X104.286 Y102.114 F10800
G1 X101.976 Y102.262
G1 X99.786 Y103.490
G1 X99.801 Y107.259
G1 X93.812 Y107.388
G1 X91.009 Y107.372
G1 X90.744 Y102.961
G1 F4800 E34.9545
G1 X90.744 Y107.539 E35.1829 F3600
G1 X85.696 Y107.539 E35.4348
G1 X85.916 Y107.525 E35.4458
G1 X86.341 Y107.467 E35.4672
G1 X86.759 Y107.378 E35.4885
G1 X87.166 Y107.256 E35.5097
G1 X87.559 Y107.104 E35.5307
G1 X87.937 Y106.921 E35.5517
G1 X88.299 Y106.709 E35.5726
G1 X88.647 Y106.470 E35.5936
G1 X88.978 Y106.203 E35.6149
G1 X89.297 Y105.903 E35.6367
G1 X89.583 Y105.581 E35.6582
G1 X89.838 Y105.249 E35.6791
G1 X90.065 Y104.902 E35.6998
G1 X90.260 Y104.541 E35.7202
G1 X90.424 Y104.168 E35.7406
G1 X90.559 Y103.782 E35.7610
G1 X90.662 Y103.385 E35.7814
G1 X90.734 Y102.975 E35.8022
G1 X90.736 Y102.960 E35.8030
G1 X90.953 Y101.971 F10800
G1 X91.009 Y107.372
G1 X99.417 Y107.419
G1 X99.793 Y105.375
G1 X102.735 Y92.626
G1 X119.089 Y92.626
G1 X128.951 Y92.577
G1 X129.327 Y92.712
G1 X129.282 Y93.071
G1 X127.631 Y96.218
G1 X129.480 Y93.139 E35.9821 F3600
G1 X129.649 Y92.540 E36.0132
G1 X129.296 Y92.461 E36.0313
G1 X137.328 Y92.461 E36.4320
G1 X137.328 Y107.539 E37.1843
G1 X123.700 Y107.539 E37.8642
G1 X123.920 Y107.525 E37.8752
G1 X124.345 Y107.467 E37.8966
G1 X124.763 Y107.378 E37.9179
G1 X125.171 Y107.256 E37.9392
G1 X125.563 Y107.104 E37.9601
G1 X125.941 Y106.921 E37.9811
G1 X126.303 Y106.709 E38.0020
G1 X126.651 Y106.470 E38.0231
G1 X126.982 Y106.203 E38.0443
G1 X127.301 Y105.903 E38.0661
G1 X127.581 Y105.589 E38.0871
G1 X127.805 Y105.305 E38.1052
G1 X128.037 Y104.960 E38.1259
G1 X128.237 Y104.599 E38.1465
G1 X128.407 Y104.226 E38.1670
G1 X128.563 Y103.782 E38.1905
G1 X128.666 Y103.385 E38.2109
G1 X128.738 Y102.975 E38.2317
G1 X128.779 Y102.555 E38.2528
G1 X128.787 Y102.101 E38.2754
G1 X128.753 Y101.531 E38.3039
G1 X128.667 Y100.982 E38.3316
G1 X128.529 Y100.456 E38.3587
G1 X128.335 Y99.955 E38.3856
G1 X128.089 Y99.482 E38.4121
G1 X127.809 Y99.065 E38.4372
G1 X127.462 Y98.650 E38.4642
G1 X127.060 Y98.266 E38.4919
G1 X126.608 Y97.915 E38.5205
G1 X127.467 Y96.491 E38.6034
G1 X127.540 Y96.368 E38.6106
G1 X129.282 Y93.071 F10800
G1 X129.327 Y92.712
G1 X128.951 Y92.577
G1 X124.869 Y92.597
G1 X124.156 Y92.870
;segType:HShell
G1 X123.897 Y92.639 E38.6279 F3600
G1 X123.556 Y92.817
G1 X123.965 Y93.182 E38.6552
G1 X123.778 Y93.497
G1 X123.556 Y93.299 E38.6700
G1 X123.091 Y92.626 F10800
G1 X118.583 Y92.626
G1 X102.735 Y92.626
G1 X99.393 Y103.043
G1 X98.578 Y102.315 E38.7245 F3600
G1 X98.038 Y102.315
G1 X98.817 Y103.011 E38.7766
G1 X98.278 Y103.011
G1 X97.499 Y102.315 E38.8287
G1 X96.959 Y102.315
G1 X97.738 Y103.011 E38.8808
G1 X97.198 Y103.011
G1 X96.419 Y102.315 E38.9329
G1 X95.880 Y102.315
G1 X96.659 Y103.011 E38.9850
G1 X96.119 Y103.011
G1 X95.458 Y102.421 E39.0292
G1 X95.458 Y102.903
G1 X95.579 Y103.011 E39.0374
G1 X99.786 Y103.490 F10800
G1 X99.801 Y107.259
G1 X93.812 Y107.388
G1 X91.009 Y107.372
G1 X90.544 Y104.778
G1 X90.416 Y104.664 E39.0459 F3600
G1 X90.240 Y104.988
G1 X90.544 Y105.260 E39.0663
G1 X90.544 Y105.742
G1 X90.041 Y105.293 E39.0999
G1 X89.825 Y105.582
G1 X90.544 Y106.224 E39.1480
G1 X90.544 Y106.705
G1 X89.593 Y105.857 E39.2115
G1 X89.345 Y106.117
G1 X90.544 Y107.187 E39.2917
G1 X90.199 Y107.361
G1 X89.080 Y106.362 E39.3665
G1 X88.796 Y106.590
G1 X89.659 Y107.361 E39.4242
G1 X89.119 Y107.361
G1 X88.493 Y106.801 E39.4661
G1 X88.172 Y106.997
G1 X88.580 Y107.361 E39.4934
G1 X88.040 Y107.361
G1 X87.832 Y107.175 E39.5074
G1 X85.477 Y107.366 F10800
G1 X81.069 Y107.336
G1 X79.802 Y98.562
G1 X80.604 Y99.277 E39.5610 F3600
G1 X80.604 Y99.759
G1 X79.802 Y99.043 E39.6146
G1 X79.802 Y99.525
G1 X80.604 Y100.241 E39.6682
G1 X80.604 Y100.722
G1 X79.802 Y100.007 E39.7218
G1 X79.802 Y100.489
G1 X80.604 Y101.204 E39.7754
G1 X80.604 Y101.686
G1 X79.802 Y100.970 E39.8290
G1 X79.802 Y101.452
G1 X80.604 Y102.168 E39.8826
G1 X80.604 Y102.649
G1 X79.771 Y101.906 E39.9383
G1 X79.443 Y102.095
G1 X79.794 Y102.409 E39.9618
G1 X79.387 Y102.527
G1 X79.115 Y102.284 E39.9800
G1 X78.788 Y102.474
G1 X78.991 Y102.655 E39.9936
G1 X78.663 Y102.844
G1 X78.460 Y102.663 E40.0072
G1 X78.132 Y102.852
G1 X78.335 Y103.033 E40.0208
G1 X78.008 Y103.223
G1 X77.804 Y103.041 E40.0344
G1 X77.477 Y103.230
G1 X77.680 Y103.412 E40.0480
G1 X79.629 Y102.897 F10800
G1 X79.793 Y103.245
G1 X80.204 Y107.110
G1 X80.485 Y107.361 E40.0667 F3600
G1 X80.604 Y106.985
G1 X80.204 Y106.629 E40.0934
G1 X80.204 Y106.147
G1 X80.604 Y106.504 E40.1202
G1 X80.604 Y106.022
G1 X80.204 Y105.665 E40.1469
G1 X80.204 Y105.183
G1 X80.604 Y105.540 E40.1736
G1 X80.604 Y105.058
G1 X80.204 Y104.702 E40.2003
G1 X80.204 Y104.220
G1 X80.604 Y104.576 E40.2271
G1 X80.604 Y104.095
G1 X80.204 Y103.738 E40.2538
G1 X80.204 Y103.256
G1 X80.604 Y103.613 E40.2805
G1 X80.604 Y103.131
G1 X80.032 Y102.621 E40.3187
G1 X79.370 Y98.320 F10800
G1 X78.371 Y97.284
G1 X77.426 Y96.440 E40.3819 F3600
G1 X76.844 Y96.403
G1 X76.295 Y95.912 E40.4187
G1 X75.967 Y96.102
G1 X76.198 Y96.308 E40.4342
G1 X75.860 Y96.488
G1 X75.639 Y96.291 E40.4489
G1 X75.312 Y96.480
G1 X75.521 Y96.667 E40.4629
G1 X75.187 Y96.851
G1 X74.984 Y96.669 E40.4765
G1 X74.656 Y96.858
G1 X74.860 Y97.040 E40.4902
G1 X74.532 Y97.229
G1 X74.328 Y97.047 E40.5038
G1 X74.001 Y97.237
G1 X74.204 Y97.418 E40.5174
G1 X73.876 Y97.607
G1 X73.673 Y97.426 E40.5310
G1 X73.345 Y97.615
G1 X73.548 Y97.797 E40.5446
G1 X73.241 Y98.004
G1 X73.017 Y97.804 E40.5596
G1 X72.872 Y98.156
G1 X73.023 Y98.291 E40.5697
G1 X73.004 Y98.756
G1 X72.872 Y98.638 E40.5785
G1 X72.872 Y99.120
G1 X73.004 Y99.237 E40.5873
G1 X73.004 Y99.719
G1 X72.872 Y99.602 E40.5962
G1 X72.872 Y100.083
G1 X73.004 Y100.201 E40.6050
G1 X73.004 Y100.683
G1 X72.872 Y100.565 E40.6138
G1 X72.872 Y101.047
G1 X73.004 Y101.164 E40.6226
G1 X73.004 Y101.646
G1 X72.872 Y101.529 E40.6314
G1 X72.872 Y102.010
G1 X73.189 Y102.293 E40.6526
G1 X74.716 Y103.174 F10800
G1 X73.769 Y102.330 E40.7159 F3600
G1 X81.013 Y98.844 F10800
G1 X81.117 Y92.624
G1 X84.470 Y92.577
G1 X85.094 Y92.696
G1 X85.800 Y96.689
G1 X85.550 Y96.466 E40.7326 F3600
G1 X85.550 Y95.985
G1 X86.420 Y96.761 E40.7908
G1 X88.194 Y97.381 F10800
G1 X85.550 Y95.021 E40.9676 F3600
G1 X85.550 Y95.503
G1 X87.145 Y96.927 E41.0743
G1 X90.544 Y92.734 F10800
G1 X90.437 Y92.639 E41.0814 F3600
G1 X89.898 Y92.639
G1 X90.544 Y93.216 E41.1246
G1 X90.544 Y93.698
G1 X89.358 Y92.639 E41.2040
G1 X88.818 Y92.639
G1 X90.544 Y94.180 E41.3194
G1 X90.544 Y94.661
G1 X88.279 Y92.639 E41.4709
G1 X87.739 Y92.639
G1 X90.544 Y95.143 E41.6584
G1 X90.544 Y95.625
G1 X87.199 Y92.639 E41.8821
G1 X86.660 Y92.639
G1 X90.544 Y96.107 E42.1419
G1 X90.544 Y96.588
G1 X86.120 Y92.639 E42.4377
G1 X85.580 Y92.639
G1 X90.544 Y97.070 E42.7697
G1 X90.544 Y97.552
G1 X85.550 Y93.094 E43.1037
G1 X85.550 Y93.576
G1 X90.544 Y98.034 E43.4376
G1 X90.544 Y98.515
G1 X85.550 Y94.058 E43.7716
G1 X85.550 Y94.539
G1 X90.544 Y98.997 E44.1055
G1 X90.544 Y99.479
G1 X89.965 Y98.962 E44.1442
G1 X91.009 Y92.626 F10800
G1 X99.779 Y92.626
G1 X99.779 Y96.536
G1 X95.926 Y97.539
G1 X95.458 Y97.121 E44.1755 F3600
G1 X95.807 Y96.951
G1 X96.465 Y97.539 E44.2195
G1 X97.005 Y97.539
G1 X96.347 Y96.951 E44.2635
G1 X96.887 Y96.951
G1 X97.545 Y97.539 E44.3075
G1 X98.084 Y97.539
G1 X97.426 Y96.951 E44.3515
G1 X97.966 Y96.951
G1 X98.624 Y97.539 E44.3955
G1 X102.707 Y95.015 F10800
G1 X102.735 Y92.626
G1 X118.583 Y92.626
G1 X118.583 Y96.536
G1 X114.260 Y97.044
G1 X114.814 Y97.539 E44.4325 F3600
G1 X115.354 Y97.539
G1 X114.696 Y96.951 E44.4765
G1 X115.235 Y96.951
G1 X115.893 Y97.539 E44.5205
G1 X116.433 Y97.539
G1 X115.775 Y96.951 E44.5646
G1 X116.315 Y96.951
G1 X116.973 Y97.539 E44.6086
G1 X117.512 Y97.539
G1 X116.854 Y96.951 E44.6526
G1 X117.394 Y96.951
G1 X118.624 Y98.049 E44.7348
G1 X118.624 Y97.567
G1 X117.934 Y96.951 E44.7809
G1 X118.473 Y96.951
G1 X118.624 Y97.086 E44.7910
G1 X118.583 Y92.626 F10800
G1 X102.735 Y92.626
G1 X99.020 Y99.819
G1 X102.270 Y102.720 E45.0083 F3600
G1 X102.270 Y102.239
G1 X99.020 Y99.338 E45.2256
G1 X99.020 Y98.856
G1 X102.270 Y101.757 E45.4430
G1 X102.270 Y101.275
G1 X99.020 Y98.374 E45.6603
G1 X99.020 Y97.892
G1 X102.270 Y100.793 E45.8776
G1 X102.270 Y100.312
G1 X98.506 Y96.951 E46.1293
G1 X99.045 Y96.951
G1 X102.270 Y99.830 E46.3450
G1 X102.270 Y99.348
G1 X99.585 Y96.951 E46.5245
G1 X100.125 Y96.951
G1 X102.270 Y98.866 E46.6680
G1 X102.270 Y98.385
G1 X100.244 Y96.576 E46.8035
G1 X100.244 Y96.094
G1 X102.270 Y97.903 E46.9389
G1 X102.270 Y97.421
G1 X100.244 Y95.613 E47.0744
G1 X100.244 Y95.131
G1 X102.270 Y96.939 E47.2099
G1 X102.270 Y96.457
G1 X100.244 Y94.649 E47.3454
G1 X100.244 Y94.167
G1 X102.270 Y95.976 E47.4808
G1 X102.270 Y95.494
G1 X100.244 Y93.686 E47.6163
G1 X102.735 Y92.626 F10800
G1 X108.786 Y92.639
G1 X109.348 Y93.141 E47.6539 F3600
G1 X109.348 Y93.623
G1 X108.246 Y92.639 E47.7276
G1 X107.707 Y92.639
G1 X109.348 Y94.104 E47.8373
G1 X109.348 Y94.586
G1 X107.200 Y92.669 E47.9810
G1 X107.200 Y93.151
G1 X109.348 Y95.068 E48.1246
G1 X109.348 Y95.550
G1 X107.200 Y93.632 E48.2683
G1 X107.200 Y94.114
G1 X109.348 Y96.031 E48.4119
G1 X109.348 Y96.513
G1 X107.200 Y94.596 E48.5556
G1 X107.200 Y95.078
G1 X109.348 Y96.995 E48.6992
G1 X109.348 Y97.477
G1 X107.200 Y95.559 E48.8428
G1 X107.200 Y96.041
G1 X109.348 Y97.959 E48.9865
G1 X109.348 Y98.440
G1 X107.200 Y96.523 E49.1301
G1 X107.200 Y97.005
G1 X109.348 Y98.922 E49.2738
G1 X109.348 Y99.404
G1 X107.200 Y97.486 E49.4174
G1 X107.200 Y97.968
G1 X109.348 Y99.886 E49.5611
G1 X109.348 Y100.367
G1 X107.200 Y98.450 E49.7047
G1 X107.200 Y98.932
G1 X109.348 Y100.849 E49.8483
G1 X109.348 Y101.331
G1 X107.200 Y99.413 E49.9920
G1 X107.200 Y99.895
G1 X109.348 Y101.813 E50.1356
G1 X109.348 Y102.294
G1 X107.200 Y100.377 E50.2793
G1 X107.200 Y100.859
G1 X109.348 Y102.776 E50.4229
G1 X109.128 Y103.061
G1 X107.200 Y101.340 E50.5518
G1 X107.200 Y101.822
G1 X108.531 Y103.011 E50.6409
G1 X107.992 Y103.011
G1 X107.200 Y102.304 E50.6938
G1 X107.202 Y102.788
G1 X107.452 Y103.011 E50.7105
G1 X109.813 Y92.626 F10800
G1 X118.583 Y92.626
G1 X118.583 Y96.536
G1 X117.824 Y97.817
G1 X118.624 Y98.531 E50.7640 F3600
G1 X118.624 Y99.013
G1 X117.824 Y98.299 E50.8175
G1 X117.824 Y98.781
G1 X118.624 Y99.494 E50.8710
G1 X118.624 Y99.976
G1 X117.824 Y99.262 E50.9245
G1 X117.824 Y99.744
G1 X118.624 Y100.458 E50.9779
G1 X118.624 Y100.940
G1 X117.824 Y100.226 E51.0314
G1 X117.824 Y100.708
G1 X118.624 Y101.421 E51.0849
G1 X118.624 Y101.903
G1 X117.824 Y101.189 E51.1384
G1 X117.824 Y101.671
G1 X118.624 Y102.385 E51.1918
G1 X119.089 Y107.336 F10800
G1 X125.817 Y107.361
G1 X125.688 Y107.246 E51.2004 F3600
G1 X126.038 Y107.077
G1 X126.356 Y107.361 E51.2217
G1 X126.896 Y107.361
G1 X126.365 Y106.886 E51.2573
G1 X126.673 Y106.680
G1 X127.436 Y107.361 E51.3083
G1 X127.975 Y107.361
G1 X126.964 Y106.458 E51.3759
G1 X127.239 Y106.221
G1 X128.515 Y107.361 E51.4613
G1 X129.055 Y107.361
G1 X127.497 Y105.970 E51.5655
G1 X127.736 Y105.702
G1 X129.594 Y107.361 E51.6897
G1 X130.134 Y107.361
G1 X127.960 Y105.420 E51.8352
G1 X128.163 Y105.120
G1 X130.674 Y107.361 E52.0031
G1 X131.213 Y107.361
G1 X128.348 Y104.803 E52.1947
G1 X128.513 Y104.468
G1 X131.753 Y107.361 E52.4114
G1 X132.293 Y107.361
G1 X128.656 Y104.114 E52.6546
G1 X128.779 Y103.742
G1 X132.832 Y107.361 E52.9257
G1 X133.372 Y107.361
G1 X128.875 Y103.346 E53.2265
G1 X128.944 Y102.926
G1 X133.912 Y107.361 E53.5587
G1 X134.451 Y107.361
G1 X128.980 Y102.476 E53.9247
G1 X128.981 Y101.995
G1 X134.991 Y107.361 E54.3266
G1 X135.531 Y107.361
G1 X128.948 Y101.484 E54.7668
G1 X128.857 Y100.921
G1 X136.070 Y107.361 E55.2493
G1 X136.610 Y107.361
G1 X128.669 Y100.272 E55.7803
G1 X128.297 Y99.458 F10800
G1 X137.128 Y107.341 E56.3709 F3600
G1 X137.128 Y106.860
G1 X126.931 Y97.757 E57.0528
G1 X127.120 Y97.443
G1 X137.128 Y106.378 E57.7222
G1 X137.128 Y105.896
G1 X127.308 Y97.130 E58.3789
G1 X127.497 Y96.817
G1 X137.128 Y105.414 E59.0230
G1 X137.128 Y104.932
G1 X127.686 Y96.504 E59.6544
G1 X127.874 Y96.190
G1 X137.128 Y104.451 E60.2733
G1 X137.128 Y103.969
G1 X128.062 Y95.876 E60.8796
G1 X128.251 Y95.563
G1 X137.128 Y103.487 E61.4732
G1 X137.128 Y103.005
G1 X128.439 Y95.249 E62.0543
G1 X128.628 Y94.936
G1 X137.128 Y102.524 E62.6228
G1 X137.128 Y102.042
G1 X128.816 Y94.622 E63.1786
G1 X129.004 Y94.308
G1 X137.128 Y101.560 E63.7219
G1 X137.128 Y101.078
G1 X129.193 Y93.995 E64.2526
G1 X129.381 Y93.681
G1 X137.128 Y100.597 E64.7707
G1 X137.128 Y100.115
G1 X129.570 Y93.368 E65.2761
G1 X129.720 Y93.020
G1 X137.128 Y99.633 E65.7716
G1 X137.128 Y99.151
G1 X129.833 Y92.639 E66.2594
G1 X130.373 Y92.639
G1 X137.128 Y98.670 E66.7112
G1 X137.128 Y98.188
G1 X130.912 Y92.639 E67.1269
G1 X131.452 Y92.639
G1 X137.128 Y97.706 E67.5065
G1 X137.128 Y97.224
G1 X131.992 Y92.639 E67.8500
G1 X132.531 Y92.639
G1 X137.128 Y96.743 E68.1574
G1 X137.128 Y96.261
G1 X133.071 Y92.639 E68.4288
G1 X133.611 Y92.639
G1 X137.128 Y95.779 E68.6640
G1 X137.128 Y95.297
G1 X134.150 Y92.639 E68.8631
G1 X134.690 Y92.639
G1 X137.128 Y94.816 E69.0262
G1 X137.128 Y94.334
G1 X135.230 Y92.639 E69.1531
G1 X135.769 Y92.639
G1 X137.128 Y93.852 E69.2440
G1 X137.128 Y93.370
G1 X136.309 Y92.639 E69.2988
G1 X136.849 Y92.639
G1 X137.128 Y92.889 E69.3175
;segType:Support
G1 F4800 E68.3175
G1 X139.200 Y105.400 F10800
G1 F4800 E69.3175
G1 X138.528 Y105.400 E69.3460 F5400
G1 F4800 E68.3460
G1 X139.200 Y98.200 F10800
G1 F4800 E69.3460
G1 X138.528 Y98.200 E69.3744 F5400
G1 X138.528 Y96.400 E69.4508
G1 X139.200 Y96.400 E69.4793
; ------------------------------------
; Layer #2
; ------------------------------------
G21 ; mm
G90 ; abs
G92 E0 ; reset extr
M106 S255
;segType:Support
G1 F4800 E-1.0000
G1 F300 Z1.000
G1 X138.528 Y94.618 F10800
G1 F4800 E0.0000
G1 X139.200 Y94.600 E0.0285 F5400
G1 X139.200 Y96.400 E0.1048
G1 X138.528 Y96.382 E0.1333
G1 F4800 E-0.8667
G1 X138.528 Y99.982 F10800
G1 F4800 E0.1333
G1 X139.200 Y100.000 E0.1618 F5400
G1 X139.200 Y101.800 E0.2382
G1 X138.528 Y101.818 E0.2667
G1 X138.528 Y103.582 E0.3415
G1 X139.200 Y103.600 E0.3700
G1 F4800 E-0.6300
G1 X138.528 Y107.182 F10800
G1 F4800 E0.3700
G1 X139.200 Y107.200 E0.3985 F5400
G1 X138.528 Y105.418 E0.4792
G1 X139.200 Y105.400 E0.5078
G1 F4800 E-0.4922
G1 X139.200 Y98.200 F10800
G1 F4800 E0.5078
G1 X138.528 Y98.218 E0.5363 F5400
G1 F4800 E-0.4637
G1 X136.126 Y98.108 F10800
G1 X125.650 Y107.236
G1 X124.392 Y107.615
G1 X123.953 Y107.676
G1 X120.183 Y107.725
G1 X118.820 Y107.578
G1 X118.853 Y94.581
G1 X118.853 Y92.385
G1 X100.049 Y92.385
G1 X80.799 Y92.385
G1 X79.663 Y97.552
G1 F4800 E0.5363
;segType:HShell
G1 X79.338 Y97.842 E0.5580 F3600
G1 X79.010 Y97.653
G1 X79.255 Y97.434 E0.5744
G1 X78.885 Y97.283
G1 X78.682 Y97.464 E0.5879
G1 X79.630 Y97.102 F10800
G1 X80.004 Y96.024
;segType:Loop
G1 X80.004 Y92.461 E0.7657 F3600
G1 X80.804 Y92.461 E0.8056
G1 X80.804 Y107.537 E1.5577
G1 X80.004 Y107.537 E1.5976
G1 X80.004 Y103.220 E1.8129
G1 X79.816 Y102.590 E1.8457
G1 X79.122 Y102.792 E1.8818
G1 X76.404 Y104.361 E2.0384
G1 X72.672 Y102.207 E2.2533
G1 X72.672 Y97.791 E2.4737
G1 X76.399 Y95.639 E2.6884
G1 X76.465 Y95.673 E2.6921
G1 X79.122 Y97.208 E2.8452
G1 X79.817 Y97.409 E2.8812
G1 X80.004 Y96.779 E2.9140
G1 X80.004 Y96.194 E2.9432
G1 X79.237 Y97.044 F10800
G1 X79.114 Y97.375
;segType:Perimeter
G1 X79.553 Y96.904 E2.9754 F2159
G1 X79.604 Y96.732 E2.9843
G1 X79.604 Y92.103 E3.2152
G1 X137.728 Y92.103 E6.1150
G1 X137.728 Y107.897 E6.9029
G1 X79.604 Y107.894 E9.8028
G1 X79.604 Y103.267 E10.0336
G1 X79.538 Y103.046 E10.0451
G1 X79.295 Y103.117 E10.0577
G1 X76.404 Y104.786 E10.2243
G1 X72.272 Y102.402 E10.4623
G1 X72.272 Y97.596 E10.7020
G1 X76.386 Y95.222 E10.9390
G1 X76.673 Y95.367 E10.9550
G1 X79.296 Y96.882 E11.1061
G1 X79.484 Y96.937 E11.1159
G1 X80.166 Y96.864
;segType:HShell
G1 X80.604 Y92.858 F10800
G1 X80.204 Y93.215 E11.1427 F3600
G1 X80.204 Y92.733
G1 X80.309 Y92.639 E11.1497
;segType:Loop
G1 X85.350 Y92.661 F10800
G1 X85.350 Y92.461 E11.1597 F3600
G1 X90.744 Y92.461 E11.4288
G1 X90.744 Y101.511 E11.8803
G1 X90.720 Y101.298 E11.8910
G1 X90.641 Y100.885 E11.9120
G1 X90.528 Y100.486 E11.9327
G1 X90.387 Y100.101 E11.9531
G1 X90.215 Y99.730 E11.9735
G1 X90.011 Y99.373 E11.9941
G1 X89.777 Y99.030 E12.0148
G1 X89.513 Y98.703 E12.0358
G1 X89.221 Y98.393 E12.0570
G1 X88.903 Y98.101 E12.0785
G1 X88.569 Y97.838 E12.0998
G1 X88.217 Y97.603 E12.1208
G1 X87.851 Y97.402 E12.1417
G1 X87.468 Y97.231 E12.1626
G1 X87.072 Y97.093 E12.1835
G1 X86.663 Y96.985 E12.2047
G1 X86.237 Y96.912 E12.2262
G1 X85.804 Y96.868 E12.2479
G1 X85.350 Y96.860 E12.2706
G1 X85.350 Y92.832 E12.4716
G1 F4800 E11.4716
G1 X81.204 Y92.576 F10800
G1 X80.627 Y92.981
G1 F4800 E12.4716
;segType:Perimeter
G1 X81.261 Y92.746 E12.5053 F2159
G1 X84.950 Y92.746 E12.6893
G1 X84.950 Y96.994 E12.9013
G1 X84.957 Y97.210 E12.9121
G1 X85.778 Y97.225 E12.9530
G1 X86.177 Y97.265 E12.9731
G1 X86.568 Y97.332 E12.9928
G1 X86.943 Y97.431 E13.0122
G1 X87.306 Y97.557 E13.0314
G1 X87.656 Y97.715 E13.0505
G1 X87.992 Y97.899 E13.0697
G1 X88.316 Y98.115 E13.0891
G1 X88.627 Y98.360 E13.1088
G1 X88.924 Y98.632 E13.1289
G1 X89.197 Y98.923 E13.1488
G1 X89.444 Y99.228 E13.1684
G1 X89.661 Y99.548 E13.1877
G1 X89.852 Y99.880 E13.2068
G1 X90.012 Y100.225 E13.2258
G1 X90.144 Y100.585 E13.2449
G1 X90.249 Y100.958 E13.2643
G1 X90.323 Y101.346 E13.2839
G1 X90.368 Y101.745 E13.3040
G1 X90.386 Y102.159 E13.3246
G1 X90.375 Y102.525 E13.3429
G1 X90.338 Y102.920 E13.3627
G1 X90.271 Y103.305 E13.3822
G1 X90.176 Y103.677 E13.4014
G1 X90.050 Y104.039 E13.4205
G1 X89.898 Y104.388 E13.4395
G1 X89.717 Y104.724 E13.4585
G1 X89.506 Y105.048 E13.4778
G1 X89.268 Y105.360 E13.4974
G1 X89.003 Y105.660 E13.5173
G1 X88.708 Y105.939 E13.5376
G1 X88.399 Y106.189 E13.5574
G1 X88.077 Y106.412 E13.5770
G1 X87.742 Y106.608 E13.5963
G1 X87.394 Y106.777 E13.6156
G1 X87.033 Y106.918 E13.6350
G1 X86.660 Y107.031 E13.6544
G1 X86.276 Y107.114 E13.6740
G1 X85.883 Y107.168 E13.6938
G1 X85.481 Y107.196 E13.7139
G1 X82.163 Y107.214 E13.8795
G1 X81.204 Y107.216 E13.9273
G1 X81.204 Y92.798 E14.6466
G1 X81.467 Y92.231
G1 F4800 E13.6466
G1 X79.393 Y98.707 F10800
G1 X77.880 Y102.997
G1 F4800 E14.6466
;segType:HShell
G1 X76.934 Y103.842 E14.7100 F3600
;segType:Loop
G1 X75.305 Y103.003 F10800
G1 X73.204 Y101.791 E14.8310 F3600
G1 X73.204 Y98.207 E15.0098
G1 X76.404 Y96.361 E15.1941
G1 X79.602 Y98.207 E15.3783
G1 X79.602 Y101.791 E15.5571
G1 X76.404 Y103.637 E15.7413
G1 X75.466 Y103.096 E15.7954
;segType:Perimeter
G1 X76.959 Y103.477 F10800
G1 X76.356 Y103.184 E15.8288 F2159
G1 X73.604 Y101.596 E15.9873
G1 X73.604 Y98.402 E16.1467
G1 X76.404 Y96.786 E16.3080
G1 X79.202 Y98.402 E16.4692
G1 X79.202 Y101.596 E16.6285
G1 X76.452 Y103.184 E16.7870
G1 X75.849 Y103.477
G1 F4800 E15.7870
G1 X77.926 Y103.705 F10800
G1 X81.013 Y103.472
G1 X81.069 Y107.336
G1 X91.009 Y107.372
G1 X99.779 Y107.372
G1 X99.779 Y103.426
G1 X102.270 Y100.977
G1 F4800 E16.7870
;segType:HShell
G1 X99.992 Y103.011 E16.9393 F3600
G1 X99.452 Y103.011
G1 X102.270 Y100.495 E17.1278
G1 X102.270 Y100.013
G1 X98.912 Y103.011 E17.3523
;segType:Perimeter
G1 X99.381 Y103.031 F10800
G1 X99.644 Y103.598 E17.3835 F2159
G1 X99.644 Y107.252 E17.5658
G1 X91.144 Y107.252 E17.9898
G1 X91.144 Y92.746 E18.7135
G1 X99.644 Y92.746 E19.1376
G1 X99.644 Y96.416 E19.3206
G1 X94.858 Y96.416 E19.5594
G1 X94.858 Y98.074 E19.6422
G1 X98.420 Y98.074 E19.8199
G1 X98.420 Y101.780 E20.0047
G1 X94.858 Y101.780 E20.1824
G1 X94.858 Y103.546 E20.2706
G1 X99.587 Y103.546 E20.5065
G1 X100.221 Y103.781
G1 F4800 E19.5065
G1 X104.124 Y103.448 F10800
G1 X107.000 Y103.104
G1 F4800 E20.5065
;segType:Loop
G1 X107.000 Y92.461 E21.0375 F3600
G1 X109.548 Y92.461 E21.1646
G1 X109.548 Y103.189 E21.6999
G1 X107.095 Y103.189 E21.8222
G1 F4800 E20.8222
G1 X109.785 Y105.367 F10800
G1 X109.813 Y107.373
G1 X118.583 Y107.339
G1 X118.583 Y103.426
G1 X117.801 Y103.011
G1 F4800 E21.8222
;segType:HShell
G1 X118.624 Y102.276 E21.8773 F3600
G1 X118.624 Y102.758
G1 X118.340 Y103.011 E21.8962
;segType:Loop
G1 X118.353 Y103.189 F10800
G1 X114.060 Y103.189 E22.1104 F3600
G1 X114.060 Y102.137 E22.1629
G1 X117.624 Y102.137 E22.3407
G1 X117.624 Y97.717 E22.5612
G1 X114.060 Y97.717 E22.7390
G1 X114.060 Y96.773 E22.7861
G1 X118.824 Y96.773 E23.0238
G1 X118.824 Y103.189 E23.3439
G1 X118.543 Y103.189 E23.3579
;segType:Perimeter
G1 X118.185 Y103.031 F10800
G1 X118.448 Y103.598 E23.3891 F2159
G1 X118.448 Y107.219 E23.5697
G1 X109.948 Y107.252 E23.9938
G1 X109.948 Y92.746 E24.7175
G1 X118.448 Y92.746 E25.1416
G1 X118.448 Y96.416 E25.3246
G1 X113.660 Y96.416 E25.5635
G1 X113.660 Y98.074 E25.6463
G1 X117.224 Y98.074 E25.8241
G1 X117.224 Y101.780 E26.0089
G1 X113.660 Y101.780 E26.1867
G1 X113.660 Y103.546 E26.2749
G1 X118.391 Y103.546 E26.5109
G1 X119.025 Y103.781
G1 F4800 E25.5109
G1 X122.695 Y94.887 F10800
G1 X123.356 Y92.661
G1 F4800 E26.5109
;segType:Loop
G1 X123.356 Y92.461 E26.5209 F3600
G1 X124.618 Y92.461 E26.5839
G1 X123.356 Y94.587 E26.7073
G1 X123.356 Y92.832 E26.7948
G1 F4800 E25.7948
G1 X119.224 Y92.576 F10800
G1 X118.647 Y92.981
G1 F4800 E26.7948
;segType:Perimeter
G1 X119.281 Y92.746 E26.8286 F2159
G1 X122.956 Y92.746 E27.0119
G1 X122.956 Y96.023 E27.1754
G1 X124.902 Y92.746 E27.3655
G1 X128.928 Y92.746 E27.5664
G1 X129.163 Y92.799 E27.5784
G1 X129.104 Y93.009 E27.5893
G1 X127.114 Y96.321 E27.7821
G1 X126.091 Y98.020 E27.8811
G1 X126.364 Y98.199 E27.8973
G1 X126.784 Y98.524 E27.9239
G1 X127.156 Y98.880 E27.9495
G1 X127.478 Y99.266 E27.9746
G1 X127.727 Y99.637 E27.9969
G1 X127.957 Y100.075 E28.0216
G1 X128.139 Y100.542 E28.0466
G1 X128.270 Y101.032 E28.0719
G1 X128.353 Y101.550 E28.0980
G1 X128.386 Y102.092 E28.1251
G1 X128.379 Y102.524 E28.1467
G1 X128.342 Y102.920 E28.1665
G1 X128.275 Y103.305 E28.1861
G1 X128.180 Y103.677 E28.2052
G1 X128.030 Y104.105 E28.2278
G1 X127.872 Y104.452 E28.2469
G1 X127.686 Y104.789 E28.2660
G1 X127.470 Y105.110 E28.2854
G1 X127.266 Y105.369 E28.3018
G1 X127.007 Y105.660 E28.3212
G1 X126.712 Y105.939 E28.3415
G1 X126.403 Y106.189 E28.3613
G1 X126.081 Y106.412 E28.3809
G1 X125.746 Y106.608 E28.4002
G1 X125.398 Y106.777 E28.4195
G1 X125.038 Y106.918 E28.4388
G1 X124.664 Y107.031 E28.4583
G1 X124.280 Y107.114 E28.4779
G1 X123.887 Y107.168 E28.4977
G1 X123.485 Y107.196 E28.5178
G1 X120.181 Y107.214 E28.6826
G1 X119.224 Y107.216 E28.7304
G1 X119.224 Y92.798 E29.4497
G1 X119.487 Y92.231
G1 F4800 E28.4497
G1 X102.735 Y92.626 F10800
G1 X102.270 Y94.232
G1 F4800 E29.4497
;segType:HShell
G1 X100.244 Y96.041 E29.5852 F3600
G1 X100.244 Y95.559
G1 X102.270 Y93.751 E29.7207
G1 X102.270 Y93.269
G1 X100.244 Y95.077 E29.8562
G1 X100.244 Y94.595
G1 X102.270 Y92.787 E29.9916
;segType:Perimeter
G1 X102.293 Y92.981 F10800
G1 X102.927 Y92.746 E30.0254 F2159
G1 X106.600 Y92.746 E30.2086
G1 X106.600 Y103.546 E30.7474
G1 X109.190 Y103.546 E30.8767
G1 X109.190 Y107.215 E31.0597
G1 X100.404 Y107.215 E31.4980
G1 X100.404 Y103.546 E31.6811
G1 X102.870 Y103.546 E31.8041
G1 X102.870 Y92.798 E32.3404
G1 X103.133 Y92.231
G1 F4800 E31.3404
G1 X102.470 Y92.832 F10800
G1 F4800 E32.3404
;segType:Loop
G1 X102.470 Y103.189 E32.8571 F3600
G1 X100.044 Y103.189 E32.9782
G1 X100.004 Y103.189 E32.9802
G1 X95.258 Y103.189 E33.2169
G1 X95.258 Y102.137 E33.2695
G1 X98.820 Y102.137 E33.4472
G1 X98.820 Y97.717 E33.6676
G1 X95.258 Y97.717 E33.8454
G1 X95.258 Y96.773 E33.8925
G1 X100.044 Y96.773 E34.1313
G1 X100.044 Y92.461 E34.3464
G1 X102.470 Y92.461 E34.4674
G1 X102.470 Y92.661 E34.4774
G1 X101.343 Y94.764 F10800
G1 X99.779 Y92.626
G1 X91.009 Y92.626
G1 X90.744 Y102.960
G1 X90.744 Y107.537 E34.7058 F3600
G1 X85.732 Y107.537 E34.9558
G1 X85.929 Y107.523 E34.9657
G1 X86.354 Y107.464 E34.9871
G1 X86.771 Y107.375 E35.0084
G1 X87.178 Y107.251 E35.0296
G1 X87.570 Y107.098 E35.0506
G1 X87.948 Y106.914 E35.0716
G1 X88.309 Y106.702 E35.0925
G1 X88.657 Y106.462 E35.1135
G1 X88.988 Y106.194 E35.1348
G1 X89.306 Y105.894 E35.1566
G1 X89.591 Y105.571 E35.1781
G1 X89.845 Y105.239 E35.1990
G1 X90.071 Y104.891 E35.2197
G1 X90.265 Y104.530 E35.2401
G1 X90.428 Y104.157 E35.2604
G1 X90.563 Y103.770 E35.2809
G1 X90.664 Y103.373 E35.3013
G1 X90.736 Y102.962 E35.3221
G1 X90.736 Y102.959 E35.3222
G1 X90.953 Y101.971 F10800
G1 X91.009 Y107.372
G1 X99.779 Y107.372
G1 X99.779 Y103.426
G1 X102.735 Y92.626
G1 X119.089 Y92.626
G1 X128.951 Y92.577
G1 X129.327 Y92.712
G1 X129.282 Y93.071
G1 X127.631 Y96.218
G1 X129.480 Y93.139 E35.5014 F3600
G1 X129.649 Y92.540 E35.5325
G1 X129.296 Y92.461 E35.5506
G1 X137.328 Y92.461 E35.9513
G1 X137.328 Y107.539 E36.7035
G1 X123.708 Y107.539 E37.3831
G1 X123.933 Y107.523 E37.3943
G1 X124.358 Y107.464 E37.4157
G1 X124.775 Y107.375 E37.4370
G1 X125.182 Y107.251 E37.4582
G1 X125.574 Y107.098 E37.4792
G1 X125.952 Y106.914 E37.5002
G1 X126.314 Y106.702 E37.5211
G1 X126.660 Y106.462 E37.5421
G1 X126.992 Y106.194 E37.5634
G1 X127.309 Y105.894 E37.5852
G1 X127.586 Y105.583 E37.6060
G1 X127.805 Y105.305 E37.6236
G1 X128.037 Y104.960 E37.6444
G1 X128.237 Y104.599 E37.6650
G1 X128.407 Y104.226 E37.6854
G1 X128.566 Y103.770 E37.7095
G1 X128.668 Y103.373 E37.7300
G1 X128.740 Y102.962 E37.7507
G1 X128.779 Y102.541 E37.7718
G1 X128.786 Y102.084 E37.7946
G1 X128.751 Y101.515 E37.8231
G1 X128.663 Y100.965 E37.8509
G1 X128.523 Y100.441 E37.8779
G1 X128.328 Y99.941 E37.9047
G1 X128.081 Y99.469 E37.9313
G1 X127.811 Y99.067 E37.9555
G1 X127.463 Y98.651 E37.9825
G1 X127.063 Y98.267 E38.0102
G1 X126.608 Y97.915 E38.0389
G1 X127.467 Y96.491 E38.1218
G1 X127.540 Y96.368 E38.1290
;segType:HShell
G1 X129.783 Y92.796 F10800
G1 X129.959 Y92.639 E38.1407 F3600
G1 X124.022 Y92.639 F10800
G1 X123.556 Y93.055 E38.1719 F3600
G1 X123.556 Y93.537
G1 X123.975 Y93.163 E38.1999
G1 X124.803 Y92.600 F10800
G1 X128.951 Y92.577
G1 X129.327 Y92.712
G1 X129.439 Y93.584
G1 X130.498 Y92.639 E38.2707 F3600
G1 X131.038 Y92.639
G1 X128.815 Y94.623 E38.4194
G1 X128.191 Y95.662 F10800
G1 X131.578 Y92.639 E38.6458 F3600
G1 X132.117 Y92.639
G1 X127.567 Y96.702 E38.9502
G1 X126.939 Y97.744 F10800
G1 X132.657 Y92.639 E39.3326 F3600
G1 X133.197 Y92.639
G1 X127.113 Y98.070 E39.7394
G1 X127.382 Y98.312
G1 X133.736 Y92.639 E40.1644
G1 X134.276 Y92.639
G1 X127.639 Y98.563 E40.6082
G1 X127.870 Y98.839
G1 X134.816 Y92.639 E41.0727
G1 X135.355 Y92.639
G1 X128.086 Y99.129 E41.5589
G1 X128.283 Y99.434
G1 X135.895 Y92.639 E42.0679
G1 X136.435 Y92.639
G1 X128.455 Y99.762 E42.6016
G1 X128.606 Y100.110
G1 X136.974 Y92.639 E43.1612
G1 X137.128 Y92.984
G1 X128.738 Y100.474 E43.7224
G1 X128.842 Y100.863
G1 X137.128 Y93.466 E44.2765
G1 X137.128 Y93.947
G1 X128.916 Y101.278 E44.8257
G1 X128.964 Y101.717
G1 X137.128 Y94.429 E45.3717
G1 X137.128 Y94.911
G1 X128.984 Y102.180 E45.9163
G1 X128.967 Y102.678
G1 X137.128 Y95.393 E46.4621
G1 X137.128 Y95.874
G1 X128.897 Y103.222 E47.0126
G1 X128.755 Y103.831
G1 X137.128 Y96.356 E47.5726
G1 X137.128 Y96.838
G1 X128.467 Y104.570 E48.1518
G1 X126.192 Y106.550 F10800
G1 X124.717 Y107.195
G1 X123.493 Y107.366
G1 X119.089 Y107.336
G1 X119.033 Y102.670
G1 X117.500 Y102.315
G1 X116.721 Y103.011 E48.2039 F3600
G1 X116.182 Y103.011
G1 X116.961 Y102.315 E48.2560
G1 X116.421 Y102.315
G1 X115.642 Y103.011 E48.3081
G1 X115.102 Y103.011
G1 X115.881 Y102.315 E48.3602
G1 X115.342 Y102.315
G1 X114.563 Y103.011 E48.4123
G1 X114.260 Y102.799
G1 X114.802 Y102.315 E48.4485
G1 X118.583 Y103.426 F10800
G1 X118.583 Y107.339
G1 X109.813 Y107.373
G1 X109.348 Y102.848
G1 X109.166 Y103.011 E48.4607 F3600
G1 X108.626 Y103.011
G1 X109.348 Y102.366 E48.5090
G1 X109.348 Y101.885
G1 X108.087 Y103.011 E48.5933
G1 X107.547 Y103.011
G1 X109.348 Y101.403 E48.7138
G1 X109.348 Y100.921
G1 X107.200 Y102.839 E48.8574
G1 X107.200 Y102.357
G1 X109.348 Y100.439 E49.0011
G1 X109.348 Y99.958
G1 X107.200 Y101.875 E49.1447
G1 X107.200 Y101.393
G1 X109.348 Y99.476 E49.2884
G1 X109.348 Y98.994
G1 X107.200 Y100.912 E49.4320
G1 X107.200 Y100.430
G1 X109.348 Y98.512 E49.5756
G1 X109.348 Y98.031
G1 X107.200 Y99.948 E49.7193
G1 X107.200 Y99.466
G1 X109.348 Y97.549 E49.8629
G1 X109.348 Y97.067
G1 X107.200 Y98.985 E50.0066
G1 X107.200 Y98.503
G1 X109.348 Y96.585 E50.1502
G1 X109.348 Y96.104
G1 X107.200 Y98.021 E50.2939
G1 X107.200 Y97.539
G1 X109.348 Y95.622 E50.4375
G1 X109.348 Y95.140
G1 X107.200 Y97.058 E50.5811
G1 X107.200 Y96.576
G1 X109.348 Y94.658 E50.7248
G1 X109.348 Y94.177
G1 X107.200 Y96.094 E50.8684
G1 X107.200 Y95.612
G1 X109.348 Y93.695 E51.0121
G1 X109.348 Y93.213
G1 X107.200 Y95.130 E51.1557
G1 X107.200 Y94.649
G1 X109.348 Y92.731 E51.2993
G1 X108.912 Y92.639
G1 X107.200 Y94.167 E51.4138
G1 X107.200 Y93.685
G1 X108.372 Y92.639 E51.4922
G1 X107.832 Y92.639
G1 X107.200 Y93.203 E51.5344
G1 X107.200 Y92.722
G1 X107.293 Y92.639 E51.5406
G1 X101.896 Y92.639 F10800
G1 X100.244 Y94.114 E51.6511 F3600
G1 X100.244 Y93.632
G1 X101.356 Y92.639 E51.7255
G1 X100.817 Y92.639
G1 X100.244 Y93.150 E51.7637
G1 X99.779 Y92.626 F10800
G1 X91.009 Y92.626
G1 X90.544 Y99.401
G1 X90.350 Y99.574 E51.7767 F3600
G1 X90.166 Y99.257
G1 X90.544 Y98.919 E51.8020
G1 X90.544 Y98.437
G1 X89.961 Y98.957 E51.8409
G1 X89.737 Y98.676
G1 X90.544 Y97.956 E51.8949
G1 X90.544 Y97.474
G1 X89.497 Y98.409 E51.9649
G1 X89.241 Y98.155
G1 X90.544 Y96.992 E52.0520
G1 X90.544 Y96.510
G1 X88.970 Y97.915 E52.1573
G1 X88.682 Y97.690
G1 X90.544 Y96.029 E52.2818
G1 X90.544 Y95.547
G1 X88.373 Y97.485 E52.4270
G1 X88.042 Y97.298
G1 X90.544 Y95.065 E52.5943
G1 X90.544 Y94.583
G1 X87.690 Y97.130 E52.7851
G1 X87.313 Y96.985
G1 X90.544 Y94.101 E53.0012
G1 X90.544 Y93.620
G1 X86.910 Y96.864 E53.2442
G1 X86.474 Y96.771
G1 X90.544 Y93.138 E53.5164
G1 X90.544 Y92.656
G1 X86.004 Y96.709 E53.8199
G1 X85.550 Y96.632
G1 X90.023 Y92.639 E54.1191
G1 X89.484 Y92.639
G1 X85.550 Y96.150 E54.3821
G1 X85.550 Y95.669
G1 X88.944 Y92.639 E54.6091
G1 X88.404 Y92.639
G1 X85.550 Y95.187 E54.8000
G1 X85.550 Y94.705
G1 X87.865 Y92.639 E54.9547
G1 X87.325 Y92.639
G1 X85.550 Y94.223 E55.0734
G1 X85.550 Y93.742
G1 X86.785 Y92.639 E55.1560
G1 X86.246 Y92.639
G1 X85.550 Y93.260 E55.2025
G1 X85.550 Y92.778
G1 X85.706 Y92.639 E55.2129
G1 X99.779 Y92.626 F10800
G1 X102.270 Y94.714
G1 X100.244 Y96.523 E55.3484 F3600
G1 X95.458 Y97.423 F10800
G1 X95.986 Y96.951 E55.3837 F3600
G1 X96.526 Y96.951
G1 X95.868 Y97.539 E55.4277
G1 X96.407 Y97.539
G1 X97.065 Y96.951 E55.4717
G1 X97.605 Y96.951
G1 X96.947 Y97.539 E55.5157
G1 X97.487 Y97.539
G1 X98.145 Y96.951 E55.5597
G1 X98.684 Y96.951
G1 X98.026 Y97.539 E55.6037
G1 X98.566 Y97.539
G1 X99.224 Y96.951 E55.6477
G1 X99.764 Y96.951
G1 X99.020 Y97.615 E55.6974
G1 X99.020 Y98.097
G1 X102.270 Y95.196 E55.9147
G1 X102.270 Y95.678
G1 X99.020 Y98.579 E56.1321
G1 X99.020 Y99.060
G1 X102.270 Y96.159 E56.3494
G1 X102.270 Y96.641
G1 X99.020 Y99.542 E56.5667
G1 X99.020 Y100.024
G1 X102.270 Y97.123 E56.7840
G1 X102.270 Y97.605
G1 X99.020 Y100.506 E57.0013
G1 X99.020 Y100.987
G1 X102.270 Y98.086 E57.2187
G1 X102.270 Y98.568
G1 X99.020 Y101.469 E57.4360
G1 X99.020 Y101.951
G1 X102.270 Y99.050 E57.6533
G1 X102.270 Y99.532
G1 X98.373 Y103.011 E57.9139
G1 X98.612 Y102.315
G1 X97.833 Y103.011 E57.9660
G1 X97.293 Y103.011
G1 X98.072 Y102.315 E58.0181
G1 X97.533 Y102.315
G1 X96.754 Y103.011 E58.0702
G1 X96.214 Y103.011
G1 X96.993 Y102.315 E58.1223
G1 X96.453 Y102.315
G1 X95.674 Y103.011 E58.1744
G1 X95.458 Y102.722
G1 X95.914 Y102.315 E58.2049
G1 X99.779 Y103.426 F10800
G1 X99.779 Y107.372
G1 X91.009 Y107.372
G1 X90.544 Y107.109
G1 X90.264 Y107.358 E58.2236 F3600
G1 X89.725 Y107.358
G1 X90.544 Y106.627 E58.2784
G1 X90.544 Y106.145
G1 X89.185 Y107.358 E58.3692
G1 X88.645 Y107.358
G1 X90.544 Y105.664 E58.4962
G1 X90.544 Y105.182
G1 X88.106 Y107.358 E58.6592
G1 X87.566 Y107.358
G1 X87.701 Y107.238 E58.6682
G1 X90.258 Y104.955 F10800
G1 X90.544 Y104.700 E58.6873 F3600
G1 X87.840 Y106.754 F10800
G1 X86.313 Y107.281
G1 X81.069 Y107.336
G1 X80.204 Y107.186
G1 X80.604 Y106.829 E58.7141 F3600
G1 X80.604 Y106.347
G1 X80.204 Y106.704 E58.7408
G1 X80.204 Y106.222
G1 X80.604 Y105.865 E58.7675
G1 X80.604 Y105.384
G1 X80.204 Y105.740 E58.7942
G1 X80.204 Y105.259
G1 X80.604 Y104.902 E58.8209
G1 X80.604 Y104.420
G1 X80.204 Y104.777 E58.8477
G1 X80.204 Y104.295
G1 X80.604 Y103.938 E58.8744
G1 X80.604 Y103.457
G1 X80.204 Y103.813 E58.9011
G1 X80.204 Y103.332
G1 X80.604 Y102.975 E58.9278
G1 X80.604 Y102.493
G1 X80.122 Y102.923 E58.9600
G1 X80.009 Y102.542
G1 X80.604 Y102.011 E58.9998
G1 X80.604 Y101.530
G1 X79.534 Y102.485 E59.0713
G1 X79.408 Y102.116
G1 X78.461 Y102.961 E59.1347
G1 X76.404 Y103.382 F10800
G1 X73.436 Y101.678
G1 X73.004 Y98.197
G1 X72.872 Y98.315 E59.1435 F3600
G1 X72.872 Y98.796
G1 X73.004 Y98.679 E59.1523
G1 X73.004 Y99.161
G1 X72.872 Y99.278 E59.1611
G1 X72.872 Y99.760
G1 X73.004 Y99.642 E59.1699
G1 X73.004 Y100.124
G1 X72.872 Y100.242 E59.1787
G1 X72.872 Y100.723
G1 X73.004 Y100.606 E59.1875
G1 X73.004 Y101.088
G1 X72.872 Y101.205 E59.1963
G1 X72.872 Y101.687
G1 X73.004 Y101.569 E59.2052
G1 X73.115 Y101.952
G1 X72.912 Y102.133 E59.2187
G1 X73.240 Y102.322
G1 X73.443 Y102.141 E59.2323
G1 X73.771 Y102.330
G1 X73.568 Y102.511 E59.2458
G1 X73.895 Y102.700
G1 X74.098 Y102.519 E59.2594
G1 X74.426 Y102.708
G1 X74.223 Y102.890 E59.2730
G1 X74.551 Y103.079
G1 X74.754 Y102.898 E59.2866
G1 X75.082 Y103.087
G1 X74.879 Y103.268 E59.3001
G1 X75.207 Y103.457
G1 X75.410 Y103.276 E59.3137
G1 X75.737 Y103.465
G1 X75.534 Y103.646 E59.3273
G1 X75.862 Y103.835
G1 X76.065 Y103.654 E59.3409
G1 X76.393 Y103.843
G1 X76.190 Y104.025 E59.3545
G1 X73.436 Y101.678 F10800
G1 X73.436 Y98.320
G1 X74.805 Y97.071
G1 X75.752 Y96.226 E59.4178 F3600
G1 X78.355 Y97.275 F10800
G1 X78.557 Y97.094 E59.4313 F3600
G1 X78.229 Y96.905
G1 X78.027 Y97.085 E59.4448
G1 X77.699 Y96.896
G1 X77.902 Y96.715 E59.4584
G1 X77.574 Y96.526
G1 X77.371 Y96.707 E59.4719
G1 X77.044 Y96.518
G1 X77.246 Y96.337 E59.4855
G1 X76.919 Y96.148
G1 X76.716 Y96.329 E59.4991
G1 X76.331 Y96.191
G1 X76.591 Y95.958 E59.5165
G1 X74.225 Y97.107 F10800
G1 X73.279 Y97.951 E59.5797 F3600
G1 X76.404 Y96.616 F10800
G1 X79.370 Y98.320
G1 X79.802 Y101.763
G1 X80.604 Y101.048 E59.6333 F3600
G1 X80.604 Y100.566
G1 X79.802 Y101.282 E59.6869
G1 X79.802 Y100.800
G1 X80.604 Y100.084 E59.7405
G1 X80.604 Y99.603
G1 X79.802 Y100.318 E59.7941
G1 X79.802 Y99.836
G1 X80.604 Y99.121 E59.8478
G1 X80.604 Y98.639
G1 X79.802 Y99.355 E59.9014
G1 X79.802 Y98.873
G1 X80.604 Y98.157 E59.9550
G1 X80.604 Y97.676
G1 X79.802 Y98.391 E60.0086
G1 X79.666 Y98.031
G1 X80.604 Y97.194 E60.0713
G1 X80.604 Y96.712
G1 X80.096 Y97.165 E60.1053
G1 X80.204 Y96.587
G1 X80.604 Y96.230 E60.1320
G1 X80.604 Y95.749
G1 X80.204 Y96.105 E60.1587
G1 X80.204 Y95.623
G1 X80.604 Y95.267 E60.1854
G1 X80.604 Y94.785
G1 X80.204 Y95.142 E60.2122
G1 X80.204 Y94.660
G1 X80.604 Y94.303 E60.2389
G1 X80.604 Y93.821
G1 X80.204 Y94.178 E60.2656
G1 X80.204 Y93.696
G1 X80.604 Y93.340 E60.2923
G1 X81.069 Y92.626 F10800
G1 X99.779 Y92.626
G1 X102.270 Y102.904
G1 X102.150 Y103.011 E60.3003 F3600
G1 X101.611 Y103.011
G1 X102.270 Y102.422 E60.3444
G1 X102.270 Y101.941
G1 X101.071 Y103.011 E60.4246
G1 X100.531 Y103.011
G1 X102.270 Y101.459 E60.5409
G1 X102.735 Y92.626 F10800
G1 X118.583 Y92.626
G1 X118.583 Y96.536
G1 X114.335 Y96.951
G1 X114.260 Y97.018 E60.5458 F3600
G1 X114.260 Y97.500
G1 X114.874 Y96.951 E60.5869
G1 X115.414 Y96.951
G1 X114.756 Y97.539 E60.6309
G1 X115.296 Y97.539
G1 X115.954 Y96.951 E60.6749
G1 X116.493 Y96.951
G1 X115.835 Y97.539 E60.7189
G1 X116.375 Y97.539
G1 X117.033 Y96.951 E60.7629
G1 X117.573 Y96.951
G1 X116.915 Y97.539 E60.8069
G1 X117.454 Y97.539
G1 X118.112 Y96.951 E60.8509
G1 X118.624 Y96.977
G1 X117.824 Y97.690 E60.9044
G1 X117.824 Y98.172
G1 X118.624 Y97.458 E60.9579
G1 X118.624 Y97.940
G1 X117.824 Y98.654 E61.0114
G1 X117.824 Y99.136
G1 X118.624 Y98.422 E61.0648
G1 X118.624 Y98.904
G1 X117.824 Y99.617 E61.1183
G1 X117.824 Y100.099
G1 X118.624 Y99.385 E61.1718
G1 X118.624 Y99.867
G1 X117.824 Y100.581 E61.2253
G1 X117.824 Y101.063
G1 X118.624 Y100.349 E61.2788
G1 X118.624 Y100.831
G1 X117.824 Y101.544 E61.3322
G1 X117.824 Y102.026
G1 X118.624 Y101.312 E61.3857
G1 X118.624 Y101.794
G1 X117.261 Y103.011 E61.4769
G1 X118.448 Y103.376 F10800
G1 X119.033 Y104.001
G1 X119.089 Y107.336
G1 X125.880 Y107.360
G1 X126.539 Y106.772 E61.5209 F3600
G1 X127.727 Y105.712 F10800
G1 X137.128 Y97.320 E62.1496 F3600
G1 X137.128 Y97.801
G1 X126.420 Y107.360 E62.8657
G1 X126.960 Y107.360
G1 X137.128 Y98.283 E63.5458
G1 X137.128 Y98.765
G1 X127.499 Y107.360 E64.1897
G1 X128.039 Y107.360
G1 X137.128 Y99.247 E64.7976
G1 X137.128 Y99.728
G1 X128.578 Y107.360 E65.3693
G1 X129.118 Y107.360
G1 X137.128 Y100.210 E65.9050
G1 X137.128 Y100.692
G1 X129.658 Y107.360 E66.4046
G1 X130.197 Y107.360
G1 X137.128 Y101.174 E66.8681
G1 X137.128 Y101.655
G1 X130.737 Y107.360 E67.2955
G1 X131.277 Y107.361
G1 X137.128 Y102.137 E67.6868
G1 X137.128 Y102.619
G1 X131.816 Y107.361 E68.0420
G1 X132.356 Y107.361
G1 X137.128 Y103.101 E68.3612
G1 X137.128 Y103.582
G1 X132.896 Y107.361 E68.6442
G1 X133.435 Y107.361
G1 X137.128 Y104.064 E68.8912
G1 X137.128 Y104.546
G1 X133.975 Y107.361 E69.1020
G1 X134.514 Y107.361
G1 X137.128 Y105.028 E69.2768
G1 X137.128 Y105.509
G1 X135.054 Y107.361 E69.4155
G1 X135.594 Y107.361
G1 X137.128 Y105.991 E69.5181
G1 X137.128 Y106.473
G1 X136.133 Y107.361 E69.5846
G1 X136.673 Y107.361
G1 X137.128 Y106.955 E69.6150
; ------------------------------------
; Layer #3
; ------------------------------------
G21 ; mm
G90 ; abs
G92 E0 ; reset extr
M106 S255
;segType:Support
G1 F4800 E-1.0000
G1 F300 Z1.300
G1 X138.528 Y107.200 F10800
G1 F4800 E0.0000
G1 X139.200 Y107.200 E0.0285 F5400
G1 X139.200 Y105.400 E0.1048
G1 X137.928 Y105.400 E0.1588
G1 X137.928 Y105.400
;segType:SoftSupport
G1 X131.028 Y105.400 E0.3137 F5400
G1 F4800 E-0.6863
G1 X128.106 Y105.157 F10800
G1 X125.661 Y107.231
G1 X124.405 Y107.612
G1 X123.966 Y107.674
G1 X120.303 Y107.724
G1 X118.820 Y107.578
G1 X118.652 Y103.651
G1 X116.442 Y103.239
G1 X118.853 Y103.185
G1 X118.853 Y107.613
G1 X109.543 Y107.613
G1 X109.459 Y104.945
G1 X109.376 Y102.277
G1 X107.005 Y92.385
G1 X102.465 Y92.385
G1 X100.049 Y103.185
G1 X100.082 Y107.522
G1 X99.314 Y107.761
G1 X93.598 Y107.662
G1 X90.739 Y107.613
G1 X90.655 Y103.552
G1 X90.613 Y101.522
G1 X90.572 Y99.491
G1 X85.355 Y92.385
G1 X80.799 Y92.385
G1 X79.106 Y97.708
G1 F4800 E0.3137
;segType:Infill
G1 X79.106 Y97.389 E0.3296 F5400
G1 X79.629 Y97.101 F10800
G1 X80.004 Y96.023
;segType:Loop
G1 X80.004 Y92.461 E0.5073 F3600
G1 X80.804 Y92.461 E0.5472
G1 X80.804 Y107.539 E1.2995
G1 X80.004 Y107.539 E1.3394
G1 X80.004 Y103.220 E1.5549
G1 X79.816 Y102.590 E1.5876
G1 X79.122 Y102.792 E1.6237
G1 X76.404 Y104.361 E1.7803
G1 X72.672 Y102.207 E1.9952
G1 X72.672 Y97.791 E2.2156
G1 X76.391 Y95.644 E2.4298
G1 X76.589 Y95.745 E2.4409
G1 X79.122 Y97.207 E2.5868
G1 X79.816 Y97.408 E2.6229
G1 X80.004 Y96.778 E2.6556
G1 X80.004 Y96.193 E2.6848
G1 X79.236 Y97.043 F10800
G1 X79.114 Y97.374
;segType:Perimeter
G1 X79.553 Y96.902 E2.7170 F2159
G1 X79.604 Y96.731 E2.7259
G1 X79.604 Y92.103 E2.9568
G1 X137.728 Y92.103 E5.8566
G1 X137.728 Y93.320 E5.9173
G1 X130.228 Y93.320 E6.2915
G1 X130.228 Y106.678 E6.9579
G1 X137.728 Y106.678 E7.3320
G1 X137.728 Y107.897 E7.3929
G1 X79.604 Y107.897 E10.2927
G1 X79.604 Y103.267 E10.5237
G1 X79.538 Y103.046 E10.5351
G1 X79.295 Y103.117 E10.5478
G1 X76.404 Y104.786 E10.7143
G1 X72.272 Y102.402 E10.9523
G1 X72.272 Y97.596 E11.1921
G1 X76.378 Y95.227 E11.4286
G1 X76.797 Y95.439 E11.4520
G1 X79.295 Y96.881 E11.5959
G1 X79.484 Y96.936 E11.6057
G1 X80.166 Y96.863
G1 X81.069 Y92.626 F10800
G1 X85.350 Y92.661
;segType:Loop
G1 X85.350 Y92.461 E11.6157 F3600
G1 X90.744 Y92.461 E11.8848
G1 X90.744 Y101.513 E12.3364
G1 X90.720 Y101.299 E12.3472
G1 X90.641 Y100.887 E12.3681
G1 X90.529 Y100.488 E12.3888
G1 X90.388 Y100.103 E12.4093
G1 X90.216 Y99.732 E12.4297
G1 X90.012 Y99.375 E12.4502
G1 X89.778 Y99.032 E12.4709
G1 X89.514 Y98.704 E12.4919
G1 X89.222 Y98.394 E12.5131
G1 X88.905 Y98.103 E12.5346
G1 X88.570 Y97.838 E12.5559
G1 X88.218 Y97.604 E12.5770
G1 X87.852 Y97.403 E12.5978
G1 X87.470 Y97.231 E12.6187
G1 X87.074 Y97.093 E12.6397
G1 X86.664 Y96.985 E12.6608
G1 X86.239 Y96.912 E12.6823
G1 X85.806 Y96.868 E12.7040
G1 X85.350 Y96.860 E12.7268
G1 X85.350 Y92.832 E12.9278
G1 F4800 E11.9278
G1 X81.204 Y92.576 F10800
G1 X80.627 Y92.981
G1 F4800 E12.9278
;segType:Perimeter
G1 X81.261 Y92.746 E12.9615 F2159
G1 X84.950 Y92.746 E13.1456
G1 X84.950 Y97.011 E13.3583
G1 X84.958 Y97.210 E13.3683
G1 X85.779 Y97.225 E13.4092
G1 X86.179 Y97.265 E13.4293
G1 X86.569 Y97.333 E13.4490
G1 X86.945 Y97.431 E13.4684
G1 X87.307 Y97.558 E13.4876
G1 X87.657 Y97.715 E13.5067
G1 X87.994 Y97.900 E13.5259
G1 X88.318 Y98.116 E13.5453
G1 X88.628 Y98.361 E13.5650
G1 X88.925 Y98.633 E13.5851
G1 X89.198 Y98.924 E13.6050
G1 X89.445 Y99.229 E13.6246
G1 X89.662 Y99.549 E13.6439
G1 X89.853 Y99.881 E13.6630
G1 X90.012 Y100.226 E13.6820
G1 X90.145 Y100.587 E13.7011
G1 X90.249 Y100.960 E13.7205
G1 X90.323 Y101.347 E13.7401
G1 X90.368 Y101.747 E13.7602
G1 X90.386 Y102.160 E13.7808
G1 X90.376 Y102.513 E13.7984
G1 X90.340 Y102.908 E13.8182
G1 X90.273 Y103.294 E13.8377
G1 X90.179 Y103.666 E13.8569
G1 X90.054 Y104.028 E13.8760
G1 X89.902 Y104.378 E13.8950
G1 X89.723 Y104.714 E13.9140
G1 X89.513 Y105.039 E13.9333
G1 X89.276 Y105.351 E13.9529
G1 X89.011 Y105.651 E13.9729
G1 X88.717 Y105.931 E13.9931
G1 X88.409 Y106.181 E14.0129
G1 X88.087 Y106.405 E14.0325
G1 X87.753 Y106.602 E14.0519
G1 X87.405 Y106.773 E14.0712
G1 X87.044 Y106.914 E14.0905
G1 X86.671 Y107.028 E14.1100
G1 X86.288 Y107.111 E14.1295
G1 X85.895 Y107.167 E14.1493
G1 X85.493 Y107.195 E14.1694
G1 X82.283 Y107.213 E14.3296
G1 X81.204 Y107.216 E14.3834
G1 X81.204 Y92.798 E15.1027
G1 X81.467 Y92.231
G1 F4800 E14.1027
G1 X79.795 Y94.864 F10800
G1 X78.182 Y97.610
G1 X79.370 Y98.320
G1 X79.370 Y101.678
G1 X75.305 Y103.003
G1 F4800 E15.1027
;segType:Loop
G1 X73.204 Y101.791 E15.2238 F3600
G1 X73.204 Y98.237 E15.4011
G1 X73.666 Y97.941 E15.4285
G1 X76.404 Y96.361 E15.5862
G1 X79.602 Y98.207 E15.7704
G1 X79.602 Y101.791 E15.9492
G1 X76.404 Y103.637 E16.1334
G1 X75.466 Y103.096 E16.1874
;segType:Perimeter
G1 X76.959 Y103.477 F10800
G1 X76.356 Y103.184 E16.2209 F2159
G1 X73.604 Y101.596 E16.3794
G1 X73.604 Y98.421 E16.5378
G1 X73.891 Y98.236 E16.5549
G1 X76.404 Y96.786 E16.6996
G1 X79.202 Y98.402 E16.8608
G1 X79.202 Y101.596 E17.0202
G1 X76.452 Y103.184 E17.1786
G1 X75.849 Y103.477
G1 F4800 E16.1786
G1 X81.013 Y102.372 F10800
G1 X81.069 Y107.337
G1 X86.326 Y107.278
G1 X87.851 Y106.748
G1 X90.077 Y104.445
G1 X90.529 Y102.928
G1 X91.009 Y92.626
G1 X99.779 Y92.626
G1 X99.779 Y96.536
G1 X99.190 Y96.951
G1 F4800 E17.1786
;segType:Infill
G1 X99.190 Y103.011 E17.4809 F5400
;segType:Loop
G1 X102.470 Y92.832 F10800
G1 X102.470 Y103.189 E17.9976 F3600
G1 X100.044 Y103.189 E18.1187
G1 X100.004 Y103.189 E18.1207
G1 X95.258 Y103.189 E18.3574
G1 X95.258 Y102.137 E18.4099
G1 X98.820 Y102.137 E18.5877
G1 X98.820 Y97.717 E18.8081
G1 X95.258 Y97.717 E18.9859
G1 X95.258 Y96.773 E19.0330
G1 X100.044 Y96.773 E19.2717
G1 X100.044 Y92.461 E19.4869
G1 X102.470 Y92.461 E19.6079
G1 X102.470 Y92.661 E19.6179
;segType:Perimeter
G1 X102.293 Y92.981 F10800
G1 X102.927 Y92.746 E19.6517 F2159
G1 X106.600 Y92.746 E19.8349
G1 X106.600 Y103.546 E20.3737
G1 X109.190 Y103.546 E20.5029
G1 X109.190 Y107.215 E20.6860
G1 X100.404 Y107.215 E21.1243
G1 X100.404 Y103.546 E21.3074
G1 X102.870 Y103.546 E21.4304
G1 X102.870 Y92.798 E21.9667
G1 X103.133 Y92.231
G1 F4800 E20.9667
G1 X106.735 Y92.626 F10800
G1 X107.000 Y103.104
G1 F4800 E21.9667
;segType:Loop
G1 X107.000 Y92.461 E22.4977 F3600
G1 X109.548 Y92.461 E22.6248
G1 X109.548 Y103.189 E23.1601
G1 X107.095 Y103.189 E23.2824
G1 F4800 E22.2824
G1 X103.888 Y103.364 F10800
G1 X101.635 Y103.197
G1 X99.381 Y103.031
G1 F4800 E23.2824
;segType:Perimeter
G1 X99.644 Y103.598 E23.3136 F2159
G1 X99.644 Y107.193 E23.4929
G1 X99.265 Y107.252 E23.5121
G1 X91.144 Y107.252 E23.9172
G1 X91.144 Y92.746 E24.6409
G1 X99.644 Y92.746 E25.0650
G1 X99.644 Y96.416 E25.2480
G1 X94.858 Y96.416 E25.4868
G1 X94.858 Y98.074 E25.5696
G1 X98.420 Y98.074 E25.7473
G1 X98.420 Y101.780 E25.9321
G1 X94.858 Y101.780 E26.1098
G1 X94.858 Y103.546 E26.1980
G1 X99.587 Y103.546 E26.4339
G1 X100.221 Y103.781
G1 F4800 E25.4339
G1 X109.813 Y107.372 F10800
G1 X118.583 Y107.372
G1 X118.583 Y103.426
G1 X118.353 Y103.189
G1 F4800 E26.4339
;segType:Loop
G1 X114.060 Y103.189 E26.6480 F3600
G1 X114.060 Y102.137 E26.7006
G1 X117.624 Y102.137 E26.8784
G1 X117.624 Y97.717 E27.0989
G1 X114.060 Y97.717 E27.2767
G1 X114.060 Y96.773 E27.3238
G1 X118.824 Y96.773 E27.5615
G1 X118.824 Y103.189 E27.8816
G1 X118.543 Y103.189 E27.8956
;segType:Perimeter
G1 X118.185 Y103.031 F10800
G1 X118.448 Y103.598 E27.9267 F2159
G1 X118.448 Y107.252 E28.1090
G1 X109.948 Y107.252 E28.5331
G1 X109.948 Y92.746 E29.2568
G1 X118.448 Y92.746 E29.6808
G1 X118.448 Y96.416 E29.8639
G1 X113.660 Y96.416 E30.1028
G1 X113.660 Y98.074 E30.1855
G1 X117.224 Y98.074 E30.3633
G1 X117.224 Y101.780 E30.5482
G1 X113.660 Y101.780 E30.7260
G1 X113.660 Y103.546 E30.8141
G1 X118.391 Y103.546 E31.0502
G1 X119.025 Y103.781
G1 F4800 E30.0502
G1 X122.695 Y94.887 F10800
G1 X123.356 Y92.661
G1 F4800 E31.0502
;segType:Loop
G1 X123.356 Y92.461 E31.0602 F3600
G1 X124.618 Y92.461 E31.1231
G1 X123.356 Y94.587 E31.2465
G1 X123.356 Y92.832 E31.3341
G1 F4800 E30.3341
G1 X119.224 Y92.576 F10800
G1 X118.647 Y92.981
G1 F4800 E31.3341
;segType:Perimeter
G1 X119.281 Y92.746 E31.3678 F2159
G1 X122.956 Y92.746 E31.5512
G1 X122.956 Y96.023 E31.7146
G1 X124.902 Y92.746 E31.9048
G1 X128.928 Y92.746 E32.1056
G1 X129.163 Y92.799 E32.1177
G1 X129.104 Y93.009 E32.1286
G1 X127.114 Y96.321 E32.3213
G1 X126.091 Y98.020 E32.4203
G1 X126.366 Y98.200 E32.4367
G1 X126.786 Y98.526 E32.4632
G1 X127.157 Y98.882 E32.4889
G1 X127.479 Y99.267 E32.5139
G1 X127.719 Y99.625 E32.5354
G1 X127.950 Y100.062 E32.5601
G1 X128.134 Y100.528 E32.5851
G1 X128.267 Y101.017 E32.6104
G1 X128.351 Y101.534 E32.6365
G1 X128.385 Y102.075 E32.6635
G1 X128.379 Y102.512 E32.6853
G1 X128.344 Y102.908 E32.7052
G1 X128.277 Y103.294 E32.7247
G1 X128.183 Y103.666 E32.7439
G1 X128.031 Y104.105 E32.7670
G1 X127.872 Y104.452 E32.7861
G1 X127.686 Y104.789 E32.8053
G1 X127.468 Y105.113 E32.8247
G1 X127.017 Y105.650 E32.8597
G1 X126.721 Y105.931 E32.8801
G1 X126.413 Y106.181 E32.8999
G1 X126.090 Y106.405 E32.9195
G1 X125.757 Y106.602 E32.9388
G1 X125.409 Y106.773 E32.9582
G1 X125.048 Y106.914 E32.9775
G1 X124.675 Y107.028 E32.9970
G1 X124.292 Y107.111 E33.0165
G1 X123.899 Y107.167 E33.0363
G1 X123.497 Y107.195 E33.0564
G1 X120.301 Y107.213 E33.2159
G1 X119.224 Y107.216 E33.2696
G1 X119.224 Y92.798 E33.9889
G1 X119.487 Y92.231
G1 F4800 E32.9889
G1 X128.951 Y92.577 F10800
G1 X129.327 Y92.712
G1 X129.282 Y93.071
G1 X127.631 Y96.218
G1 F4800 E33.9889
;segType:Loop
G1 X129.480 Y93.139 E34.1681 F3600
G1 X129.649 Y92.540 E34.1992
G1 X129.296 Y92.461 E34.2172
G1 X137.328 Y92.461 E34.6180
G1 X137.328 Y92.963 E34.6430
G1 X129.828 Y92.963 E35.0172
G1 X129.828 Y107.035 E35.7192
G1 X137.328 Y107.035 E36.0934
G1 X137.328 Y107.539 E36.1186
G1 X123.695 Y107.539 E36.7987
G1 X123.946 Y107.522 E36.8113
G1 X124.371 Y107.462 E36.8327
G1 X124.787 Y107.371 E36.8540
G1 X125.194 Y107.247 E36.8752
G1 X125.585 Y107.093 E36.8961
G1 X125.963 Y106.908 E36.9171
G1 X126.324 Y106.695 E36.9380
G1 X126.671 Y106.455 E36.9591
G1 X127.002 Y106.185 E36.9804
G1 X127.323 Y105.880 E37.0025
G1 X127.801 Y105.312 E37.0395
G1 X128.037 Y104.960 E37.0607
G1 X128.237 Y104.599 E37.0813
G1 X128.408 Y104.225 E37.1018
G1 X128.570 Y103.758 E37.1264
G1 X128.670 Y103.360 E37.1469
G1 X128.741 Y102.950 E37.1677
G1 X128.779 Y102.528 E37.1888
G1 X128.785 Y102.067 E37.2118
G1 X128.749 Y101.498 E37.2402
G1 X128.660 Y100.950 E37.2680
G1 X128.518 Y100.426 E37.2950
G1 X128.320 Y99.926 E37.3219
G1 X128.073 Y99.457 E37.3483
G1 X127.812 Y99.068 E37.3717
G1 X127.465 Y98.653 E37.3987
G1 X127.064 Y98.269 E37.4264
G1 X126.608 Y97.915 E37.4552
G1 X127.467 Y96.491 E37.5382
G1 X127.540 Y96.368 E37.5453
G1 X129.282 Y93.071 F10800
G1 X129.327 Y92.712
G1 X128.951 Y92.577
G1 X123.091 Y92.626
G1 X118.583 Y92.626
G1 X102.735 Y92.626
G1 X99.779 Y103.426
G1 X99.790 Y107.303
G1 X93.767 Y107.388
G1 X91.009 Y107.372
G1 X90.744 Y102.961
G1 X90.744 Y107.539 E37.7737 F3600
G1 X85.691 Y107.539 E38.0258
G1 X85.942 Y107.522 E38.0383
G1 X86.367 Y107.462 E38.0597
G1 X86.783 Y107.371 E38.0810
G1 X87.190 Y107.247 E38.1022
G1 X87.581 Y107.093 E38.1232
G1 X87.959 Y106.908 E38.1442
G1 X88.320 Y106.695 E38.1651
G1 X88.667 Y106.454 E38.1862
G1 X88.998 Y106.185 E38.2075
G1 X89.315 Y105.884 E38.2292
G1 X89.599 Y105.561 E38.2507
G1 X89.852 Y105.228 E38.2716
G1 X90.077 Y104.880 E38.2923
G1 X90.270 Y104.519 E38.3127
G1 X90.432 Y104.145 E38.3330
G1 X90.566 Y103.758 E38.3535
G1 X90.666 Y103.360 E38.3739
G1 X90.735 Y102.961 E38.3941
;segType:Infill
G1 X90.544 Y105.489 F10800
G1 X89.901 Y105.489 E38.4262 F5400
G1 X87.114 Y107.072 F10800
G1 X85.501 Y107.365
G1 X81.069 Y107.337
G1 X80.604 Y105.489
G1 X80.205 Y105.489 E38.4461 F5400
G1 X80.604 Y101.903 F10800
G1 X79.775 Y101.903 E38.4875 F5400
G1 X79.106 Y102.290 E38.5260
G1 X79.106 Y102.609 E38.5419
G1 X75.089 Y103.379 F10800
G1 X75.089 Y103.091 E38.5563 F5400
G1 X73.031 Y101.903 F10800
G1 X72.872 Y101.903 E38.5642 F5400
G1 X72.872 Y98.318 F10800
G1 X73.004 Y98.318 E38.5708 F5400
G1 X75.089 Y96.908 F10800
G1 X75.089 Y96.609 E38.5857 F5400
G1 X76.404 Y96.616 F10800
G1 X79.802 Y98.318
G1 X80.604 Y98.318 E38.6257 F5400
G1 X81.069 Y92.626 F10800
G1 X85.085 Y92.626
G1 X89.412 Y98.318
G1 X90.544 Y98.318 E38.6822 F5400
G1 X87.139 Y96.924 F10800
G1 X87.139 Y92.639 E38.8960 F5400
G1 X81.069 Y92.626 F10800
G1 X80.204 Y94.732
G1 X80.604 Y94.732 E38.9159 F5400
G1 X81.069 Y92.626 F10800
G1 X85.085 Y92.626
G1 X85.550 Y94.732
G1 X90.544 Y94.732 E39.1650 F5400
G1 X91.009 Y92.626 F10800
G1 X99.779 Y92.626
G1 X100.244 Y94.732
G1 X102.270 Y94.732 E39.2661 F5400
G1 X102.735 Y92.626 F10800
G1 X106.735 Y92.626
G1 X107.200 Y94.732
G1 X109.348 Y94.732 E39.3732 F5400
G1 X107.224 Y92.639 F10800
G1 X107.224 Y103.011 E39.8907 F5400
G1 X109.757 Y103.011 F10800
G1 X109.813 Y107.372
G1 X118.583 Y107.372
G1 X118.583 Y103.426
G1 X115.258 Y103.011
G1 X115.258 Y102.315 E39.9254 F5400
G1 X117.824 Y101.903 F10800
G1 X118.624 Y101.903 E39.9653 F5400
G1 X119.089 Y107.337 F10800
G1 X131.325 Y107.361
G1 X131.325 Y107.213 E39.9726 F5400
G1 X135.342 Y107.361 F10800
G1 X135.342 Y107.213 E39.9800 F5400
G1 X130.093 Y106.798 F10800
G1 X129.628 Y105.489
G1 X127.906 Y105.489 E40.0659 F5400
G1 X129.628 Y101.903 F10800
G1 X128.980 Y101.903 E40.0983 F5400
G1 X127.308 Y107.361 F10800
G1 X127.308 Y106.159 E40.1582 F5400
G1 X128.464 Y103.325 F10800
G1 X129.628 Y98.318
G1 X127.392 Y98.318 E40.2698 F5400
G1 X127.308 Y98.236 E40.2756
G1 X127.308 Y97.131 E40.3307
G1 X129.628 Y94.732 F10800
G1 X128.750 Y94.732 E40.3745 F5400
G1 X130.093 Y93.200 F10800
G1 X131.325 Y92.639
G1 X131.325 Y92.785 E40.3818 F5400
G1 X135.342 Y92.785 F10800
G1 X135.342 Y92.639 E40.3890 F5400
;segType:HShell
G1 X129.947 Y92.741 F10800
G1 X129.833 Y92.639 E40.3967 F3600
G1 X123.091 Y92.626 F10800
G1 X119.089 Y92.626
G1 X118.624 Y98.318
;segType:Infill
G1 X117.824 Y98.318 E40.4366 F5400
G1 X117.359 Y97.954 F10800
G1 X115.258 Y97.539
G1 X115.258 Y96.951 E40.4659 F5400
G1 X118.583 Y94.581 F10800
G1 X118.583 Y92.626
G1 X109.813 Y92.626
G1 X109.348 Y98.318
G1 X107.200 Y98.318 E40.5730 F5400
G1 X109.348 Y101.903 F10800
G1 X107.200 Y101.903 E40.6802 F5400
G1 X106.735 Y92.626 F10800
G1 X102.735 Y92.626
G1 X102.270 Y101.903
G1 X99.020 Y101.903 E40.8423 F5400
G1 X102.270 Y98.318 F10800
G1 X99.020 Y98.318 E41.0044 F5400
G1 F4800 E40.0044
G1 X102.465 Y92.385 F10800
G1 X118.819 Y92.385
G1 X128.998 Y92.239
G1 X129.655 Y92.537
G1 X131.028 Y96.400
G1 F4800 E41.0044
;segType:SoftSupport
G1 X137.928 Y96.400 E41.1593 F5400
G1 F4800 E40.1593
G1 X131.028 Y94.600 F10800
G1 F4800 E41.1593
G1 X137.928 Y94.600 E41.3142 F5400
G1 X137.928 Y94.600
;segType:Support
G1 X139.200 Y94.600 E41.3682 F5400
G1 X137.928 Y96.400 E41.4616
G1 X139.200 Y96.400 E41.5156
G1 F4800 E40.5156
G1 X139.200 Y100.000 F10800
G1 F4800 E41.5156
G1 X137.928 Y100.000 E41.5695 F5400
G1 X137.928 Y100.000
;segType:SoftSupport
G1 X131.028 Y100.000 E41.7244 F5400
G1 X131.028 Y98.200 E41.7648
G1 X137.928 Y98.200 E41.9197
G1 X137.928 Y98.200
;segType:Support
G1 X139.200 Y98.200 E41.9737 F5400
;segType:SoftSupport
G1 F4800 E40.9737
G1 X137.928 Y101.800 F10800
G1 F4800 E41.9737
G1 X131.028 Y101.800 E42.1286 F5400
G1 X131.028 Y103.600 E42.1690
G1 X137.928 Y103.600 E42.3239
G1 X137.928 Y103.600
;segType:Support
G1 X139.200 Y103.600 E42.3778 F5400
G1 X139.200 Y101.800 E42.4542
G1 X137.928 Y101.800 E42.5081
; ------------------------------------
; Layer #4
; ------------------------------------
G21 ; mm
G90 ; abs
G92 E0 ; reset extr
M106 S255
;segType:Support
G1 F4800 E-1.0000
G1 F300 Z1.600
G1 X139.200 Y103.600 F10800
G1 F4800 E0.0000
G1 X131.028 Y103.600 E0.3465 F5400
G1 X131.028 Y101.800 E0.4229
G1 X139.200 Y101.800 E0.7694
G1 X139.200 Y100.000 E0.8457
G1 X131.028 Y100.000 E1.1923
G1 X131.028 Y98.200 E1.2686
G1 X139.200 Y98.200 E1.6152
G1 X139.200 Y96.400 E1.6915
G1 X131.028 Y96.400 E2.0380
G1 X131.028 Y94.600 E2.1144
G1 X139.200 Y94.600 E2.4609
G1 F4800 E1.4609
G1 X131.024 Y95.224 F10800
G1 X128.298 Y95.431
G1 X129.655 Y92.537
G1 X126.802 Y92.274
G1 X123.361 Y92.385
G1 X118.853 Y92.385
G1 X100.049 Y92.385
G1 X80.799 Y92.385
G1 X79.106 Y97.708
G1 F4800 E2.4609
;segType:Infill
G1 X79.106 Y97.389 E2.4768 F5400
G1 X79.629 Y97.103 F10800
G1 X80.004 Y96.024
;segType:Loop
G1 X80.004 Y92.461 E2.6546 F3600
G1 X80.804 Y92.461 E2.6945
G1 X80.804 Y107.539 E3.4468
G1 X80.004 Y107.539 E3.4867
G1 X80.004 Y103.220 E3.7022
G1 X79.816 Y102.590 E3.7350
G1 X79.122 Y102.792 E3.7710
G1 X76.404 Y104.361 E3.9276
G1 X72.672 Y102.207 E4.1426
G1 X72.672 Y97.791 E4.3629
G1 X76.404 Y95.637 E4.5779
G1 X79.122 Y97.208 E4.7345
G1 X79.816 Y97.410 E4.7706
G1 X80.004 Y96.780 E4.8034
G1 X80.004 Y96.195 E4.8326
G1 X79.236 Y97.045 F10800
G1 X79.114 Y97.375
;segType:Perimeter
G1 X79.553 Y96.904 E4.8647 F2159
G1 X79.604 Y96.733 E4.8736
G1 X79.604 Y92.103 E5.1046
G1 X137.728 Y92.103 E8.0044
G1 X137.728 Y93.320 E8.0651
G1 X130.228 Y93.320 E8.4393
G1 X130.228 Y106.678 E9.1057
G1 X137.728 Y106.678 E9.4799
G1 X137.728 Y107.897 E9.5407
G1 X79.604 Y107.897 E12.4405
G1 X79.604 Y103.267 E12.6715
G1 X79.538 Y103.046 E12.6829
G1 X79.295 Y103.117 E12.6956
G1 X76.404 Y104.786 E12.8621
G1 X72.272 Y102.402 E13.1001
G1 X72.272 Y97.596 E13.3399
G1 X76.404 Y95.212 E13.5779
G1 X79.295 Y96.883 E13.7445
G1 X79.484 Y96.938 E13.7543
G1 X80.166 Y96.865
G1 X81.069 Y92.626 F10800
G1 X85.350 Y92.661
;segType:Loop
G1 X85.350 Y92.461 E13.7643 F3600
G1 X90.744 Y92.461 E14.0334
G1 X90.744 Y101.512 E14.4850
G1 X90.720 Y101.301 E14.4956
G1 X90.642 Y100.888 E14.5166
G1 X90.530 Y100.489 E14.5372
G1 X90.388 Y100.104 E14.5577
G1 X90.217 Y99.733 E14.5781
G1 X90.013 Y99.376 E14.5986
G1 X89.779 Y99.033 E14.6193
G1 X89.515 Y98.706 E14.6403
G1 X89.223 Y98.395 E14.6616
G1 X88.906 Y98.103 E14.6831
G1 X88.571 Y97.840 E14.7043
G1 X88.220 Y97.605 E14.7254
G1 X87.854 Y97.404 E14.7463
G1 X87.472 Y97.232 E14.7671
G1 X87.076 Y97.094 E14.7881
G1 X86.666 Y96.986 E14.8092
G1 X86.241 Y96.912 E14.8307
G1 X85.808 Y96.868 E14.8525
G1 X85.350 Y96.860 E14.8753
G1 X85.350 Y92.832 E15.0763
G1 F4800 E14.0763
G1 X81.204 Y92.576 F10800
G1 X80.627 Y92.981
G1 F4800 E15.0763
;segType:Perimeter
G1 X81.261 Y92.746 E15.1100 F2159
G1 X84.950 Y92.746 E15.2941
G1 X84.950 Y97.028 E15.5077
G1 X84.960 Y97.210 E15.5168
G1 X85.781 Y97.225 E15.5578
G1 X86.181 Y97.265 E15.5778
G1 X86.571 Y97.333 E15.5975
G1 X86.946 Y97.432 E15.6169
G1 X87.309 Y97.558 E15.6361
G1 X87.658 Y97.716 E15.6552
G1 X87.995 Y97.901 E15.6744
G1 X88.319 Y98.117 E15.6938
G1 X88.629 Y98.362 E15.7135
G1 X88.926 Y98.634 E15.7336
G1 X89.199 Y98.925 E15.7535
G1 X89.446 Y99.230 E15.7731
G1 X89.663 Y99.550 E15.7924
G1 X89.854 Y99.883 E15.8115
G1 X90.013 Y100.228 E15.8305
G1 X90.145 Y100.588 E15.8496
G1 X90.250 Y100.962 E15.8690
G1 X90.323 Y101.349 E15.8886
G1 X90.368 Y101.749 E15.9087
G1 X90.386 Y102.162 E15.9294
G1 X90.372 Y102.600 E15.9512
G1 X90.328 Y102.994 E15.9710
G1 X90.258 Y103.377 E15.9904
G1 X90.157 Y103.748 E16.0096
G1 X90.026 Y104.106 E16.0286
G1 X89.868 Y104.452 E16.0476
G1 X89.682 Y104.789 E16.0668
G1 X89.466 Y105.110 E16.0861
G1 X89.221 Y105.419 E16.1058
G1 X88.950 Y105.716 E16.1258
G1 X88.652 Y105.990 E16.1460
G1 X88.341 Y106.236 E16.1658
G1 X88.016 Y106.454 E16.1854
G1 X87.678 Y106.644 E16.2047
G1 X87.327 Y106.809 E16.2240
G1 X86.963 Y106.945 E16.2434
G1 X86.588 Y107.051 E16.2629
G1 X86.204 Y107.129 E16.2824
G1 X85.807 Y107.179 E16.3024
G1 X85.404 Y107.198 E16.3225
G1 X82.403 Y107.213 E16.4722
G1 X81.204 Y107.216 E16.5321
G1 X81.204 Y92.798 E17.2514
G1 X81.467 Y92.231
G1 F4800 E16.2514
G1 X79.795 Y94.864 F10800
G1 X78.182 Y97.610
G1 X79.370 Y98.320
G1 X79.370 Y101.678
G1 X75.305 Y103.003
G1 F4800 E17.2514
;segType:Loop
G1 X73.204 Y101.791 E17.3724 F3600
G1 X73.204 Y98.207 E17.5512
G1 X76.404 Y96.361 E17.7355
G1 X79.602 Y98.207 E17.9197
G1 X79.602 Y101.791 E18.0985
G1 X76.404 Y103.637 E18.2828
G1 X75.466 Y103.096 E18.3368
;segType:Perimeter
G1 X76.959 Y103.477 F10800
G1 X76.356 Y103.184 E18.3703 F2159
G1 X73.604 Y101.596 E18.5288
G1 X73.604 Y98.402 E18.6881
G1 X76.404 Y96.786 E18.8494
G1 X79.202 Y98.402 E19.0106
G1 X79.202 Y101.596 E19.1700
G1 X76.452 Y103.184 E19.3284
G1 X75.849 Y103.477
G1 F4800 E18.3284
G1 X81.013 Y102.372 F10800
G1 X81.069 Y107.337
G1 X86.238 Y107.296
G1 X87.773 Y106.791
G1 X90.042 Y104.522
G1 X90.518 Y103.016
G1 X91.009 Y92.626
G1 X99.779 Y92.626
G1 X99.779 Y96.536
G1 X99.190 Y96.951
G1 F4800 E19.3284
;segType:Infill
G1 X99.190 Y103.011 E19.6307 F5400
;segType:Loop
G1 X102.470 Y92.832 F10800
G1 X102.470 Y103.189 E20.1475 F3600
G1 X100.044 Y103.189 E20.2685
G1 X100.004 Y103.189 E20.2705
G1 X95.258 Y103.189 E20.5072
G1 X95.258 Y102.137 E20.5598
G1 X98.820 Y102.137 E20.7375
G1 X98.820 Y97.717 E20.9580
G1 X95.258 Y97.717 E21.1357
G1 X95.258 Y96.773 E21.1828
G1 X100.044 Y96.773 E21.4216
G1 X100.044 Y92.461 E21.6367
G1 X102.470 Y92.461 E21.7577
G1 X102.470 Y92.661 E21.7677
;segType:Perimeter
G1 X102.293 Y92.981 F10800
G1 X102.927 Y92.746 E21.8015 F2159
G1 X106.600 Y92.746 E21.9847
G1 X106.600 Y103.546 E22.5235
G1 X109.190 Y103.546 E22.6528
G1 X109.190 Y107.215 E22.8358
G1 X100.404 Y107.215 E23.2741
G1 X100.404 Y103.546 E23.4572
G1 X102.870 Y103.546 E23.5802
G1 X102.870 Y92.798 E24.1165
G1 X103.133 Y92.231
G1 F4800 E23.1165
G1 X106.735 Y92.626 F10800
G1 X107.000 Y103.104
G1 F4800 E24.1165
;segType:Loop
G1 X107.000 Y92.461 E24.6475 F3600
G1 X109.548 Y92.461 E24.7746
G1 X109.548 Y103.189 E25.3099
G1 X107.095 Y103.189 E25.4322
G1 F4800 E24.4322
G1 X103.888 Y103.364 F10800
G1 X101.635 Y103.197
G1 X99.381 Y103.031
G1 F4800 E25.4322
;segType:Perimeter
G1 X99.644 Y103.598 E25.4634 F2159
G1 X99.644 Y107.201 E25.6432
G1 X99.212 Y107.252 E25.6648
G1 X91.144 Y107.252 E26.0674
G1 X91.144 Y92.746 E26.7910
G1 X99.644 Y92.746 E27.2151
G1 X99.644 Y96.416 E27.3982
G1 X94.858 Y96.416 E27.6369
G1 X94.858 Y98.074 E27.7197
G1 X98.420 Y98.074 E27.8974
G1 X98.420 Y101.780 E28.0822
G1 X94.858 Y101.780 E28.2600
G1 X94.858 Y103.546 E28.3481
G1 X99.587 Y103.546 E28.5840
G1 X100.221 Y103.781
G1 F4800 E27.5840
G1 X109.812 Y107.362 F10800
G1 X118.031 Y107.422
G1 X118.587 Y105.369
G1 X118.583 Y103.426
G1 X118.353 Y103.189
G1 F4800 E28.5840
;segType:Loop
G1 X114.060 Y103.189 E28.7982 F3600
G1 X114.060 Y102.137 E28.8507
G1 X117.624 Y102.137 E29.0285
G1 X117.624 Y97.717 E29.2490
G1 X114.060 Y97.717 E29.4268
G1 X114.060 Y96.773 E29.4739
G1 X118.824 Y96.773 E29.7116
G1 X118.824 Y103.189 E30.0317
G1 X118.543 Y103.189 E30.0457
;segType:Perimeter
G1 X118.185 Y103.031 F10800
G1 X118.448 Y103.598 E30.0769 F2159
G1 X118.448 Y107.201 E30.2566
G1 X118.018 Y107.252 E30.2782
G1 X110.795 Y107.252 E30.6386
G1 X109.948 Y107.242 E30.6808
G1 X109.948 Y92.746 E31.4040
G1 X118.448 Y92.746 E31.8281
G1 X118.448 Y96.416 E32.0111
G1 X113.660 Y96.416 E32.2500
G1 X113.660 Y98.074 E32.3328
G1 X117.224 Y98.074 E32.5106
G1 X117.224 Y101.780 E32.6954
G1 X113.660 Y101.780 E32.8733
G1 X113.660 Y103.546 E32.9614
G1 X118.391 Y103.546 E33.1974
G1 X119.025 Y103.781
G1 F4800 E32.1974
G1 X122.695 Y94.887 F10800
G1 X123.356 Y92.661
G1 F4800 E33.1974
;segType:Loop
G1 X123.356 Y92.461 E33.2074 F3600
G1 X124.618 Y92.461 E33.2704
G1 X123.356 Y94.587 E33.3938
G1 X123.356 Y92.832 E33.4813
G1 F4800 E32.4813
G1 X119.224 Y92.576 F10800
G1 X118.647 Y92.981
G1 F4800 E33.4813
;segType:Perimeter
G1 X119.281 Y92.746 E33.5151 F2159
G1 X122.956 Y92.746 E33.6984
G1 X122.956 Y96.023 E33.8619
G1 X124.902 Y92.746 E34.0520
G1 X128.928 Y92.746 E34.2529
G1 X129.163 Y92.799 E34.2649
G1 X129.104 Y93.009 E34.2758
G1 X127.114 Y96.321 E34.4686
G1 X126.091 Y98.020 E34.5676
G1 X126.418 Y98.234 E34.5871
