; GCode generated by CraftWare

; filename = composition.3w 
; machine = daVinciF10 
; material = abs 
; extruder = 1 
M140 S90 ; Bed (no wait) 
M106 S255 ; Start fan 
G90 ; set absolute coordinates 
G28 ; home all axis 
M190 S90 ; Bed (wait) 
M104 S210 ; Extruder (no wait) 
M109 S210 ; Extruder (wait) 
M117 Start 
M117 Cleaning 
M100 ; Cleaning 
M117 Printing 
M190 S75 ;set bed temp (wait)
M109 S220 ;set head temp (wait)

; ------------------------------------
; Raft Layer #0
; ------------------------------------
G21 ; mm
G90 ; abs
G92 E0 ; reset extr
M106 S0
;segType:Raft
G1 F4800 E-1.0000
G1 F300 Z0.300
G1 X0.000 Y0.000 F10800
G1 F4800 E0.0000
G1 X57.289 Y122.047 E6.7264 F600
G1 X57.289 Y83.659 E8.6415
G1 X61.248 Y83.659 E8.8391
G1 X61.248 Y122.047 E10.7542
G1 X65.207 Y122.047 E10.9518
G1 X65.207 Y80.417 E13.0287
G1 X69.167 Y73.544 E13.4244
G1 X69.167 Y126.716 E16.0772
G1 X73.126 Y130.736 E16.3587
G1 X73.126 Y69.523 E19.4126
G1 X77.086 Y65.633 E19.6896
G1 X77.086 Y88.458 E20.8283
G1 X81.045 Y80.677 E21.2639
G1 X81.045 Y62.391 E22.1762
G1 X85.005 Y60.316 E22.3992
G1 X85.005 Y76.527 E23.2080
G1 X88.964 Y73.673 E23.4514
G1 X88.964 Y58.370 E24.2149
G1 X92.924 Y56.944 E24.4249
G1 X92.924 Y71.598 E25.1560
G1 X96.883 Y69.653 E25.3761
G1 X96.883 Y56.425 E26.0360
G1 X100.843 Y55.777 E26.2362
G1 X100.843 Y69.005 E26.8962
G1 X104.802 Y68.356 E27.0963
G1 X104.802 Y55.387 E27.7434
G1 X108.762 Y55.517 E27.9410
G1 X108.762 Y68.616 E28.5945
G1 X112.721 Y69.264 E28.7947
G1 X112.721 Y56.166 E29.4481
G1 X116.681 Y56.814 E29.6483
G1 X116.681 Y70.561 E30.3341
G1 X120.640 Y72.506 E30.5542
G1 X120.640 Y57.722 E31.2918
G1 X124.600 Y59.667 E31.5119
G1 X124.600 Y74.581 E32.2560
G1 X128.559 Y78.342 E32.5284
G1 X128.559 Y61.742 E33.3566
G1 X132.519 Y64.466 E33.5964
G1 X132.519 Y84.178 E34.5798
G1 X136.478 Y95.072 E35.1581
G1 X136.478 Y68.356 E36.4910
G1 X140.438 Y72.377 E36.7725
G1 X140.438 Y127.883 E39.5417
G1 X136.478 Y131.903 E39.8232
G1 X136.478 Y104.150 E41.2078
G1 X132.519 Y115.173 E41.7922
G1 X132.519 Y135.794 E42.8209
G1 X128.559 Y138.517 E43.0607
G1 X128.559 Y120.880 E43.9406
G1 X124.600 Y124.641 E44.2131
G1 X124.600 Y140.463 E45.0024
G1 X120.640 Y142.538 E45.2255
G1 X120.640 Y126.716 E46.0148
G1 X116.681 Y128.661 E46.2349
G1 X116.681 Y143.445 E46.9725
G1 X112.721 Y144.094 E47.1727
G1 X112.721 Y129.958 E47.8779
G1 X108.762 Y130.606 E48.0781
G1 X108.762 Y144.613 E48.7769
G1 X104.802 Y144.872 E48.9748
G1 X104.802 Y130.866 E49.6736
G1 X100.843 Y130.217 E49.8738
G1 X100.843 Y144.483 E50.5855
G1 X96.883 Y143.834 E50.7857
G1 X96.883 Y129.569 E51.4974
G1 X92.924 Y127.623 E51.7175
G1 X92.924 Y143.186 E52.4939
G1 X88.964 Y141.889 E52.7018
G1 X88.964 Y125.548 E53.5170
G1 X85.005 Y122.695 E53.7605
G1 X85.005 Y139.944 E54.6210
G1 X81.045 Y137.869 E54.8440
G1 X81.045 Y118.545 E55.8081
G1 X77.086 Y110.894 E56.2379
G1 X77.086 Y134.627 E57.4219
G1 F4800 E56.4219
G1 X144.397 Y122.177 F10800
G1 F4800 E57.4219
G1 X144.397 Y78.083 E59.6218 F600
G1 X148.356 Y83.659 E59.9630
G1 X148.356 Y122.047 E61.8782
G1 X152.316 Y121.658 E62.0766
G1 X152.316 Y84.048 E63.9530



; ------------------------------------
; Raft Layer #1
; ------------------------------------
G21 ; mm
G90 ; abs
G92 E0 ; reset extr
M106 S255
;segType:Raft
G1 F4800 E-1.0000
G1 F300 Z0.600
G1 X152.862 Y84.616 F10800
G1 F4800 E0.0000
G1 X132.689 Y84.616 E1.0064 F3600
G1 X132.029 Y83.318 E1.0791
G1 X147.060 Y83.318 E1.8290
G1 X146.401 Y82.020 E1.9016
G1 X131.370 Y82.020 E2.6515
G1 X130.711 Y80.722 E2.7242
G1 X145.742 Y80.722 E3.4740
G1 X145.083 Y79.424 E3.5467
G1 X129.656 Y79.424 E4.3163
G1 X128.338 Y78.126 E4.4086
G1 X144.423 Y78.126 E5.2112
G1 X143.764 Y76.827 E5.2838
G1 X127.019 Y76.827 E6.1192
G1 X125.701 Y75.529 E6.2115
G1 X143.105 Y75.529 E7.0798
G1 X142.314 Y74.231 E7.1557
G1 X123.986 Y74.231 E8.0700
G1 X121.481 Y72.933 E8.2108
G1 X140.995 Y72.933 E9.1843
G1 X139.809 Y71.635 E9.2721
G1 X118.844 Y71.635 E10.3180
G1 X116.339 Y70.337 E10.4588
G1 X138.490 Y70.337 E11.5639
G1 X137.172 Y69.038 E11.6562
G1 X111.197 Y69.038 E12.9521
G1 F4800 E11.9521
G1 X100.385 Y69.038 F10800
G1 F4800 E12.9521
G1 X73.488 Y69.038 E14.2940 F3600
G1 X72.169 Y70.337 E14.3863
G1 X95.375 Y70.337 E15.5440
G1 X92.738 Y71.635 E15.6907
G1 X70.851 Y71.635 E16.7826
G1 X69.664 Y72.933 E16.8704
G1 X90.233 Y72.933 E17.8966
G1 X87.596 Y74.231 E18.0432
G1 X68.346 Y74.231 E19.0036
G1 X67.554 Y75.529 E19.0794
G1 X85.882 Y75.529 E19.9938
G1 X84.563 Y76.827 E20.0861
G1 X66.895 Y76.827 E20.9675
G1 X66.236 Y78.126 E21.0402
G1 X83.377 Y78.126 E21.8953
G1 X82.058 Y79.424 E21.9876
G1 X65.577 Y79.424 E22.8099
G1 X64.917 Y80.722 E22.8825
G1 X80.871 Y80.722 E23.6785
G1 X80.212 Y82.020 E23.7511
G1 X64.258 Y82.020 E24.5471
G1 X63.599 Y83.318 E24.6197
G1 X79.553 Y83.318 E25.4157
G1 X78.894 Y84.616 E25.4883
G1 X55.292 Y84.616 E26.6658
G1 X54.238 Y85.915 E26.7492
G1 X78.234 Y85.915 E27.9464
G1 X77.575 Y87.213 E28.0191
G1 X54.238 Y87.213 E29.1834
G1 X54.238 Y88.511 E29.2481
G1 X76.916 Y88.511 E30.3796
G1 X76.257 Y89.809 E30.4522
G1 X54.238 Y89.809 E31.5507
G1 X54.238 Y91.107 E31.6155
G1 X75.861 Y91.107 E32.6943
G1 X75.597 Y92.405 E32.7604
G1 X54.238 Y92.405 E33.8260
G1 X54.238 Y93.704 E33.8908
G1 X75.465 Y93.704 E34.9499
G1 X75.202 Y95.002 E35.0160
G1 X54.238 Y95.002 E36.0619
G1 X54.238 Y96.300 E36.1266
G1 X75.070 Y96.300 E37.1660
G1 X74.806 Y97.598 E37.2321
G1 X54.238 Y97.598 E38.2582
G1 X54.238 Y98.896 E38.3230
G1 X74.674 Y98.896 E39.3426
G1 X74.543 Y100.195 E39.4077
G1 X54.238 Y100.195 E40.4207
G1 X54.238 Y101.493 E40.4855
G1 X74.806 Y101.493 E41.5117
G1 X75.070 Y102.791 E41.5777
G1 X54.238 Y102.791 E42.6171
G1 X54.238 Y104.089 E42.6818
G1 X75.202 Y104.089 E43.7278
G1 X75.465 Y105.387 E43.7938
G1 X54.238 Y105.387 E44.8529
G1 X54.238 Y106.685 E44.9177
G1 X75.597 Y106.685 E45.9833
G1 X75.861 Y107.984 E46.0494
G1 X54.238 Y107.984 E47.1282
G1 X54.238 Y109.282 E47.1930
G1 X76.257 Y109.282 E48.2915
G1 X76.916 Y110.580 E48.3641
G1 X54.238 Y110.580 E49.4956
G1 X54.238 Y111.878 E49.5603
G1 X77.575 Y111.878 E50.7247
G1 X78.234 Y113.176 E50.7973
G1 X54.238 Y113.176 E51.9945
G1 X54.238 Y114.474 E52.0593
G1 X78.894 Y114.474 E53.2894
G1 X79.553 Y115.773 E53.3620
G1 X54.238 Y115.773 E54.6250
G1 X54.238 Y117.071 E54.6897
G1 X80.212 Y117.071 E55.9856
G1 X80.871 Y118.369 E56.0583
G1 X54.238 Y118.369 E57.3870
G1 X54.238 Y119.667 E57.4518
G1 X82.058 Y119.667 E58.8398
G1 X83.377 Y120.965 E58.9321
G1 X55.292 Y120.965 E60.3332
G1 F4800 E59.3332
G1 X66.368 Y122.263 F10800
G1 F4800 E60.3332
G1 X84.563 Y122.263 E61.2410 F3600
G1 X85.882 Y123.562 E61.3333
G1 X67.027 Y123.562 E62.2739
G1 X67.686 Y124.860 E62.3466
G1 X87.596 Y124.860 E63.3399
G1 X90.233 Y126.158 E63.4865
G1 X68.609 Y126.158 E64.5653
G1 X69.928 Y127.456 E64.6576
G1 X92.738 Y127.456 E65.7956
G1 X95.243 Y128.754 E65.9364
G1 X71.246 Y128.754 E67.1336
G1 X72.565 Y130.053 E67.2259
G1 X100.385 Y130.053 E68.6139
G1 F4800 E67.6139
G1 X111.197 Y130.053 F10800
G1 F4800 E68.6139
G1 X138.094 Y130.053 E69.9558 F3600
G1 X136.908 Y131.351 E70.0436
G1 X73.751 Y131.351 E73.1944
G1 X75.070 Y132.649 E73.2868
G1 X135.589 Y132.649 E76.3061
G1 X134.271 Y133.947 E76.3984
G1 X76.388 Y133.947 E79.2862
G1 X77.707 Y135.245 E79.3785
G1 X132.952 Y135.245 E82.1347
G1 X131.634 Y136.543 E82.2270
G1 X79.025 Y136.543 E84.8516
G1 X81.003 Y137.842 E84.9697
G1 X129.656 Y137.842 E87.3970
G1 X127.019 Y139.140 E87.5436
G1 X83.640 Y139.140 E89.7078
G1 X86.145 Y140.438 E89.8485
G1 X124.514 Y140.438 E91.7628
G1 X122.009 Y141.736 E91.9035
G1 X88.651 Y141.736 E93.5678
G1 X92.079 Y143.034 E93.7507
G1 X118.581 Y143.034 E95.0728
G1 F4800 E94.0728
G1 X110.406 Y144.332 F10800
G1 F4800 E95.0728
G1 X100.253 Y144.332 E95.5794 F3600
G1 F4800 E94.5794
G1 X116.339 Y128.754 F10800
G1 F4800 E95.5794
G1 X139.413 Y128.754 E96.7305 F3600
G1 X140.731 Y127.456 E96.8228
G1 X118.976 Y127.456 E97.9082
G1 X121.481 Y126.158 E98.0490
G1 X142.050 Y126.158 E99.0752
G1 X142.973 Y124.860 E99.1546
G1 X123.986 Y124.860 E100.1019
G1 X125.701 Y123.562 E100.2091
G1 X143.632 Y123.562 E101.1038
G1 X144.291 Y122.263 E101.1764
G1 X127.019 Y122.263 E102.0381
G1 X128.338 Y120.965 E102.1304
G1 X152.862 Y120.965 E103.3540
G1 X153.917 Y119.667 E103.4374
G1 X129.656 Y119.667 E104.6478
G1 X130.843 Y118.369 E104.7355
G1 X153.917 Y118.369 E105.8867
G1 X153.917 Y117.071 E105.9514
G1 X131.502 Y117.071 E107.0697
G1 X132.161 Y115.773 E107.1423
G1 X153.917 Y115.773 E108.2277
G1 X153.917 Y114.474 E108.2925
G1 X132.820 Y114.474 E109.3450
G1 X133.480 Y113.176 E109.4176
G1 X153.917 Y113.176 E110.4372
G1 X153.917 Y111.878 E110.5020
G1 X134.139 Y111.878 E111.4887
G1 X134.798 Y110.580 E111.5613
G1 X153.917 Y110.580 E112.5152
G1 X153.917 Y109.282 E112.5799
G1 X135.457 Y109.282 E113.5009
G1 X135.853 Y107.984 E113.5686
G1 X153.917 Y107.984 E114.4697
G1 X153.917 Y106.685 E114.5345
G1 X135.985 Y106.685 E115.4291
G1 X136.249 Y105.387 E115.4952
G1 X153.917 Y105.387 E116.3767
G1 X153.917 Y104.089 E116.4414
G1 X136.380 Y104.089 E117.3163
G1 X136.644 Y102.791 E117.3824
G1 X153.917 Y102.791 E118.2441
G1 X153.917 Y101.493 E118.3089
G1 X136.908 Y101.493 E119.1575
G1 X137.040 Y100.195 E119.2226
G1 X153.917 Y100.195 E120.0646
G1 X153.917 Y98.896 E120.1293
G1 X137.040 Y98.896 E120.9713
G1 X136.908 Y97.598 E121.0364
G1 X153.917 Y97.598 E121.8850
G1 X153.917 Y96.300 E121.9498
G1 X136.644 Y96.300 E122.8115
G1 X136.380 Y95.002 E122.8776
G1 X153.917 Y95.002 E123.7524
G1 X153.917 Y93.704 E123.8172
G1 X136.249 Y93.704 E124.6987
G1 X135.985 Y92.405 E124.7648
G1 X153.917 Y92.405 E125.6594
G1 X153.917 Y91.107 E125.7241
G1 X135.853 Y91.107 E126.6253
G1 X135.457 Y89.809 E126.6930
G1 X153.917 Y89.809 E127.6140
G1 X153.917 Y88.511 E127.6787
G1 X134.798 Y88.511 E128.6325
G1 X134.139 Y87.213 E128.7052
G1 X153.917 Y87.213 E129.6919
G1 X153.917 Y85.915 E129.7567
G1 X133.480 Y85.915 E130.7763
G1 F4800 E129.7763
G1 X135.853 Y67.740 F10800
G1 F4800 E130.7763
G1 X74.806 Y67.740 E133.8219 F3600
G1 X76.125 Y66.442 E133.9142
G1 X134.535 Y66.442 E136.8283
G1 X133.216 Y65.144 E136.9206
G1 X77.443 Y65.144 E139.7031
G1 X78.762 Y63.846 E139.7954
G1 X131.898 Y63.846 E142.4464
G1 X130.183 Y62.548 E142.5537
G1 X80.476 Y62.548 E145.0336
G1 X82.981 Y61.249 E145.1743
G1 X127.678 Y61.249 E147.4043
G1 X125.173 Y59.951 E147.5451
G1 X85.618 Y59.951 E149.5185
G1 X88.123 Y58.653 E149.6592
G1 X122.536 Y58.653 E151.3761
G1 X120.031 Y57.355 E151.5169
G1 X90.628 Y57.355 E152.9838
G1 F4800 E151.9838
G1 X98.407 Y56.057 F10800
G1 F4800 E152.9838
G1 X112.252 Y56.057 E153.6745 F3600



; ------------------------------------
; Raft Layer #2
; ------------------------------------
G21 ; mm
G90 ; abs
G92 E0 ; reset extr
M106 S255
;segType:Raft
G1 F4800 E-1.0000
G1 F300 Z0.900
G1 X136.082 Y67.967 F10800
G1 F4800 E0.0000
G1 X136.082 Y92.608 E1.2293 F3600
G1 F4800 E0.2293
G1 X135.686 Y90.273 F10800
G1 F4800 E1.2293
G1 X135.686 Y67.578 E2.3616 F3600
G1 X135.290 Y67.189 E2.3893
G1 X135.290 Y89.495 E3.5022
G1 X134.894 Y88.717 E3.5457
G1 X134.894 Y66.800 E4.6392
G1 X134.498 Y66.411 E4.6669
G1 X134.498 Y87.939 E5.7409
G1 X134.103 Y87.161 E5.7845
G1 X134.103 Y66.022 E6.8391
G1 X133.707 Y65.633 E6.8668
G1 X133.707 Y86.383 E7.9020
G1 X133.311 Y85.605 E7.9456
G1 X133.311 Y65.244 E8.9614
G1 X132.915 Y64.855 E8.9891
G1 X132.915 Y84.956 E9.9919
G1 X132.519 Y84.178 E10.0355
G1 X132.519 Y64.466 E11.0190
G1 X132.123 Y64.077 E11.0467
G1 X132.123 Y83.400 E12.0107
G1 X131.727 Y82.622 E12.0543
G1 X131.727 Y63.688 E12.9989
G1 X131.331 Y63.298 E13.0266
G1 X131.331 Y81.844 E13.9518
G1 X130.935 Y81.066 E13.9954
G1 X130.935 Y62.909 E14.9012
G1 X130.539 Y62.780 E14.9220
G1 X130.539 Y80.288 E15.7955
G1 X130.143 Y79.898 E15.8232
G1 X130.143 Y62.520 E16.6902
G1 X129.747 Y62.391 E16.7109
G1 X129.747 Y79.509 E17.5650
G1 X129.351 Y79.120 E17.5927
G1 X129.351 Y62.131 E18.4403
G1 X128.955 Y62.002 E18.4611
G1 X128.955 Y78.731 E19.2957
G1 X128.559 Y78.342 E19.3234
G1 X128.559 Y61.742 E20.1516
G1 X128.163 Y61.483 E20.1752
G1 X128.163 Y77.953 E20.9969
G1 X127.767 Y77.564 E21.0246
G1 X127.767 Y61.353 E21.8334
G1 X127.371 Y61.094 E21.8570
G1 X127.371 Y77.175 E22.6593
G1 X126.976 Y76.786 E22.6870
G1 X126.976 Y60.964 E23.4763
G1 X126.580 Y60.705 E23.4999
G1 X126.580 Y76.397 E24.2828
G1 X126.184 Y76.008 E24.3105
G1 X126.184 Y60.575 E25.0805
G1 X125.788 Y60.316 E25.1041
G1 X125.788 Y75.619 E25.8676
G1 X125.392 Y75.100 E25.9001
G1 X125.392 Y60.186 E26.6442
G1 X124.996 Y59.927 E26.6678
G1 X124.996 Y74.711 E27.4054
G1 X124.600 Y74.581 E27.4262
G1 X124.600 Y59.667 E28.1702
G1 X124.204 Y59.538 E28.1910
G1 X124.204 Y74.322 E28.9286
G1 X123.808 Y74.192 E28.9494
G1 X123.808 Y59.278 E29.6935
G1 X123.412 Y59.148 E29.7143
G1 X123.412 Y73.933 E30.4519
G1 X123.016 Y73.673 E30.4755
G1 X123.016 Y58.889 E31.2131
G1 X122.620 Y58.759 E31.2339
G1 X122.620 Y73.544 E31.9715
G1 X122.224 Y73.284 E31.9951
G1 X122.224 Y58.500 E32.7327
G1 X121.828 Y58.370 E32.7535
G1 X121.828 Y73.155 E33.4910
G1 X121.432 Y72.895 E33.5147
G1 X121.432 Y58.111 E34.2523
G1 X121.036 Y57.852 E34.2759
G1 X121.036 Y72.766 E35.0199
G1 X120.640 Y72.506 E35.0436
G1 X120.640 Y57.722 E35.7811
G1 X120.244 Y57.463 E35.8048
G1 X120.244 Y72.377 E36.5488
G1 X119.848 Y72.117 E36.5724
G1 X119.848 Y57.333 E37.3100
G1 X119.453 Y57.203 E37.3308
G1 X119.453 Y71.987 E38.0684
G1 X119.057 Y71.728 E38.0920
G1 X119.057 Y57.203 E38.8167
G1 X118.661 Y57.073 E38.8375
G1 X118.661 Y71.469 E39.5557
G1 X118.265 Y71.339 E39.5764
G1 X118.265 Y57.073 E40.2882
G1 X117.869 Y56.944 E40.3089
G1 X117.869 Y71.080 E41.0142
G1 X117.473 Y70.950 E41.0350
G1 X117.473 Y56.944 E41.7338
G1 X117.077 Y56.814 E41.7545
G1 X117.077 Y70.691 E42.4468
G1 X116.681 Y70.561 E42.4676
G1 X116.681 Y56.814 E43.1535
G1 X116.285 Y56.684 E43.1742
G1 X116.285 Y70.302 E43.8536
G1 X115.889 Y70.172 E43.8744
G1 X115.889 Y56.684 E44.5473
G1 X115.493 Y56.555 E44.5681
G1 X115.493 Y69.913 E45.2345
G1 X115.097 Y69.783 E45.2553
G1 X115.097 Y56.555 E45.9152
G1 X114.701 Y56.425 E45.9360
G1 X114.701 Y69.653 E46.5960
G1 X114.305 Y69.523 E46.6168
G1 X114.305 Y56.425 E47.2702
G1 X113.909 Y56.425 E47.2900
G1 X113.909 Y69.523 E47.9435
G1 X113.513 Y69.394 E47.9643
G1 X113.513 Y56.295 E48.6178
G1 X113.117 Y56.295 E48.6375
G1 X113.117 Y69.394 E49.2910
G1 X112.721 Y69.264 E49.3118
G1 X112.721 Y56.166 E49.9653
G1 X112.326 Y56.166 E49.9850
G1 X112.326 Y69.264 E50.6385
G1 X111.930 Y69.134 E50.6593
G1 X111.930 Y56.036 E51.3128
G1 X111.534 Y56.036 E51.3325
G1 X111.534 Y69.134 E51.9860
G1 X111.138 Y69.005 E52.0068
G1 X111.138 Y55.906 E52.6603
G1 X110.742 Y55.906 E52.6800
G1 X110.742 Y69.005 E53.3335
G1 X110.346 Y68.875 E53.3543
G1 X110.346 Y55.777 E54.0078
G1 X109.950 Y55.777 E54.0275
G1 X109.950 Y68.875 E54.6810
G1 X109.554 Y68.745 E54.7018
G1 X109.554 Y55.647 E55.3553
G1 X109.158 Y55.647 E55.3750
G1 X109.158 Y68.745 E56.0285
G1 X108.762 Y68.616 E56.0493
G1 X108.762 Y55.517 E56.7028
G1 X108.366 Y55.517 E56.7226
G1 X108.366 Y68.616 E57.3760
G1 X107.970 Y68.486 E57.3968
G1 X107.970 Y55.387 E58.0503
G1 X107.574 Y55.387 E58.0701
G1 X107.574 Y68.486 E58.7235
G1 X107.178 Y68.356 E58.7443
G1 X107.178 Y55.387 E59.3913
G1 X106.782 Y55.387 E59.4111
G1 X106.782 Y68.356 E60.0581
G1 X106.386 Y68.227 E60.0789
G1 X106.386 Y55.387 E60.7194
G1 X105.990 Y55.387 E60.7392
G1 X105.990 Y68.227 E61.3797
G1 X105.594 Y68.227 E61.3995
G1 X105.594 Y55.387 E62.0400
G1 X105.198 Y55.387 E62.0598
G1 X105.198 Y68.356 E62.7068
G1 X104.803 Y68.356 E62.7266
G1 X104.803 Y55.387 E63.3736
G1 X104.407 Y55.387 E63.3933
G1 X104.407 Y68.486 E64.0468
G1 X104.011 Y68.486 E64.0666
G1 X104.011 Y55.387 E64.7200
G1 X103.615 Y55.387 E64.7398
G1 X103.615 Y68.616 E65.3997
G1 X103.219 Y68.616 E65.4195
G1 X103.219 Y55.387 E66.0794
G1 X102.823 Y55.387 E66.0992
G1 X102.823 Y68.745 E66.7656
G1 X102.427 Y68.745 E66.7854
G1 X102.427 Y55.517 E67.4453
G1 X102.031 Y55.517 E67.4651
G1 X102.031 Y68.875 E68.1315
G1 X101.635 Y68.875 E68.1513
G1 X101.635 Y55.647 E68.8112
G1 X101.239 Y55.647 E68.8310
G1 X101.239 Y69.005 E69.4974
G1 X100.843 Y69.005 E69.5171
G1 X100.843 Y55.777 E70.1771
G1 X100.447 Y55.777 E70.1968
G1 X100.447 Y69.134 E70.8633
G1 X100.051 Y69.134 E70.8830
G1 X100.051 Y55.906 E71.5430
G1 X99.655 Y55.906 E71.5627
G1 X99.655 Y69.264 E72.2292
G1 X99.259 Y69.264 E72.2489
G1 X99.259 Y56.036 E72.9089
G1 X98.863 Y56.036 E72.9286
G1 X98.863 Y69.394 E73.5950
G1 X98.467 Y69.394 E73.6148
G1 X98.467 Y56.166 E74.2747
G1 X98.071 Y56.166 E74.2945
G1 X98.071 Y69.394 E74.9544
G1 X97.676 Y69.523 E74.9752
G1 X97.676 Y56.295 E75.6352
G1 X97.280 Y56.295 E75.6549
G1 X97.280 Y69.523 E76.3149
G1 X96.884 Y69.653 E76.3357
G1 X96.884 Y56.425 E76.9956
G1 X96.488 Y56.425 E77.0154
G1 X96.488 Y69.783 E77.6818
G1 X96.092 Y70.042 E77.7054
G1 X96.092 Y56.425 E78.3848
G1 X95.696 Y56.555 E78.4056
G1 X95.696 Y70.302 E79.0914
G1 X95.300 Y70.431 E79.1122
G1 X95.300 Y56.555 E79.8045
G1 X94.904 Y56.684 E79.8253
G1 X94.904 Y70.691 E80.5241
G1 X94.508 Y70.820 E80.5449
G1 X94.508 Y56.684 E81.2501
G1 X94.112 Y56.814 E81.2709
G1 X94.112 Y71.080 E81.9826
G1 X93.716 Y71.209 E82.0034
G1 X93.716 Y56.814 E82.7216
G1 X93.320 Y56.944 E82.7424
G1 X93.320 Y71.469 E83.4670
G1 X92.924 Y71.598 E83.4878
G1 X92.924 Y56.944 E84.2189
G1 X92.528 Y57.073 E84.2397
G1 X92.528 Y71.858 E84.9773
G1 X92.132 Y71.987 E84.9981
G1 X92.132 Y57.073 E85.7422
G1 X91.736 Y57.203 E85.7630
G1 X91.736 Y72.247 E86.5135
G1 X91.340 Y72.506 E86.5371
G1 X91.340 Y57.203 E87.3006
G1 X90.944 Y57.333 E87.3214
G1 X90.944 Y72.636 E88.0848
G1 X90.548 Y72.895 E88.1085
G1 X90.548 Y57.463 E88.8784
G1 X90.153 Y57.722 E88.9020
G1 X90.153 Y73.025 E89.6655
G1 X89.757 Y73.284 E89.6891
G1 X89.757 Y57.852 E90.4590
G1 X89.361 Y58.111 E90.4827
G1 X89.361 Y73.414 E91.2461
G1 X88.965 Y73.673 E91.2697
G1 X88.965 Y58.370 E92.0332
G1 X88.569 Y58.500 E92.0540
G1 X88.569 Y73.803 E92.8175
G1 X88.173 Y74.063 E92.8411
G1 X88.173 Y58.759 E93.6046
G1 X87.777 Y58.889 E93.6254
G1 X87.777 Y74.192 E94.3888
G1 X87.381 Y74.452 E94.4124
G1 X87.381 Y59.148 E95.1759
G1 X86.985 Y59.278 E95.1967
G1 X86.985 Y74.711 E95.9666
G1 X86.589 Y74.970 E95.9903
G1 X86.589 Y59.538 E96.7602
G1 X86.193 Y59.667 E96.7810
G1 X86.193 Y75.359 E97.5639
G1 X85.797 Y75.748 E97.5916
G1 X85.797 Y59.927 E98.3809
G1 X85.401 Y60.186 E98.4045
G1 X85.401 Y76.138 E99.2004
G1 X85.005 Y76.527 E99.2281
G1 X85.005 Y60.316 E100.0368
G1 X84.609 Y60.575 E100.0605
G1 X84.609 Y76.916 E100.8757
G1 X84.213 Y77.305 E100.9034
G1 X84.213 Y60.705 E101.7316
G1 X83.817 Y60.964 E101.7552
G1 X83.817 Y77.694 E102.5898
G1 X83.421 Y78.212 E102.6224
G1 X83.421 Y61.094 E103.4764
G1 X83.026 Y61.353 E103.5000
G1 X83.026 Y78.602 E104.3606
G1 X82.630 Y78.991 E104.3883
G1 X82.630 Y61.483 E105.2617
G1 X82.234 Y61.742 E105.2854
G1 X82.234 Y79.380 E106.1653
G1 X81.838 Y79.769 E106.1930
G1 X81.838 Y62.002 E107.0794
G1 X81.442 Y62.131 E107.1002
G1 X81.442 Y80.158 E107.9995
G1 X81.046 Y80.677 E108.0321
G1 X81.046 Y62.391 E108.9444
G1 X80.650 Y62.520 E108.9652
G1 X80.650 Y81.455 E109.9098
G1 X80.254 Y82.233 E109.9534
G1 X80.254 Y62.780 E110.9239
G1 X79.858 Y62.909 E110.9447
G1 X79.858 Y83.011 E111.9475
G1 X79.462 Y83.789 E111.9911
G1 X79.462 Y63.298 E113.0134
G1 X79.066 Y63.688 E113.0411
G1 X79.066 Y84.567 E114.0827
G1 X78.670 Y85.345 E114.1263
G1 X78.670 Y64.077 E115.1874
G1 X78.274 Y64.466 E115.2151
G1 X78.274 Y86.123 E116.2956
G1 X77.878 Y86.902 E116.3392
G1 X77.878 Y64.855 E117.4391
G1 X77.482 Y65.244 E117.4668
G1 X77.482 Y87.680 E118.5861
G1 X77.086 Y88.458 E118.6297
G1 X77.086 Y65.633 E119.7684
G1 X76.690 Y66.022 E119.7961
G1 X76.690 Y89.236 E120.9543
G1 X76.294 Y90.014 E120.9978
G1 X76.294 Y66.411 E122.1754
G1 X75.898 Y66.800 E122.2031
G1 X75.898 Y91.441 E123.4324
G1 F4800 E122.4324
G1 X75.503 Y93.905 F10800
G1 F4800 E123.4324
G1 X75.503 Y67.189 E124.7653 F3600
G1 F4800 E123.7653
G1 X54.517 Y85.475 F10800
G1 F4800 E124.7653
G1 X54.517 Y120.231 E126.4993 F3600
G1 X54.913 Y120.620 E126.5269
G1 X54.913 Y85.086 E128.2998
G1 X55.309 Y84.697 E128.3275
G1 X55.309 Y121.009 E130.1391
G1 X55.705 Y121.398 E130.1668
G1 X55.705 Y84.308 E132.0173
G1 X56.101 Y83.919 E132.0450
G1 X56.101 Y121.788 E133.9342
G1 X56.497 Y122.047 E133.9579
G1 X56.497 Y83.659 E135.8730
G1 X56.893 Y83.659 E135.8928
G1 X56.893 Y122.047 E137.8079
G1 X57.289 Y122.047 E137.8277
G1 X57.289 Y83.659 E139.7429
G1 X57.685 Y83.659 E139.7626
G1 X57.685 Y122.047 E141.6778
G1 X58.081 Y122.047 E141.6975
G1 X58.081 Y83.659 E143.6127
G1 X58.477 Y83.659 E143.6325
G1 X58.477 Y122.047 E145.5476
G1 X58.873 Y122.047 E145.5674
G1 X58.873 Y83.659 E147.4826
G1 X59.269 Y83.659 E147.5023
G1 X59.269 Y122.047 E149.4175
G1 X59.665 Y122.047 E149.4372
G1 X59.665 Y83.659 E151.3524
G1 X60.061 Y83.659 E151.3722
G1 X60.061 Y122.047 E153.2873
G1 X60.456 Y122.047 E153.3071
G1 X60.456 Y83.659 E155.2222
G1 X60.852 Y83.659 E155.2420
G1 X60.852 Y122.047 E157.1572
G1 X61.248 Y122.047 E157.1769
G1 X61.248 Y83.659 E159.0921
G1 X61.644 Y83.659 E159.1118
G1 X61.644 Y122.047 E161.0270
G1 X62.040 Y122.047 E161.0468
G1 X62.040 Y83.659 E162.9619
G1 X62.436 Y83.659 E162.9817
G1 X62.436 Y122.047 E164.8968
G1 X62.832 Y122.047 E164.9166
G1 X62.832 Y83.659 E166.8318
G1 X63.228 Y83.659 E166.8515
G1 X63.228 Y122.047 E168.7667
G1 X63.624 Y122.047 E168.7864
G1 X63.624 Y83.530 E170.7081
G1 X64.020 Y82.752 E170.7516
G1 X64.020 Y122.047 E172.7121
G1 X64.416 Y122.047 E172.7318
G1 X64.416 Y81.973 E174.7311
G1 X64.812 Y81.195 E174.7747
G1 X64.812 Y122.047 E176.8128
G1 X65.208 Y122.047 E176.8325
G1 X65.208 Y80.417 E178.9094
G1 X65.604 Y79.639 E178.9530
G1 X65.604 Y122.047 E181.0687
G1 X66.000 Y121.658 E181.0964
G1 X66.000 Y78.861 E183.2316
G1 X66.396 Y78.083 E183.2752
G1 X66.396 Y122.177 E185.4750
G1 X66.792 Y122.955 E185.5186
G1 X66.792 Y77.305 E187.7960
G1 X67.188 Y76.527 E187.8396
G1 X67.188 Y123.733 E190.1947
G1 X67.584 Y124.511 E190.2383
G1 X67.584 Y75.748 E192.6711
G1 X67.980 Y74.970 E192.7146
G1 X67.980 Y125.289 E195.2250
G1 X68.375 Y125.938 E195.2629
G1 X68.375 Y74.322 E197.8381
G1 X68.771 Y73.933 E197.8658
G1 X68.771 Y126.327 E200.4797
G1 X69.167 Y126.716 E200.5074
G1 X69.167 Y73.544 E203.1601
G1 X69.563 Y73.155 E203.1878
G1 X69.563 Y127.105 E205.8794
G1 X69.959 Y127.494 E205.9071
G1 X69.959 Y72.766 E208.6375
G1 X70.355 Y72.377 E208.6652
G1 X70.355 Y127.883 E211.4344
G1 X70.751 Y128.272 E211.4621
G1 X70.751 Y71.987 E214.2702
G1 X71.147 Y71.469 E214.3027
G1 X71.147 Y128.661 E217.1560
G1 X71.543 Y129.050 E217.1837
G1 X71.543 Y71.080 E220.0759
G1 X71.939 Y70.691 E220.1036
G1 X71.939 Y129.439 E223.0346
G1 X72.335 Y129.828 E223.0623
G1 X72.335 Y70.302 E226.0320
G1 X72.731 Y69.913 E226.0597
G1 X72.731 Y130.347 E229.0748
G1 X73.127 Y130.736 E229.1025
G1 X73.127 Y69.523 E232.1564
G1 X73.523 Y69.134 E232.1841
G1 X73.523 Y131.125 E235.2768
G1 X73.919 Y131.514 E235.3045
G1 X73.919 Y68.745 E238.4361
G1 X74.315 Y68.356 E238.4638
G1 X74.315 Y131.903 E241.6341
G1 X74.711 Y132.292 E241.6618
G1 X74.711 Y100.259 E243.2600
G1 X74.711 Y98.962 E243.3247
G1 X74.711 Y67.967 E244.8710
G1 X75.107 Y67.578 E244.8987
G1 X75.107 Y96.369 E246.3351
G1 F4800 E245.3351
G1 X75.107 Y102.853 F10800
G1 F4800 E246.3351
G1 X75.107 Y132.681 E247.8232 F3600
G1 X75.503 Y133.070 E247.8509
G1 X75.503 Y105.317 E249.2355
G1 F4800 E248.2355
G1 X75.898 Y107.781 F10800
G1 F4800 E249.2355
G1 X75.898 Y133.459 E250.5166 F3600
G1 X76.294 Y133.848 E250.5443
G1 X76.294 Y109.337 E251.7671
G1 X76.690 Y110.116 E251.8107
G1 X76.690 Y134.238 E253.0142
G1 X77.086 Y134.627 E253.0419
G1 X77.086 Y110.894 E254.2259
G1 X77.482 Y111.672 E254.2695
G1 X77.482 Y135.016 E255.4341
G1 X77.878 Y135.405 E255.4618
G1 X77.878 Y112.450 E256.6070
G1 X78.274 Y113.228 E256.6505
G1 X78.274 Y135.794 E257.7763
G1 X78.670 Y136.183 E257.8040
G1 X78.670 Y113.877 E258.9169
G1 X79.066 Y114.655 E258.9604
G1 X79.066 Y136.572 E260.0538
G1 X79.462 Y136.961 E260.0816
G1 X79.462 Y115.433 E261.1556
G1 X79.858 Y116.211 E261.1991
G1 X79.858 Y137.220 E262.2473
G1 X80.254 Y137.480 E262.2709
G1 X80.254 Y116.989 E263.2932
G1 X80.650 Y117.767 E263.3367
G1 X80.650 Y137.739 E264.3331
G1 X81.046 Y137.869 E264.3539
G1 X81.046 Y118.545 E265.3180
G1 X81.442 Y119.064 E265.3505
G1 X81.442 Y138.128 E266.3016
G1 X81.838 Y138.258 E266.3224
G1 X81.838 Y119.453 E267.2606
G1 X82.234 Y119.842 E267.2883
G1 X82.234 Y138.517 E268.2200
G1 X82.630 Y138.647 E268.2408
G1 X82.630 Y120.231 E269.1595
G1 X83.026 Y120.620 E269.1872
G1 X83.026 Y138.906 E270.0995
G1 X83.421 Y139.036 E270.1203
G1 X83.421 Y121.009 E271.0196
G1 X83.817 Y121.528 E271.0522
G1 X83.817 Y139.295 E271.9386
G1 X84.213 Y139.555 E271.9622
G1 X84.213 Y121.917 E272.8422
G1 X84.609 Y122.306 E272.8699
G1 X84.609 Y139.684 E273.7369
G1 X85.005 Y139.944 E273.7605
G1 X85.005 Y122.695 E274.6210
G1 X85.401 Y123.084 E274.6487
G1 X85.401 Y140.073 E275.4963
G1 X85.797 Y140.333 E275.5199
G1 X85.797 Y123.473 E276.3610
G1 X86.193 Y123.863 E276.3887
G1 X86.193 Y140.463 E277.2169
G1 X86.589 Y140.722 E277.2406
G1 X86.589 Y124.252 E278.0623
G1 X86.985 Y124.511 E278.0859
G1 X86.985 Y140.852 E278.9011
G1 X87.381 Y141.111 E278.9248
G1 X87.381 Y124.770 E279.7400
G1 X87.777 Y125.030 E279.7636
G1 X87.777 Y141.370 E280.5789
G1 X88.173 Y141.500 E280.5997
G1 X88.173 Y125.159 E281.4149
G1 X88.569 Y125.419 E281.4385
G1 X88.569 Y141.759 E282.2538
G1 X88.965 Y141.889 E282.2745
G1 X88.965 Y125.548 E283.0898
G1 X89.361 Y125.808 E283.1134
G1 X89.361 Y142.148 E283.9287
G1 X89.757 Y142.278 E283.9494
G1 X89.757 Y125.938 E284.7647
G1 X90.153 Y126.197 E284.7883
G1 X90.153 Y142.538 E285.6036
G1 X90.548 Y142.667 E285.6243
G1 X90.548 Y126.327 E286.4396
G1 X90.944 Y126.586 E286.4632
G1 X90.944 Y142.927 E287.2785
G1 X91.340 Y142.927 E287.2982
G1 X91.340 Y126.845 E288.1005
G1 X91.736 Y126.975 E288.1213
G1 X91.736 Y143.056 E288.9236
G1 X92.132 Y143.056 E288.9433
G1 X92.132 Y127.234 E289.7327
G1 X92.528 Y127.364 E289.7535
G1 X92.528 Y143.186 E290.5429
G1 X92.924 Y143.186 E290.5626
G1 X92.924 Y127.623 E291.3390
G1 X93.320 Y127.753 E291.3598
G1 X93.320 Y143.316 E292.1362
G1 X93.716 Y143.316 E292.1560
G1 X93.716 Y128.013 E292.9195
G1 X94.112 Y128.142 E292.9403
G1 X94.112 Y143.445 E293.7037
G1 X94.508 Y143.445 E293.7235
G1 X94.508 Y128.402 E294.4740
G1 X94.904 Y128.661 E294.4977
G1 X94.904 Y143.575 E295.2417
G1 X95.300 Y143.575 E295.2615
G1 X95.300 Y128.791 E295.9991
G1 X95.696 Y129.050 E296.0227
G1 X95.696 Y143.705 E296.7539
G1 X96.092 Y143.705 E296.7736
G1 X96.092 Y129.180 E297.4982
G1 X96.488 Y129.439 E297.5219
G1 X96.488 Y143.834 E298.2401
G1 X96.884 Y143.834 E298.2598
G1 X96.884 Y129.569 E298.9715
G1 X97.280 Y129.698 E298.9923
G1 X97.280 Y143.964 E299.7040
G1 X97.676 Y143.964 E299.7237
G1 X97.676 Y129.698 E300.4354
G1 X98.071 Y129.828 E300.4562
G1 X98.071 Y144.094 E301.1679
G1 X98.467 Y144.094 E301.1877
G1 X98.467 Y129.828 E301.8994
G1 X98.863 Y129.958 E301.9201
G1 X98.863 Y144.223 E302.6318
G1 X99.259 Y144.223 E302.6516
G1 X99.259 Y129.958 E303.3633
G1 X99.655 Y130.087 E303.3841
G1 X99.655 Y144.353 E304.0958
G1 X100.051 Y144.353 E304.1155
G1 X100.051 Y130.087 E304.8272
G1 X100.447 Y130.087 E304.8470
G1 X100.447 Y144.483 E305.5652
G1 X100.843 Y144.483 E305.5849
G1 X100.843 Y130.217 E306.2966
G1 X101.239 Y130.217 E306.3164
G1 X101.239 Y144.613 E307.0345
G1 X101.635 Y144.613 E307.0543
G1 X101.635 Y130.347 E307.7660
G1 X102.031 Y130.347 E307.7857
G1 X102.031 Y144.742 E308.5039
G1 X102.427 Y144.742 E308.5236
G1 X102.427 Y130.477 E309.2353
G1 X102.823 Y130.477 E309.2551
G1 X102.823 Y144.872 E309.9732
G1 X103.219 Y144.872 E309.9930
G1 X103.219 Y130.606 E310.7047
G1 X103.615 Y130.606 E310.7244
G1 X103.615 Y144.872 E311.4361
G1 X104.011 Y144.872 E311.4559
G1 X104.011 Y130.736 E312.1611
G1 X104.407 Y130.736 E312.1809
G1 X104.407 Y144.872 E312.8861
G1 X104.803 Y144.872 E312.9058
G1 X104.803 Y130.866 E313.6046
G1 X105.198 Y130.866 E313.6243
G1 X105.198 Y144.872 E314.3231
G1 X105.594 Y144.872 E314.3428
G1 X105.594 Y130.995 E315.0351
G1 X105.990 Y130.995 E315.0549
G1 X105.990 Y144.872 E315.7472
G1 X106.386 Y144.872 E315.7669
G1 X106.386 Y130.866 E316.4657
G1 X106.782 Y130.866 E316.4854
G1 X106.782 Y144.872 E317.1842
G1 X107.178 Y144.872 E317.2039
G1 X107.178 Y130.736 E317.9092
G1 X107.574 Y130.736 E317.9289
G1 X107.574 Y144.872 E318.6341
G1 X107.970 Y144.742 E318.6549
G1 X107.970 Y130.736 E319.3537
G1 X108.366 Y130.606 E319.3745
G1 X108.366 Y144.742 E320.0797
G1 X108.762 Y144.613 E320.1005
G1 X108.762 Y130.606 E320.7992
G1 X109.158 Y130.477 E320.8200
G1 X109.158 Y144.613 E321.5253
G1 X109.554 Y144.483 E321.5460
G1 X109.554 Y130.477 E322.2448
G1 X109.950 Y130.347 E322.2656
G1 X109.950 Y144.483 E322.9708
G1 X110.346 Y144.483 E322.9906
G1 X110.346 Y130.347 E323.6958
G1 X110.742 Y130.217 E323.7166
G1 X110.742 Y144.353 E324.4218
G1 X111.138 Y144.353 E324.4415
G1 X111.138 Y130.217 E325.1468
G1 X111.534 Y130.087 E325.1676
G1 X111.534 Y144.223 E325.8728
G1 X111.930 Y144.223 E325.8925
G1 X111.930 Y130.087 E326.5978
G1 X112.326 Y129.958 E326.6185
G1 X112.326 Y144.094 E327.3238
G1 X112.721 Y144.094 E327.3435
G1 X112.721 Y129.958 E328.0487
G1 X113.117 Y129.828 E328.0695
G1 X113.117 Y143.964 E328.7748
G1 X113.513 Y143.964 E328.7945
G1 X113.513 Y129.828 E329.4997
G1 X113.909 Y129.698 E329.5205
G1 X113.909 Y143.834 E330.2258
G1 X114.305 Y143.834 E330.2455
G1 X114.305 Y129.698 E330.9507
G1 X114.701 Y129.569 E330.9715
G1 X114.701 Y143.705 E331.6767
G1 X115.097 Y143.705 E331.6965
G1 X115.097 Y129.569 E332.4017
G1 X115.493 Y129.309 E332.4253
G1 X115.493 Y143.575 E333.1370
G1 X115.889 Y143.575 E333.1568
G1 X115.889 Y129.050 E333.8814
G1 X116.285 Y128.920 E333.9022
G1 X116.285 Y143.445 E334.6268
G1 X116.681 Y143.445 E334.6466
G1 X116.681 Y128.661 E335.3842
G1 X117.077 Y128.531 E335.4050
G1 X117.077 Y143.316 E336.1426
G1 X117.473 Y143.316 E336.1623
G1 X117.473 Y128.272 E336.9129
G1 X117.869 Y128.142 E336.9337
G1 X117.869 Y143.186 E337.6842
G1 X118.265 Y143.186 E337.7040
G1 X118.265 Y127.883 E338.4675
G1 X118.661 Y127.753 E338.4882
G1 X118.661 Y143.056 E339.2517
G1 X119.057 Y143.056 E339.2715
G1 X119.057 Y127.494 E340.0479
G1 X119.453 Y127.234 E340.0715
G1 X119.453 Y143.056 E340.8609
G1 X119.848 Y142.927 E340.8817
G1 X119.848 Y127.105 E341.6710
G1 X120.244 Y126.845 E341.6947
G1 X120.244 Y142.667 E342.4840
G1 X120.640 Y142.538 E342.5048
G1 X120.640 Y126.716 E343.2942
G1 X121.036 Y126.456 E343.3178
G1 X121.036 Y142.278 E344.1072
G1 X121.432 Y142.148 E344.1279
G1 X121.432 Y126.327 E344.9173
G1 X121.828 Y126.067 E344.9409
G1 X121.828 Y141.889 E345.7303
G1 X122.224 Y141.759 E345.7511
G1 X122.224 Y125.938 E346.5404
G1 X122.620 Y125.678 E346.5641
G1 X122.620 Y141.500 E347.3534
G1 X123.016 Y141.370 E347.3742
G1 X123.016 Y125.419 E348.1701
G1 X123.412 Y125.289 E348.1908
G1 X123.412 Y141.111 E348.9802
G1 X123.808 Y140.852 E349.0038
G1 X123.808 Y125.030 E349.7932
G1 X124.204 Y124.900 E349.8140
G1 X124.204 Y140.722 E350.6033
G1 X124.600 Y140.463 E350.6270
G1 X124.600 Y124.641 E351.4163
G1 X124.996 Y124.511 E351.4371
G1 X124.996 Y140.333 E352.2265
G1 X125.392 Y140.073 E352.2501
G1 X125.392 Y124.122 E353.0459
G1 X125.788 Y123.603 E353.0785
G1 X125.788 Y139.944 E353.8938
G1 X126.184 Y139.684 E353.9174
G1 X126.184 Y123.214 E354.7391
G1 X126.580 Y122.825 E354.7668
G1 X126.580 Y139.555 E355.6014
G1 X126.976 Y139.295 E355.6250
G1 X126.976 Y122.436 E356.4662
G1 X127.371 Y122.047 E356.4938
G1 X127.371 Y139.036 E357.3414
G1 X127.767 Y138.906 E357.3622
G1 X127.767 Y121.658 E358.2228
G1 X128.163 Y121.269 E358.2504
G1 X128.163 Y138.647 E359.1174
G1 X128.559 Y138.517 E359.1382
G1 X128.559 Y120.880 E360.0182
G1 X128.955 Y120.491 E360.0458
G1 X128.955 Y138.258 E360.9323
G1 X129.351 Y138.128 E360.9530
G1 X129.351 Y120.102 E361.8524
G1 X129.747 Y119.713 E361.8801
G1 X129.747 Y137.869 E362.7859
G1 X130.143 Y137.739 E362.8067
G1 X130.143 Y119.323 E363.7254
G1 X130.539 Y118.934 E363.7532
G1 X130.539 Y137.480 E364.6784
G1 X130.935 Y137.220 E364.7020
G1 X130.935 Y118.286 E365.6466
G1 X131.331 Y117.508 E365.6902
G1 X131.331 Y136.961 E366.6607
G1 X131.727 Y136.572 E366.6884
G1 X131.727 Y116.730 E367.6784
G1 X132.123 Y115.952 E367.7219
G1 X132.123 Y136.183 E368.7312
G1 X132.519 Y135.794 E368.7589
G1 X132.519 Y115.173 E369.7877
G1 X132.915 Y114.395 E369.8312
G1 X132.915 Y135.405 E370.8794
G1 X133.311 Y135.016 E370.9071
G1 X133.311 Y113.617 E371.9746
G1 X133.707 Y112.839 E372.0182
G1 X133.707 Y134.627 E373.1051
G1 X134.103 Y134.238 E373.1328
G1 X134.103 Y112.061 E374.2392
G1 X134.498 Y111.283 E374.2828
G1 X134.498 Y133.848 E375.4086
G1 X134.894 Y133.459 E375.4362
G1 X134.894 Y110.505 E376.5814
G1 X135.290 Y109.727 E376.6250
G1 X135.290 Y133.070 E377.7896
G1 X135.686 Y132.681 E377.8173
G1 X135.686 Y108.948 E379.0013
G1 F4800 E378.0013
G1 X136.082 Y106.744 F10800
G1 F4800 E379.0013
G1 X136.082 Y132.292 E380.2759 F3600
G1 X136.478 Y131.903 E380.3036
G1 X136.478 Y104.150 E381.6882
G1 F4800 E380.6882
G1 X136.874 Y101.686 F10800
G1 F4800 E381.6882
G1 X136.874 Y131.514 E383.1764 F3600
G1 X137.270 Y131.125 E383.2041
G1 X137.270 Y69.134 E386.2968
G1 X137.666 Y69.523 E386.3245
G1 X137.666 Y130.736 E389.3784
G1 X138.062 Y130.217 E389.4109
G1 X138.062 Y69.913 E392.4195
G1 X138.458 Y70.302 E392.4472
G1 X138.458 Y129.828 E395.4170
G1 X138.854 Y129.439 E395.4447
G1 X138.854 Y70.691 E398.3757
G1 X139.250 Y71.080 E398.4034
G1 X139.250 Y129.050 E401.2955
G1 X139.646 Y128.661 E401.3232
G1 X139.646 Y71.469 E404.1766
G1 X140.042 Y71.987 E404.2091
G1 X140.042 Y128.272 E407.0172
G1 X140.438 Y127.883 E407.0449
G1 X140.438 Y72.377 E409.8141
G1 X140.834 Y72.766 E409.8418
G1 X140.834 Y127.494 E412.5722
G1 X141.230 Y127.105 E412.5999
G1 X141.230 Y73.155 E415.2915
G1 X141.626 Y73.544 E415.3191
G1 X141.626 Y126.716 E417.9719
G1 X142.021 Y126.327 E417.9996
G1 X142.021 Y73.933 E420.6135
G1 X142.417 Y74.322 E420.6412
G1 X142.417 Y125.938 E423.2163
G1 X142.813 Y125.289 E423.2542
G1 X142.813 Y74.970 E425.7646
G1 X143.209 Y75.748 E425.8081
G1 X143.209 Y124.511 E428.2409
G1 X143.605 Y123.733 E428.2844
G1 X143.605 Y76.527 E430.6396
G1 X144.001 Y77.305 E430.6831
G1 X144.001 Y122.955 E432.9606
G1 X144.397 Y122.177 E433.0042
G1 X144.397 Y78.083 E435.2040
G1 X144.793 Y78.861 E435.2476
G1 X144.793 Y122.047 E437.4021
G1 X145.189 Y122.047 E437.4219
G1 X145.189 Y79.639 E439.5376
G1 X145.585 Y80.417 E439.5811
G1 X145.585 Y122.047 E441.6580
G1 X145.981 Y122.047 E441.6778
G1 X145.981 Y81.195 E443.7159
G1 X146.377 Y81.973 E443.7594
G1 X146.377 Y122.047 E445.7587
G1 X146.773 Y122.047 E445.7784
G1 X146.773 Y82.752 E447.7389
G1 X147.169 Y83.530 E447.7824
G1 X147.169 Y122.047 E449.7041
G1 X147.565 Y122.047 E449.7238
G1 X147.565 Y83.659 E451.6390
G1 X147.961 Y83.659 E451.6587
G1 X147.961 Y122.047 E453.5739
G1 X148.357 Y122.047 E453.5936
G1 X148.357 Y83.659 E455.5088
G1 X148.753 Y83.659 E455.5285
G1 X148.753 Y122.047 E457.4437
G1 X149.148 Y122.047 E457.4634
G1 X149.148 Y83.659 E459.3786
G1 X149.544 Y83.659 E459.3983
G1 X149.544 Y122.047 E461.3135
G1 X149.940 Y122.047 E461.3332
G1 X149.940 Y83.659 E463.2484
G1 X150.336 Y83.659 E463.2682
G1 X150.336 Y122.047 E465.1833
G1 X150.732 Y122.047 E465.2031
G1 X150.732 Y83.659 E467.1182
G1 X151.128 Y83.659 E467.1380
G1 X151.128 Y122.047 E469.0531
G1 X151.524 Y122.047 E469.0729
G1 X151.524 Y83.659 E470.9880
G1 X151.920 Y83.659 E471.0078
G1 X151.920 Y122.047 E472.9229
G1 X152.316 Y121.658 E472.9506
G1 X152.316 Y84.048 E474.8270
G1 X152.712 Y84.438 E474.8547
G1 X152.712 Y121.269 E476.6922
G1 X153.108 Y120.880 E476.7199
G1 X153.108 Y84.827 E478.5186
G1 X153.504 Y85.216 E478.5463
G1 X153.504 Y120.491 E480.3062
G1 X153.900 Y120.102 E480.3339
G1 X153.900 Y85.605 E482.0549
G1 F4800 E481.0549
G1 X136.478 Y95.072 F10800
G1 F4800 E482.0549
G1 X136.478 Y68.356 E483.3878 F3600
G1 X136.874 Y68.745 E483.4155
G1 X136.874 Y97.536 E484.8518



; ------------------------------------
; Raft Layer #3
; ------------------------------------
G21 ; mm
G90 ; abs
G92 E0 ; reset extr
M106 S255
;segType:Raft
G1 F4800 E-1.0000
G1 F300 Z1.200
G1 X144.423 Y122.004 F10800
G1 F4800 E0.0000
G1 X127.283 Y122.004 E0.8551 F3600
G1 X126.887 Y122.393 E0.8828
G1 X144.160 Y122.393 E1.7446
G1 X144.028 Y122.783 E1.7651
G1 X126.492 Y122.783 E2.6400
G1 X126.096 Y123.172 E2.6677
G1 X143.764 Y123.172 E3.5491
G1 X143.632 Y123.562 E3.5696
G1 X125.701 Y123.562 E4.4642
G1 X125.437 Y123.951 E4.4877
G1 X143.369 Y123.951 E5.3823
G1 X143.237 Y124.341 E5.4028
G1 X125.041 Y124.341 E6.3106
G1 X124.250 Y124.730 E6.3546
G1 X142.973 Y124.730 E7.2887
G1 X142.841 Y125.119 E7.3092
G1 X123.459 Y125.119 E8.2762
G1 X122.800 Y125.509 E8.3144
G1 X142.577 Y125.509 E9.3011
G1 X142.314 Y125.898 E9.3245
G1 X122.009 Y125.898 E10.3376
G1 X121.218 Y126.288 E10.3815
G1 X141.918 Y126.288 E11.4143
G1 X141.523 Y126.677 E11.4420
G1 X120.427 Y126.677 E12.4945
G1 X119.635 Y127.067 E12.5385
G1 X141.127 Y127.067 E13.6107
G1 X140.731 Y127.456 E13.6384
G1 X118.976 Y127.456 E14.7238
G1 X118.185 Y127.846 E14.7678
G1 X140.336 Y127.846 E15.8729
G1 X139.940 Y128.235 E15.9006
G1 X117.394 Y128.235 E17.0254
G1 X116.603 Y128.625 E17.0694
G1 X139.545 Y128.625 E18.2140
G1 X139.149 Y129.014 E18.2417
G1 X115.812 Y129.014 E19.4060
G1 X115.152 Y129.403 E19.4442
G1 X138.754 Y129.403 E20.6217
G1 X138.358 Y129.793 E20.6494
G1 X112.911 Y129.793 E21.9189
G1 F4800 E20.9189
G1 X110.406 Y130.182 F10800
G1 F4800 E21.9189
G1 X137.963 Y130.182 E23.2937 F3600
G1 X137.699 Y130.572 E23.3172
G1 X108.033 Y130.572 E24.7973
G1 F4800 E23.7973
G1 X103.550 Y130.572 F10800
G1 F4800 E24.7973
G1 X72.960 Y130.572 E26.3234 F3600
G1 X73.356 Y130.961 E26.3511
G1 X137.303 Y130.961 E29.5414
G1 X136.908 Y131.351 E29.5691
G1 X73.751 Y131.351 E32.7200
G1 X74.147 Y131.740 E32.7477
G1 X136.512 Y131.740 E35.8591
G1 X136.117 Y132.130 E35.8868
G1 X74.543 Y132.130 E38.9588
G1 X74.938 Y132.519 E38.9864
G1 X135.721 Y132.519 E42.0189
G1 X135.326 Y132.908 E42.0466
G1 X75.334 Y132.908 E45.0396
G1 X75.729 Y133.298 E45.0673
G1 X134.930 Y133.298 E48.0209
G1 X134.535 Y133.687 E48.0486
G1 X76.125 Y133.687 E50.9626
G1 X76.520 Y134.077 E50.9903
G1 X134.139 Y134.077 E53.8649
G1 X133.743 Y134.466 E53.8926
G1 X76.916 Y134.466 E56.7278
G1 X77.311 Y134.856 E56.7555
G1 X133.348 Y134.856 E59.5511
G1 X132.952 Y135.245 E59.5788
G1 X77.707 Y135.245 E62.3350
G1 X78.102 Y135.635 E62.3627
G1 X132.557 Y135.635 E65.0795
G1 X132.161 Y136.024 E65.1072
G1 X78.498 Y136.024 E67.7844
G1 X78.894 Y136.414 E67.8121
G1 X131.766 Y136.414 E70.4499
G1 X131.370 Y136.803 E70.4776
G1 X79.289 Y136.803 E73.0759
G1 X79.817 Y137.192 E73.1086
G1 X130.843 Y137.192 E75.6544
G1 X130.183 Y137.582 E75.6926
G1 X80.476 Y137.582 E78.1725
G1 X81.267 Y137.971 E78.2165
G1 X129.392 Y137.971 E80.6175
G1 X128.601 Y138.361 E80.6614
G1 X82.058 Y138.361 E82.9835
G1 X82.849 Y138.750 E83.0275
G1 X127.810 Y138.750 E85.2706
G1 X127.019 Y139.140 E85.3146
G1 X83.640 Y139.140 E87.4788
G1 X84.299 Y139.529 E87.5170
G1 X126.360 Y139.529 E89.6154
G1 X125.569 Y139.919 E89.6594
G1 X85.091 Y139.919 E91.6788
G1 X85.882 Y140.308 E91.7228
G1 X124.778 Y140.308 E93.6633
G1 X123.986 Y140.698 E93.7073
G1 X86.673 Y140.698 E95.5689
G1 X87.332 Y141.087 E95.6071
G1 X123.195 Y141.087 E97.3963
G1 X122.536 Y141.476 E97.4345
G1 X88.123 Y141.476 E99.1514
G1 X88.914 Y141.866 E99.1954
G1 X121.745 Y141.866 E100.8333
G1 X120.954 Y142.255 E100.8773
G1 X89.705 Y142.255 E102.4363
G1 X90.496 Y142.645 E102.4803
G1 X120.163 Y142.645 E103.9604
G1 X118.581 Y143.034 E104.0417
G1 X92.079 Y143.034 E105.3639
G1 F4800 E104.3639
G1 X94.584 Y143.424 F10800
G1 F4800 E105.3639
G1 X116.207 Y143.424 E106.4427 F3600
G1 F4800 E105.4427
G1 X113.702 Y143.813 F10800
G1 F4800 E106.4427
G1 X96.957 Y143.813 E107.2781 F3600
G1 F4800 E106.2781
G1 X99.462 Y144.203 F10800
G1 F4800 E107.2781
G1 X111.197 Y144.203 E107.8635 F3600
G1 F4800 E106.8635
G1 X108.692 Y144.592 F10800
G1 F4800 E107.8635
G1 X101.836 Y144.592 E108.2056 F3600
G1 F4800 E107.2056
G1 X101.176 Y130.182 F10800
G1 F4800 E108.2056
G1 X72.565 Y130.182 E109.6330 F3600
G1 X72.301 Y129.793 E109.6565
G1 X98.671 Y129.793 E110.9721
G1 F4800 E109.9721
G1 X96.562 Y129.403 F10800
G1 F4800 E110.9721
G1 X71.906 Y129.403 E112.2022 F3600
G1 X71.510 Y129.014 E112.2299
G1 X95.770 Y129.014 E113.4402
G1 X94.979 Y128.625 E113.4842
G1 X71.114 Y128.625 E114.6749
G1 X70.719 Y128.235 E114.7026
G1 X94.188 Y128.235 E115.8734
G1 X93.529 Y127.846 E115.9117
G1 X70.323 Y127.846 E117.0694
G1 X69.928 Y127.456 E117.0971
G1 X92.738 Y127.456 E118.2351
G1 X91.947 Y127.067 E118.2791
G1 X69.532 Y127.067 E119.3973
G1 X69.137 Y126.677 E119.4250
G1 X91.156 Y126.677 E120.5236
G1 X90.496 Y126.288 E120.5618
G1 X68.741 Y126.288 E121.6472
G1 X68.346 Y125.898 E121.6748
G1 X89.705 Y125.898 E122.7405
G1 X88.914 Y125.509 E122.7845
G1 X68.082 Y125.509 E123.8238
G1 X67.818 Y125.119 E123.8473
G1 X88.123 Y125.119 E124.8603
G1 X87.332 Y124.730 E124.9043
G1 X67.686 Y124.730 E125.8844
G1 X67.423 Y124.341 E125.9079
G1 X86.673 Y124.341 E126.8683
G1 X86.277 Y123.951 E126.8960
G1 X67.291 Y123.951 E127.8432
G1 X67.027 Y123.562 E127.8667
G1 X85.882 Y123.562 E128.8074
G1 X85.486 Y123.172 E128.8351
G1 X66.895 Y123.172 E129.7626
G1 X66.632 Y122.783 E129.7860
G1 X85.091 Y122.783 E130.7070
G1 X84.695 Y122.393 E130.7347
G1 X66.500 Y122.393 E131.6424
G1 X66.236 Y122.004 E131.6659
G1 X84.299 Y122.004 E132.5671
G1 X83.904 Y121.614 E132.5948
G1 X66.104 Y121.614 E133.4828
G1 X65.840 Y121.614 E133.4960
G1 X55.952 Y121.614 E133.9893
G1 X55.556 Y121.225 E134.0170
G1 X83.508 Y121.225 E135.4116
G1 X83.245 Y120.835 E135.4350
G1 X55.161 Y120.835 E136.8362
G1 X54.765 Y120.446 E136.8639
G1 X82.849 Y120.446 E138.2650
G1 X82.454 Y120.057 E138.2927
G1 X54.369 Y120.057 E139.6938
G1 X54.238 Y119.667 E139.7143
G1 X82.058 Y119.667 E141.1023
G1 X81.662 Y119.278 E141.1300
G1 X54.238 Y119.278 E142.4982
G1 X54.238 Y118.888 E142.5176
G1 X81.267 Y118.888 E143.8661
G1 X81.003 Y118.499 E143.8896
G1 X54.238 Y118.499 E145.2249
G1 X54.238 Y118.109 E145.2444
G1 X80.740 Y118.109 E146.5665
G1 X80.608 Y117.720 E146.5871
G1 X54.238 Y117.720 E147.9027
G1 X54.238 Y117.330 E147.9221
G1 X80.344 Y117.330 E149.2246
G1 X80.212 Y116.941 E149.2451
G1 X54.238 Y116.941 E150.5409
G1 X54.238 Y116.551 E150.5604
G1 X79.948 Y116.551 E151.8431
G1 X79.817 Y116.162 E151.8636
G1 X54.238 Y116.162 E153.1397
G1 X54.238 Y115.773 E153.1592
G1 X79.553 Y115.773 E154.4221
G1 X79.421 Y115.383 E154.4426
G1 X54.238 Y115.383 E155.6991
G1 X54.238 Y114.994 E155.7185
G1 X79.157 Y114.994 E156.9617
G1 X79.025 Y114.604 E156.9822
G1 X54.238 Y114.604 E158.2189
G1 X54.238 Y114.215 E158.2383
G1 X78.762 Y114.215 E159.4619
G1 X78.630 Y113.825 E159.4824
G1 X54.238 Y113.825 E160.6993
G1 X54.238 Y113.436 E160.7187
G1 X78.366 Y113.436 E161.9225
G1 X78.102 Y113.046 E161.9460
G1 X54.238 Y113.046 E163.1366
G1 X54.238 Y112.657 E163.1560
G1 X77.971 Y112.657 E164.3401
G1 X77.707 Y112.268 E164.3635
G1 X54.238 Y112.268 E165.5344
G1 X54.238 Y111.878 E165.5539
G1 X77.575 Y111.878 E166.7182
G1 X77.311 Y111.489 E166.7417
G1 X54.238 Y111.489 E167.8928
G1 X54.238 Y111.099 E167.9122
G1 X77.180 Y111.099 E169.0568
G1 X76.916 Y110.710 E169.0803
G1 X54.238 Y110.710 E170.2117
G1 X54.238 Y110.320 E170.2311
G1 X76.784 Y110.320 E171.3560
G1 X76.520 Y109.931 E171.3794
G1 X54.238 Y109.931 E172.4911
G1 X54.238 Y109.541 E172.5106
G1 X76.388 Y109.541 E173.6157
G1 X76.125 Y109.152 E173.6392
G1 X54.238 Y109.152 E174.7311
G1 X54.238 Y108.762 E174.7505
G1 X75.993 Y108.762 E175.8359
G1 X75.861 Y108.373 E175.8564
G1 X54.238 Y108.373 E176.9352
G1 X54.238 Y107.984 E176.9546
G1 X75.861 Y107.984 E178.0334
G1 X75.729 Y107.594 E178.0539
G1 X54.238 Y107.594 E179.1262
G1 X54.238 Y107.205 E179.1456
G1 X75.729 Y107.205 E180.2178
G1 X75.597 Y106.815 E180.2383
G1 X54.238 Y106.815 E181.3039
G1 X54.238 Y106.426 E181.3234
G1 X75.597 Y106.426 E182.3890
G1 X75.597 Y106.036 E182.4084
G1 X54.238 Y106.036 E183.4741
G1 X54.238 Y105.647 E183.4935
G1 X75.465 Y105.647 E184.5526
G1 X75.465 Y105.257 E184.5720
G1 X54.238 Y105.257 E185.6311
G1 X54.238 Y104.868 E185.6505
G1 X75.334 Y104.868 E186.7030
G1 X75.334 Y104.479 E186.7224
G1 X54.238 Y104.479 E187.7749
G1 X54.238 Y104.089 E187.7943
G1 X75.202 Y104.089 E188.8402
G1 X75.202 Y103.700 E188.8597
G1 X54.238 Y103.700 E189.9056
G1 X54.238 Y103.310 E189.9250
G1 X75.070 Y103.310 E190.9643
G1 X75.070 Y102.921 E190.9838
G1 X54.238 Y102.921 E192.0231
G1 X54.238 Y102.531 E192.0425
G1 X74.938 Y102.531 E193.0753
G1 X74.938 Y102.142 E193.0947
G1 X54.238 Y102.142 E194.1275
G1 X54.238 Y101.752 E194.1469
G1 X74.806 Y101.752 E195.1731
G1 X74.806 Y101.363 E195.1925
G1 X54.238 Y101.363 E196.2186
G1 X54.238 Y100.973 E196.2381
G1 X74.674 Y100.973 E197.2577
G1 X74.674 Y100.584 E197.2771
G1 X54.238 Y100.584 E198.2967
G1 X54.238 Y100.195 E198.3161
G1 X74.674 Y100.195 E199.3357
G1 X74.543 Y99.805 E199.3562
G1 X54.238 Y99.805 E200.3692
G1 X54.238 Y99.416 E200.3886
G1 X74.543 Y99.416 E201.4017
G1 X74.543 Y99.026 E201.4211
G1 X54.238 Y99.026 E202.4341
G1 X54.238 Y98.637 E202.4535
G1 X74.674 Y98.637 E203.4731
G1 X74.674 Y98.247 E203.4925
G1 X54.238 Y98.247 E204.5121
G1 X54.238 Y97.858 E204.5316
G1 X74.806 Y97.858 E205.5577
G1 X74.806 Y97.468 E205.5772
G1 X54.238 Y97.468 E206.6033
G1 X54.238 Y97.079 E206.6227
G1 X74.938 Y97.079 E207.6555
G1 X74.938 Y96.690 E207.6749
G1 X54.238 Y96.690 E208.7077
G1 X54.238 Y96.300 E208.7271
G1 X75.070 Y96.300 E209.7665
G1 X75.070 Y95.911 E209.7859
G1 X54.238 Y95.911 E210.8252
G1 X54.238 Y95.521 E210.8446
G1 X75.202 Y95.521 E211.8906
G1 X75.202 Y95.132 E211.9100
G1 X54.238 Y95.132 E212.9559
G1 X54.238 Y94.742 E212.9753
G1 X75.334 Y94.742 E214.0278
G1 X75.334 Y94.353 E214.0472
G1 X54.238 Y94.353 E215.0997
G1 X54.238 Y93.963 E215.1192
G1 X75.334 Y93.963 E216.1716
G1 X75.465 Y93.574 E216.1922
G1 X54.238 Y93.574 E217.2512
G1 X54.238 Y93.184 E217.2706
G1 X75.465 Y93.184 E218.3297
G1 X75.597 Y92.795 E218.3502
G1 X54.238 Y92.795 E219.4159
G1 X54.238 Y92.406 E219.4353
G1 X75.597 Y92.406 E220.5009
G1 X75.729 Y92.016 E220.5214
G1 X54.238 Y92.016 E221.5937
G1 X54.238 Y91.627 E221.6131
G1 X75.729 Y91.627 E222.6853
G1 X75.861 Y91.237 E222.7058
G1 X54.238 Y91.237 E223.7846
G1 X54.238 Y90.848 E223.8040
G1 X75.861 Y90.848 E224.8828
G1 X75.993 Y90.458 E224.9033
G1 X54.238 Y90.458 E225.9887
G1 X54.238 Y90.069 E226.0081
G1 X76.125 Y90.069 E227.1001
G1 X76.388 Y89.679 E227.1235
G1 X54.238 Y89.679 E228.2287
G1 X54.238 Y89.290 E228.2481
G1 X76.520 Y89.290 E229.3598
G1 X76.784 Y88.901 E229.3833
G1 X54.238 Y88.901 E230.5081
G1 X54.238 Y88.511 E230.5275
G1 X76.916 Y88.511 E231.6589
G1 X77.180 Y88.122 E231.6824
G1 X54.238 Y88.122 E232.8270
G1 X54.238 Y87.732 E232.8464
G1 X77.311 Y87.732 E233.9976
G1 X77.575 Y87.343 E234.0210
G1 X54.238 Y87.343 E235.1854
G1 X54.238 Y86.953 E235.2048
G1 X77.707 Y86.953 E236.3757
G1 X77.971 Y86.564 E236.3992
G1 X54.238 Y86.564 E237.5832
G1 X54.238 Y86.174 E237.6026
G1 X78.102 Y86.174 E238.7933
G1 X78.366 Y85.785 E238.8167
G1 X54.238 Y85.785 E240.0205
G1 X54.501 Y85.395 E240.0440
G1 X78.498 Y85.395 E241.2412
G1 X78.762 Y85.006 E241.2646
G1 X54.897 Y85.006 E242.4553
G1 X55.292 Y84.617 E242.4830
G1 X78.894 Y84.617 E243.6604
G1 X79.157 Y84.227 E243.6839
G1 X55.688 Y84.227 E244.8548
G1 X56.083 Y83.838 E244.8825
G1 X79.289 Y83.838 E246.0402
G1 X79.553 Y83.448 E246.0637
G1 X63.599 Y83.448 E246.8596
G1 X63.731 Y83.059 E246.8802
G1 X79.685 Y83.059 E247.6761
G1 X79.948 Y82.669 E247.6996
G1 X63.994 Y82.669 E248.4955
G1 X64.126 Y82.280 E248.5160
G1 X80.080 Y82.280 E249.3120
G1 X80.344 Y81.890 E249.3354
G1 X64.390 Y81.890 E250.1314
G1 X64.522 Y81.501 E250.1519
G1 X80.476 Y81.501 E250.9478
G1 X80.740 Y81.111 E250.9713
G1 X64.786 Y81.111 E251.7672
G1 X64.917 Y80.722 E251.7877
G1 X80.871 Y80.722 E252.5837
G1 X81.135 Y80.333 E252.6072
G1 X65.181 Y80.333 E253.4031
G1 X65.313 Y79.943 E253.4236
G1 X81.531 Y79.943 E254.2327
G1 X81.926 Y79.554 E254.2604
G1 X65.577 Y79.554 E255.0761
G1 X65.709 Y79.164 E255.0966
G1 X82.322 Y79.164 E255.9254
G1 X82.717 Y78.775 E255.9531
G1 X65.972 Y78.775 E256.7885
G1 X66.104 Y78.385 E256.8090
G1 X83.113 Y78.385 E257.6576
G1 X83.508 Y77.996 E257.6853
G1 X66.368 Y77.996 E258.5404
G1 X66.500 Y77.606 E258.5609
G1 X83.772 Y77.606 E259.4227
G1 X84.168 Y77.217 E259.4503
G1 X66.763 Y77.217 E260.3186
G1 X66.895 Y76.828 E260.3392
G1 X84.563 Y76.828 E261.2206
G1 X84.959 Y76.438 E261.2483
G1 X67.159 Y76.438 E262.1363
G1 X67.291 Y76.049 E262.1568
G1 X85.354 Y76.049 E263.0580
G1 X85.750 Y75.659 E263.0857
G1 X67.554 Y75.659 E263.9935
G1 X67.686 Y75.270 E264.0140
G1 X86.145 Y75.270 E264.9349
G1 X86.541 Y74.880 E264.9626
G1 X67.950 Y74.880 E265.8901
G1 X68.082 Y74.491 E265.9106
G1 X87.200 Y74.491 E266.8644
G1 X87.859 Y74.101 E266.9026
G1 X68.477 Y74.101 E267.8696
G1 X68.873 Y73.712 E267.8973
G1 X88.651 Y73.712 E268.8840
G1 X89.442 Y73.322 E268.9280
G1 X69.269 Y73.322 E269.9344
G1 X69.664 Y72.933 E269.9621
G1 X90.233 Y72.933 E270.9883
G1 X91.024 Y72.544 E271.0323
G1 X70.060 Y72.544 E272.0782
G1 X70.455 Y72.154 E272.1059
G1 X91.815 Y72.154 E273.1715
G1 X92.474 Y71.765 E273.2097
G1 X70.851 Y71.765 E274.2885
G1 X71.114 Y71.375 E274.3120
G1 X93.265 Y71.375 E275.4171
G1 X94.056 Y70.986 E275.4611
G1 X71.510 Y70.986 E276.5860
G1 X71.906 Y70.596 E276.6136
G1 X94.848 Y70.596 E277.7582
G1 X95.639 Y70.207 E277.8022
G1 X72.301 Y70.207 E278.9665
G1 X72.697 Y69.817 E278.9942
G1 X96.298 Y69.817 E280.1717
G1 X97.880 Y69.428 E280.2530
G1 X73.092 Y69.428 E281.4896
G1 X73.488 Y69.039 E281.5173
G1 X100.385 Y69.039 E282.8592
G1 F4800 E281.8592
G1 X102.890 Y68.649 F10800
G1 F4800 E282.8592
G1 X73.883 Y68.649 E284.3064 F3600
G1 X74.279 Y68.260 E284.3341
G1 X105.264 Y68.260 E285.8799
G1 X106.450 Y68.260 E285.9391
G1 X136.380 Y68.260 E287.4324
G1 X136.776 Y68.649 E287.4600
G1 X108.824 Y68.649 E288.8546
G1 F4800 E287.8546
G1 X111.197 Y69.039 F10800
G1 F4800 E288.8546
G1 X137.172 Y69.039 E290.1504 F3600
G1 X137.567 Y69.428 E290.1781
G1 X113.570 Y69.428 E291.3753
G1 X115.284 Y69.817 E291.4630
G1 X137.963 Y69.817 E292.5944
G1 X138.358 Y70.207 E292.6221
G1 X116.075 Y70.207 E293.7338
G1 X116.867 Y70.596 E293.7778
G1 X138.754 Y70.596 E294.8698
G1 X139.149 Y70.986 E294.8974
G1 X117.658 Y70.986 E295.9697
G1 X118.449 Y71.375 E296.0137
G1 X139.545 Y71.375 E297.0662
G1 X139.809 Y71.765 E297.0896
G1 X119.108 Y71.765 E298.1224
G1 X119.899 Y72.154 E298.1664
G1 X140.204 Y72.154 E299.1794
G1 X140.600 Y72.544 E299.2071
G1 X120.690 Y72.544 E300.2004
G1 X121.481 Y72.933 E300.2444
G1 X140.995 Y72.933 E301.2179
G1 X141.391 Y73.322 E301.2456
G1 X122.272 Y73.322 E302.1994
G1 X123.064 Y73.712 E302.2435
G1 X141.786 Y73.712 E303.1775
G1 X142.182 Y74.101 E303.2052
G1 X123.723 Y74.101 E304.1261
G1 X124.514 Y74.491 E304.1701
G1 X142.577 Y74.491 E305.0713
G1 X142.709 Y74.880 E305.0918
G1 X125.173 Y74.880 E305.9667
G1 X125.569 Y75.270 E305.9944
G1 X142.973 Y75.270 E306.8627
G1 X143.105 Y75.659 E306.8832
G1 X125.832 Y75.659 E307.7449
G1 X126.228 Y76.049 E307.7726
G1 X143.369 Y76.049 E308.6278
G1 X143.500 Y76.438 E308.6483
G1 X126.623 Y76.438 E309.4902
G1 X127.019 Y76.828 E309.5179
G1 X143.764 Y76.828 E310.3533
G1 X143.896 Y77.217 E310.3739
G1 X127.415 Y77.217 E311.1961
G1 X127.810 Y77.606 E311.2238
G1 X144.160 Y77.606 E312.0395
G1 X144.291 Y77.996 E312.0600
G1 X128.206 Y77.996 E312.8625
G1 X128.601 Y78.385 E312.8902
G1 X144.555 Y78.385 E313.6861
G1 X144.687 Y78.775 E313.7066
G1 X128.997 Y78.775 E314.4894
G1 X129.392 Y79.164 E314.5171
G1 X144.951 Y79.164 E315.2933
G1 X145.083 Y79.554 E315.3138
G1 X129.788 Y79.554 E316.0769
G1 X130.183 Y79.943 E316.1045
G1 X145.346 Y79.943 E316.8610
G1 X145.478 Y80.333 E316.8815
G1 X130.579 Y80.333 E317.6248
G1 X130.711 Y80.722 E317.6453
G1 X145.742 Y80.722 E318.3952
G1 X145.874 Y81.111 E318.4158
G1 X130.975 Y81.111 E319.1591
G1 X131.106 Y81.501 E319.1796
G1 X146.137 Y81.501 E319.9295
G1 X146.269 Y81.890 E319.9500
G1 X131.370 Y81.890 E320.6933
G1 X131.502 Y82.280 E320.7138
G1 X146.533 Y82.280 E321.4637
G1 X146.665 Y82.669 E321.4842
G1 X131.766 Y82.669 E322.2276
G1 X131.898 Y83.059 E322.2481
G1 X146.928 Y83.059 E322.9980
G1 X147.060 Y83.448 E323.0185
G1 X132.161 Y83.448 E323.7618
G1 X132.293 Y83.838 E323.7823
G1 X152.071 Y83.838 E324.7690
G1 X152.466 Y84.227 E324.7967
G1 X132.557 Y84.227 E325.7900
G1 X132.689 Y84.617 E325.8105
G1 X152.862 Y84.617 E326.8169
G1 X153.257 Y85.006 E326.8446
G1 X132.952 Y85.006 E327.8576
G1 X133.084 Y85.395 E327.8781
G1 X153.653 Y85.395 E328.9043
G1 X153.917 Y85.785 E328.9278
G1 X133.348 Y85.785 E329.9540
G1 X133.612 Y86.174 E329.9774
G1 X153.917 Y86.174 E330.9905
G1 X153.917 Y86.564 E331.0099
G1 X133.743 Y86.564 E332.0163
G1 X134.007 Y86.953 E332.0398
G1 X153.917 Y86.953 E333.0331
G1 X153.917 Y87.343 E333.0525
G1 X134.139 Y87.343 E334.0392
G1 X134.403 Y87.732 E334.0627
G1 X153.917 Y87.732 E335.0362
G1 X153.917 Y88.122 E335.0557
G1 X134.535 Y88.122 E336.0227
G1 X134.798 Y88.511 E336.0461
G1 X153.917 Y88.511 E337.0000
G1 X153.917 Y88.901 E337.0194
G1 X134.930 Y88.901 E337.9666
G1 X135.194 Y89.290 E337.9901
G1 X153.917 Y89.290 E338.9242
G1 X153.917 Y89.679 E338.9436
G1 X135.326 Y89.679 E339.8711
G1 X135.589 Y90.069 E339.8946
G1 X153.917 Y90.069 E340.8089
G1 X153.917 Y90.458 E340.8284
G1 X135.721 Y90.458 E341.7361
G1 X135.721 Y90.848 E341.7556
G1 X153.917 Y90.848 E342.6633
G1 X153.917 Y91.237 E342.6828
G1 X135.853 Y91.237 E343.5840
G1 X135.853 Y91.627 E343.6034
G1 X153.917 Y91.627 E344.5046
G1 X153.917 Y92.016 E344.5240
G1 X135.985 Y92.016 E345.4187
G1 X135.985 Y92.406 E345.4381
G1 X153.917 Y92.406 E346.3327
G1 X153.917 Y92.795 E346.3522
G1 X136.117 Y92.795 E347.2402
G1 X136.117 Y93.184 E347.2596
G1 X153.917 Y93.184 E348.1477
G1 X153.917 Y93.574 E348.1671
G1 X136.249 Y93.574 E349.0486
G1 X136.249 Y93.963 E349.0680
G1 X153.917 Y93.963 E349.9495
G1 X153.917 Y94.353 E349.9689
G1 X136.380 Y94.353 E350.8438
G1 X136.380 Y94.742 E350.8632
G1 X153.917 Y94.742 E351.7381
G1 X153.917 Y95.132 E351.7576
G1 X136.512 Y95.132 E352.6259
G1 X136.512 Y95.521 E352.6453
G1 X153.917 Y95.521 E353.5136
G1 X153.917 Y95.911 E353.5331
G1 X136.512 Y95.911 E354.4014
G1 X136.644 Y96.300 E354.4219
G1 X153.917 Y96.300 E355.2836
G1 X153.917 Y96.690 E355.3031
G1 X136.644 Y96.690 E356.1648
G1 X136.776 Y97.079 E356.1853
G1 X153.917 Y97.079 E357.0404
G1 X153.917 Y97.468 E357.0599
G1 X136.776 Y97.468 E357.9150
G1 X136.908 Y97.858 E357.9355
G1 X153.917 Y97.858 E358.7841
G1 X153.917 Y98.247 E358.8035
G1 X136.908 Y98.247 E359.6521
G1 X137.040 Y98.637 E359.6726
G1 X153.917 Y98.637 E360.5146
G1 X153.917 Y99.026 E360.5340
G1 X137.040 Y99.026 E361.3760
G1 X137.040 Y99.416 E361.3954
G1 X153.917 Y99.416 E362.2374
G1 X153.917 Y99.805 E362.2568
G1 X137.040 Y99.805 E363.0988
G1 X137.040 Y100.195 E363.1183
G1 X153.917 Y100.195 E363.9602
G1 X153.917 Y100.584 E363.9797
G1 X137.040 Y100.584 E364.8217
G1 X136.908 Y100.973 E364.8422
G1 X153.917 Y100.973 E365.6907
G1 X153.917 Y101.363 E365.7102
G1 X136.908 Y101.363 E366.5588
G1 X136.776 Y101.752 E366.5793
G1 X153.917 Y101.752 E367.4344
G1 X153.917 Y102.142 E367.4538
G1 X136.776 Y102.142 E368.3090
G1 X136.644 Y102.531 E368.3295
G1 X153.917 Y102.531 E369.1912
G1 X153.917 Y102.921 E369.2106
G1 X136.644 Y102.921 E370.0724
G1 X136.512 Y103.310 E370.0929
G1 X153.917 Y103.310 E370.9612
G1 X153.917 Y103.700 E370.9806
G1 X136.512 Y103.700 E371.8490
G1 X136.380 Y104.089 E371.8695
G1 X153.917 Y104.089 E372.7443
G1 X153.917 Y104.479 E372.7638
G1 X136.380 Y104.479 E373.6387
G1 X136.380 Y104.868 E373.6581
G1 X153.917 Y104.868 E374.5330
G1 X153.917 Y105.257 E374.5524
G1 X136.249 Y105.257 E375.4339
G1 X136.249 Y105.647 E375.4533
G1 X153.917 Y105.647 E376.3348
G1 X153.917 Y106.036 E376.3542
G1 X136.117 Y106.036 E377.2423
G1 X136.117 Y106.426 E377.2617
G1 X153.917 Y106.426 E378.1497
G1 X153.917 Y106.815 E378.1692
G1 X135.985 Y106.815 E379.0638
G1 X135.985 Y107.205 E379.0832
G1 X153.917 Y107.205 E379.9779
G1 X153.917 Y107.594 E379.9973
G1 X135.853 Y107.594 E380.8985
G1 X135.853 Y107.984 E380.9179
G1 X153.917 Y107.984 E381.8191
G1 X153.917 Y108.373 E381.8385
G1 X135.721 Y108.373 E382.7463
G1 X135.721 Y108.762 E382.7658
G1 X153.917 Y108.762 E383.6735
G1 X153.917 Y109.152 E383.6930
G1 X135.457 Y109.152 E384.6139
G1 X135.326 Y109.541 E384.6344
G1 X153.917 Y109.541 E385.5619
G1 X153.917 Y109.931 E385.5813
G1 X135.062 Y109.931 E386.5220
G1 X134.930 Y110.320 E386.5425
G1 X153.917 Y110.320 E387.4898
G1 X153.917 Y110.710 E387.5092
G1 X134.666 Y110.710 E388.4696
G1 X134.535 Y111.099 E388.4901
G1 X153.917 Y111.099 E389.4571
G1 X153.917 Y111.489 E389.4765
G1 X134.271 Y111.489 E390.4566
G1 X134.139 Y111.878 E390.4772
G1 X153.917 Y111.878 E391.4638
G1 X153.917 Y112.268 E391.4833
G1 X133.875 Y112.268 E392.4832
G1 X133.743 Y112.657 E392.5037
G1 X153.917 Y112.657 E393.5101
G1 X153.917 Y113.046 E393.5296
G1 X133.480 Y113.046 E394.5491
G1 X133.348 Y113.436 E394.5697
G1 X153.917 Y113.436 E395.5958
G1 X153.917 Y113.825 E395.6153
G1 X133.084 Y113.825 E396.6546
G1 X132.952 Y114.215 E396.6751
G1 X153.917 Y114.215 E397.7210
G1 X153.917 Y114.604 E397.7405
G1 X132.689 Y114.604 E398.7995
G1 X132.557 Y114.994 E398.8200
G1 X153.917 Y114.994 E399.8857
G1 X153.917 Y115.383 E399.9051
G1 X132.293 Y115.383 E400.9839
G1 X132.161 Y115.773 E401.0044
G1 X153.917 Y115.773 E402.0898
G1 X153.917 Y116.162 E402.1092
G1 X131.898 Y116.162 E403.2078
G1 X131.766 Y116.551 E403.2283
G1 X153.917 Y116.551 E404.3334
G1 X153.917 Y116.941 E404.3528
G1 X131.502 Y116.941 E405.4711
G1 X131.370 Y117.330 E405.4916
G1 X153.917 Y117.330 E406.6164
G1 X153.917 Y117.720 E406.6359
G1 X131.106 Y117.720 E407.7739
G1 X130.975 Y118.109 E407.7944
G1 X153.917 Y118.109 E408.9390
G1 X153.917 Y118.499 E408.9584
G1 X130.711 Y118.499 E410.1162
G1 X130.447 Y118.888 E410.1396
G1 X153.917 Y118.888 E411.3105
G1 X153.917 Y119.278 E411.3300
G1 X130.052 Y119.278 E412.5206
G1 X129.656 Y119.667 E412.5483
G1 X153.917 Y119.667 E413.7586
G1 X153.785 Y120.057 E413.7791
G1 X129.261 Y120.057 E415.0026
G1 X128.865 Y120.446 E415.0303
G1 X153.389 Y120.446 E416.2538
G1 X152.994 Y120.835 E416.2815
G1 X128.469 Y120.835 E417.5050
G1 X128.074 Y121.225 E417.5327
G1 X152.598 Y121.225 E418.7562
G1 X152.202 Y121.614 E418.7839
G1 X127.678 Y121.614 E420.0074
G1 F4800 E419.0074
G1 X118.053 Y56.966 F10800
G1 F4800 E420.0074
G1 X92.738 Y56.966 E421.2704 F3600
G1 F4800 E420.2704
G1 X90.628 Y57.355 F10800
G1 F4800 E421.2704
G1 X120.031 Y57.355 E422.7373 F3600
G1 X120.822 Y57.744 E422.7813
G1 X89.837 Y57.744 E424.3272
G1 X89.178 Y58.134 E424.3654
G1 X121.481 Y58.134 E425.9770
G1 X122.272 Y58.523 E426.0210
G1 X88.387 Y58.523 E427.7116
G1 X87.596 Y58.913 E427.7556
G1 X123.064 Y58.913 E429.5251
G1 X123.855 Y59.302 E429.5691
G1 X86.805 Y59.302 E431.4175
G1 X86.014 Y59.692 E431.4615
G1 X124.646 Y59.692 E433.3889
G1 X125.305 Y60.081 E433.4271
G1 X85.354 Y60.081 E435.4203
G1 X84.563 Y60.471 E435.4643
G1 X126.096 Y60.471 E437.5363
G1 X126.887 Y60.860 E437.5803
G1 X83.772 Y60.860 E439.7314
G1 X82.981 Y61.250 E439.7754
G1 X127.678 Y61.250 E442.0053
G1 X128.469 Y61.639 E442.0493
G1 X82.190 Y61.639 E444.3582
G1 X81.531 Y62.028 E444.3964
G1 X129.129 Y62.028 E446.7711
G1 X129.920 Y62.418 E446.8151
G1 X80.740 Y62.418 E449.2687
G1 X79.948 Y62.807 E449.3127
G1 X130.711 Y62.807 E451.8453
G1 X131.238 Y63.197 E451.8780
G1 X79.421 Y63.197 E454.4632
G1 X79.025 Y63.586 E454.4909
G1 X131.634 Y63.586 E457.1155
G1 X132.029 Y63.976 E457.1432
G1 X78.630 Y63.976 E459.8073
G1 X78.234 Y64.365 E459.8350
G1 X132.425 Y64.365 E462.5386
G1 X132.820 Y64.755 E462.5662
G1 X77.839 Y64.755 E465.3093
G1 X77.443 Y65.144 E465.3370
G1 X133.216 Y65.144 E468.1195
G1 X133.612 Y65.533 E468.1472
G1 X77.048 Y65.533 E470.9691
G1 X76.652 Y65.923 E470.9968
G1 X134.007 Y65.923 E473.8583
G1 X134.403 Y66.312 E473.8860
G1 X76.257 Y66.312 E476.7869
G1 X75.861 Y66.702 E476.8145
G1 X134.798 Y66.702 E479.7549
G1 X135.194 Y67.091 E479.7826
G1 X75.465 Y67.091 E482.7625
G1 X75.070 Y67.481 E482.7902
G1 X135.589 Y67.481 E485.8095
G1 X135.985 Y67.870 E485.8372
G1 X74.674 Y67.870 E488.8960
G1 F4800 E487.8960
G1 X95.111 Y56.576 F10800
G1 F4800 E488.8960
G1 X115.548 Y56.576 E489.9156 F3600
G1 F4800 E488.9156
G1 X113.043 Y56.187 F10800
G1 F4800 E489.9156
G1 X97.616 Y56.187 E490.6852 F3600
G1 F4800 E489.6852
G1 X99.990 Y55.797 F10800
G1 F4800 E490.6852
G1 X110.538 Y55.797 E491.2114 F3600
G1 F4800 E490.2114
G1 X108.033 Y55.408 F10800
G1 F4800 E491.2114
G1 X102.495 Y55.408 E491.4877 F3600



; ------------------------------------
; Raft Layer #4
; ------------------------------------
G21 ; mm
G90 ; abs
G92 E0 ; reset extr
M106 S255
;segType:Raft
G1 F4800 E-1.0000
G1 F300 Z1.500
G1 X75.503 Y67.189 F10800
G1 F4800 E0.0000
G1 X75.503 Y93.905 E1.3328 F3600
G1 F4800 E0.3328
G1 X75.107 Y96.369 F10800
G1 F4800 E1.3328
G1 X75.107 Y67.578 E2.7692 F3600
G1 X74.711 Y67.967 E2.7969
G1 X74.711 Y98.962 E4.3433
G1 X74.711 Y100.259 E4.4080
G1 X74.711 Y132.292 E6.0061
G1 X74.315 Y131.903 E6.0338
G1 X74.315 Y68.356 E9.2042
G1 X73.919 Y68.745 E9.2319
G1 X73.919 Y131.514 E12.3634
G1 X73.523 Y131.125 E12.3911
G1 X73.523 Y69.134 E15.4838
G1 X73.127 Y69.523 E15.5115
G1 X73.127 Y130.736 E18.5654
G1 X72.731 Y130.347 E18.5931
G1 X72.731 Y69.913 E21.6082
G1 X72.335 Y70.302 E21.6359
G1 X72.335 Y129.828 E24.6057
G1 X71.939 Y129.439 E24.6334
G1 X71.939 Y70.691 E27.5643
G1 X71.543 Y71.080 E27.5920
G1 X71.543 Y129.050 E30.4842
G1 X71.147 Y128.661 E30.5119
G1 X71.147 Y71.469 E33.3652
G1 X70.751 Y71.987 E33.3978
G1 X70.751 Y128.272 E36.2058
G1 X70.355 Y127.883 E36.2335
G1 X70.355 Y72.377 E39.0027
G1 X69.959 Y72.766 E39.0304
G1 X69.959 Y127.494 E41.7608
G1 X69.563 Y127.105 E41.7885
G1 X69.563 Y73.155 E44.4801
G1 X69.167 Y73.544 E44.5078
G1 X69.167 Y126.716 E47.1605
G1 X68.771 Y126.327 E47.1882
G1 X68.771 Y73.933 E49.8022
G1 X68.375 Y74.322 E49.8299
G1 X68.375 Y125.938 E52.4050
G1 X67.980 Y125.289 E52.4429
G1 X67.980 Y74.970 E54.9533
G1 X67.584 Y75.748 E54.9969
G1 X67.584 Y124.511 E57.4296
G1 X67.188 Y123.733 E57.4732
G1 X67.188 Y76.527 E59.8283
G1 X66.792 Y77.305 E59.8719
G1 X66.792 Y122.955 E62.1494
G1 X66.396 Y122.177 E62.1929
G1 X66.396 Y78.083 E64.3928
G1 X66.000 Y78.861 E64.4363
G1 X66.000 Y121.658 E66.5715
G1 X65.604 Y122.047 E66.5992
G1 X65.604 Y79.639 E68.7149
G1 X65.208 Y80.417 E68.7585
G1 X65.208 Y122.047 E70.8354
G1 X64.812 Y122.047 E70.8551
G1 X64.812 Y81.195 E72.8932
G1 X64.416 Y81.973 E72.9368
G1 X64.416 Y122.047 E74.9360
G1 X64.020 Y122.047 E74.9558
G1 X64.020 Y82.752 E76.9162
G1 X63.624 Y83.530 E76.9598
G1 X63.624 Y122.047 E78.8814
G1 X63.228 Y122.047 E78.9012
G1 X63.228 Y83.659 E80.8163
G1 X62.832 Y83.659 E80.8361
G1 X62.832 Y122.047 E82.7513
G1 X62.436 Y122.047 E82.7710
G1 X62.436 Y83.659 E84.6862
G1 X62.040 Y83.659 E84.7059
G1 X62.040 Y122.047 E86.6211
G1 X61.644 Y122.047 E86.6408
G1 X61.644 Y83.659 E88.5560
G1 X61.248 Y83.659 E88.5758
G1 X61.248 Y122.047 E90.4909
G1 X60.852 Y122.047 E90.5107
G1 X60.852 Y83.659 E92.4258
G1 X60.456 Y83.659 E92.4456
G1 X60.456 Y122.047 E94.3607
G1 X60.061 Y122.047 E94.3805
G1 X60.061 Y83.659 E96.2957
G1 X59.665 Y83.659 E96.3154
G1 X59.665 Y122.047 E98.2306
G1 X59.269 Y122.047 E98.2503
G1 X59.269 Y83.659 E100.1655
G1 X58.873 Y83.659 E100.1852
G1 X58.873 Y122.047 E102.1004
G1 X58.477 Y122.047 E102.1202
G1 X58.477 Y83.659 E104.0353
G1 X58.081 Y83.659 E104.0551
G1 X58.081 Y122.047 E105.9702
G1 X57.685 Y122.047 E105.9900
G1 X57.685 Y83.659 E107.9051
G1 X57.289 Y83.659 E107.9249
G1 X57.289 Y122.047 E109.8401
G1 X56.893 Y122.047 E109.8598
G1 X56.893 Y83.659 E111.7750
G1 X56.497 Y83.659 E111.7947
G1 X56.497 Y122.047 E113.7099
G1 X56.101 Y121.788 E113.7335
G1 X56.101 Y83.919 E115.6228
G1 X55.705 Y84.308 E115.6505
G1 X55.705 Y121.398 E117.5009
G1 X55.309 Y121.009 E117.5286
G1 X55.309 Y84.697 E119.3403
G1 X54.913 Y85.086 E119.3680
G1 X54.913 Y120.620 E121.1408
G1 X54.517 Y120.231 E121.1685
G1 X54.517 Y85.475 E122.9025
G1 F4800 E121.9025
G1 X75.898 Y91.441 F10800
G1 F4800 E122.9025
G1 X75.898 Y66.800 E124.1318 F3600
G1 X76.294 Y66.411 E124.1595
G1 X76.294 Y90.014 E125.3371
G1 X76.690 Y89.236 E125.3806
G1 X76.690 Y66.022 E126.5388
G1 X77.086 Y65.633 E126.5665
G1 X77.086 Y88.458 E127.7052
G1 X77.482 Y87.680 E127.7488
G1 X77.482 Y65.244 E128.8681
G1 X77.878 Y64.855 E128.8958
G1 X77.878 Y86.902 E129.9957
G1 X78.274 Y86.123 E130.0393
G1 X78.274 Y64.466 E131.1198
G1 X78.670 Y64.077 E131.1475
G1 X78.670 Y85.345 E132.2086
G1 X79.066 Y84.567 E132.2521
G1 X79.066 Y63.688 E133.2938
G1 X79.462 Y63.298 E133.3215
G1 X79.462 Y83.789 E134.3438
G1 X79.858 Y83.011 E134.3874
G1 X79.858 Y62.909 E135.3902
G1 X80.254 Y62.780 E135.4110
G1 X80.254 Y82.233 E136.3815
G1 X80.650 Y81.455 E136.4251
G1 X80.650 Y62.520 E137.3697
G1 X81.046 Y62.391 E137.3905
G1 X81.046 Y80.677 E138.3028
G1 X81.442 Y80.158 E138.3354
G1 X81.442 Y62.131 E139.2347
G1 X81.838 Y62.002 E139.2555
G1 X81.838 Y79.769 E140.1419
G1 X82.234 Y79.380 E140.1696
G1 X82.234 Y61.742 E141.0496
G1 X82.630 Y61.483 E141.0732
G1 X82.630 Y78.991 E141.9467
G1 X83.026 Y78.602 E141.9744
G1 X83.026 Y61.353 E142.8349
G1 X83.421 Y61.094 E142.8585
G1 X83.421 Y78.212 E143.7126
G1 X83.817 Y77.694 E143.7451
G1 X83.817 Y60.964 E144.5798
G1 X84.213 Y60.705 E144.6034
G1 X84.213 Y77.305 E145.4316
G1 X84.609 Y76.916 E145.4593
G1 X84.609 Y60.575 E146.2745
G1 X85.005 Y60.316 E146.2981
G1 X85.005 Y76.527 E147.1069
G1 X85.401 Y76.138 E147.1346
G1 X85.401 Y60.186 E147.9304
G1 X85.797 Y59.927 E147.9540
G1 X85.797 Y75.748 E148.7434
G1 X86.193 Y75.359 E148.7711
G1 X86.193 Y59.667 E149.5539
G1 X86.589 Y59.538 E149.5747
G1 X86.589 Y74.970 E150.3447
G1 X86.985 Y74.711 E150.3683
G1 X86.985 Y59.278 E151.1382
G1 X87.381 Y59.148 E151.1590
G1 X87.381 Y74.452 E151.9225
G1 X87.777 Y74.192 E151.9461
G1 X87.777 Y58.889 E152.7096
G1 X88.173 Y58.759 E152.7304
G1 X88.173 Y74.063 E153.4938
G1 X88.569 Y73.803 E153.5175
G1 X88.569 Y58.500 E154.2809
G1 X88.965 Y58.370 E154.3017
G1 X88.965 Y73.673 E155.0652
G1 X89.361 Y73.414 E155.0888
G1 X89.361 Y58.111 E155.8523
G1 X89.757 Y57.852 E155.8759
G1 X89.757 Y73.284 E156.6458
G1 X90.153 Y73.025 E156.6695
G1 X90.153 Y57.722 E157.4329
G1 X90.548 Y57.463 E157.4566
G1 X90.548 Y72.895 E158.2265
G1 X90.944 Y72.636 E158.2501
G1 X90.944 Y57.333 E159.0136
G1 X91.340 Y57.203 E159.0344
G1 X91.340 Y72.506 E159.7979
G1 X91.736 Y72.247 E159.8215
G1 X91.736 Y57.203 E160.5720
G1 X92.132 Y57.073 E160.5928
G1 X92.132 Y71.987 E161.3369
G1 X92.528 Y71.858 E161.3576
G1 X92.528 Y57.073 E162.0952
G1 X92.924 Y56.944 E162.1160
G1 X92.924 Y71.598 E162.8471
G1 X93.320 Y71.469 E162.8679
G1 X93.320 Y56.944 E163.5926
G1 X93.716 Y56.814 E163.6134
G1 X93.716 Y71.209 E164.3315
G1 X94.112 Y71.080 E164.3523
G1 X94.112 Y56.814 E165.0640
G1 X94.508 Y56.684 E165.0848
G1 X94.508 Y70.820 E165.7901
G1 X94.904 Y70.691 E165.8109
G1 X94.904 Y56.684 E166.5096
G1 X95.300 Y56.555 E166.5304
G1 X95.300 Y70.431 E167.2227
G1 X95.696 Y70.302 E167.2435
G1 X95.696 Y56.555 E167.9293
G1 X96.092 Y56.425 E167.9501
G1 X96.092 Y70.042 E168.6295
G1 X96.488 Y69.783 E168.6531
G1 X96.488 Y56.425 E169.3195
G1 X96.884 Y56.425 E169.3393
G1 X96.884 Y69.653 E169.9993
G1 X97.280 Y69.523 E170.0200
G1 X97.280 Y56.295 E170.6800
G1 X97.676 Y56.295 E170.6998
G1 X97.676 Y69.523 E171.3597
G1 X98.071 Y69.394 E171.3805
G1 X98.071 Y56.166 E172.0405
G1 X98.467 Y56.166 E172.0602
G1 X98.467 Y69.394 E172.7202
G1 X98.863 Y69.394 E172.7399
G1 X98.863 Y56.036 E173.4064
G1 X99.259 Y56.036 E173.4261
G1 X99.259 Y69.264 E174.0861
G1 X99.655 Y69.264 E174.1058
G1 X99.655 Y55.906 E174.7723
G1 X100.051 Y55.906 E174.7920
G1 X100.051 Y69.134 E175.4520
G1 X100.447 Y69.134 E175.4717
G1 X100.447 Y55.777 E176.1382
G1 X100.843 Y55.777 E176.1579
G1 X100.843 Y69.005 E176.8179
G1 X101.239 Y69.005 E176.8377
G1 X101.239 Y55.647 E177.5041
G1 X101.635 Y55.647 E177.5238
G1 X101.635 Y68.875 E178.1838
G1 X102.031 Y68.875 E178.2036
G1 X102.031 Y55.517 E178.8700
G1 X102.427 Y55.517 E178.8897
G1 X102.427 Y68.745 E179.5497
G1 X102.823 Y68.745 E179.5695
G1 X102.823 Y55.387 E180.2359
G1 X103.219 Y55.387 E180.2557
G1 X103.219 Y68.616 E180.9156
G1 X103.615 Y68.616 E180.9354
G1 X103.615 Y55.387 E181.5953
G1 X104.011 Y55.387 E181.6151
G1 X104.011 Y68.486 E182.2686
G1 X104.407 Y68.486 E182.2883
G1 X104.407 Y55.387 E182.9418
G1 X104.803 Y55.387 E182.9616
G1 X104.803 Y68.356 E183.6086
G1 X105.198 Y68.356 E183.6284
G1 X105.198 Y55.387 E184.2754
G1 X105.594 Y55.387 E184.2951
G1 X105.594 Y68.227 E184.9357
G1 X105.990 Y68.227 E184.9555
G1 X105.990 Y55.387 E185.5960
G1 X106.386 Y55.387 E185.6158
G1 X106.386 Y68.227 E186.2563
G1 X106.782 Y68.356 E186.2771
G1 X106.782 Y55.387 E186.9241
G1 X107.178 Y55.387 E186.9439
G1 X107.178 Y68.356 E187.5909
G1 X107.574 Y68.486 E187.6117
G1 X107.574 Y55.387 E188.2652
G1 X107.970 Y55.387 E188.2849
G1 X107.970 Y68.486 E188.9384
G1 X108.366 Y68.616 E188.9592
G1 X108.366 Y55.517 E189.6127
G1 X108.762 Y55.517 E189.6324
G1 X108.762 Y68.616 E190.2859
G1 X109.158 Y68.745 E190.3067
G1 X109.158 Y55.647 E190.9602
G1 X109.554 Y55.647 E190.9800
G1 X109.554 Y68.745 E191.6334
G1 X109.950 Y68.875 E191.6542
G1 X109.950 Y55.777 E192.3077
G1 X110.346 Y55.777 E192.3275
G1 X110.346 Y68.875 E192.9810
G1 X110.742 Y69.005 E193.0017
G1 X110.742 Y55.906 E193.6552
G1 X111.138 Y55.906 E193.6750
G1 X111.138 Y69.005 E194.3285
G1 X111.534 Y69.134 E194.3493
G1 X111.534 Y56.036 E195.0028
G1 X111.930 Y56.036 E195.0225
G1 X111.930 Y69.134 E195.6760
G1 X112.326 Y69.264 E195.6968
G1 X112.326 Y56.166 E196.3503
G1 X112.721 Y56.166 E196.3700
G1 X112.721 Y69.264 E197.0235
G1 X113.117 Y69.394 E197.0443
G1 X113.117 Y56.295 E197.6978
G1 X113.513 Y56.295 E197.7176
G1 X113.513 Y69.394 E198.3710
G1 X113.909 Y69.523 E198.3918
G1 X113.909 Y56.425 E199.0453
G1 X114.305 Y56.425 E199.0651
G1 X114.305 Y69.523 E199.7186
G1 X114.701 Y69.653 E199.7393
G1 X114.701 Y56.425 E200.3993
G1 X115.097 Y56.555 E200.4201
G1 X115.097 Y69.783 E201.0800
G1 X115.493 Y69.913 E201.1008
G1 X115.493 Y56.555 E201.7672
G1 X115.889 Y56.684 E201.7880
G1 X115.889 Y70.172 E202.4609
G1 X116.285 Y70.302 E202.4817
G1 X116.285 Y56.684 E203.1611
G1 X116.681 Y56.814 E203.1819
G1 X116.681 Y70.561 E203.8677
G1 X117.077 Y70.691 E203.8885
G1 X117.077 Y56.814 E204.5808
G1 X117.473 Y56.944 E204.6016
G1 X117.473 Y70.950 E205.3003
G1 X117.869 Y71.080 E205.3211
G1 X117.869 Y56.944 E206.0264
G1 X118.265 Y57.073 E206.0472
G1 X118.265 Y71.339 E206.7589
G1 X118.661 Y71.469 E206.7797
G1 X118.661 Y57.073 E207.4978
G1 X119.057 Y57.203 E207.5186
G1 X119.057 Y71.728 E208.2433
G1 X119.453 Y71.987 E208.2669
G1 X119.453 Y57.203 E209.0045
G1 X119.848 Y57.333 E209.0253
G1 X119.848 Y72.117 E209.7629
G1 X120.244 Y72.377 E209.7865
G1 X120.244 Y57.463 E210.5306
G1 X120.640 Y57.722 E210.5542
G1 X120.640 Y72.506 E211.2918
G1 X121.036 Y72.766 E211.3154
G1 X121.036 Y57.852 E212.0595
G1 X121.432 Y58.111 E212.0831
G1 X121.432 Y72.895 E212.8207
G1 X121.828 Y73.155 E212.8443
G1 X121.828 Y58.370 E213.5819
G1 X122.224 Y58.500 E213.6027
G1 X122.224 Y73.284 E214.3403
G1 X122.620 Y73.544 E214.3639
G1 X122.620 Y58.759 E215.1015
G1 X123.016 Y58.889 E215.1223
G1 X123.016 Y73.673 E215.8599
G1 X123.412 Y73.933 E215.8835
G1 X123.412 Y59.148 E216.6211
G1 X123.808 Y59.278 E216.6419
G1 X123.808 Y74.192 E217.3859
G1 X124.204 Y74.322 E217.4067
G1 X124.204 Y59.538 E218.1443
G1 X124.600 Y59.667 E218.1651
G1 X124.600 Y74.581 E218.9091
G1 X124.996 Y74.711 E218.9299
G1 X124.996 Y59.927 E219.6675
G1 X125.392 Y60.186 E219.6911
G1 X125.392 Y75.100 E220.4352
G1 X125.788 Y75.619 E220.4678
G1 X125.788 Y60.316 E221.2312
G1 X126.184 Y60.575 E221.2549
G1 X126.184 Y76.008 E222.0248
G1 X126.580 Y76.397 E222.0525
G1 X126.580 Y60.705 E222.8354
G1 X126.976 Y60.964 E222.8590
G1 X126.976 Y76.786 E223.6484
G1 X127.371 Y77.175 E223.6761
G1 X127.371 Y61.094 E224.4783
G1 X127.767 Y61.353 E224.5020
G1 X127.767 Y77.564 E225.3107
G1 X128.163 Y77.953 E225.3384
G1 X128.163 Y61.483 E226.1601
G1 X128.559 Y61.742 E226.1837
G1 X128.559 Y78.342 E227.0119
G1 X128.955 Y78.731 E227.0396
G1 X128.955 Y62.002 E227.8742
G1 X129.351 Y62.131 E227.8950
G1 X129.351 Y79.120 E228.7426
G1 X129.747 Y79.509 E228.7703
G1 X129.747 Y62.391 E229.6244
G1 X130.143 Y62.520 E229.6452
G1 X130.143 Y79.898 E230.5122
G1 X130.539 Y80.288 E230.5399
G1 X130.539 Y62.780 E231.4133
G1 X130.935 Y62.909 E231.4341
G1 X130.935 Y81.066 E232.3399
G1 X131.331 Y81.844 E232.3835
G1 X131.331 Y63.298 E233.3087
G1 X131.727 Y63.688 E233.3364
G1 X131.727 Y82.622 E234.2811
G1 X132.123 Y83.400 E234.3246
G1 X132.123 Y64.077 E235.2887
G1 X132.519 Y64.466 E235.3164
G1 X132.519 Y84.178 E236.2998
G1 X132.915 Y84.956 E236.3434
G1 X132.915 Y64.855 E237.3463
G1 X133.311 Y65.244 E237.3740
G1 X133.311 Y85.605 E238.3898
G1 X133.707 Y86.383 E238.4333
G1 X133.707 Y65.633 E239.4686
G1 X134.103 Y66.022 E239.4963
G1 X134.103 Y87.161 E240.5509
G1 X134.498 Y87.939 E240.5944
G1 X134.498 Y66.411 E241.6685
G1 X134.894 Y66.800 E241.6962
G1 X134.894 Y88.717 E242.7896
G1 X135.290 Y89.495 E242.8332
G1 X135.290 Y67.189 E243.9461
G1 X135.686 Y67.578 E243.9738
G1 X135.686 Y90.273 E245.1060
G1 F4800 E244.1060
G1 X136.082 Y92.608 F10800
G1 F4800 E245.1060
G1 X136.082 Y67.967 E246.3354 F3600
G1 F4800 E245.3354
G1 X153.900 Y85.605 F10800
G1 F4800 E246.3354
G1 X153.900 Y120.102 E248.0564 F3600
G1 X153.504 Y120.491 E248.0841
G1 X153.504 Y85.216 E249.8440
G1 X153.108 Y84.827 E249.8717
G1 X153.108 Y120.880 E251.6704
G1 X152.712 Y121.269 E251.6981
G1 X152.712 Y84.438 E253.5356
G1 X152.316 Y84.048 E253.5633
G1 X152.316 Y121.658 E255.4396
G1 X151.920 Y122.047 E255.4673
G1 X151.920 Y83.659 E257.3825
G1 X151.524 Y83.659 E257.4022
G1 X151.524 Y122.047 E259.3174
G1 X151.128 Y122.047 E259.3371
G1 X151.128 Y83.659 E261.2523
G1 X150.732 Y83.659 E261.2720
G1 X150.732 Y122.047 E263.1872
G1 X150.336 Y122.047 E263.2070
G1 X150.336 Y83.659 E265.1221
G1 X149.940 Y83.659 E265.1419
G1 X149.940 Y122.047 E267.0570
G1 X149.544 Y122.047 E267.0768
G1 X149.544 Y83.659 E268.9919
G1 X149.148 Y83.659 E269.0117
G1 X149.148 Y122.047 E270.9268
G1 X148.753 Y122.047 E270.9466
G1 X148.753 Y83.659 E272.8617
G1 X148.357 Y83.659 E272.8815
G1 X148.357 Y122.047 E274.7966
G1 X147.961 Y122.047 E274.8164
G1 X147.961 Y83.659 E276.7315
G1 X147.565 Y83.659 E276.7513
G1 X147.565 Y122.047 E278.6665
G1 X147.169 Y122.047 E278.6862
G1 X147.169 Y83.530 E280.6078
G1 X146.773 Y82.752 E280.6514
G1 X146.773 Y122.047 E282.6118
G1 X146.377 Y122.047 E282.6316
G1 X146.377 Y81.973 E284.6308
G1 X145.981 Y81.195 E284.6744
G1 X145.981 Y122.047 E286.7125
G1 X145.585 Y122.047 E286.7322
G1 X145.585 Y80.417 E288.8091
G1 X145.189 Y79.639 E288.8527
G1 X145.189 Y122.047 E290.9684
G1 X144.793 Y122.047 E290.9881
G1 X144.793 Y78.861 E293.1427
G1 X144.397 Y78.083 E293.1862
G1 X144.397 Y122.177 E295.3861
G1 X144.001 Y122.955 E295.4296
G1 X144.001 Y77.305 E297.7071
G1 X143.605 Y76.527 E297.7507
G1 X143.605 Y123.733 E300.1058
G1 X143.209 Y124.511 E300.1494
G1 X143.209 Y75.748 E302.5821
G1 X142.813 Y74.970 E302.6257
G1 X142.813 Y125.289 E305.1361
G1 X142.417 Y125.938 E305.1740
G1 X142.417 Y74.322 E307.7491
G1 X142.021 Y73.933 E307.7768
G1 X142.021 Y126.327 E310.3907
G1 X141.626 Y126.716 E310.4184
G1 X141.626 Y73.544 E313.0711
G1 X141.230 Y73.155 E313.0988
G1 X141.230 Y127.105 E315.7904
G1 X140.834 Y127.494 E315.8181
G1 X140.834 Y72.766 E318.5485
G1 X140.438 Y72.377 E318.5762
G1 X140.438 Y127.883 E321.3454
G1 X140.042 Y128.272 E321.3731
G1 X140.042 Y71.987 E324.1811
G1 X139.646 Y71.469 E324.2137
G1 X139.646 Y128.661 E327.0670
G1 X139.250 Y129.050 E327.0947
G1 X139.250 Y71.080 E329.9869
G1 X138.854 Y70.691 E330.0146
G1 X138.854 Y129.439 E332.9455
G1 X138.458 Y129.828 E332.9732
G1 X138.458 Y70.302 E335.9430
G1 X138.062 Y69.913 E335.9707
G1 X138.062 Y130.217 E338.9793
G1 X137.666 Y130.736 E339.0119
G1 X137.666 Y69.523 E342.0658
G1 X137.270 Y69.134 E342.0935
G1 X137.270 Y131.125 E345.1862
G1 X136.874 Y131.514 E345.2139
G1 X136.874 Y101.686 E346.7020
G1 F4800 E345.7020
G1 X136.478 Y104.150 F10800
G1 F4800 E346.7020
G1 X136.478 Y131.903 E348.0866 F3600
G1 X136.082 Y132.292 E348.1143
G1 X136.082 Y106.744 E349.3890
G1 F4800 E348.3890
G1 X135.686 Y108.948 F10800
G1 F4800 E349.3890
G1 X135.686 Y132.681 E350.5730 F3600
G1 X135.290 Y133.070 E350.6007
G1 X135.290 Y109.727 E351.7653
G1 X134.894 Y110.505 E351.8088
G1 X134.894 Y133.459 E352.9540
G1 X134.498 Y133.848 E352.9817
G1 X134.498 Y111.283 E354.1075
G1 X134.103 Y112.061 E354.1510
G1 X134.103 Y134.238 E355.2574
G1 X133.707 Y134.627 E355.2851
G1 X133.707 Y112.839 E356.3721
G1 X133.311 Y113.617 E356.4156
G1 X133.311 Y135.016 E357.4832
G1 X132.915 Y135.405 E357.5109
G1 X132.915 Y114.395 E358.5590
G1 X132.519 Y115.173 E358.6026
G1 X132.519 Y135.794 E359.6313
G1 X132.123 Y136.183 E359.6590
G1 X132.123 Y115.952 E360.6683
G1 X131.727 Y116.730 E360.7119
G1 X131.727 Y136.572 E361.7018
G1 X131.331 Y136.961 E361.7295
G1 X131.331 Y117.508 E362.7001
G1 X130.935 Y118.286 E362.7436
G1 X130.935 Y137.220 E363.6882
G1 X130.539 Y137.480 E363.7119
G1 X130.539 Y118.934 E364.6371
G1 X130.143 Y119.323 E364.6648
G1 X130.143 Y137.739 E365.5836
G1 X129.747 Y137.869 E365.6044
G1 X129.747 Y119.713 E366.5102
G1 X129.351 Y120.102 E366.5379
G1 X129.351 Y138.128 E367.4372
G1 X128.955 Y138.258 E367.4580
G1 X128.955 Y120.491 E368.3444
G1 X128.559 Y120.880 E368.3721
G1 X128.559 Y138.517 E369.2520
G1 X128.163 Y138.647 E369.2728
G1 X128.163 Y121.269 E370.1398
G1 X127.767 Y121.658 E370.1675
G1 X127.767 Y138.906 E371.0280
G1 X127.371 Y139.036 E371.0488
G1 X127.371 Y122.047 E371.8964
G1 X126.976 Y122.436 E371.9241
G1 X126.976 Y139.295 E372.7652
G1 X126.580 Y139.555 E372.7888
G1 X126.580 Y122.825 E373.6235
G1 X126.184 Y123.214 E373.6512
G1 X126.184 Y139.684 E374.4729
G1 X125.788 Y139.944 E374.4965
G1 X125.788 Y123.603 E375.3117
G1 X125.392 Y124.122 E375.3443
G1 X125.392 Y140.073 E376.1401
G1 X124.996 Y140.333 E376.1638
G1 X124.996 Y124.511 E376.9531
G1 X124.600 Y124.641 E376.9739
G1 X124.600 Y140.463 E377.7633
G1 X124.204 Y140.722 E377.7869
G1 X124.204 Y124.900 E378.5763
G1 X123.808 Y125.030 E378.5971
G1 X123.808 Y140.852 E379.3864
G1 X123.412 Y141.111 E379.4100
G1 X123.412 Y125.289 E380.1994
G1 X123.016 Y125.419 E380.2202
G1 X123.016 Y141.370 E381.0160
G1 X122.620 Y141.500 E381.0368
G1 X122.620 Y125.678 E381.8262
G1 X122.224 Y125.938 E381.8498
G1 X122.224 Y141.759 E382.6392
G1 X121.828 Y141.889 E382.6600
G1 X121.828 Y126.067 E383.4493
G1 X121.432 Y126.327 E383.4729
G1 X121.432 Y142.148 E384.2623
G1 X121.036 Y142.278 E384.2831
G1 X121.036 Y126.456 E385.0725
G1 X120.640 Y126.716 E385.0961
G1 X120.640 Y142.538 E385.8854
G1 X120.244 Y142.667 E385.9062
G1 X120.244 Y126.845 E386.6956
G1 X119.848 Y127.105 E386.7192
G1 X119.848 Y142.927 E387.5086
G1 X119.453 Y143.056 E387.5294
G1 X119.453 Y127.234 E388.3187
G1 X119.057 Y127.494 E388.3424
G1 X119.057 Y143.056 E389.1188
G1 X118.661 Y143.056 E389.1385
G1 X118.661 Y127.753 E389.9020
G1 X118.265 Y127.883 E389.9228
G1 X118.265 Y143.186 E390.6863
G1 X117.869 Y143.186 E390.7060
G1 X117.869 Y128.142 E391.4566
G1 X117.473 Y128.272 E391.4774
G1 X117.473 Y143.316 E392.2279
G1 X117.077 Y143.316 E392.2477
G1 X117.077 Y128.531 E392.9853
G1 X116.681 Y128.661 E393.0061
G1 X116.681 Y143.445 E393.7437
G1 X116.285 Y143.445 E393.7634
G1 X116.285 Y128.920 E394.4880
G1 X115.889 Y129.050 E394.5088
G1 X115.889 Y143.575 E395.2335
G1 X115.493 Y143.575 E395.2532
G1 X115.493 Y129.309 E395.9649
G1 X115.097 Y129.569 E395.9885
G1 X115.097 Y143.705 E396.6938
G1 X114.701 Y143.705 E396.7135
G1 X114.701 Y129.569 E397.4187
G1 X114.305 Y129.698 E397.4395
G1 X114.305 Y143.834 E398.1448
G1 X113.909 Y143.834 E398.1645
G1 X113.909 Y129.698 E398.8697
G1 X113.513 Y129.828 E398.8905
G1 X113.513 Y143.964 E399.5957
G1 X113.117 Y143.964 E399.6155
G1 X113.117 Y129.828 E400.3207
G1 X112.721 Y129.958 E400.3415
G1 X112.721 Y144.094 E401.0467
G1 X112.326 Y144.094 E401.0665
G1 X112.326 Y129.958 E401.7717
G1 X111.930 Y130.087 E401.7925
G1 X111.930 Y144.223 E402.4977
G1 X111.534 Y144.223 E402.5175
G1 X111.534 Y130.087 E403.2227
G1 X111.138 Y130.217 E403.2435
G1 X111.138 Y144.353 E403.9487
G1 X110.742 Y144.353 E403.9685
G1 X110.742 Y130.217 E404.6737
G1 X110.346 Y130.347 E404.6945
G1 X110.346 Y144.483 E405.3997
G1 X109.950 Y144.483 E405.4194
G1 X109.950 Y130.347 E406.1247
G1 X109.554 Y130.477 E406.1455
G1 X109.554 Y144.483 E406.8442
G1 X109.158 Y144.613 E406.8650
G1 X109.158 Y130.477 E407.5702
G1 X108.762 Y130.606 E407.5910
G1 X108.762 Y144.613 E408.2898
G1 X108.366 Y144.742 E408.3106
G1 X108.366 Y130.606 E409.0158
G1 X107.970 Y130.736 E409.0366
G1 X107.970 Y144.742 E409.7353
G1 X107.574 Y144.872 E409.7561
G1 X107.574 Y130.736 E410.4613
G1 X107.178 Y130.736 E410.4811
G1 X107.178 Y144.872 E411.1863
G1 X106.782 Y144.872 E411.2061
G1 X106.782 Y130.866 E411.9048
G1 X106.386 Y130.866 E411.9246
G1 X106.386 Y144.872 E412.6233
G1 X105.990 Y144.872 E412.6431
G1 X105.990 Y130.995 E413.3354
G1 X105.594 Y130.995 E413.3551
G1 X105.594 Y144.872 E414.0474
G1 X105.198 Y144.872 E414.0672
G1 X105.198 Y130.866 E414.7659
G1 X104.803 Y130.866 E414.7857
G1 X104.803 Y144.872 E415.4844
G1 X104.407 Y144.872 E415.5042
G1 X104.407 Y130.736 E416.2094
G1 X104.011 Y130.736 E416.2291
G1 X104.011 Y144.872 E416.9344
G1 X103.615 Y144.872 E416.9541
G1 X103.615 Y130.606 E417.6658
G1 X103.219 Y130.606 E417.6856
G1 X103.219 Y144.872 E418.3973
G1 X102.823 Y144.872 E418.4170
G1 X102.823 Y130.477 E419.1352
G1 X102.427 Y130.477 E419.1549
G1 X102.427 Y144.742 E419.8666
G1 X102.031 Y144.742 E419.8864
G1 X102.031 Y130.347 E420.6045
G1 X101.635 Y130.347 E420.6243
G1 X101.635 Y144.613 E421.3360
G1 X101.239 Y144.613 E421.3557
G1 X101.239 Y130.217 E422.0739
G1 X100.843 Y130.217 E422.0937
G1 X100.843 Y144.483 E422.8054
G1 X100.447 Y144.483 E422.8251
G1 X100.447 Y130.087 E423.5433
G1 X100.051 Y130.087 E423.5630
G1 X100.051 Y144.353 E424.2747
G1 X99.655 Y144.353 E424.2945
G1 X99.655 Y130.087 E425.0062
G1 X99.259 Y129.958 E425.0270
G1 X99.259 Y144.223 E425.7387
G1 X98.863 Y144.223 E425.7584
G1 X98.863 Y129.958 E426.4701
G1 X98.467 Y129.828 E426.4909
G1 X98.467 Y144.094 E427.2026
G1 X98.071 Y144.094 E427.2223
G1 X98.071 Y129.828 E427.9340
G1 X97.676 Y129.698 E427.9548
G1 X97.676 Y143.964 E428.6665
G1 X97.280 Y143.964 E428.6863
G1 X97.280 Y129.698 E429.3980
G1 X96.884 Y129.569 E429.4188
G1 X96.884 Y143.834 E430.1305
G1 X96.488 Y143.834 E430.1502
G1 X96.488 Y129.439 E430.8684
G1 X96.092 Y129.180 E430.8920
G1 X96.092 Y143.705 E431.6167
G1 X95.696 Y143.705 E431.6364
G1 X95.696 Y129.050 E432.3675
G1 X95.300 Y128.791 E432.3911
G1 X95.300 Y143.575 E433.1287
G1 X94.904 Y143.575 E433.1485
G1 X94.904 Y128.661 E433.8926
G1 X94.508 Y128.402 E433.9162
G1 X94.508 Y143.445 E434.6667
G1 X94.112 Y143.445 E434.6865
G1 X94.112 Y128.142 E435.4500
G1 X93.716 Y128.013 E435.4708
G1 X93.716 Y143.316 E436.2342
G1 X93.320 Y143.316 E436.2540
G1 X93.320 Y127.753 E437.0304
G1 X92.924 Y127.623 E437.0512
G1 X92.924 Y143.186 E437.8276
G1 X92.528 Y143.186 E437.8474
G1 X92.528 Y127.364 E438.6367
G1 X92.132 Y127.234 E438.6575
G1 X92.132 Y143.056 E439.4469
G1 X91.736 Y143.056 E439.4666
G1 X91.736 Y126.975 E440.2689
G1 X91.340 Y126.845 E440.2897
G1 X91.340 Y142.927 E441.0920
G1 X90.944 Y142.927 E441.1118
G1 X90.944 Y126.586 E441.9270
G1 X90.548 Y126.327 E441.9506
G1 X90.548 Y142.667 E442.7659
G1 X90.153 Y142.538 E442.7867
G1 X90.153 Y126.197 E443.6019
G1 X89.757 Y125.938 E443.6255
G1 X89.757 Y142.278 E444.4408
G1 X89.361 Y142.148 E444.4616
G1 X89.361 Y125.808 E445.2768
G1 X88.965 Y125.548 E445.3004
G1 X88.965 Y141.889 E446.1157
G1 X88.569 Y141.759 E446.1365
G1 X88.569 Y125.419 E446.9517
G1 X88.173 Y125.159 E446.9753
G1 X88.173 Y141.500 E447.7906
G1 X87.777 Y141.370 E447.8114
G1 X87.777 Y125.030 E448.6266
G1 X87.381 Y124.770 E448.6502
G1 X87.381 Y141.111 E449.4655
G1 X86.985 Y140.852 E449.4891
G1 X86.985 Y124.511 E450.3043
G1 X86.589 Y124.252 E450.3280
G1 X86.589 Y140.722 E451.1497
G1 X86.193 Y140.463 E451.1733
G1 X86.193 Y123.863 E452.0015
G1 X85.797 Y123.473 E452.0292
G1 X85.797 Y140.333 E452.8703
G1 X85.401 Y140.073 E452.8939
G1 X85.401 Y123.084 E453.7415
G1 X85.005 Y122.695 E453.7692
G1 X85.005 Y139.944 E454.6298
G1 X84.609 Y139.684 E454.6534
G1 X84.609 Y122.306 E455.5204
G1 X84.213 Y121.917 E455.5481
G1 X84.213 Y139.555 E456.4280
G1 X83.817 Y139.295 E456.4516
G1 X83.817 Y121.528 E457.3380
G1 X83.421 Y121.009 E457.3706
G1 X83.421 Y139.036 E458.2700
G1 X83.026 Y138.906 E458.2907
G1 X83.026 Y120.620 E459.2030
G1 X82.630 Y120.231 E459.2307
G1 X82.630 Y138.647 E460.1495
G1 X82.234 Y138.517 E460.1703
G1 X82.234 Y119.842 E461.1020
G1 X81.838 Y119.453 E461.1296
G1 X81.838 Y138.258 E462.0678
G1 X81.442 Y138.128 E462.0886
G1 X81.442 Y119.064 E463.0397
G1 X81.046 Y118.545 E463.0723
G1 X81.046 Y137.869 E464.0363
G1 X80.650 Y137.739 E464.0571
G1 X80.650 Y117.767 E465.0535
G1 X80.254 Y116.989 E465.0970
G1 X80.254 Y137.480 E466.1193
G1 X79.858 Y137.220 E466.1429
G1 X79.858 Y116.211 E467.1911
G1 X79.462 Y115.433 E467.2346
G1 X79.462 Y136.961 E468.3087
G1 X79.066 Y136.572 E468.3364
G1 X79.066 Y114.655 E469.4298
G1 X78.670 Y113.877 E469.4734
G1 X78.670 Y136.183 E470.5862
G1 X78.274 Y135.794 E470.6139
G1 X78.274 Y113.228 E471.7397
G1 X77.878 Y112.450 E471.7833
G1 X77.878 Y135.405 E472.9285
G1 X77.482 Y135.016 E472.9562
G1 X77.482 Y111.672 E474.1208
G1 X77.086 Y110.894 E474.1643
G1 X77.086 Y134.627 E475.3484
G1 X76.690 Y134.238 E475.3760
G1 X76.690 Y110.116 E476.5795
G1 X76.294 Y109.337 E476.6230
G1 X76.294 Y133.848 E477.8459
G1 X75.898 Y133.459 E477.8736
G1 X75.898 Y107.781 E479.1547
G1 F4800 E478.1547
G1 X75.503 Y105.317 F10800
G1 F4800 E479.1547
G1 X75.503 Y133.070 E480.5393 F3600
G1 X75.107 Y132.681 E480.5670
G1 X75.107 Y102.853 E482.0551
G1 F4800 E481.0551
G1 X136.478 Y95.072 F10800
G1 F4800 E482.0551
G1 X136.478 Y68.356 E483.3880 F3600
G1 X136.874 Y68.745 E483.4157
G1 X136.874 Y97.536 E484.8520


; ------------------------------------
; Layer #0
; ------------------------------------
G21 ; mm
G90 ; abs
G92 E0 ; reset extr
M106 S255
;segType:Support
G1 F4800 E-1.0000
G1 F300 Z2.050
G1 X141.000 Y100.000 F10800
G1 F4800 E0.0000
G1 X141.278 Y100.000 E0.0118 F900
G1 F4800 E-0.9882
G1 X144.600 Y87.400 F10800
G1 F4800 E0.0118
G1 X150.000 Y87.400 E0.2408 F900
G1 F4800 E-0.7592
G1 X150.000 Y103.600 F10800
G1 F4800 E0.2408
G1 X148.200 Y103.600 E0.3171 F900
G1 F4800 E-0.6829
G1 X150.000 Y100.000 F10800
G1 F4800 E0.3171
G1 X148.200 Y100.000 E0.3934 F900
G1 X148.200 Y101.800 E0.4698
G1 X150.000 Y101.800 E0.5461
G1 F4800 E-0.4539
G1 X148.200 Y98.200 F10800
G1 F4800 E0.5461
G1 X150.000 Y98.200 E0.6224 F900
G1 X150.000 Y96.400 E0.6988
G1 X148.200 Y96.400 E0.7751
G1 F4800 E-0.2249
G1 X145.428 Y92.800 F10800
G1 F4800 E0.7751
G1 X150.000 Y92.800 E0.9690 F900
G1 X148.200 Y94.600 E1.0769
G1 X150.000 Y94.600 E1.1533
G1 F4800 E0.1533
G1 X147.788 Y95.500 F10800
G1 X145.575 Y96.400
G1 X141.151 Y98.200
G1 F4800 E1.1533
G1 X141.000 Y98.200 E1.1596 F900
G1 F4800 E0.1596
G1 X143.250 Y96.400 F10800
G1 X145.500 Y94.600
G1 X150.000 Y91.000
G1 F4800 E1.1596
G1 X145.143 Y91.000 E1.3656 F900
G1 F4800 E0.3656
G1 X150.000 Y89.200 F10800
G1 F4800 E1.3656
G1 X144.858 Y89.200 E1.5837 F900
;segType:HShell
G1 F4800 E0.5837
G1 X146.780 Y106.105 F10800
G1 F4800 E1.5837
G1 X146.263 Y106.613 E1.6198 F600
G1 X145.703 Y106.613
G1 X146.780 Y105.554 E1.6952
G1 X146.780 Y105.003
G1 X145.144 Y106.613 E1.8097
G1 X144.489 Y107.055 F10800
G1 X144.055 Y108.201
;segType:Loop
G1 X143.401 Y112.333 E2.0184 F600
G1 X137.732 Y123.457 E2.6413
G1 X128.905 Y132.284 E3.2641
G1 X117.785 Y137.950 E3.8868
G1 X105.461 Y139.902 E4.5093
G1 X93.137 Y137.950 E5.1318
G1 X82.017 Y132.284 E5.7544
G1 X73.190 Y123.457 E6.3772
G1 X67.521 Y112.333 E7.0001
G1 X66.662 Y106.910 E7.2741
G1 X66.596 Y106.910 E7.2774
G1 X66.596 Y106.487 E7.2985
G1 X66.378 Y105.910 E7.3293
G1 X62.962 Y105.910 E7.4997
G1 X62.962 Y95.190 E8.0345
G1 X66.330 Y95.190 E8.2025
G1 X67.521 Y87.667 E8.5825
G1 X73.190 Y76.543 E9.2054
G1 X82.017 Y67.716 E9.8282
G1 X93.137 Y62.050 E10.4508
G1 X105.461 Y60.098 E11.0734
G1 X117.785 Y62.050 E11.6959
G1 X128.905 Y67.716 E12.3185
G1 X137.732 Y76.543 E12.9413
G1 X143.401 Y87.667 E13.5642
G1 X144.735 Y96.090 E13.9897
G1 X146.980 Y96.090 E14.1017
G1 X146.980 Y106.810 E14.6365
G1 X144.275 Y106.810 E14.7715
G1 X144.085 Y108.009 E14.8320
G1 X144.140 Y108.952 F10800
G1 X144.422 Y107.173
G1 X144.907 Y106.624
;segType:Perimeter
G1 X144.609 Y107.261 E14.8671 F359
G1 X143.786 Y112.454 E15.1294
G1 X138.062 Y123.689 E15.7585
G1 X129.146 Y132.605 E16.3876
G1 X117.912 Y138.329 E17.0166
G1 X105.461 Y140.301 E17.6455
G1 X93.010 Y138.329 E18.2744
G1 X81.776 Y132.605 E18.9034
G1 X72.861 Y123.689 E19.5325
G1 X67.136 Y112.455 E20.1616
G1 X66.320 Y107.303 E20.4218
G1 X66.196 Y107.303 E20.4279
G1 X66.196 Y106.557 E20.4652
G1 X66.100 Y106.303 E20.4787
G1 X62.562 Y106.303 E20.6552
G1 X62.562 Y94.797 E21.2293
G1 X65.987 Y94.797 E21.4002
G1 X67.136 Y87.545 E21.7664
G1 X72.861 Y76.311 E22.3955
G1 X81.776 Y67.395 E23.0245
G1 X93.010 Y61.671 E23.6535
G1 X105.461 Y59.699 E24.2825
G1 X117.912 Y61.671 E24.9114
G1 X129.146 Y67.395 E25.5404
G1 X138.062 Y76.311 E26.1695
G1 X143.786 Y87.546 E26.7986
G1 X145.077 Y95.697 E27.2103
G1 X147.380 Y95.697 E27.3252
G1 X147.380 Y107.203 E27.8992
G1 X144.677 Y107.203 E28.0341
G1 X143.992 Y107.395
G1 X107.841 Y63.398 F10800
G1 X107.266 Y62.907
;segType:HShell
G1 X109.300 Y60.905 E28.1765 F600
G1 X108.818 Y60.829
G1 X106.783 Y62.830 E28.3189
G1 X106.301 Y62.754
G1 X108.336 Y60.752 E28.4613
G1 X107.854 Y60.676
G1 X105.764 Y62.731 E28.6075
;segType:Perimeter
G1 X105.477 Y62.852 F10800
G1 X106.020 Y63.307 E28.6428 F359
G1 X117.150 Y65.071 E29.2050
G1 X127.243 Y70.213 E29.7702
G1 X135.253 Y78.222 E30.3353
G1 X140.394 Y88.314 E30.9003
G1 X142.166 Y99.500 E31.4654
G1 X140.394 Y110.686 E32.0304
G1 X135.253 Y120.778 E32.5954
G1 X127.243 Y128.787 E33.1606
G1 X117.150 Y133.929 E33.7257
G1 X105.961 Y135.701 E34.2909
G1 X94.773 Y133.929 E34.8560
G1 X84.679 Y128.787 E35.4212
G1 X76.669 Y120.778 E35.9863
G1 X71.528 Y110.686 E36.5514
G1 X69.755 Y99.500 E37.1164
G1 X71.528 Y88.314 E37.6814
G1 X76.669 Y78.222 E38.2465
G1 X84.679 Y70.213 E38.8116
G1 X94.772 Y65.071 E39.3767
G1 X105.902 Y63.307 E39.9389
G1 X106.445 Y62.852
;segType:Loop
G1 X107.100 Y63.080 F10800
G1 X117.277 Y64.692 E40.4530 F600
G1 X127.484 Y69.892 E41.0245
G1 X135.582 Y77.990 E41.5959
G1 X140.779 Y88.193 E42.1672
G1 X142.571 Y99.500 E42.7383
G1 X140.779 Y110.807 E43.3094
G1 X135.582 Y121.010 E43.8807
G1 X127.484 Y129.108 E44.4521
G1 X117.277 Y134.308 E45.0236
G1 X105.961 Y136.100 E45.5952
G1 X94.646 Y134.308 E46.1667
G1 X84.438 Y129.108 E46.7382
G1 X76.340 Y121.010 E47.3096
G1 X71.142 Y110.807 E47.8809
G1 X69.351 Y99.500 E48.4520
G1 X71.142 Y88.193 E49.0232
G1 X76.340 Y77.990 E49.5944
G1 X84.438 Y69.892 E50.1658
G1 X94.645 Y64.692 E50.7373
G1 X105.961 Y62.899 E51.3089
G1 X106.904 Y63.049 E51.3565
;segType:HShell
G1 X95.084 Y64.424 F10800
G1 X98.093 Y61.464 E51.5671 F600
G1 X98.761 Y61.358
G1 X95.752 Y64.318 E51.7776
G1 X96.419 Y64.212
G1 X99.428 Y61.253 E51.9882
G1 X100.095 Y61.147
G1 X97.087 Y64.106 E52.1987
G1 X97.754 Y64.000
G1 X100.763 Y61.041 E52.4093
G1 X101.430 Y60.935
G1 X98.422 Y63.895 E52.6198
G1 X99.089 Y63.789
G1 X102.098 Y60.830 E52.8303
G1 X102.765 Y60.724
G1 X99.757 Y63.683 E53.0409
G1 X100.424 Y63.577
G1 X103.432 Y60.618 E53.2514
G1 X104.100 Y60.513
G1 X101.092 Y63.472 E53.4619
G1 X101.759 Y63.366
G1 X104.767 Y60.407 E53.6724
G1 X105.435 Y60.301
G1 X102.427 Y63.260 E53.8829
G1 X103.094 Y63.154
G1 X105.924 Y60.370 E54.0810
G1 X106.407 Y60.447
G1 X103.762 Y63.048 E54.2660
G1 X104.429 Y62.943
G1 X106.889 Y60.523 E54.4382
G1 X107.371 Y60.600
G1 X105.097 Y62.837 E54.5974
G1 X107.748 Y62.983 F10800
G1 X109.783 Y60.982 E54.7398 F600
G1 X110.265 Y61.058
G1 X108.230 Y63.060 E54.8822
G1 X108.712 Y63.136
G1 X110.747 Y61.134 E55.0246
G1 X111.230 Y61.211
G1 X109.195 Y63.212 E55.1670
G1 X109.677 Y63.289
G1 X111.712 Y61.287 E55.3094
G1 X112.194 Y61.363
G1 X110.159 Y63.365 E55.4518
G1 X110.641 Y63.442
G1 X112.677 Y61.440 E55.5942
G1 X113.159 Y61.516
G1 X111.124 Y63.518 E55.7366
G1 X111.606 Y63.594
G1 X113.641 Y61.593 E55.8791
G1 X114.123 Y61.669
G1 X112.088 Y63.671 E56.0215
G1 X112.570 Y63.747
G1 X114.606 Y61.745 E56.1639
G1 X115.088 Y61.822
G1 X113.053 Y63.824 E56.3064
G1 X113.535 Y63.900
G1 X115.570 Y61.898 E56.4488
G1 X116.053 Y61.975
G1 X114.017 Y63.977 E56.5912
G1 X114.499 Y64.053
G1 X116.535 Y62.051 E56.7337
G1 X117.017 Y62.127
G1 X114.982 Y64.129 E56.8761
G1 X115.464 Y64.206
G1 X117.499 Y62.204 E57.0186
G1 X117.921 Y62.340
G1 X115.946 Y64.282 E57.1567
G1 X116.428 Y64.359
G1 X118.290 Y62.528 E57.2870
G1 X118.658 Y62.716
G1 X116.911 Y64.435 E57.4093
G1 X117.380 Y64.524
G1 X119.027 Y62.904 E57.5245
G1 X119.396 Y63.092
G1 X117.749 Y64.712 E57.6398
G1 X118.118 Y64.900
G1 X119.765 Y63.280 E57.7550
G1 X120.134 Y63.468
G1 X118.487 Y65.088 E57.8702
G1 X118.856 Y65.276
G1 X120.503 Y63.656 E57.9855
G1 X120.872 Y63.844
G1 X119.225 Y65.463 E58.1007
G1 X119.594 Y65.651
G1 X121.241 Y64.032 E58.2159
G1 X121.609 Y64.220
G1 X119.963 Y65.839 E58.3312
G1 X120.332 Y66.027
G1 X121.978 Y64.408 E58.4464
G1 X122.347 Y64.596
G1 X120.701 Y66.215 E58.5616
G1 X121.069 Y66.403
G1 X122.716 Y64.784 E58.6768
G1 X123.085 Y64.972
G1 X121.438 Y66.591 E58.7920
G1 X121.807 Y66.779
G1 X123.454 Y65.159 E58.9072
G1 X123.823 Y65.347
G1 X122.176 Y66.967 E59.0225
G1 X122.545 Y67.155
G1 X124.191 Y65.535 E59.1377
G1 X124.560 Y65.723
G1 X122.914 Y67.343 E59.2529
G1 X123.283 Y67.530
G1 X124.929 Y65.911 E59.3681
G1 X125.298 Y66.099
G1 X123.652 Y67.718 E59.4833
G1 X124.021 Y67.906
G1 X125.667 Y66.287 E59.5985
G1 X126.036 Y66.475
G1 X124.390 Y68.094 E59.7136
G1 X124.759 Y68.282
G1 X126.405 Y66.663 E59.8288
G1 X126.773 Y66.851
G1 X125.127 Y68.470 E59.9440
G1 X125.496 Y68.658
G1 X127.142 Y67.039 E60.0592
G1 X127.511 Y67.227
G1 X125.865 Y68.846 E60.1744
G1 X126.234 Y69.034
G1 X127.880 Y67.415 E60.2896
G1 X128.249 Y67.603
G1 X126.603 Y69.222 E60.4047
G1 X126.972 Y69.410
G1 X128.618 Y67.791 E60.5199
G1 X128.937 Y68.028
G1 X127.341 Y69.598 E60.6316
G1 X127.684 Y69.811
G1 X129.214 Y68.306 E60.7387
G1 X129.492 Y68.583
G1 X127.961 Y70.089 E60.8458
G1 X128.239 Y70.367
G1 X129.770 Y68.861 E60.9529
G1 X130.047 Y69.139
G1 X128.517 Y70.644 E61.0601
G1 X128.794 Y70.922
G1 X130.325 Y69.416 E61.1672
G1 X130.603 Y69.694
G1 X129.072 Y71.200 E61.2743
G1 X129.350 Y71.477
G1 X130.880 Y69.971 E61.3814
G1 X131.158 Y70.249
G1 X129.627 Y71.755 E61.4886
G1 X129.905 Y72.033
G1 X131.436 Y70.527 E61.5957
G1 X131.713 Y70.804
G1 X130.183 Y72.310 E61.7028
G1 X130.460 Y72.588
G1 X131.991 Y71.082 E61.8100
G1 X132.269 Y71.360
G1 X130.738 Y72.866 E61.9171
G1 X131.016 Y73.143
G1 X132.546 Y71.637 E62.0242
G1 X132.824 Y71.915
G1 X131.293 Y73.421 E62.1314
G1 X131.571 Y73.699
G1 X133.102 Y72.193 E62.2385
G1 X133.379 Y72.470
G1 X131.849 Y73.976 E62.3456
G1 X132.126 Y74.254
G1 X133.657 Y72.748 E62.4528
G1 X133.935 Y73.026
G1 X132.404 Y74.531 E62.5599
G1 X132.681 Y74.809
G1 X134.212 Y73.303 E62.6670
G1 X134.490 Y73.581
G1 X132.959 Y75.087 E62.7742
G1 X133.237 Y75.364
G1 X134.768 Y73.859 E62.8813
G1 X135.045 Y74.136
G1 X133.514 Y75.642 E62.9884
G1 X133.792 Y75.920
G1 X135.323 Y74.414 E63.0956
G1 X135.601 Y74.692
G1 X134.070 Y76.197 E63.2027
G1 X134.347 Y76.475
G1 X135.878 Y74.969 E63.3098
G1 X136.156 Y75.247
G1 X134.625 Y76.753 E63.4170
G1 X134.903 Y77.030
G1 X136.434 Y75.525 E63.5241
G1 X136.711 Y75.802
G1 X135.180 Y77.308 E63.6313
G1 X135.458 Y77.586
G1 X136.989 Y76.080 E63.7384
G1 X137.267 Y76.358
G1 X135.736 Y77.863 E63.8455
G1 X135.926 Y78.227
G1 X137.544 Y76.635 E63.9588
G1 X137.739 Y76.995
G1 X136.113 Y78.594 E64.0725
G1 X136.300 Y78.961
G1 X137.926 Y77.362 E64.1863
G1 X138.113 Y77.728
G1 X136.487 Y79.328 E64.3001
G1 X136.674 Y79.694
G1 X138.300 Y78.095 E64.4138
G1 X138.487 Y78.462
G1 X136.861 Y80.061 E64.5276
G1 X137.048 Y80.428
G1 X138.674 Y78.829 E64.6414
G1 X138.861 Y79.196
G1 X137.235 Y80.795 E64.7552
G1 X137.422 Y81.162
G1 X139.048 Y79.563 E64.8690
G1 X139.235 Y79.930
G1 X137.608 Y81.529 E64.9828
G1 X137.795 Y81.896
G1 X139.421 Y80.297 E65.0965
G1 X139.608 Y80.664
G1 X137.982 Y82.263 E65.2103
G1 X138.169 Y82.630
G1 X139.795 Y81.030 E65.3241
G1 X139.982 Y81.397
G1 X138.356 Y82.997 E65.4379
G1 X138.543 Y83.364
G1 X140.169 Y81.764 E65.5517
G1 X140.356 Y82.131
G1 X138.730 Y83.731 E65.6655
G1 X138.917 Y84.098
G1 X140.543 Y82.498 E65.7793
G1 X140.730 Y82.865
G1 X139.104 Y84.464 E65.8931
G1 X139.291 Y84.831
G1 X140.917 Y83.232 E66.0070
G1 X141.104 Y83.599
G1 X139.478 Y85.198 E66.1208
G1 X139.665 Y85.565
G1 X141.291 Y83.966 E66.2346
G1 X141.478 Y84.332
G1 X139.851 Y85.932 E66.3484
G1 X140.038 Y86.299
G1 X141.665 Y84.699 E66.4622
G1 X141.852 Y85.066
G1 X140.225 Y86.666 E66.5760
G1 X140.412 Y87.033
G1 X142.039 Y85.433 E66.6899
G1 X142.226 Y85.800
G1 X140.599 Y87.400 E66.8037
G1 X140.786 Y87.767
G1 X142.413 Y86.167 E66.9175
G1 X142.600 Y86.534
G1 X140.973 Y88.134 E67.0314
G1 X141.048 Y88.611
G1 X142.786 Y86.901 E67.1530
G1 X142.973 Y87.268
G1 X141.124 Y89.087 E67.2825
G1 X141.199 Y89.564
G1 X143.160 Y87.634 E67.4198
G1 X143.264 Y88.083
G1 X141.275 Y90.040 E67.5590
G1 X141.350 Y90.517
G1 X143.340 Y88.560 E67.6982
G1 X143.415 Y89.036
G1 X141.426 Y90.993 E67.8374
G1 X141.501 Y91.470
G1 X143.491 Y89.513 E67.9767
G1 X143.566 Y89.989
G1 X141.577 Y91.946 E68.1159
G1 X141.652 Y92.423
G1 X143.641 Y90.466 E68.2551
G1 X143.717 Y90.942
G1 X141.728 Y92.899 E68.3943
G1 X141.803 Y93.376
G1 X143.792 Y91.419 E68.5335
G1 X143.868 Y91.895
G1 X141.879 Y93.852 E68.6727
G1 X141.954 Y94.329
G1 X143.943 Y92.372 E68.8119
G1 X144.019 Y92.849
G1 X142.030 Y94.805 E68.9511
G1 X142.105 Y95.282
G1 X144.094 Y93.325 E69.0903
G1 X144.170 Y93.802
G1 X142.181 Y95.758 E69.2295
G1 X142.256 Y96.235
G1 X144.245 Y94.278 E69.3687
G1 X144.321 Y94.755
G1 X142.332 Y96.711 E69.5079
G1 X142.407 Y97.188
