; GCode generated by CraftWare

; filename = composition.3w 
; machine = daVinciF10 
; material = abs 
; extruder = 1 
M140 S90 ; Bed (no wait) 
M106 S255 ; Start fan 
G90 ; set absolute coordinates 
G28 ; home all axis 
M190 S90 ; Bed (wait) 
M104 S210 ; Extruder (no wait) 
M109 S210 ; Extruder (wait) 
M117 Start 
M117 Cleaning 
M100 ; Cleaning 
M117 Printing 
M109 S220 ;set head temp (wait)
M190 S75 ;set bed temp (wait)
; ------------------------------------
; Layer #0
; ------------------------------------
G21 ; mm
G90 ; abs
G92 E0 ; reset extr
M106 S0
;segType:Skirt
G1 F4800 E-1.0000
G1 F300 Z0.300
G1 X76.119 Y125.373 F10800
G1 F4800 E0.0000
G1 X79.768 Y128.970 E0.2556 F600
G1 X80.419 Y129.356 E0.2934
G1 X80.941 Y129.870 E0.3299
G1 X81.592 Y130.255 E0.3677
G1 X82.113 Y130.769 E0.4042
G1 X82.439 Y130.962 E0.4231
G1 X82.700 Y131.219 E0.4414
G1 X83.026 Y131.411 E0.4602
G1 X83.286 Y131.668 E0.4785
G1 X83.612 Y131.861 E0.4974
G1 X83.873 Y132.118 E0.5156
G1 X84.198 Y132.311 E0.5345
G1 X84.459 Y132.567 E0.5528
G1 X84.785 Y132.760 E0.5717
G1 X85.046 Y133.017 E0.5899
G1 X85.241 Y133.338 E0.6087
G1 X86.153 Y134.238 E0.6726
G1 X86.935 Y134.238 E0.7116
G1 X87.261 Y134.431 E0.7305
G1 X87.652 Y134.559 E0.7510
G1 X87.978 Y134.751 E0.7699
G1 X88.759 Y135.008 E0.8109
G1 X88.890 Y135.137 E0.8201
G1 X89.150 Y135.137 E0.8331
G1 X89.802 Y135.522 E0.8708
G1 X90.063 Y135.522 E0.8838
G1 X90.389 Y135.715 E0.9028
G1 X90.779 Y135.844 E0.9233
G1 X91.105 Y136.036 E0.9421
G1 X91.887 Y136.293 E0.9832
G1 X92.213 Y136.486 E1.0021
G1 X92.604 Y136.615 E1.0226
G1 X92.929 Y136.807 E1.0415
G1 X93.190 Y136.807 E1.0545
G1 X93.842 Y137.192 E1.0923
G1 X94.102 Y137.192 E1.1053
G1 X94.754 Y137.578 E1.1430
G1 X95.014 Y137.578 E1.1560
G1 X95.275 Y137.706 E1.1705
G1 X96.187 Y137.706 E1.2161
G1 X96.318 Y137.835 E1.2252
G1 X97.099 Y137.835 E1.2642
G1 X97.230 Y137.963 E1.2733
G1 X97.751 Y137.963 E1.2993
G1 X99.575 Y138.220 E1.3912
G1 X100.097 Y138.220 E1.4172
G1 X100.227 Y138.349 E1.4264
G1 X101.009 Y138.349 E1.4654
G1 X101.139 Y138.477 E1.4745
G1 X101.660 Y138.477 E1.5005
G1 X103.485 Y138.734 E1.5924
G1 X106.873 Y138.734 E1.7615
G1 X107.003 Y138.606 E1.7706
G1 X107.524 Y138.606 E1.7966
G1 X109.349 Y138.349 E1.8885
G1 X109.870 Y138.349 E1.9145
G1 X110.000 Y138.220 E1.9237
G1 X110.782 Y138.220 E1.9627
G1 X110.913 Y138.092 E1.9718
G1 X111.434 Y138.092 E1.9978
G1 X113.258 Y137.835 E2.0897
G1 X113.779 Y137.835 E2.1157
G1 X113.910 Y137.706 E2.1249
G1 X114.692 Y137.706 E2.1639
G1 X114.822 Y137.578 E2.1730
G1 X115.278 Y137.514 E2.1960
G1 X115.669 Y137.385 E2.2165
G1 X115.995 Y137.192 E2.2354
G1 X116.255 Y137.192 E2.2484
G1 X116.907 Y136.807 E2.2862
G1 X117.167 Y136.807 E2.2992
G1 X117.493 Y136.615 E2.3180
G1 X117.884 Y136.486 E2.3386
G1 X118.210 Y136.293 E2.3575
G1 X118.992 Y136.036 E2.3985
G1 X119.122 Y135.908 E2.4076
G1 X119.383 Y135.908 E2.4207
G1 X120.034 Y135.522 E2.4584
G1 X120.295 Y135.522 E2.4714
G1 X120.947 Y135.137 E2.5092
G1 X121.207 Y135.137 E2.5222
G1 X121.533 Y134.944 E2.5411
G1 X121.924 Y134.816 E2.5616
G1 X122.250 Y134.623 E2.5805
G1 X123.032 Y134.366 E2.6215
G1 X124.009 Y133.788 E2.6782
G1 X124.269 Y133.531 E2.6964
G1 X124.595 Y133.338 E2.7153
G1 X124.856 Y133.081 E2.7336
G1 X125.181 Y132.889 E2.7525
G1 X125.442 Y132.632 E2.7707
G1 X125.768 Y132.439 E2.7896
G1 X126.029 Y132.182 E2.8079
G1 X126.354 Y131.990 E2.8268
G1 X126.615 Y131.733 E2.8450
G1 X126.941 Y131.540 E2.8639
G1 X127.202 Y131.283 E2.8822
G1 X127.527 Y131.090 E2.9010
G1 X127.788 Y130.833 E2.9193
G1 X128.114 Y130.640 E2.9382
G1 X129.156 Y130.640 E2.9902
G1 X129.938 Y129.870 E3.0450
G1 X130.133 Y129.549 E3.0637
G1 X130.133 Y129.035 E3.0894
G1 X130.459 Y128.842 E3.1083
G1 X133.848 Y125.501 E3.3456
G1 X134.043 Y125.181 E3.3644
G1 X134.303 Y124.924 E3.3826
G1 X134.694 Y124.281 E3.4202
G1 X134.955 Y124.024 E3.4384
G1 X135.151 Y123.703 E3.4572
G1 X135.411 Y123.446 E3.4754
G1 X135.606 Y123.125 E3.4942
G1 X135.867 Y122.868 E3.5124
G1 X136.258 Y122.226 E3.5500
G1 X136.519 Y121.969 E3.5682
G1 X136.714 Y121.647 E3.5870
G1 X136.975 Y121.390 E3.6053
G1 X137.170 Y121.069 E3.6240
G1 X137.431 Y120.813 E3.6423
G1 X137.627 Y120.491 E3.6610
G1 X137.887 Y120.234 E3.6793
G1 X138.082 Y119.913 E3.6980
G1 X138.343 Y119.656 E3.7163
G1 X138.734 Y119.014 E3.7538
G1 X138.995 Y118.757 E3.7721
G1 X139.190 Y118.436 E3.7908
G1 X139.321 Y118.050 E3.8111
G1 X139.516 Y117.729 E3.8299
G1 X139.776 Y116.958 E3.8705
G1 X139.907 Y116.830 E3.8796
G1 X139.907 Y116.573 E3.8924
G1 X140.233 Y116.380 E3.9113
G1 X147.009 Y116.380 E4.2494
G1 X147.465 Y116.316 E4.2724
G1 X148.377 Y115.417 E4.3363
G1 X148.377 Y107.194 E4.7465
G1 X148.377 Y98.972 E5.1567
G1 X148.377 Y90.750 E5.5669
G1 X148.377 Y83.042 E5.9515
G1 X148.182 Y82.721 E5.9702
G1 X147.400 Y81.950 E6.0250
G1 X140.103 Y81.950 E6.3891
G1 X139.451 Y82.335 E6.4268
G1 X139.321 Y81.950 E6.4471
G1 X138.734 Y80.986 E6.5034
G1 X138.473 Y80.729 E6.5217
G1 X138.278 Y80.408 E6.5404
G1 X138.018 Y80.151 E6.5587
G1 X137.822 Y79.830 E6.5774
G1 X137.561 Y79.573 E6.5957
G1 X137.170 Y78.931 E6.6332
G1 X136.910 Y78.674 E6.6515
G1 X136.714 Y78.353 E6.6702
G1 X136.454 Y78.096 E6.6885
G1 X136.258 Y77.774 E6.7073
G1 X135.997 Y77.517 E6.7255
G1 X135.606 Y76.875 E6.7630
G1 X135.346 Y76.618 E6.7813
G1 X135.151 Y76.297 E6.8000
G1 X134.890 Y76.040 E6.8183
G1 X134.694 Y75.719 E6.8371
G1 X134.434 Y75.462 E6.8553
G1 X134.043 Y74.819 E6.8928
G1 X130.394 Y71.222 E7.1485
G1 X130.068 Y71.030 E7.1673
G1 X129.808 Y70.773 E7.1856
G1 X129.482 Y70.580 E7.2045
G1 X129.221 Y70.323 E7.2228
G1 X128.896 Y70.130 E7.2416
G1 X128.635 Y69.874 E7.2599
G1 X128.309 Y69.681 E7.2788
G1 X128.048 Y69.424 E7.2970
G1 X127.723 Y69.231 E7.3159
G1 X127.462 Y68.974 E7.3342
G1 X127.136 Y68.781 E7.3531
G1 X126.876 Y68.524 E7.3713
G1 X126.550 Y68.332 E7.3902
G1 X126.289 Y68.075 E7.4085
G1 X125.963 Y67.882 E7.4274
G1 X125.703 Y67.625 E7.4456
G1 X125.377 Y67.433 E7.4645
G1 X125.117 Y67.176 E7.4827
G1 X124.791 Y66.983 E7.5016
G1 X124.530 Y66.726 E7.5199
G1 X124.204 Y66.533 E7.5388
G1 X123.944 Y66.276 E7.5570
G1 X123.292 Y65.891 E7.5948
G1 X122.901 Y65.762 E7.6153
G1 X122.575 Y65.569 E7.6342
G1 X122.184 Y65.441 E7.6548
G1 X121.859 Y65.249 E7.6736
G1 X121.598 Y65.249 E7.6866
G1 X120.947 Y64.863 E7.7244
G1 X120.686 Y64.863 E7.7374
G1 X120.034 Y64.478 E7.7752
G1 X119.774 Y64.478 E7.7882
G1 X119.448 Y64.285 E7.8071
G1 X119.057 Y64.156 E7.8276
G1 X118.731 Y63.964 E7.8465
G1 X117.949 Y63.707 E7.8875
G1 X117.623 Y63.514 E7.9064
G1 X117.232 Y63.385 E7.9270
G1 X116.907 Y63.193 E7.9458
G1 X116.646 Y63.193 E7.9588
G1 X115.995 Y62.808 E7.9966
G1 X115.734 Y62.808 E8.0096
G1 X115.408 Y62.615 E8.0285
G1 X115.017 Y62.486 E8.0490
G1 X112.737 Y62.165 E8.1639
G1 X112.216 Y62.165 E8.1899
G1 X112.085 Y62.037 E8.1990
G1 X111.303 Y62.037 E8.2380
G1 X111.173 Y61.908 E8.2472
G1 X110.652 Y61.908 E8.2732
G1 X108.828 Y61.651 E8.3651
G1 X108.306 Y61.651 E8.3911
G1 X108.176 Y61.523 E8.4002
G1 X107.394 Y61.523 E8.4392
G1 X107.264 Y61.394 E8.4484
G1 X106.743 Y61.394 E8.4744
G1 X105.830 Y61.266 E8.5203
G1 X104.267 Y61.266 E8.5984
G1 X103.354 Y61.394 E8.6443
G1 X102.833 Y61.394 E8.6703
G1 X102.703 Y61.523 E8.6794
G1 X101.921 Y61.523 E8.7185
G1 X101.791 Y61.651 E8.7276
G1 X101.269 Y61.651 E8.7536
G1 X99.445 Y61.908 E8.8455
G1 X98.924 Y61.908 E8.8715
G1 X98.793 Y62.037 E8.8806
G1 X98.012 Y62.037 E8.9196
G1 X97.881 Y62.165 E8.9288
G1 X97.360 Y62.165 E8.9548
G1 X95.536 Y62.422 E9.0467
G1 X95.014 Y62.422 E9.0727
G1 X94.689 Y62.615 E9.0916
G1 X94.298 Y62.743 E9.1121
G1 X93.972 Y62.936 E9.1310
G1 X93.711 Y62.936 E9.1440
G1 X93.060 Y63.321 E9.1818
G1 X92.799 Y63.321 E9.1948
G1 X92.148 Y63.707 E9.2325
G1 X91.887 Y63.707 E9.2455
G1 X91.561 Y63.899 E9.2644
G1 X91.170 Y64.028 E9.2849
G1 X90.844 Y64.221 E9.3038
G1 X90.063 Y64.478 E9.3449
G1 X89.737 Y64.670 E9.3638
G1 X89.346 Y64.799 E9.3843
G1 X89.020 Y64.992 E9.4032
G1 X88.759 Y64.992 E9.4162
G1 X88.108 Y65.377 E9.4540
G1 X87.847 Y65.377 E9.4670
G1 X87.522 Y65.569 E9.4858
G1 X87.131 Y65.698 E9.5064
G1 X86.805 Y65.891 E9.5253
G1 X86.414 Y66.019 E9.5458
G1 X85.893 Y66.533 E9.5823
G1 X85.241 Y66.919 E9.6201
G1 X84.720 Y67.433 E9.6566
G1 X84.068 Y67.818 E9.6944
G1 X83.547 Y68.332 E9.7309
G1 X82.895 Y68.717 E9.7687
G1 X82.374 Y69.231 E9.8052
G1 X81.723 Y69.617 E9.8429
G1 X81.201 Y70.130 E9.8795
G1 X80.550 Y70.516 E9.9172
G1 X80.028 Y71.030 E9.9537
G1 X79.377 Y71.415 E9.9915
G1 X76.510 Y74.242 E10.1924
G1 X76.315 Y74.563 E10.2111
G1 X76.054 Y74.819 E10.2294
G1 X75.663 Y75.462 E10.2669
G1 X75.142 Y75.976 E10.3034
G1 X74.751 Y76.618 E10.3409
G1 X74.490 Y76.875 E10.3592
G1 X74.295 Y77.196 E10.3780
G1 X74.034 Y77.453 E10.3962
G1 X73.839 Y77.774 E10.4150
G1 X73.578 Y78.031 E10.4332
G1 X73.187 Y78.674 E10.4707
G1 X72.927 Y78.931 E10.4890
G1 X72.731 Y79.252 E10.5078
G1 X72.470 Y79.509 E10.5260
G1 X72.275 Y79.830 E10.5448
G1 X72.014 Y80.087 E10.5630
G1 X71.819 Y80.408 E10.5818
G1 X71.558 Y80.665 E10.6001
G1 X71.363 Y80.986 E10.6188
G1 X71.102 Y81.243 E10.6371
G1 X70.907 Y81.564 E10.6558
G1 X70.776 Y81.950 E10.6761
G1 X64.521 Y81.950 E10.9882
G1 X64.196 Y82.142 E11.0071
G1 X63.414 Y82.913 E11.0618
G1 X63.414 Y91.135 E11.4720
G1 X63.414 Y93.705 E11.6002
G1 X63.609 Y94.026 E11.6190
G1 X64.391 Y94.797 E11.6738
G1 X66.476 Y94.797 E11.7778
G1 X66.672 Y94.861 E11.7881
G1 X66.672 Y96.146 E11.8521
G1 X66.541 Y96.274 E11.8613
G1 X66.541 Y96.788 E11.8869
G1 X66.281 Y98.587 E11.9776
G1 X66.281 Y101.670 E12.1314
G1 X66.408 Y102.046 E12.1512
;segType:Support
G1 F4800 E11.1512
G1 X65.400 Y109.000 F10800
G1 F4800 E12.1512
G1 X70.798 Y109.000 E12.3801 F900
G1 F4800 E11.3801
G1 X65.400 Y110.800 F10800
G1 F4800 E12.3801
G1 X70.800 Y110.800 E12.6091 F900
G1 F4800 E11.6091
G1 X65.400 Y112.600 F10800
G1 F4800 E12.6091
G1 X70.800 Y112.600 E12.8381 F900
G1 F4800 E11.8381
G1 X65.400 Y92.800 F10800
G1 F4800 E12.8381
G1 X70.078 Y92.800 E13.0365 F900
G1 F4800 E12.0365
G1 X65.400 Y114.400 F10800
G1 F4800 E13.0365
G1 X70.800 Y114.400 E13.2655 F900
G1 F4800 E12.2655
G1 X65.400 Y83.800 F10800
G1 F4800 E13.2655
G1 X70.800 Y83.800 E13.4945 F900
G1 X73.686 Y83.902 E13.6170
G1 F4800 E12.6170
G1 X65.400 Y87.400 F10800
G1 F4800 E13.6170
G1 X70.800 Y87.400 E13.8460 F900
G1 F4800 E12.8460
G1 X65.400 Y89.200 F10800
G1 F4800 E13.8460
G1 X70.800 Y89.200 E14.0750 F900
G1 F4800 E13.0750
G1 X65.400 Y85.600 F10800
G1 F4800 E14.0750
G1 X70.800 Y85.600 E14.3040 F900
G1 X73.015 Y85.522 E14.3980
G1 F4800 E13.3980
G1 X65.400 Y91.000 F10800
G1 F4800 E14.3980
G1 X70.798 Y91.000 E14.6269 F900
G1 F4800 E13.6269
G1 X70.223 Y100.000 F10800
G1 X70.698 Y107.048
G1 X72.723 Y117.877
G1 F4800 E14.6269
G1 X74.277 Y117.877 E14.6928 F900
G1 X72.723 Y116.323 E14.7861
G1 X73.779 Y116.323 E14.8309
G1 F4800 E13.8309
G1 X76.327 Y121.473 F10800
G1 F4800 E14.8309
G1 X77.232 Y121.473 E14.8692 F900
G1 F4800 E13.8692
G1 X87.163 Y132.237 F10800
G1 F4800 E14.8692
G1 X88.637 Y132.237 E14.9317 F900
G1 X87.163 Y130.763 E15.0201
G1 X87.448 Y130.763 E15.0321
G1 F4800 E14.0321
G1 X102.091 Y134.481 F10800
G1 X105.100 Y134.877
G1 X114.126 Y133.688
G1 X126.763 Y128.637
G1 F4800 E15.0321
G1 X128.237 Y128.637 E15.0946 F900
G1 X127.488 Y127.163 E15.1648
G1 X128.237 Y127.163 E15.1965
G1 F4800 E14.1965
G1 X128.950 Y124.768 F10800
G1 X130.377 Y119.977
G1 F4800 E15.1965
G1 X131.277 Y119.977 E15.2347 F900
G1 F4800 E14.2347
G1 X135.166 Y117.026 F10800
G1 X137.111 Y115.551
G1 X141.000 Y112.600
G1 F4800 E15.2347
G1 X146.400 Y112.600 E15.4637 F900
G1 F4800 E14.4637
G1 X141.000 Y87.400 F10800
G1 F4800 E15.4637
G1 X146.400 Y87.400 E15.6927 F900
G1 F4800 E14.6927
G1 X141.000 Y110.800 F10800
G1 F4800 E15.6927
G1 X146.400 Y110.800 E15.9217 F900
G1 F4800 E14.9217
G1 X141.000 Y109.000 F10800
G1 F4800 E15.9217
G1 X146.400 Y109.000 E16.1507 F900
G1 F4800 E15.1507
G1 X141.000 Y114.400 F10800
G1 F4800 E16.1507
G1 X146.400 Y114.400 E16.3797 F900
G1 F4800 E15.3797
G1 X141.000 Y91.000 F10800
G1 F4800 E16.3797
G1 X146.400 Y91.000 E16.6087 F900
G1 F4800 E15.6087
G1 X141.000 Y85.600 F10800
G1 F4800 E16.6087
G1 X146.400 Y85.600 E16.8377 F900
G1 F4800 E15.8377
G1 X141.000 Y89.200 F10800
G1 F4800 E16.8377
G1 X146.400 Y89.200 E17.0667 F900
G1 F4800 E16.0667
G1 X141.000 Y92.800 F10800
G1 F4800 E17.0667
G1 X146.400 Y92.800 E17.2956 F900
G1 F4800 E16.2956
G1 X141.000 Y83.800 F10800
G1 F4800 E17.2956
G1 X146.400 Y83.800 E17.5246 F900
G1 F4800 E16.5246
G1 X144.600 Y101.800 F10800
G1 F4800 E17.5246
G1 X146.400 Y101.800 E17.6010 F900
G1 X144.600 Y103.600 E17.7089
G1 X146.400 Y103.600 E17.7853
G1 X144.600 Y105.400 E17.8932
G1 X146.400 Y105.400 E17.9695
G1 X144.600 Y107.200 E18.0775
G1 X146.400 Y107.200 E18.1538
G1 F4800 E17.1538
G1 X144.600 Y100.000 F10800
G1 F4800 E18.1538
G1 X146.400 Y100.000 E18.2302 F900
G1 F4800 E17.2302
G1 X144.600 Y94.600 F10800
G1 F4800 E18.2302
G1 X146.400 Y94.600 E18.3065 F900
G1 F4800 E17.3065
G1 X144.600 Y98.200 F10800
G1 F4800 E18.3065
G1 X146.400 Y98.200 E18.3828 F900
G1 X144.600 Y96.400 E18.4908
G1 X146.400 Y96.400 E18.5671
G1 F4800 E17.5671
G1 X141.214 Y97.090 F10800
G1 X138.621 Y97.436
G1 X71.208 Y106.412
G1 F4800 E18.5671
;segType:Loop
G1 X71.208 Y102.925 E18.7411 F600
G1 X70.822 Y100.000 E18.8883
G1 X71.208 Y97.075 E19.0354
G1 X71.208 Y93.692 E19.2043
G1 X71.511 Y93.692 E19.2194
G1 X71.653 Y93.692 E19.2265
G1 X73.815 Y93.692 E19.3343
G1 X73.785 Y106.508 E19.9738
G1 X71.680 Y106.508 E20.0788
G1 X71.537 Y106.508 E20.0859
G1 X71.305 Y106.508 E20.0975
G1 F4800 E19.0975
G1 X71.943 Y107.105 F10800
G1 F4800 E20.0975
;segType:Perimeter
G1 X71.269 Y106.903 E20.1326 F359
G1 X70.827 Y106.903 E20.1546
G1 X70.808 Y106.755 E20.1621
G1 X70.808 Y102.950 E20.3519
G1 X70.419 Y100.000 E20.5004
G1 X70.808 Y97.050 E20.6488
G1 X70.808 Y93.387 E20.8315
G1 X70.819 Y93.297 E20.8361
G1 X71.302 Y93.297 E20.8601
G1 X71.601 Y91.023 E20.9746
G1 X75.066 Y82.657 E21.4263
G1 X80.578 Y75.474 E21.8780
G1 X87.761 Y69.962 E22.3297
G1 X96.125 Y66.498 E22.7814
G1 X105.100 Y65.316 E23.2330
G1 X114.075 Y66.498 E23.6847
G1 X122.439 Y69.962 E24.1363
G1 X129.622 Y75.474 E24.5880
G1 X135.134 Y82.657 E25.0397
G1 X138.599 Y91.023 E25.4915
G1 X138.898 Y93.297 E25.6059
G1 X140.071 Y93.306 E25.6644
G1 X140.071 Y106.903 E26.3428
G1 X138.872 Y106.903 E26.4026
G1 X138.599 Y108.977 E26.5070
G1 X135.134 Y117.343 E26.9587
G1 X129.622 Y124.526 E27.4104
G1 X122.439 Y130.038 E27.8621
G1 X114.075 Y133.502 E28.3138
G1 X105.100 Y134.684 E28.7654
G1 X96.125 Y133.502 E29.2171
G1 X87.761 Y130.038 E29.6687
G1 X80.578 Y124.526 E30.1204
G1 X75.066 Y117.343 E30.5721
G1 X71.601 Y108.977 E31.0238
G1 X71.336 Y106.960 E31.1254
G1 X71.045 Y106.328
G1 F4800 E30.1254
G1 X137.066 Y106.412 F10800
G1 F4800 E31.1254
;segType:Loop
G1 X137.120 Y93.692 E31.7600 F600
G1 X138.689 Y93.692 E31.8383
G1 X138.689 Y93.690 E31.8384
G1 X139.671 Y93.697 E31.8874
G1 X139.671 Y106.508 E32.5265
G1 X138.663 Y106.508 E32.5768
G1 X138.520 Y106.508 E32.5839
G1 X137.163 Y106.508 E32.6516
; ------------------------------------
; Layer #1
; ------------------------------------
G21 ; mm
G90 ; abs
G92 E0 ; reset extr
M106 S255
;segType:Loop
G1 F4800 E-1.0000
G1 F300 Z0.600
G1 X71.867 Y106.508 F10800
G1 F4800 E0.0000
G1 X73.707 Y106.508 E0.0918 F3600
G1 X73.796 Y93.692 E0.7313
G1 X71.742 Y93.692 E0.8337
G1 X72.076 Y91.155 E0.9614
G1 X75.490 Y82.913 E1.4064
G1 X80.922 Y75.834 E1.8516
G1 X88.003 Y70.401 E2.2969
G1 X96.249 Y66.985 E2.7422
G1 X105.100 Y65.820 E3.1876
G1 X113.951 Y66.985 E3.6330
G1 X122.198 Y70.401 E4.0783
G1 X129.278 Y75.834 E4.5236
G1 X134.710 Y82.913 E4.9687
G1 X138.124 Y91.155 E5.4138
G1 X138.458 Y93.692 E5.5414
G1 X137.121 Y93.692 E5.6081
G1 X137.080 Y106.501 E6.2472
G1 X138.431 Y106.508 E6.3146
G1 X138.124 Y108.845 E6.4322
G1 X134.710 Y117.087 E6.8773
G1 X129.278 Y124.166 E7.3225
G1 X122.198 Y129.599 E7.7677
G1 X113.951 Y133.015 E8.2130
G1 X105.100 Y134.180 E8.6584
G1 X96.249 Y133.015 E9.1038
G1 X88.003 Y129.599 E9.5491
G1 X80.922 Y124.166 E9.9944
G1 X75.490 Y117.087 E10.4396
G1 X72.076 Y108.845 E10.8846
G1 X71.781 Y106.604 E10.9974
;segType:Perimeter
G1 X71.712 Y107.105 F10800
G1 X71.038 Y106.903 E11.0325 F2159
G1 X70.786 Y106.903 E11.0450
G1 X70.786 Y104.549 E11.1625
G1 X70.187 Y100.000 E11.3914
G1 X70.786 Y95.451 E11.6203
G1 X70.786 Y93.297 E11.7277
G1 X71.070 Y93.297 E11.7419
G1 X71.378 Y90.962 E11.8594
G1 X74.866 Y82.541 E12.3141
G1 X80.414 Y75.310 E12.7688
G1 X87.645 Y69.762 E13.2235
G1 X96.065 Y66.275 E13.6783
G1 X105.100 Y65.084 E14.1329
G1 X114.136 Y66.275 E14.5876
G1 X122.555 Y69.762 E15.0422
G1 X129.786 Y75.310 E15.4970
G1 X135.334 Y82.541 E15.9517
G1 X138.822 Y90.962 E16.4064
G1 X139.130 Y93.297 E16.5239
G1 X140.036 Y93.297 E16.5691
G1 X140.086 Y93.553 E16.5821
G1 X140.086 Y106.724 E17.2392
G1 X140.056 Y106.903 E17.2483
G1 X139.104 Y106.903 E17.2958
G1 X138.822 Y109.037 E17.4032
G1 X135.334 Y117.459 E17.8579
G1 X129.786 Y124.690 E18.3126
G1 X122.555 Y130.238 E18.7673
G1 X114.136 Y133.725 E19.2220
G1 X105.100 Y134.916 E19.6767
G1 X96.065 Y133.725 E20.1313
G1 X87.645 Y130.238 E20.5861
G1 X80.414 Y124.690 E21.0407
G1 X74.866 Y117.459 E21.4955
G1 X71.378 Y109.037 E21.9502
G1 X71.104 Y106.960 E22.0547
G1 X70.814 Y106.328
G1 F4800 E21.0547
G1 X71.187 Y106.148 F10800
G1 F4800 E22.0547
;segType:Loop
G1 X71.187 Y104.523 E22.1358 F3600
G1 X70.590 Y100.000 E22.3634
G1 X71.187 Y95.476 E22.5910
G1 X71.187 Y93.692 E22.6801
G1 X71.421 Y93.692 E22.6918
G1 X71.768 Y91.064 E22.8240
G1 X75.216 Y82.738 E23.2736
G1 X80.701 Y75.590 E23.7232
G1 X87.848 Y70.105 E24.1726
G1 X96.171 Y66.658 E24.6220
G1 X105.100 Y65.482 E25.0713
G1 X114.030 Y66.658 E25.5207
G1 X122.351 Y70.105 E25.9701
G1 X129.499 Y75.590 E26.4195
G1 X134.984 Y82.738 E26.8691
G1 X138.432 Y91.064 E27.3187
G1 X138.779 Y93.692 E27.4509
G1 X139.686 Y93.692 E27.4962
G1 X139.686 Y106.508 E28.1356
G1 X138.752 Y106.508 E28.1822
G1 X138.432 Y108.935 E28.3044
G1 X134.984 Y117.262 E28.7540
G1 X129.499 Y124.410 E29.2035
G1 X122.351 Y129.895 E29.6530
G1 X114.030 Y133.342 E30.1024
G1 X105.100 Y134.518 E30.5517
G1 X96.171 Y133.342 E31.0010
G1 X87.848 Y129.895 E31.4505
G1 X80.701 Y124.410 E31.8999
G1 X75.216 Y117.262 E32.3494
G1 X71.768 Y108.935 E32.7991
G1 X71.448 Y106.508 E32.9212
G1 X71.187 Y106.508 E32.9342
G1 X71.187 Y106.340 E32.9426
;segType:HShell
G1 X71.387 Y106.090 F10800
G1 X71.611 Y106.311 E32.9584 F3600
G1 X72.165 Y106.311
G1 X71.387 Y105.544 E33.0129
G1 X71.387 Y104.999
G1 X72.718 Y106.311 E33.1061
G1 X73.271 Y106.311
G1 X71.378 Y104.444 E33.2388
G1 X71.295 Y103.817
G1 X73.511 Y106.002 E33.3940
G1 X73.515 Y105.460
G1 X71.213 Y103.190 E33.5553
G1 X71.130 Y102.563
G1 X73.518 Y104.918 E33.7227
G1 X73.522 Y104.376
G1 X71.047 Y101.936 E33.8961
G1 X70.965 Y101.309
G1 X73.526 Y103.834 E34.0755
G1 X73.530 Y103.292
G1 X70.882 Y100.682 E34.2610
G1 X70.799 Y100.055
G1 X73.533 Y102.750 E34.4526
G1 X73.537 Y102.208
G1 X70.850 Y99.559 E34.6408
G1 X70.914 Y99.076
G1 X73.541 Y101.666 E34.8249
G1 X73.545 Y101.124
G1 X70.977 Y98.593 E35.0047
G1 X71.041 Y98.111
G1 X73.548 Y100.583 E35.1804
G1 X73.552 Y100.041
G1 X71.105 Y97.628 E35.3519
G1 X71.168 Y97.145
G1 X73.556 Y99.499 E35.5191
G1 X73.560 Y98.957
G1 X71.232 Y96.662 E35.6822
G1 X71.296 Y96.179
G1 X73.563 Y98.415 E35.8411
G1 X73.567 Y97.873
G1 X71.359 Y95.696 E35.9958
G1 X71.387 Y95.178
G1 X73.571 Y97.331 E36.1488
G1 X73.575 Y96.789
G1 X71.387 Y94.632 E36.3021
G1 X71.387 Y94.086
G1 X73.578 Y96.247 E36.4556
G1 X73.582 Y95.705
G1 X71.740 Y93.889 E36.5847
G1 X72.293 Y93.889
G1 X73.586 Y95.163 E36.6753
G1 X73.590 Y94.622
G1 X72.846 Y93.889 E36.7274
G1 X73.400 Y93.889
G1 X73.593 Y94.080 E36.7409
G1 X139.486 Y94.115 F10800
G1 X139.257 Y93.889 E36.7570 F3600
G1 X138.704 Y93.889
G1 X139.486 Y94.660 E36.8118
G1 X139.486 Y95.206
G1 X138.150 Y93.889 E36.9054
G1 X137.597 Y93.889
G1 X139.486 Y95.752 E37.0378
G1 X139.486 Y96.297
G1 X137.319 Y94.161 E37.1896
G1 X137.317 Y94.705
G1 X139.486 Y96.843 E37.3416
G1 X139.486 Y97.388
G1 X137.316 Y95.248 E37.4937
G1 X137.314 Y95.792
G1 X139.486 Y97.934 E37.6459
G1 X139.486 Y98.480
G1 X137.312 Y96.336 E37.7982
G1 X137.311 Y96.880
G1 X139.486 Y99.025 E37.9506
G1 X139.486 Y99.571
G1 X137.309 Y97.424 E38.1032
G1 X137.307 Y97.968
G1 X139.486 Y100.116 E38.2558
G1 X139.486 Y100.662
G1 X137.305 Y98.512 E38.4086
G1 X137.304 Y99.056
G1 X139.486 Y101.208 E38.5615
G1 X139.486 Y101.753
G1 X137.302 Y99.600 E38.7146
G1 X137.300 Y100.144
G1 X139.486 Y102.299 E38.8677
G1 X139.486 Y102.844
G1 X137.299 Y100.688 E39.0210
G1 X137.297 Y101.232
G1 X139.486 Y103.390 E39.1744
G1 X139.486 Y103.936
G1 X137.295 Y101.775 E39.3279
G1 X137.293 Y102.319
G1 X139.486 Y104.481 E39.4815
G1 X139.486 Y105.027
G1 X137.292 Y102.863 E39.6353
G1 X137.290 Y103.407
G1 X139.486 Y105.573 E39.7892
G1 X139.486 Y106.118
G1 X137.288 Y103.951 E39.9432
G1 X137.287 Y104.495
G1 X139.129 Y106.311 E40.0722
G1 X138.576 Y106.312
G1 X137.285 Y105.039 E40.1627
G1 X137.283 Y105.583
G1 X138.020 Y106.309 E40.2143
G1 X137.463 Y106.306
G1 X137.281 Y106.127 E40.2271
;segType:Support
G1 F4800 E39.2271
G1 X146.400 Y107.200 F10800
G1 F4800 E40.2271
G1 X144.600 Y107.200 E40.3034 F5400
G1 F4800 E39.3034
G1 X146.400 Y101.800 F10800
G1 F4800 E40.3034
G1 X144.600 Y101.800 E40.3797 F5400
G1 X146.400 Y103.600 E40.4877
G1 X144.600 Y103.600 E40.5640
G1 F4800 E39.5640
G1 X146.400 Y98.200 F10800
G1 F4800 E40.5640
G1 X144.600 Y98.200 E40.6403 F5400
G1 X146.400 Y96.400 E40.7483
G1 X144.600 Y96.400 E40.8246
G1 F4800 E39.8246
G1 X146.400 Y100.000 F10800
G1 F4800 E40.8246
G1 X144.600 Y100.000 E40.9009 F5400
G1 F4800 E39.9009
G1 X146.400 Y94.600 F10800
G1 F4800 E40.9009
G1 X144.600 Y94.600 E40.9773 F5400
G1 F4800 E39.9773
G1 X146.400 Y105.400 F10800
G1 F4800 E40.9773
G1 X144.600 Y105.400 E41.0536 F5400
G1 F4800 E40.0536
G1 X146.400 Y110.800 F10800
G1 F4800 E41.0536
G1 X141.000 Y110.800 E41.2826 F5400
G1 F4800 E40.2826
G1 X146.400 Y112.600 F10800
G1 F4800 E41.2826
G1 X141.000 Y112.600 E41.5116 F5400
G1 F4800 E40.5116
G1 X146.400 Y91.000 F10800
G1 F4800 E41.5116
G1 X141.000 Y91.000 E41.7406 F5400
G1 F4800 E40.7406
G1 X146.400 Y114.400 F10800
G1 F4800 E41.7406
G1 X141.000 Y114.400 E41.9696 F5400
G1 F4800 E40.9696
G1 X146.400 Y109.000 F10800
G1 F4800 E41.9696
G1 X141.000 Y109.000 E42.1986 F5400
G1 F4800 E41.1986
G1 X146.400 Y83.800 F10800
G1 F4800 E42.1986
G1 X141.000 Y83.800 E42.4276 F5400
G1 F4800 E41.4276
G1 X146.400 Y92.800 F10800
G1 F4800 E42.4276
G1 X141.000 Y92.800 E42.6566 F5400
G1 F4800 E41.6566
G1 X146.400 Y87.400 F10800
G1 F4800 E42.6566
G1 X141.000 Y87.400 E42.8856 F5400
G1 F4800 E41.8856
G1 X146.400 Y85.600 F10800
G1 F4800 E42.8856
G1 X141.000 Y85.600 E43.1146 F5400
G1 F4800 E42.1146
G1 X146.400 Y89.200 F10800
G1 F4800 E43.1146
G1 X141.000 Y89.200 E43.3436 F5400
G1 F4800 E42.3436
G1 X139.424 Y93.981 F10800
G1 X130.758 Y120.277
G1 F4800 E43.3436
G1 X130.677 Y120.277 E43.3470 F5400
G1 F4800 E42.3470
G1 X128.850 Y125.068 F10800
G1 X127.937 Y127.463
G1 F4800 E43.3470
G1 X127.474 Y127.463 E43.3666 F5400
G1 X127.242 Y127.642 E43.3791
G1 X127.937 Y128.337 E43.4208
G1 X127.063 Y128.337 E43.4578
G1 F4800 E42.4578
G1 X120.537 Y131.281 F10800
G1 X114.187 Y133.912
G1 X105.100 Y135.108
G1 X96.014 Y133.912
G1 X87.573 Y131.063
G1 F4800 E43.4578
G1 X87.463 Y131.063 E43.4625 F5400
G1 X88.337 Y131.937 E43.5148
G1 X87.463 Y131.937 E43.5519
G1 X88.113 Y131.287 E43.5908
G1 F4800 E42.5908
G1 X80.275 Y124.825 F10800
G1 X76.712 Y121.173
G1 F4800 E43.5908
G1 X76.627 Y121.173 E43.5944 F5400
G1 F4800 E42.5944
G1 X73.977 Y117.577 F10800
G1 F4800 E43.5944
G1 X73.023 Y117.577 E43.6349 F5400
G1 X73.750 Y116.850 E43.6785
G1 X73.655 Y116.623 E43.6889
G1 X73.023 Y116.623 E43.7158
G1 F4800 E42.7158
G1 X70.800 Y114.400 F10800
G1 F4800 E43.7158
G1 X65.400 Y114.400 E43.9448 F5400
G1 F4800 E42.9448
G1 X69.986 Y92.800 F10800
G1 F4800 E43.9448
G1 X65.400 Y92.800 E44.1393 F5400
G1 F4800 E43.1393
G1 X70.800 Y112.600 F10800
G1 F4800 E44.1393
G1 X65.400 Y112.600 E44.3683 F5400
G1 F4800 E43.3683
G1 X70.566 Y109.000 F10800
G1 F4800 E44.3683
G1 X65.400 Y109.000 E44.5873 F5400
G1 F4800 E43.5873
G1 X70.800 Y110.800 F10800
G1 F4800 E44.5873
G1 X65.400 Y110.800 E44.8163 F5400
G1 F4800 E43.8163
G1 X70.800 Y85.600 F10800
G1 F4800 E44.8163
G1 X65.400 Y85.600 E45.0453 F5400
G1 F4800 E44.0453
G1 X70.566 Y91.000 F10800
G1 F4800 E45.0453
G1 X65.400 Y91.000 E45.2644 F5400
G1 F4800 E44.2644
G1 X70.800 Y89.200 F10800
G1 F4800 E45.2644
G1 X65.400 Y89.200 E45.4934 F5400
G1 F4800 E44.4934
G1 X73.305 Y84.223 F10800
G1 F4800 E45.4934
G1 X73.023 Y84.223 E45.5054 F5400
G1 X70.800 Y83.800 E45.6013
G1 X65.400 Y83.800 E45.8303
G1 F4800 E44.8303
G1 X70.800 Y87.400 F10800
G1 F4800 E45.8303
G1 X65.400 Y87.400 E46.0593 F5400
; ------------------------------------
; Layer #2
; ------------------------------------
G21 ; mm
G90 ; abs
G92 E0 ; reset extr
M106 S255
;segType:Support
G1 F4800 E-1.0000
G1 F300 Z0.900
G1 X65.400 Y87.400 F10800
G1 F4800 E0.0000
G1 X70.800 Y87.400 E0.2290 F5400
G1 F4800 E-0.7710
G1 X65.400 Y91.000 F10800
G1 F4800 E0.2290
G1 X70.407 Y91.000 E0.4413 F5400
G1 F4800 E-0.5587
G1 X65.400 Y89.200 F10800
G1 F4800 E0.4413
G1 X70.800 Y89.200 E0.6703 F5400
G1 F4800 E-0.3297
G1 X65.400 Y83.800 F10800
G1 F4800 E0.6703
G1 X70.800 Y83.800 E0.8993 F5400
G1 F4800 E-0.1007
G1 X65.400 Y85.600 F10800
G1 F4800 E0.8993
G1 X70.800 Y85.600 E1.1283 F5400
G1 F4800 E0.1283
G1 X65.400 Y110.800 F10800
G1 F4800 E1.1283
G1 X70.800 Y110.800 E1.3573 F5400
G1 F4800 E0.3573
G1 X65.400 Y109.000 F10800
G1 F4800 E1.3573
G1 X70.407 Y109.000 E1.5696 F5400
G1 F4800 E0.5696
G1 X65.400 Y112.600 F10800
G1 F4800 E1.5696
G1 X70.800 Y112.600 E1.7986 F5400
G1 F4800 E0.7986
G1 X65.400 Y92.800 F10800
G1 F4800 E1.7986
G1 X69.966 Y92.800 E1.9922 F5400
G1 F4800 E0.9922
G1 X65.400 Y114.400 F10800
G1 F4800 E1.9922
G1 X70.800 Y114.400 E2.2212 F5400
G1 F4800 E1.2212
G1 X73.323 Y116.923 F10800
G1 F4800 E2.2212
G1 X73.677 Y117.277 E2.2425 F5400
G1 F4800 E1.2425
G1 X80.162 Y124.938 F10800
G1 X87.763 Y131.363
G1 F4800 E2.2425
G1 X88.037 Y131.637 E2.2589 F5400
G1 F4800 E1.2589
G1 X102.818 Y134.967 F10800
G1 X105.100 Y135.268
G1 X114.228 Y134.066
G1 X122.734 Y130.542
G1 X127.363 Y128.037
G1 F4800 E2.2589
G1 X127.637 Y127.763 E2.2753 F5400
G1 F4800 E1.2753
G1 X131.439 Y123.112 F10800
G1 X135.642 Y117.634
G1 X141.000 Y109.000
G1 F4800 E2.2753
G1 X146.400 Y109.000 E2.5043 F5400
G1 F4800 E1.5043
G1 X141.000 Y91.000 F10800
G1 F4800 E2.5043
G1 X146.400 Y91.000 E2.7333 F5400
G1 F4800 E1.7333
G1 X141.000 Y114.400 F10800
G1 F4800 E2.7333
G1 X146.400 Y114.400 E2.9623 F5400
G1 F4800 E1.9623
G1 X141.000 Y87.400 F10800
G1 F4800 E2.9623
G1 X146.400 Y87.400 E3.1913 F5400
G1 F4800 E2.1913
G1 X141.000 Y89.200 F10800
G1 F4800 E3.1913
G1 X146.400 Y89.200 E3.4203 F5400
G1 F4800 E2.4203
G1 X141.000 Y92.800 F10800
G1 F4800 E3.4203
G1 X146.400 Y92.800 E3.6493 F5400
G1 F4800 E2.6493
G1 X141.000 Y85.600 F10800
G1 F4800 E3.6493
G1 X146.400 Y85.600 E3.8783 F5400
G1 F4800 E2.8783
G1 X141.000 Y83.800 F10800
G1 F4800 E3.8783
G1 X146.400 Y83.800 E4.1073 F5400
G1 F4800 E3.1073
G1 X141.000 Y110.800 F10800
G1 F4800 E4.1073
G1 X146.400 Y110.800 E4.3363 F5400
G1 F4800 E3.3363
G1 X141.000 Y112.600 F10800
G1 F4800 E4.3363
G1 X146.400 Y112.600 E4.5653 F5400
G1 F4800 E3.5653
G1 X144.600 Y100.000 F10800
G1 F4800 E4.5653
G1 X146.400 Y100.000 E4.6416 F5400
G1 F4800 E3.6416
G1 X144.600 Y96.400 F10800
G1 F4800 E4.6416
G1 X146.400 Y96.400 E4.7179 F5400
G1 F4800 E3.7179
G1 X144.600 Y105.400 F10800
G1 F4800 E4.7179
G1 X146.400 Y105.400 E4.7943 F5400
G1 F4800 E3.7943
G1 X144.600 Y98.200 F10800
G1 F4800 E4.7943
G1 X146.400 Y98.200 E4.8706 F5400
G1 F4800 E3.8706
G1 X144.600 Y103.600 F10800
G1 F4800 E4.8706
G1 X146.400 Y103.600 E4.9469 F5400
G1 X144.600 Y101.800 E5.0549
G1 X146.400 Y101.800 E5.1312
G1 F4800 E4.1312
G1 X144.600 Y107.200 F10800
G1 F4800 E5.1312
G1 X146.400 Y107.200 E5.2075 F5400
G1 F4800 E4.2075
G1 X144.600 Y94.600 F10800
G1 F4800 E5.2075
G1 X146.400 Y94.600 E5.2839 F5400
G1 F4800 E4.2839
G1 X141.337 Y95.408 F10800
G1 X138.806 Y95.812
G1 X72.992 Y106.311
G1 F4800 E5.2839
;segType:HShell
G1 X73.576 Y105.735 E5.3248 F3600
G1 X73.576 Y105.189
G1 X72.438 Y106.311 E5.4045
G1 X71.885 Y106.311
G1 X73.576 Y104.644 E5.5230
G1 X73.576 Y104.098
G1 X71.366 Y106.277 E5.6779
G1 X71.512 Y106.678
G1 X71.722 Y106.472 E5.6926
;segType:Loop
G1 X72.026 Y106.508 F10800
G1 X73.776 Y106.508 E5.7799 F3600
G1 X73.776 Y93.692 E6.4193
G1 X71.902 Y93.692 E6.5128
G1 X72.231 Y91.196 E6.6383
G1 X75.628 Y82.993 E7.0813
G1 X81.035 Y75.946 E7.5244
G1 X88.082 Y70.539 E7.9676
G1 X96.290 Y67.139 E8.4108
G1 X105.100 Y65.979 E8.8542
G1 X113.910 Y67.139 E9.2975
G1 X122.118 Y70.539 E9.7407
G1 X129.165 Y75.946 E10.1839
G1 X134.572 Y82.993 E10.6270
G1 X137.969 Y91.196 E11.0700
G1 X138.298 Y93.692 E11.1955
G1 X137.096 Y93.692 E11.2555
G1 X137.096 Y106.056 E11.8723
G1 X137.103 Y106.508 E11.8949
G1 X138.272 Y106.508 E11.9533
G1 X137.969 Y108.804 E12.0688
G1 X134.572 Y117.007 E12.5118
G1 X129.165 Y124.054 E12.9549
G1 X122.118 Y129.461 E13.3980
G1 X113.910 Y132.861 E13.8413
G1 X105.100 Y134.021 E14.2846
G1 X96.290 Y132.861 E14.7279
G1 X88.082 Y129.461 E15.1711
G1 X81.035 Y124.054 E15.6143
G1 X75.628 Y117.007 E16.0574
G1 X72.231 Y108.803 E16.5004
G1 X71.941 Y106.604 E16.6111
;segType:Perimeter
G1 X71.552 Y107.105 F10800
G1 X70.878 Y106.903 E16.6462 F2159
G1 X70.766 Y106.903 E16.6518
G1 X70.766 Y105.600 E16.7168
G1 X70.028 Y100.000 E16.9986
G1 X70.766 Y94.400 E17.2804
G1 X70.766 Y93.297 E17.3354
G1 X70.911 Y93.297 E17.3427
G1 X71.224 Y90.921 E17.4622
G1 X74.728 Y82.462 E17.9190
G1 X80.301 Y75.197 E18.3758
G1 X87.565 Y69.624 E18.8326
G1 X96.024 Y66.120 E19.2894
G1 X105.100 Y64.925 E19.7461
G1 X114.177 Y66.120 E20.2029
G1 X122.635 Y69.624 E20.6596
G1 X129.899 Y75.197 E21.1164
G1 X135.472 Y82.462 E21.5732
G1 X138.977 Y90.921 E22.0300
G1 X139.290 Y93.297 E22.1496
G1 X140.102 Y93.297 E22.1901
G1 X140.102 Y99.469 E22.4980
G1 X140.172 Y100.000 E22.5248
G1 X140.102 Y100.530 E22.5514
G1 X140.102 Y106.903 E22.8694
G1 X139.263 Y106.903 E22.9112
G1 X138.977 Y109.079 E23.0207
G1 X135.472 Y117.538 E23.4776
G1 X129.899 Y124.803 E23.9343
G1 X122.635 Y130.376 E24.3911
G1 X114.177 Y133.880 E24.8479
G1 X105.100 Y135.075 E25.3046
G1 X96.024 Y133.880 E25.7613
G1 X87.565 Y130.376 E26.2181
G1 X80.301 Y124.803 E26.6749
G1 X74.728 Y117.538 E27.1317
G1 X71.224 Y109.079 E27.5885
G1 X70.944 Y106.960 E27.6951
G1 X71.166 Y106.011 F10800
;segType:Loop
G1 X71.166 Y105.575 E27.7169 F3600
G1 X70.431 Y100.000 E27.9974
G1 X71.166 Y94.426 E28.2779
G1 X71.166 Y93.692 E28.3146
G1 X71.262 Y93.692 E28.3194
G1 X71.614 Y91.023 E28.4537
G1 X75.078 Y82.658 E28.9054
G1 X80.588 Y75.477 E29.3570
G1 X87.769 Y69.967 E29.8085
G1 X96.130 Y66.504 E30.2600
G1 X105.100 Y65.323 E30.7114
G1 X114.071 Y66.504 E31.1628
G1 X122.431 Y69.967 E31.6143
G1 X129.612 Y75.477 E32.0658
G1 X135.122 Y82.658 E32.5174
G1 X138.587 Y91.023 E32.9691
G1 X138.938 Y93.692 E33.1034
G1 X139.702 Y93.692 E33.1415
G1 X139.702 Y99.495 E33.4310
G1 X139.769 Y100.000 E33.4564
G1 X139.702 Y100.505 E33.4818
G1 X139.702 Y106.508 E33.7814
G1 X138.912 Y106.508 E33.8208
G1 X138.587 Y108.977 E33.9450
G1 X135.122 Y117.342 E34.3967
G1 X129.612 Y124.523 E34.8483
G1 X122.431 Y130.033 E35.2999
G1 X114.071 Y133.496 E35.7513
G1 X105.100 Y134.677 E36.2027
G1 X96.130 Y133.496 E36.6541
G1 X87.769 Y130.033 E37.1056
G1 X80.588 Y124.523 E37.5571
G1 X75.078 Y117.342 E38.0087
G1 X71.614 Y108.977 E38.4604
G1 X71.288 Y106.508 E38.5847
G1 X71.166 Y106.508 E38.5908
G1 X71.166 Y106.204 E38.6060
;segType:HShell
G1 X71.366 Y105.732 F10800
G1 X73.576 Y103.553 E38.7608 F3600
G1 X73.576 Y103.007
G1 X71.322 Y105.229 E38.9187
G1 X71.258 Y104.746
G1 X73.576 Y102.461 E39.0811
G1 X73.576 Y101.916
G1 X71.195 Y104.263 E39.2480
G1 X71.131 Y103.781
G1 X73.576 Y101.370 E39.4193
G1 X73.576 Y100.825
G1 X71.067 Y103.298 E39.5950
G1 X71.004 Y102.815
G1 X73.576 Y100.279 E39.7752
G1 X73.576 Y99.733
G1 X70.940 Y102.332 E39.9599
G1 X70.876 Y101.849
G1 X73.576 Y99.188 E40.1490
G1 X73.576 Y98.642
G1 X70.813 Y101.366 E40.3426
G1 X70.749 Y100.883
G1 X73.576 Y98.097 E40.5406
G1 X73.576 Y97.551
G1 X70.685 Y100.401 E40.7431
G1 X70.647 Y99.893
G1 X73.576 Y97.005 E40.9484
G1 X73.576 Y96.460
G1 X70.729 Y99.266 E41.1478
G1 X70.812 Y98.639
G1 X73.576 Y95.914 E41.3414
G1 X73.576 Y95.368
G1 X70.895 Y98.012 E41.5292
G1 X70.977 Y97.385
G1 X73.576 Y94.823 E41.7113
G1 X73.576 Y94.277
G1 X71.060 Y96.758 E41.8876
G1 X71.143 Y96.131
G1 X73.417 Y93.889 E42.0469
G1 X72.863 Y93.889
G1 X71.225 Y95.503 E42.1616
G1 X71.308 Y94.876
G1 X72.310 Y93.889 E42.2318
G1 X71.756 Y93.889
G1 X71.366 Y94.274 E42.2591
G1 X71.473 Y93.623
G1 X71.745 Y93.355 E42.2782
G1 X71.827 Y92.728
G1 X71.555 Y92.996 E42.2972
G1 X71.638 Y92.369
G1 X71.910 Y92.101 E42.3163
G1 X71.992 Y91.474
G1 X71.721 Y91.742 E42.3353
G1 X71.803 Y91.115
G1 X72.218 Y90.706 E42.3644
G1 X72.165 Y90.212
G1 X72.600 Y89.784 E42.3948
G1 X72.547 Y89.290
G1 X72.982 Y88.862 E42.4252
G1 X73.364 Y87.939 F10800
G1 X72.929 Y88.367 E42.4557 F3600
G1 X73.312 Y87.445 F10800
G1 X73.745 Y87.017 E42.4861 F3600
G1 X74.891 Y84.251 F10800
G1 X74.458 Y84.678 E42.5164 F3600
G1 X74.840 Y83.756 F10800
G1 X75.273 Y83.329 E42.5468 F3600
G1 X74.127 Y86.095 F10800
G1 X73.694 Y86.523 E42.5772 F3600
G1 X74.076 Y85.601 F10800
G1 X74.509 Y85.173 E42.6076 F3600
G1 X75.222 Y82.834 F10800
G1 X76.362 Y81.710 E42.6874 F3600
G1 X138.167 Y93.889 F10800
G1 X137.296 Y94.748 E42.7485 F3600
G1 X137.296 Y94.202
G1 X137.614 Y93.889 E42.7707
G1 X81.410 Y75.096 F10800
G1 X80.265 Y76.225 E42.8509 F3600
G1 X79.799 Y77.230 F10800
G1 X78.547 Y78.465 E42.9386 F3600
G1 X78.080 Y79.470 F10800
G1 X76.828 Y80.704 E43.0264 F3600
G1 X82.477 Y74.590 F10800
G1 X83.906 Y73.181 E43.1265 F3600
G1 X86.402 Y71.266 F10800
G1 X84.971 Y72.676 E43.2267 F3600
G1 X88.263 Y69.976 F10800
G1 X87.466 Y70.762 E43.2826 F3600
G1 X88.738 Y70.054 F10800
G1 X89.218 Y69.581 E43.3162 F3600
G1 X89.693 Y69.659
G1 X90.172 Y69.186 E43.3498
G1 X90.647 Y69.263
G1 X91.126 Y68.791 E43.3833
G1 X91.601 Y68.868
G1 X92.081 Y68.395 E43.4169
G1 X92.556 Y68.473
G1 X93.035 Y68.000 E43.4505
G1 X93.510 Y68.077
G1 X93.989 Y67.605 E43.4841
G1 X94.465 Y67.682
G1 X94.944 Y67.210 E43.5176
G1 X95.419 Y67.286
G1 X95.898 Y66.814 E43.5512
G1 X96.631 Y66.637
G1 X96.329 Y66.936 E43.5724
G1 X96.967 Y66.851
G1 X97.270 Y66.553 E43.5935
G1 X97.908 Y66.469
G1 X97.606 Y66.767 E43.6147
G1 X98.245 Y66.683
G1 X98.547 Y66.385 E43.6359
G1 X99.186 Y66.301
G1 X98.883 Y66.599 E43.6571
G1 X99.522 Y66.515
G1 X99.825 Y66.217 E43.6783
G1 X100.463 Y66.133
G1 X100.161 Y66.431 E43.6995
G1 X100.800 Y66.347
G1 X101.102 Y66.049 E43.7207
G1 X101.741 Y65.965
G1 X101.438 Y66.263 E43.7418
G1 X102.077 Y66.179
G1 X102.379 Y65.880 E43.7630
G1 X103.018 Y65.796
G1 X102.716 Y66.094 E43.7842
G1 X103.355 Y66.010
G1 X103.657 Y65.712 E43.8054
G1 X104.296 Y65.628
G1 X103.993 Y65.926 E43.8266
G1 X104.632 Y65.842
G1 X104.934 Y65.544 E43.8477
G1 X105.462 Y65.570
G1 X105.231 Y65.798 E43.8639
G1 X105.719 Y65.862
G1 X105.950 Y65.634 E43.8801
G1 X106.438 Y65.698
G1 X106.207 Y65.926 E43.8963
G1 X106.695 Y65.991
G1 X106.926 Y65.763 E43.9125
G1 X107.415 Y65.827
G1 X107.183 Y66.055 E43.9287
G1 X107.672 Y66.119
G1 X107.903 Y65.891 E43.9449
G1 X108.391 Y65.956
G1 X108.160 Y66.183 E43.9611
G1 X108.648 Y66.248
G1 X108.879 Y66.020 E43.9772
G1 X109.367 Y66.084
G1 X109.136 Y66.312 E43.9934
G1 X109.625 Y66.376
G1 X109.856 Y66.148 E44.0096
G1 X110.344 Y66.213
G1 X110.113 Y66.441 E44.0258
G1 X110.601 Y66.505
G1 X110.832 Y66.277 E44.0420
G1 X111.320 Y66.341
G1 X111.089 Y66.569 E44.0582
G1 X111.577 Y66.633
G1 X111.809 Y66.405 E44.0744
G1 X112.297 Y66.470
G1 X112.066 Y66.698 E44.0906
G1 X112.554 Y66.762
G1 X112.785 Y66.534 E44.1068
G1 X113.273 Y66.598
G1 X113.042 Y66.826 E44.1230
G1 X113.530 Y66.891
G1 X113.762 Y66.663 E44.1392
G1 X114.203 Y66.773
G1 X114.007 Y66.966 E44.1529
G1 X114.397 Y67.127
G1 X114.593 Y66.934 E44.1667
G1 X114.982 Y67.096
G1 X114.787 Y67.289 E44.1804
G1 X115.176 Y67.450
G1 X115.372 Y67.257 E44.1941
G1 X115.762 Y67.419
G1 X115.566 Y67.612 E44.2078
G1 X115.956 Y67.773
G1 X116.151 Y67.580 E44.2215
G1 X116.541 Y67.741
G1 X116.345 Y67.934 E44.2352
G1 X116.735 Y68.096
G1 X116.931 Y67.903 E44.2489
G1 X117.321 Y68.064
G1 X117.125 Y68.257 E44.2627
G1 X117.514 Y68.419
G1 X117.710 Y68.226 E44.2764
G1 X118.100 Y68.387
G1 X117.904 Y68.580 E44.2901
G1 X118.294 Y68.742
G1 X118.490 Y68.549 E44.3038
G1 X118.879 Y68.710
G1 X118.683 Y68.903 E44.3175
G1 X119.073 Y69.064
G1 X119.269 Y68.871 E44.3312
G1 X119.659 Y69.033
G1 X119.463 Y69.226 E44.3450
G1 X119.853 Y69.387
G1 X120.048 Y69.194 E44.3587
G1 X120.438 Y69.356
G1 X120.242 Y69.549 E44.3724
G1 X120.632 Y69.710
G1 X120.828 Y69.517 E44.3861
G1 X121.217 Y69.678
G1 X121.022 Y69.872 E44.3998
G1 X121.411 Y70.033
G1 X121.607 Y69.840 E44.4135
G1 X121.997 Y70.001
G1 X121.801 Y70.194 E44.4273
G1 X122.191 Y70.356
G1 X122.375 Y70.174 E44.4402
G1 X122.686 Y70.413
G1 X122.508 Y70.589 E44.4527
G1 X122.819 Y70.828
G1 X122.997 Y70.652 E44.4652
G1 X123.309 Y70.890
G1 X123.130 Y71.066 E44.4777
G1 X123.441 Y71.305
G1 X123.620 Y71.129 E44.4902
G1 X123.931 Y71.368
G1 X123.753 Y71.544 E44.5027
G1 X124.064 Y71.783
G1 X124.242 Y71.607 E44.5152
G1 X124.554 Y71.846
G1 X124.375 Y72.021 E44.5277
G1 X124.686 Y72.260
G1 X124.865 Y72.084 E44.5402
G1 X125.176 Y72.323
G1 X124.998 Y72.499 E44.5527
G1 X125.309 Y72.738
G1 X125.487 Y72.562 E44.5652
G1 X125.798 Y72.801
G1 X125.620 Y72.977 E44.5777
G1 X125.931 Y73.215
G1 X126.110 Y73.040 E44.5902
G1 X126.421 Y73.278
G1 X126.243 Y73.454 E44.6027
G1 X126.554 Y73.693
G1 X126.732 Y73.517 E44.6151
G1 X127.043 Y73.756
G1 X126.865 Y73.932 E44.6276
G1 X127.176 Y74.170
G1 X127.354 Y73.995 E44.6401
G1 X127.666 Y74.233
G1 X127.487 Y74.409 E44.6526
G1 X127.799 Y74.648
G1 X127.977 Y74.472 E44.6651
G1 X128.288 Y74.711
G1 X128.110 Y74.887 E44.6776
G1 X128.421 Y75.125
G1 X128.599 Y74.950 E44.6900
G1 X128.910 Y75.189
G1 X128.732 Y75.364 E44.7025
G1 X129.044 Y75.603
G1 X129.222 Y75.427 E44.7150
G1 X129.518 Y75.681
G1 X129.344 Y75.852 E44.7272
G1 X129.582 Y76.163
G1 X129.756 Y75.992 E44.7393
G1 X129.994 Y76.302
G1 X129.821 Y76.474 E44.7515
G1 X130.059 Y76.784
G1 X130.233 Y76.613 E44.7637
G1 X130.471 Y76.924
G1 X130.297 Y77.095 E44.7758
G1 X130.536 Y77.406
G1 X130.709 Y77.234 E44.7880
G1 X130.948 Y77.545
G1 X130.774 Y77.716 E44.8002
G1 X131.012 Y78.027
G1 X131.186 Y77.856 E44.8123
G1 X131.424 Y78.166
G1 X131.251 Y78.337 E44.8245
G1 X131.489 Y78.648
G1 X131.663 Y78.477 E44.8366
G1 X131.901 Y78.788
G1 X131.727 Y78.959 E44.8488
G1 X131.966 Y79.269
G1 X132.139 Y79.098 E44.8610
G1 X132.378 Y79.409
G1 X132.204 Y79.580 E44.8731
G1 X132.442 Y79.891
G1 X132.616 Y79.720 E44.8853
G1 X132.854 Y80.030
G1 X132.681 Y80.201 E44.8975
G1 X132.919 Y80.512
G1 X133.093 Y80.341 E44.9096
G1 X133.331 Y80.651
G1 X133.157 Y80.823 E44.9218
G1 X133.396 Y81.133
G1 X133.569 Y80.962 E44.9339
G1 X133.808 Y81.273
G1 X133.634 Y81.444 E44.9461
G1 X133.872 Y81.754
G1 X134.046 Y81.583 E44.9583
G1 X134.284 Y81.894
G1 X134.111 Y82.065 E44.9704
G1 X134.349 Y82.376
G1 X134.523 Y82.205 E44.9826
G1 X134.761 Y82.515
G1 X134.587 Y82.686 E44.9947
G1 X134.800 Y83.022
G1 X134.982 Y82.843 E45.0075
G1 X135.143 Y83.230
G1 X134.960 Y83.410 E45.0202
G1 X135.121 Y83.797
G1 X135.303 Y83.618 E45.0330
G1 X135.463 Y84.005
G1 X135.281 Y84.185 E45.0458
G1 X135.442 Y84.572
G1 X135.624 Y84.393 E45.0585
G1 X135.784 Y84.780
G1 X135.602 Y84.960 E45.0713
G1 X135.763 Y85.347
G1 X135.945 Y85.167 E45.0840
G1 X136.105 Y85.555
G1 X135.923 Y85.734 E45.0968
G1 X136.084 Y86.122
G1 X136.266 Y85.942 E45.1096
G1 X136.426 Y86.330
G1 X136.244 Y86.509 E45.1223
G1 X136.405 Y86.897
G1 X136.587 Y86.717 E45.1351
G1 X136.747 Y87.104
G1 X136.565 Y87.284 E45.1479
G1 X136.726 Y87.671
G1 X136.908 Y87.492 E45.1607
G1 X137.068 Y87.879
G1 X136.886 Y88.059 E45.1734
G1 X137.046 Y88.446
G1 X137.229 Y88.266 E45.1862
G1 X137.389 Y88.654
G1 X137.207 Y88.834 E45.1990
G1 X137.367 Y89.221
G1 X137.550 Y89.041 E45.2118
G1 X137.710 Y89.429
G1 X137.528 Y89.608 E45.2246
G1 X137.688 Y89.996
G1 X137.871 Y89.816 E45.2373
G1 X138.031 Y90.203
G1 X137.849 Y90.383 E45.2501
G1 X138.009 Y90.771
G1 X138.192 Y90.591 E45.2629
G1 X138.352 Y90.978
G1 X138.166 Y91.161 E45.2759
G1 X138.230 Y91.644
G1 X138.440 Y91.438 E45.2906
G1 X138.503 Y91.921
G1 X138.294 Y92.127 E45.3053
G1 X138.357 Y92.610
G1 X138.567 Y92.403 E45.3200
G1 X138.630 Y92.886
G1 X138.421 Y93.093 E45.3347
G1 X138.484 Y93.576
G1 X138.694 Y93.369 E45.3494
G1 X138.758 Y93.852
G1 X137.296 Y95.293 E45.4518
G1 X137.296 Y95.839
G1 X139.274 Y93.889 E45.5903
G1 X139.502 Y94.209
G1 X137.296 Y96.384 E45.7449
G1 X137.296 Y96.930
G1 X139.502 Y94.755 E45.8995
G1 X139.502 Y95.301
G1 X137.296 Y97.476 E46.0540
G1 X137.296 Y98.021
G1 X139.502 Y95.846 E46.2086
G1 X139.502 Y96.392
G1 X137.296 Y98.567 E46.3631
G1 X137.296 Y99.112
G1 X139.502 Y96.937 E46.5177
G1 X139.502 Y97.483
G1 X137.296 Y99.658 E46.6723
G1 X137.296 Y100.204
G1 X139.502 Y98.029 E46.8268
G1 X139.502 Y98.574
G1 X137.296 Y100.749 E46.9814
G1 X137.296 Y101.295
G1 X139.502 Y99.120 E47.1359
G1 X139.521 Y99.647
G1 X137.296 Y101.840 E47.2918
G1 X137.296 Y102.386
G1 X139.545 Y100.169 E47.4493
G1 X139.502 Y100.757
G1 X137.296 Y102.932 E47.6039
G1 X137.296 Y103.477
G1 X139.502 Y101.302 E47.7585
G1 X139.502 Y101.848
G1 X137.296 Y104.023 E47.9130
G1 X137.296 Y104.568
G1 X139.502 Y102.393 E48.0676
G1 X139.502 Y102.939
G1 X137.296 Y105.114 E48.2221
G1 X137.296 Y105.660
G1 X139.502 Y103.485 E48.3767
G1 X139.502 Y104.030
G1 X137.298 Y106.203 E48.5311
G1 X137.742 Y106.311
G1 X139.502 Y104.576 E48.6544
G1 X139.502 Y105.122
G1 X138.295 Y106.311 E48.7390
G1 X138.849 Y106.311
G1 X139.502 Y105.667 E48.7847
G1 X139.502 Y106.213
G1 X139.402 Y106.311 E48.7917
G1 X138.379 Y108.957 F10800
G1 X137.945 Y109.385 E48.8222 F3600
G1 X138.200 Y108.588
G1 X138.472 Y108.320 E48.8412
G1 X138.554 Y107.693
G1 X138.282 Y107.961 E48.8603
G1 X138.365 Y107.334
G1 X138.637 Y107.066 E48.8793
G1 X138.719 Y106.439
G1 X138.448 Y106.707 E48.8983
G1 X137.563 Y110.307 F10800
G1 X137.997 Y109.879 E48.9288 F3600
G1 X137.233 Y111.723 F10800
G1 X136.799 Y112.151 E48.9592 F3600
G1 X136.417 Y113.074 F10800
G1 X136.851 Y112.646 E48.9896 F3600
G1 X136.469 Y113.568 F10800
G1 X136.035 Y113.996 E49.0200 F3600
G1 X135.705 Y115.413 F10800
G1 X135.271 Y115.840 E49.0504 F3600
G1 X133.669 Y118.511 F10800
G1 X134.921 Y117.277 E49.1381 F3600
G1 X118.693 Y131.093 F10800
G1 X118.213 Y131.566 E49.1717 F3600
G1 X125.474 Y127.135 F10800
G1 X124.044 Y128.545 E49.2719 F3600
G1 X120.122 Y130.775 F10800
G1 X120.601 Y130.302 E49.3055 F3600
G1 X121.076 Y130.380
G1 X121.556 Y129.907 E49.3391
G1 X122.031 Y129.985
G1 X122.980 Y129.049 E49.4056
G1 X119.647 Y130.698 F10800
G1 X119.167 Y131.171 E49.4392 F3600
G1 X117.738 Y131.489 F10800
G1 X117.259 Y131.961 E49.4728 F3600
G1 X116.784 Y131.884
G1 X116.304 Y132.357 E49.5064
G1 X115.829 Y132.279
G1 X115.350 Y132.752 E49.5400
G1 X114.395 Y133.147 F10800
G1 X114.875 Y132.675 E49.5736 F3600
G1 X113.934 Y133.056 F10800
G1 X113.632 Y133.355 E49.5948 F3600
G1 X112.993 Y133.439
G1 X113.296 Y133.140 E49.6159
G1 X112.657 Y133.224
G1 X112.354 Y133.523 E49.6371
G1 X111.716 Y133.607
G1 X112.018 Y133.309 E49.6583
G1 X111.379 Y133.393
G1 X111.077 Y133.691 E49.6795
G1 X110.438 Y133.775
G1 X110.741 Y133.477 E49.7007
G1 X110.102 Y133.561
G1 X109.799 Y133.859 E49.7219
G1 X109.161 Y133.943
G1 X109.463 Y133.645 E49.7431
G1 X108.824 Y133.729
G1 X108.522 Y134.027 E49.7643
G1 X107.883 Y134.111
G1 X108.186 Y133.813 E49.7855
G1 X107.547 Y133.897
G1 X107.245 Y134.195 E49.8066
G1 X106.606 Y134.280
G1 X106.908 Y133.981 E49.8278
G1 X106.269 Y134.066
G1 X105.967 Y134.364 E49.8490
G1 X105.328 Y134.448
G1 X105.631 Y134.150 E49.8702
G1 X105.017 Y134.209
G1 X104.786 Y134.436 E49.8864
G1 X104.298 Y134.372
G1 X104.529 Y134.144 E49.9025
G1 X104.041 Y134.080
G1 X103.810 Y134.308 E49.9187
G1 X103.322 Y134.244
G1 X103.553 Y134.016 E49.9349
G1 X103.065 Y133.952
G1 X102.834 Y134.179 E49.9511
G1 X102.345 Y134.115
G1 X102.576 Y133.887 E49.9673
G1 X102.088 Y133.823
G1 X101.857 Y134.051 E49.9835
G1 X101.369 Y133.986
G1 X101.600 Y133.759 E49.9997
G1 X101.112 Y133.694
G1 X100.881 Y133.922 E50.0159
G1 X100.392 Y133.858
G1 X100.624 Y133.630 E50.0320
G1 X100.135 Y133.566
G1 X99.904 Y133.794 E50.0482
G1 X99.416 Y133.729
G1 X99.647 Y133.502 E50.0644
G1 X99.159 Y133.437
G1 X98.928 Y133.665 E50.0806
G1 X98.440 Y133.601
G1 X98.671 Y133.373 E50.0968
G1 X98.182 Y133.309
G1 X97.951 Y133.537 E50.1130
G1 X97.463 Y133.472
G1 X97.694 Y133.244 E50.1292
G1 X97.206 Y133.180
G1 X96.975 Y133.408 E50.1454
G1 X96.487 Y133.344
G1 X96.718 Y133.116 E50.1616
G1 X96.231 Y133.050
G1 X96.036 Y133.243 E50.1753
G1 X95.646 Y133.081
G1 X95.842 Y132.889 E50.1890
G1 X95.452 Y132.727
G1 X95.256 Y132.920 E50.2027
G1 X94.867 Y132.759
G1 X95.062 Y132.566 E50.2164
G1 X94.672 Y132.404
G1 X94.477 Y132.597 E50.2301
G1 X94.087 Y132.436
G1 X94.283 Y132.243 E50.2438
G1 X93.893 Y132.081
G1 X93.697 Y132.274 E50.2575
G1 X93.308 Y132.113
G1 X93.503 Y131.920 E50.2712
G1 X93.114 Y131.759
G1 X92.918 Y131.951 E50.2849
G1 X92.528 Y131.790
G1 X92.724 Y131.597 E50.2986
G1 X92.334 Y131.436
G1 X92.139 Y131.629 E50.3123
G1 X91.749 Y131.467
G1 X91.945 Y131.274 E50.3260
G1 X91.555 Y131.113
G1 X91.359 Y131.306 E50.3398
G1 X90.969 Y131.144
G1 X91.165 Y130.951 E50.3535
G1 X90.776 Y130.790
G1 X90.580 Y130.983 E50.3672
G1 X90.190 Y130.822
G1 X90.386 Y130.629 E50.3809
G1 X89.996 Y130.467
G1 X89.800 Y130.660 E50.3946
G1 X89.411 Y130.499
G1 X89.606 Y130.306 E50.4083
G1 X89.217 Y130.144
G1 X89.021 Y130.337 E50.4221
G1 X88.631 Y130.176
G1 X88.827 Y129.983 E50.4358
G1 X88.437 Y129.822
G1 X88.242 Y130.015 E50.4495
G1 X87.856 Y129.850
G1 X88.048 Y129.660 E50.4630
G1 X87.723 Y129.435
G1 X87.544 Y129.611 E50.4755
G1 X87.233 Y129.372
G1 X87.412 Y129.196 E50.4880
G1 X87.100 Y128.957
G1 X86.922 Y129.133 E50.5005
G1 X86.611 Y128.894
G1 X86.789 Y128.718 E50.5130
G1 X86.478 Y128.480
G1 X86.300 Y128.656 E50.5255
G1 X85.988 Y128.417
G1 X86.167 Y128.241 E50.5380
G1 X85.856 Y128.002
G1 X85.677 Y128.178 E50.5505
G1 X85.366 Y127.939
G1 X85.544 Y127.763 E50.5630
G1 X85.233 Y127.525
G1 X85.055 Y127.700 E50.5755
G1 X84.743 Y127.462
G1 X84.922 Y127.286 E50.5880
G1 X84.611 Y127.047
G1 X84.432 Y127.223 E50.6005
G1 X84.121 Y126.984
G1 X84.299 Y126.808 E50.6130
G1 X83.988 Y126.569
G1 X83.810 Y126.745 E50.6255
G1 X83.499 Y126.506
G1 X83.677 Y126.331 E50.6379
G1 X83.366 Y126.092
G1 X83.187 Y126.268 E50.6504
G1 X82.876 Y126.029
G1 X83.054 Y125.853 E50.6629
G1 X82.743 Y125.614
G1 X82.565 Y125.790 E50.6754
G1 X82.254 Y125.551
G1 X82.432 Y125.376 E50.6879
G1 X82.121 Y125.137
G1 X81.943 Y125.313 E50.7004
G1 X81.631 Y125.074
G1 X81.809 Y124.898 E50.7129
G1 X81.498 Y124.659
G1 X81.320 Y124.835 E50.7253
G1 X81.009 Y124.596
G1 X81.187 Y124.421 E50.7378
G1 X80.879 Y124.178
G1 X80.706 Y124.349 E50.7500
G1 X80.467 Y124.039
G1 X80.641 Y123.868 E50.7621
G1 X80.403 Y123.557
G1 X80.229 Y123.728 E50.7743
G1 X79.991 Y123.418
G1 X80.164 Y123.246 E50.7865
G1 X79.926 Y122.936
G1 X79.752 Y123.107 E50.7986
G1 X79.514 Y122.796
G1 X79.688 Y122.625 E50.8108
G1 X79.449 Y122.314
G1 X79.276 Y122.486 E50.8230
G1 X79.037 Y122.175
G1 X79.211 Y122.004 E50.8351
G1 X78.973 Y121.693
G1 X78.799 Y121.864 E50.8473
G1 X78.561 Y121.554
G1 X78.734 Y121.383 E50.8595
G1 X78.496 Y121.072
G1 X78.322 Y121.243 E50.8716
G1 X78.084 Y120.932
G1 X78.258 Y120.761 E50.8838
G1 X78.019 Y120.451
G1 X77.846 Y120.622 E50.8960
G1 X77.607 Y120.311
G1 X77.781 Y120.140 E50.9081
G1 X77.543 Y119.829
G1 X77.369 Y120.000 E50.9203
G1 X77.131 Y119.690
G1 X77.304 Y119.519 E50.9325
G1 X77.066 Y119.208
G1 X76.892 Y119.379 E50.9446
G1 X76.654 Y119.069
G1 X76.828 Y118.897 E50.9568
G1 X76.589 Y118.587
G1 X76.416 Y118.758 E50.9690
G1 X76.177 Y118.447
G1 X76.351 Y118.276 E50.9811
G1 X76.113 Y117.965
G1 X75.939 Y118.137 E50.9933
G1 X75.701 Y117.826
G1 X75.874 Y117.655 E51.0054
G1 X75.636 Y117.344
G1 X75.462 Y117.515 E51.0176
G1 X75.234 Y117.195
G1 X75.416 Y117.016 E51.0304
G1 X75.255 Y116.628
G1 X75.073 Y116.808 E51.0431
G1 X74.913 Y116.420
G1 X75.095 Y116.241 E51.0559
G1 X74.934 Y115.853
G1 X74.752 Y116.033 E51.0686
G1 X74.592 Y115.646
G1 X74.774 Y115.466 E51.0814
G1 X74.614 Y115.079
G1 X74.431 Y115.258 E51.0941
G1 X74.271 Y114.871
G1 X74.453 Y114.691 E51.1069
G1 X74.293 Y114.304
G1 X74.110 Y114.483 E51.1197
G1 X73.950 Y114.096
G1 X74.132 Y113.916 E51.1324
G1 X73.972 Y113.529
G1 X73.790 Y113.709 E51.1452
G1 X73.629 Y113.321
G1 X73.811 Y113.142 E51.1580
G1 X73.651 Y112.754
G1 X73.469 Y112.934 E51.1707
G1 X73.308 Y112.546
G1 X73.490 Y112.367 E51.1835
G1 X73.330 Y111.979
G1 X73.148 Y112.159 E51.1963
G1 X72.987 Y111.772
G1 X73.169 Y111.592 E51.2090
G1 X73.009 Y111.204
G1 X72.827 Y111.384 E51.2218
G1 X72.666 Y110.997
G1 X72.849 Y110.817 E51.2346
G1 X72.688 Y110.430
G1 X72.506 Y110.609 E51.2474
G1 X72.345 Y110.222
G1 X72.528 Y110.042 E51.2601
G1 X72.367 Y109.655
G1 X72.185 Y109.835 E51.2729
G1 X72.024 Y109.447
G1 X72.207 Y109.267 E51.2857
G1 X72.046 Y108.880
G1 X71.864 Y109.060 E51.2985
G1 X71.767 Y108.610
G1 X71.976 Y108.403 E51.3132
G1 X71.913 Y107.920
G1 X71.703 Y108.127 E51.3278
G1 X71.640 Y107.644
G1 X71.849 Y107.437 E51.3425
G1 X71.786 Y106.954
G1 X71.576 Y107.161 E51.3572
G1 X126.540 Y126.630 F10800
G1 X127.969 Y125.221 E51.4573 F3600
G1 X129.765 Y123.996 F10800
G1 X129.036 Y124.715 E51.5084 F3600
G1 X130.232 Y122.991 F10800
G1 X131.484 Y121.756 E51.5961 F3600
G1 X131.950 Y120.751 F10800
G1 X133.202 Y119.517 E51.6838 F3600
G1 X134.889 Y116.762 F10800
G1 X135.323 Y116.335 E51.7142 F3600
G1 X135.653 Y114.918 F10800
G1 X136.087 Y114.490 E51.7446 F3600
G1 X137.181 Y111.229 F10800
G1 X137.615 Y110.801 E51.7750 F3600
; ------------------------------------
; Layer #3
; ------------------------------------
G21 ; mm
G90 ; abs
G92 E0 ; reset extr
M106 S255
;segType:Support
G1 F4800 E-1.0000
G1 F300 Z1.200
G1 X141.000 Y110.800 F10800
G1 F4800 E0.0000
G1 X146.400 Y110.800 E0.2290 F5400
G1 F4800 E-0.7710
G1 X141.000 Y114.400 F10800
G1 F4800 E0.2290
G1 X146.400 Y114.400 E0.4580 F5400
G1 X146.400 Y112.600 E0.5343
G1 X141.000 Y112.600 E0.7633
G1 F4800 E-0.2367
G1 X141.000 Y109.000 F10800
G1 F4800 E0.7633
G1 X146.400 Y109.000 E0.9923 F5400
G1 F4800 E-0.0077
G1 X144.600 Y103.600 F10800
G1 F4800 E0.9923
G1 X146.400 Y103.600 E1.0686 F5400
G1 F4800 E0.0686
G1 X144.600 Y100.000 F10800
G1 F4800 E1.0686
G1 X146.400 Y100.000 E1.1450 F5400
G1 F4800 E0.1450
G1 X146.400 Y96.400 F10800
G1 F4800 E1.1450
G1 X144.600 Y96.400 E1.2213 F5400
G1 X146.400 Y98.200 E1.3293
G1 X144.600 Y98.200 E1.4056
G1 F4800 E0.4056
G1 X146.400 Y94.600 F10800
G1 F4800 E1.4056
G1 X144.600 Y94.600 E1.4819 F5400
G1 F4800 E0.4819
G1 X141.000 Y89.200 F10800
G1 F4800 E1.4819
G1 X146.400 Y89.200 E1.7109 F5400
G1 F4800 E0.7109
G1 X141.000 Y92.800 F10800
G1 F4800 E1.7109
G1 X146.400 Y92.800 E1.9399 F5400
G1 X146.400 Y91.000 E2.0162
G1 X141.000 Y91.000 E2.2452
G1 F4800 E1.2452
G1 X141.000 Y87.400 F10800
G1 F4800 E2.2452
G1 X146.400 Y87.400 E2.4742 F5400
G1 X146.400 Y85.600 E2.5506
G1 X141.000 Y85.600 E2.7796
G1 F4800 E1.7796
G1 X146.400 Y83.800 F10800
G1 F4800 E2.7796
G1 X141.000 Y83.800 E3.0086 F5400
G1 F4800 E2.0086
G1 X128.297 Y73.564 F10800
G1 X70.267 Y104.291
G1 X70.800 Y110.800
G1 F4800 E3.0086
G1 X65.400 Y110.800 E3.2376 F5400
G1 F4800 E2.2376
G1 X71.516 Y107.234 F10800
G1 X73.555 Y106.045
G1 F4800 E3.2376
;segType:HShell
G1 X70.963 Y103.490 E3.4191 F3600
G1 X71.046 Y104.117
G1 X73.271 Y106.311 E3.5750
G1 X72.718 Y106.311
G1 X71.128 Y104.744 E3.6864
G1 X71.211 Y105.371
G1 X72.165 Y106.311 E3.7532
G1 X71.863 Y106.559
G1 X71.294 Y105.998 E3.7931
G1 X71.360 Y106.609
G1 X71.945 Y107.186 E3.8341
G1 X72.028 Y107.813
G1 X71.447 Y107.241 E3.8748
;segType:Perimeter
G1 X71.422 Y107.105 F10800
G1 X70.749 Y106.903 E3.9099 F2159
G1 X70.744 Y106.903 E3.9101
G1 X70.744 Y106.424 E3.9340
G1 X69.899 Y100.000 E4.2573
G1 X70.744 Y93.577 E4.5805
G1 X70.781 Y93.297 E4.5946
G1 X71.098 Y90.888 E4.7158
G1 X74.616 Y82.397 E5.1743
G1 X80.210 Y75.106 E5.6328
G1 X87.500 Y69.512 E6.0913
G1 X95.990 Y65.996 E6.5497
G1 X105.100 Y64.796 E7.0081
G1 X114.210 Y65.996 E7.4666
G1 X122.700 Y69.512 E7.9250
G1 X129.990 Y75.106 E8.3835
G1 X135.584 Y82.397 E8.8419
G1 X139.101 Y90.888 E9.3005
G1 X139.419 Y93.297 E9.4217
G1 X140.118 Y93.297 E9.4566
G1 X140.118 Y98.607 E9.7215
G1 X140.302 Y100.000 E9.7916
G1 X140.118 Y101.393 E9.8617
G1 X140.118 Y106.903 E10.1366
G1 X139.392 Y106.903 E10.1728
G1 X139.101 Y109.112 E10.2840
G1 X135.584 Y117.603 E10.7425
G1 X129.990 Y124.894 E11.2009
G1 X122.700 Y130.488 E11.6594
G1 X114.210 Y134.004 E12.1178
G1 X105.100 Y135.204 E12.5763
G1 X95.990 Y134.004 E13.0347
G1 X87.500 Y130.488 E13.4931
G1 X80.210 Y124.894 E13.9516
G1 X74.616 Y117.603 E14.4101
G1 X71.098 Y109.112 E14.8686
G1 X70.815 Y106.960 E14.9769
G1 X71.073 Y105.857 F10800
;segType:Loop
G1 X70.302 Y100.000 E15.2716 F3600
G1 X71.488 Y90.989 E15.7251
G1 X74.966 Y82.594 E16.1785
G1 X80.497 Y75.385 E16.6317
G1 X87.704 Y69.855 E17.0850
G1 X96.096 Y66.379 E17.5381
G1 X105.100 Y65.194 E17.9912
G1 X114.104 Y66.379 E18.4443
G1 X122.496 Y69.855 E18.8975
G1 X129.703 Y75.385 E19.3507
G1 X135.234 Y82.594 E19.8040
G1 X138.712 Y90.989 E20.2573
G1 X139.067 Y93.692 E20.3933
G1 X139.718 Y93.692 E20.4258
G1 X139.718 Y98.632 E20.6723
G1 X139.898 Y100.000 E20.7411
G1 X139.718 Y101.367 E20.8099
G1 X139.718 Y106.508 E21.0664
G1 X139.041 Y106.508 E21.1002
G1 X138.712 Y109.011 E21.2261
G1 X135.234 Y117.406 E21.6795
G1 X129.703 Y124.615 E22.1327
G1 X122.496 Y130.145 E22.5860
G1 X114.104 Y133.621 E23.0391
G1 X105.100 Y134.806 E23.4922
G1 X96.096 Y133.621 E23.9453
G1 X87.704 Y130.145 E24.3985
G1 X80.497 Y124.615 E24.8517
G1 X74.966 Y117.406 E25.3050
G1 X71.488 Y109.011 E25.7583
G1 X71.145 Y106.508 E25.8844
G1 X71.145 Y106.399 E25.8898
G1 X71.098 Y106.049 E25.9074
G1 X72.156 Y106.508 F10800
G1 X73.755 Y106.508 E25.9872 F3600
G1 X73.755 Y93.692 E26.6267
G1 X72.032 Y93.692 E26.7126
G1 X72.356 Y91.230 E26.8365
G1 X75.740 Y83.058 E27.2778
G1 X81.126 Y76.038 E27.7192
G1 X88.147 Y70.651 E28.1607
G1 X96.324 Y67.265 E28.6023
G1 X105.100 Y66.109 E29.0439
G1 X113.876 Y67.265 E29.4855
G1 X122.053 Y70.651 E29.9271
G1 X129.074 Y76.038 E30.3686
G1 X134.460 Y83.058 E30.8100
G1 X137.844 Y91.230 E31.2513
G1 X138.168 Y93.692 E31.3751
G1 X137.112 Y93.692 E31.4279
G1 X137.112 Y105.610 E32.0225
G1 X137.130 Y106.508 E32.0673
G1 X138.142 Y106.508 E32.1178
G1 X137.844 Y108.770 E32.2316
G1 X134.460 Y116.942 E32.6729
G1 X129.074 Y123.962 E33.1143
G1 X122.053 Y129.349 E33.5558
G1 X113.876 Y132.735 E33.9973
G1 X105.100 Y133.891 E34.4390
G1 X96.324 Y132.735 E34.8806
G1 X88.147 Y129.349 E35.3221
G1 X81.126 Y123.962 E35.7636
G1 X75.740 Y116.942 E36.2050
G1 X72.356 Y108.770 E36.6464
G1 X72.070 Y106.604 E36.7553
;segType:HShell
G1 X71.534 Y107.872 F10800
G1 X72.111 Y108.440 E36.7958 F3600
G1 X72.553 Y111.059 F10800
G1 X73.457 Y111.950 E36.8591 F3600
G1 X74.845 Y116.592 F10800
G1 X76.389 Y118.114 E36.9672 F3600
G1 X74.220 Y113.794 F10800
G1 X73.317 Y112.903 E37.0305 F3600
G1 X71.620 Y108.503 F10800
G1 X72.311 Y109.183 E37.0789 F3600
G1 X72.693 Y110.106 F10800
G1 X71.789 Y109.214 E37.1422 F3600
G1 X72.171 Y110.137 F10800
G1 X73.075 Y111.028 E37.2056 F3600
G1 X74.463 Y115.670 F10800
G1 X75.366 Y116.560 E37.2689 F3600
G1 X74.602 Y114.716 F10800
G1 X73.699 Y113.825 E37.3321 F3600
G1 X72.935 Y111.981 F10800
G1 X73.838 Y112.872 E37.3955 F3600
G1 X74.081 Y114.748 F10800
G1 X74.984 Y115.638 E37.4587 F3600
G1 X75.526 Y117.809 F10800
G1 X78.108 Y120.355 E37.6397 F3600
G1 X77.245 Y120.049
G1 X79.827 Y122.595 E37.8206
G1 X78.963 Y122.289
G1 X83.076 Y126.344 E38.1088
G1 X91.724 Y131.596 F10800
G1 X90.758 Y130.644 E38.1764 F3600
G1 X85.156 Y127.303 F10800
G1 X87.906 Y130.015 E38.3691 F3600
G1 X88.861 Y130.410 F10800
G1 X87.652 Y129.218 E38.4538 F3600
G1 X96.414 Y132.946 F10800
G1 X97.020 Y133.543 E38.4962 F3600
G1 X97.658 Y133.627
G1 X97.053 Y133.030 E38.5386
G1 X97.691 Y133.114
G1 X98.297 Y133.711 E38.5811
G1 X98.936 Y133.795
G1 X98.330 Y133.198 E38.6235
G1 X98.969 Y133.283
G1 X99.574 Y133.880 E38.6659
G1 X100.213 Y133.964
G1 X99.608 Y133.367 E38.7083
G1 X100.246 Y133.451
G1 X100.852 Y134.048 E38.7507
G1 X101.491 Y134.132
G1 X100.885 Y133.535 E38.7931
G1 X101.524 Y133.619
G1 X102.129 Y134.216 E38.8355
G1 X102.768 Y134.300
G1 X102.163 Y133.703 E38.8780
G1 X102.801 Y133.787
G1 X103.407 Y134.384 E38.9204
G1 X104.045 Y134.468
G1 X103.440 Y133.871 E38.9628
G1 X104.079 Y133.956
G1 X104.684 Y134.552 E39.0052
G1 X105.270 Y134.585
G1 X104.718 Y134.040 E39.0439
G1 X105.296 Y134.064
G1 X105.759 Y134.520 E39.0763
G1 X106.247 Y134.456
G1 X105.784 Y134.000 E39.1087
G1 X106.272 Y133.936
G1 X106.735 Y134.392 E39.1411
G1 X107.223 Y134.327
G1 X106.761 Y133.871 E39.1735
G1 X107.249 Y133.807
G1 X107.711 Y134.263 E39.2059
G1 X108.200 Y134.199
G1 X107.737 Y133.743 E39.2383
G1 X108.225 Y133.678
G1 X108.688 Y134.135 E39.2707
G1 X109.176 Y134.070
G1 X108.713 Y133.614 E39.3032
G1 X109.202 Y133.550
G1 X109.664 Y134.006 E39.3356
G1 X110.153 Y133.942
G1 X109.690 Y133.486 E39.3680
G1 X110.178 Y133.421
G1 X110.641 Y133.878 E39.4004
G1 X111.129 Y133.813
G1 X110.666 Y133.357 E39.4329
G1 X111.154 Y133.293
G1 X111.617 Y133.749 E39.4653
G1 X112.106 Y133.685
G1 X111.643 Y133.228 E39.4977
G1 X112.131 Y133.164
G1 X112.594 Y133.621 E39.5302
G1 X113.082 Y133.556
G1 X112.619 Y133.100 E39.5626
G1 X113.107 Y133.036
G1 X113.570 Y133.492 E39.5950
G1 X114.057 Y133.426
G1 X113.595 Y132.971 E39.6274
G1 X114.053 Y132.876
G1 X114.447 Y133.265 E39.6550
G1 X114.836 Y133.103
G1 X114.442 Y132.715 E39.6826
G1 X114.832 Y132.553
G1 X115.226 Y132.942 E39.7102
G1 X115.616 Y132.781
G1 X115.222 Y132.392 E39.7378
G1 X115.611 Y132.231
G1 X116.006 Y132.619 E39.7655
G1 X116.395 Y132.458
G1 X116.001 Y132.069 E39.7931
G1 X116.391 Y131.908
G1 X116.785 Y132.296 E39.8207
G1 X117.175 Y132.135
G1 X116.780 Y131.746 E39.8483
G1 X117.170 Y131.585
G1 X117.564 Y131.974 E39.8759
G1 X117.954 Y131.812
G1 X117.560 Y131.424 E39.9036
G1 X117.950 Y131.262
G1 X118.344 Y131.651 E39.9312
G1 X118.733 Y131.489
G1 X118.339 Y131.101 E39.9588
G1 X118.729 Y130.939
G1 X119.123 Y131.328 E39.9864
G1 X119.513 Y131.167
G1 X119.119 Y130.778 E40.0140
G1 X119.508 Y130.616
G1 X119.903 Y131.005 E40.0417
G1 X120.292 Y130.844
G1 X119.898 Y130.455 E40.0693
G1 X120.288 Y130.294
G1 X120.682 Y130.682 E40.0969
G1 X121.072 Y130.521
G1 X120.677 Y130.132 E40.1245
G1 X121.067 Y129.971
G1 X121.461 Y130.360 E40.1521
G1 X121.851 Y130.198
G1 X121.457 Y129.809 E40.1797
G1 X121.847 Y129.648
G1 X122.241 Y130.037 E40.2074
G1 X122.583 Y129.828
G1 X122.220 Y129.470 E40.2328
G1 X122.531 Y129.232
G1 X122.894 Y129.589 E40.2582
G1 X123.205 Y129.351
G1 X122.842 Y128.993 E40.2836
G1 X123.154 Y128.754
G1 X123.516 Y129.112 E40.3091
G1 X123.828 Y128.873
G1 X123.465 Y128.515 E40.3345
G1 X123.776 Y128.277
G1 X124.139 Y128.634 E40.3599
G1 X124.450 Y128.396
G1 X124.087 Y128.038 E40.3853
G1 X124.398 Y127.799
G1 X124.761 Y128.157 E40.4108
G1 X125.073 Y127.918
G1 X124.710 Y127.560 E40.4362
G1 X125.021 Y127.321
G1 X125.384 Y127.679 E40.4616
G1 X125.695 Y127.440
G1 X125.332 Y127.083 E40.4870
G1 X125.643 Y126.844
G1 X126.006 Y127.202 E40.5125
G1 X126.317 Y126.963
G1 X125.954 Y126.605 E40.5379
G1 X126.266 Y126.366
G1 X126.629 Y126.724 E40.5633
G1 X126.940 Y126.485
G1 X126.577 Y126.127 E40.5887
G1 X126.888 Y125.889
G1 X127.251 Y126.246 E40.6142
G1 X127.562 Y126.008
G1 X127.199 Y125.650 E40.6396
G1 X127.511 Y125.411
G1 X127.873 Y125.769 E40.6650
G1 X128.185 Y125.530
G1 X127.822 Y125.172 E40.6904
G1 X128.133 Y124.934
G1 X128.496 Y125.291 E40.7158
G1 X128.807 Y125.052
G1 X128.444 Y124.695 E40.7413
G1 X128.755 Y124.456
G1 X129.118 Y124.814 E40.7667
G1 X129.429 Y124.575
G1 X129.067 Y124.217 E40.7921
G1 X129.340 Y123.941
G1 X129.698 Y124.294 E40.8172
G1 X129.937 Y123.984
G1 X129.579 Y123.631 E40.8423
G1 X129.817 Y123.320
G1 X130.175 Y123.673 E40.8673
G1 X130.413 Y123.362
G1 X130.055 Y123.009 E40.8924
G1 X130.294 Y122.699
G1 X130.652 Y123.052 E40.9175
G1 X130.890 Y122.741
G1 X130.532 Y122.388 E40.9426
G1 X130.770 Y122.078
G1 X131.128 Y122.430 E40.9677
G1 X131.367 Y122.120
G1 X131.009 Y121.767 E40.9927
G1 X131.247 Y121.456
G1 X131.605 Y121.809 E41.0178
G1 X131.843 Y121.499
G1 X131.485 Y121.146 E41.0429
G1 X131.724 Y120.835
G1 X132.082 Y121.188 E41.0680
G1 X132.320 Y120.877
G1 X131.962 Y120.524 E41.0930
G1 X132.200 Y120.214
G1 X132.558 Y120.567 E41.1181
G1 X132.797 Y120.256
G1 X132.439 Y119.903 E41.1432
G1 X132.677 Y119.592
G1 X133.035 Y119.945 E41.1683
G1 X133.273 Y119.635
G1 X132.915 Y119.282 E41.1934
G1 X133.154 Y118.971
G1 X133.512 Y119.324 E41.2184
G1 X133.750 Y119.013
G1 X133.392 Y118.661 E41.2435
G1 X133.630 Y118.350
G1 X133.988 Y118.703 E41.2686
G1 X134.227 Y118.392
G1 X133.869 Y118.039 E41.2937
G1 X134.107 Y117.729
G1 X134.465 Y118.082 E41.3187
G1 X134.703 Y117.771
G1 X134.345 Y117.418 E41.3438
G1 X134.584 Y117.107
G1 X134.942 Y117.460 E41.3689
G1 X135.140 Y117.111
G1 X134.761 Y116.736 E41.3955
G1 X134.921 Y116.349
G1 X135.301 Y116.723 E41.4221
G1 X135.461 Y116.336
G1 X135.082 Y115.962 E41.4486
G1 X135.242 Y115.574
G1 X135.622 Y115.948 E41.4752
G1 X135.782 Y115.561
G1 X135.403 Y115.187 E41.5018
G1 X135.563 Y114.799
G1 X135.943 Y115.174 E41.5284
G1 X136.103 Y114.786
G1 X135.724 Y114.412 E41.5550
G1 X135.884 Y114.025
G1 X136.264 Y114.399 E41.5816
G1 X136.424 Y114.011
G1 X136.045 Y113.637 E41.6082
G1 X136.205 Y113.250
G1 X136.585 Y113.624 E41.6348
G1 X136.745 Y113.237
G1 X136.365 Y112.862 E41.6614
G1 X136.526 Y112.475
G1 X136.906 Y112.849 E41.6880
G1 X137.066 Y112.462
G1 X136.686 Y112.087 E41.7146
G1 X136.847 Y111.700
G1 X137.227 Y112.074 E41.7412
G1 X137.387 Y111.687
G1 X137.007 Y111.313 E41.7678
G1 X137.168 Y110.925
G1 X137.548 Y111.300 E41.7944
G1 X137.708 Y110.912
G1 X137.328 Y110.538 E41.8210
G1 X137.489 Y110.150
G1 X137.868 Y110.525 E41.8477
G1 X138.029 Y110.137
G1 X137.649 Y109.763 E41.8743
G1 X137.810 Y109.375
G1 X138.189 Y109.750 E41.9009
G1 X138.350 Y109.363
G1 X137.970 Y108.988 E41.9275
G1 X138.075 Y108.546
G1 X138.510 Y108.975 E41.9580
G1 X138.578 Y108.496
G1 X138.139 Y108.063 E41.9887
G1 X138.203 Y107.580
G1 X138.641 Y108.013 E42.0195
G1 X138.705 Y107.530
G1 X138.266 Y107.098 E42.0502
G1 X138.330 Y106.615
G1 X138.768 Y107.047 E42.0809
G1 X138.832 Y106.564
G1 X137.312 Y105.065 E42.1874
G1 X137.312 Y104.520
G1 X139.129 Y106.311 E42.3147
G1 X139.518 Y106.149
G1 X137.312 Y103.974 E42.4693
G1 X137.312 Y103.429
G1 X139.518 Y105.603 E42.6238
G1 X139.518 Y105.058
G1 X137.312 Y102.883 E42.7784
G1 X137.312 Y102.337
G1 X139.518 Y104.512 E42.9329
G1 X139.518 Y103.967
G1 X137.312 Y101.792 E43.0875
G1 X137.312 Y101.246
G1 X139.518 Y103.421 E43.2420
G1 X139.518 Y102.875
G1 X137.312 Y100.701 E43.3965
G1 X137.312 Y100.155
G1 X139.518 Y102.330 E43.5511
G1 X139.518 Y101.784
G1 X137.312 Y99.609 E43.7056
G1 X137.312 Y99.064
G1 X139.531 Y101.252 E43.8611
G1 X139.595 Y100.769
G1 X137.312 Y98.518 E44.0211
G1 X137.312 Y97.973
G1 X139.659 Y100.286 E44.1855
G1 X139.663 Y99.745
G1 X137.312 Y97.427 E44.3502
G1 X137.312 Y96.881
G1 X139.580 Y99.118 E44.5091
G1 X139.518 Y98.511
G1 X137.312 Y96.336 E44.6637
G1 X137.312 Y95.790
G1 X139.518 Y97.965 E44.8182
G1 X139.518 Y97.419
G1 X137.312 Y95.245 E44.9728
G1 X137.312 Y94.699
G1 X139.518 Y96.874 E45.1273
G1 X139.518 Y96.328
G1 X137.312 Y94.153 E45.2819
G1 X137.597 Y93.889
G1 X139.518 Y95.782 E45.4164
G1 X139.518 Y95.237
G1 X138.150 Y93.889 E45.5122
G1 X138.350 Y93.540
G1 X139.518 Y94.691 E45.5940
G1 X139.518 Y94.146
G1 X139.257 Y93.889 E45.6123
G1 X137.186 Y89.119 F10800
G1 X138.090 Y90.010 E45.6756 F3600
G1 X127.140 Y74.304 F10800
G1 X124.231 Y71.436 E45.8794 F3600
G1 X122.142 Y69.922 F10800
G1 X124.645 Y72.390 E46.0547 F3600
G1 X115.461 Y67.155 F10800
G1 X116.427 Y68.107 E46.1224 F3600
G1 X88.849 Y129.853 F10800
G1 X89.815 Y130.805 E46.1900 F3600
G1 X89.804 Y130.249
G1 X90.769 Y131.200 E46.2577
G1 X82.660 Y125.388 F10800
G1 X85.572 Y128.259 E46.4617 F3600
G1 X91.713 Y131.039 F10800
G1 X92.678 Y131.991 E46.5293 F3600
G1 X92.667 Y131.435
G1 X93.632 Y132.386 E46.5970
G1 X93.621 Y131.830
G1 X94.587 Y132.781 E46.6646
G1 X94.576 Y132.225
G1 X95.541 Y133.177 E46.7322
G1 X95.530 Y132.620
G1 X96.381 Y133.459 E46.7918
G1 X138.837 Y93.475 F10800
G1 X138.268 Y92.913 E46.8317 F3600
G1 X138.185 Y92.286
G1 X138.755 Y92.848 E46.8716
G1 X138.672 Y92.221
G1 X138.103 Y91.659 E46.9115
G1 X136.804 Y88.197 F10800
G1 X137.708 Y89.088 E46.9749 F3600
G1 X134.947 Y82.547 F10800
G1 X132.367 Y80.003 E47.1557 F3600
G1 X126.727 Y73.351 F10800
G1 X131.510 Y78.067 E47.4908 F3600
G1 X138.022 Y106.311 F10800
G1 X137.312 Y105.611 E47.5405 F3600
G1 X137.323 Y106.168
G1 X137.468 Y106.311 E47.5507
G1 X133.229 Y80.307 F10800
G1 X130.649 Y77.763 E47.7314 F3600
G1 X129.223 Y75.267 F10800
G1 X129.791 Y75.827 E47.7712 F3600
G1 X136.180 Y85.399 F10800
G1 X135.276 Y84.508 E47.8345 F3600
G1 X137.950 Y90.963 F10800
G1 X138.590 Y91.594 E47.8794 F3600
G1 X137.568 Y90.041 F10800
G1 X138.472 Y90.933 E47.9427 F3600
G1 X134.895 Y83.586 F10800
G1 X135.798 Y84.477 E48.0060 F3600
G1 X135.658 Y85.430
G1 X136.562 Y86.321 E48.0693
G1 X136.040 Y86.353
G1 X136.944 Y87.243 E48.1326
G1 X137.326 Y88.166 F10800
G1 X136.422 Y87.275 E48.1959 F3600
G1 X134.085 Y82.242 F10800
G1 X135.416 Y83.554 E48.2892 F3600
G1 X117.370 Y67.946 F10800
G1 X118.335 Y68.898 E48.3568 F3600
G1 X121.188 Y69.527 F10800
G1 X122.153 Y70.479 E48.4245 F3600
G1 X120.244 Y69.688 F10800
G1 X119.279 Y68.737 E48.4921 F3600
G1 X120.233 Y69.132 F10800
G1 X121.199 Y70.084 E48.5597 F3600
G1 X118.324 Y68.341 F10800
G1 X119.290 Y69.293 E48.6274 F3600
G1 X72.293 Y93.889 F10800
G1 X73.555 Y95.133 E48.7158 F3600
G1 X73.555 Y94.587
G1 X72.846 Y93.889 E48.7654
G1 X73.400 Y93.889
G1 X73.555 Y94.042 E48.7763
G1 X117.381 Y68.502 F10800
G1 X116.416 Y67.551 E48.8439 F3600
G1 X115.472 Y67.712
G1 X114.507 Y66.760 E48.9115
G1 X114.518 Y67.317
G1 X113.717 Y66.527 E48.9676
G1 X113.684 Y67.040
G1 X113.079 Y66.443 E49.0100
G1 X112.440 Y66.359
G1 X113.046 Y66.956 E49.0525
G1 X112.407 Y66.872
G1 X111.801 Y66.275 E49.0949
G1 X111.163 Y66.191
G1 X111.768 Y66.788 E49.1373
G1 X111.129 Y66.704
G1 X110.524 Y66.107 E49.1798
G1 X109.885 Y66.023
G1 X110.491 Y66.620 E49.2222
G1 X109.852 Y66.536
G1 X109.246 Y65.939 E49.2646
G1 X108.608 Y65.855
G1 X109.213 Y66.452 E49.3071
G1 X108.574 Y66.368
G1 X107.969 Y65.771 E49.3495
G1 X107.330 Y65.686
G1 X107.936 Y66.283 E49.3919
G1 X107.297 Y66.199
G1 X106.692 Y65.602 E49.4343
G1 X106.053 Y65.518
G1 X106.658 Y66.115 E49.4767
G1 X106.019 Y66.031
G1 X105.414 Y65.434 E49.5192
G1 X104.852 Y65.426
G1 X105.381 Y65.947 E49.5562
G1 X104.826 Y65.946
G1 X104.364 Y65.490 E49.5886
G1 X103.875 Y65.554
G1 X104.338 Y66.010 E49.6210
G1 X103.850 Y66.075
G1 X103.387 Y65.618 E49.6535
G1 X102.899 Y65.683
G1 X103.362 Y66.139 E49.6859
G1 X102.874 Y66.203
G1 X102.411 Y65.747 E49.7183
G1 X101.923 Y65.811
G1 X102.385 Y66.267 E49.7507
G1 X101.897 Y66.332
G1 X101.434 Y65.875 E49.7832
G1 X100.946 Y65.940
G1 X101.409 Y66.396 E49.8156
G1 X100.921 Y66.460
G1 X100.458 Y66.004 E49.8480
G1 X99.970 Y66.068
G1 X100.433 Y66.525 E49.8804
G1 X99.944 Y66.589
G1 X99.481 Y66.133 E49.9129
G1 X98.993 Y66.197
G1 X99.456 Y66.653 E49.9453
G1 X98.968 Y66.718
G1 X98.505 Y66.261 E49.9777
G1 X98.017 Y66.325
G1 X98.480 Y66.782 E50.0102
G1 X97.992 Y66.846
G1 X97.529 Y66.390 E50.0426
G1 X97.040 Y66.454
G1 X97.503 Y66.910 E50.0750
G1 X97.015 Y66.975
G1 X96.552 Y66.518 E50.1075
G1 X96.081 Y66.600
G1 X96.527 Y67.039 E50.1387
G1 X96.086 Y67.150
G1 X95.691 Y66.761 E50.1663
G1 X95.302 Y66.922
G1 X95.696 Y67.311 E50.1939
G1 X95.306 Y67.472
G1 X94.912 Y67.084 E50.2215
G1 X94.522 Y67.245
G1 X94.916 Y67.634 E50.2491
G1 X94.527 Y67.795
G1 X94.133 Y67.407 E50.2767
G1 X93.743 Y67.568
G1 X94.137 Y67.957 E50.3044
G1 X93.747 Y68.118
G1 X93.353 Y67.729 E50.3320
G1 X92.964 Y67.891
G1 X93.358 Y68.279 E50.3596
G1 X92.968 Y68.441
G1 X92.574 Y68.052 E50.3872
G1 X92.184 Y68.214
G1 X92.578 Y68.602 E50.4148
G1 X92.189 Y68.764
G1 X91.794 Y68.375 E50.4424
G1 X91.405 Y68.536
G1 X91.799 Y68.925 E50.4701
G1 X91.409 Y69.086
G1 X91.015 Y68.698 E50.4977
G1 X90.625 Y68.859
G1 X91.020 Y69.248 E50.5253
G1 X90.630 Y69.409
G1 X90.236 Y69.021 E50.5529
G1 X89.846 Y69.182
G1 X90.240 Y69.571 E50.5805
G1 X89.850 Y69.732
G1 X89.456 Y69.343 E50.6082
G1 X89.066 Y69.505
G1 X89.461 Y69.894 E50.6358
G1 X89.071 Y70.055
G1 X88.677 Y69.666 E50.6634
G1 X88.287 Y69.828
G1 X88.681 Y70.216 E50.6910
G1 X88.292 Y70.378
G1 X87.897 Y69.989 E50.7187
G1 X87.568 Y70.210
G1 X87.931 Y70.568 E50.7441
G1 X87.620 Y70.806
G1 X87.256 Y70.448 E50.7696
G1 X86.945 Y70.687
G1 X87.308 Y71.045 E50.7950
G1 X86.997 Y71.284
G1 X86.634 Y70.926 E50.8204
G1 X86.323 Y71.165
G1 X86.686 Y71.523 E50.8459
G1 X86.375 Y71.762
G1 X86.012 Y71.404 E50.8713
G1 X85.700 Y71.642
G1 X86.063 Y72.000 E50.8967
G1 X85.752 Y72.239
G1 X85.389 Y71.881 E50.9222
G1 X85.078 Y72.120
G1 X85.441 Y72.478 E50.9476
G1 X85.130 Y72.717
G1 X84.767 Y72.359 E50.9731
G1 X84.456 Y72.598
G1 X84.819 Y72.955 E50.9985
G1 X84.507 Y73.194
G1 X84.144 Y72.836 E51.0239
G1 X83.833 Y73.075
G1 X84.196 Y73.433 E51.0493
G1 X83.885 Y73.672
G1 X83.522 Y73.314 E51.0748
G1 X83.211 Y73.553
G1 X83.574 Y73.911 E51.1002
G1 X83.262 Y74.149
G1 X82.899 Y73.792 E51.1256
G1 X82.588 Y74.030
G1 X82.951 Y74.388 E51.1510
G1 X82.640 Y74.627
G1 X82.277 Y74.269 E51.1765
G1 X81.966 Y74.508
G1 X82.329 Y74.866 E51.2019
G1 X82.017 Y75.104
G1 X81.655 Y74.747 E51.2273
G1 X81.343 Y74.985
G1 X81.706 Y75.343 E51.2527
G1 X81.395 Y75.582
G1 X81.032 Y75.224 E51.2781
G1 X80.721 Y75.463
G1 X81.084 Y75.821 E51.3036
G1 X80.822 Y76.108
G1 X80.464 Y75.755 E51.3286
G1 X80.225 Y76.066
G1 X80.584 Y76.419 E51.3537
G1 X80.345 Y76.729
G1 X79.987 Y76.376 E51.3788
G1 X79.749 Y76.687
G1 X80.107 Y77.040 E51.4039
G1 X79.868 Y77.351
G1 X79.510 Y76.998 E51.4290
G1 X79.272 Y77.308
G1 X79.630 Y77.661 E51.4541
G1 X79.392 Y77.972
G1 X79.034 Y77.619 E51.4791
G1 X78.795 Y77.930
G1 X79.153 Y78.282 E51.5042
G1 X78.915 Y78.593
G1 X78.557 Y78.240 E51.5293
G1 X78.319 Y78.551
G1 X78.677 Y78.904 E51.5544
G1 X78.438 Y79.214
G1 X78.080 Y78.861 E51.5795
G1 X77.842 Y79.172
G1 X78.200 Y79.525 E51.6045
G1 X77.962 Y79.836
G1 X77.604 Y79.483 E51.6296
G1 X77.365 Y79.793
G1 X77.723 Y80.146 E51.6547
G1 X77.485 Y80.457
G1 X77.127 Y80.104 E51.6798
G1 X76.889 Y80.415
G1 X77.247 Y80.768 E51.7049
G1 X77.008 Y81.078
G1 X76.650 Y80.725 E51.7300
G1 X76.412 Y81.036
G1 X76.770 Y81.389 E51.7550
G1 X76.532 Y81.699
G1 X76.174 Y81.347 E51.7801
G1 X75.935 Y81.657
G1 X76.293 Y82.010 E51.8052
G1 X76.055 Y82.321
G1 X75.697 Y81.968 E51.8303
G1 X75.459 Y82.278
G1 X75.817 Y82.631 E51.8553
G1 X75.578 Y82.942
G1 X75.220 Y82.589 E51.8804
G1 X75.034 Y82.951
G1 X75.414 Y83.325 E51.9070
G1 X75.253 Y83.712
G1 X74.874 Y83.338 E51.9336
G1 X74.713 Y83.726
G1 X75.093 Y84.100 E51.9602
G1 X74.932 Y84.487
G1 X74.553 Y84.113 E51.9868
G1 X74.392 Y84.501
G1 X74.772 Y84.875 E52.0133
G1 X74.611 Y85.262
G1 X74.232 Y84.888 E52.0399
G1 X74.071 Y85.275
G1 X74.451 Y85.650 E52.0665
G1 X74.290 Y86.037
G1 X73.911 Y85.663 E52.0931
G1 X73.750 Y86.050
G1 X74.130 Y86.424 E52.1197
G1 X73.969 Y86.812
G1 X73.590 Y86.438 E52.1463
G1 X73.429 Y86.825
G1 X73.809 Y87.199 E52.1729
G1 X73.649 Y87.587
G1 X73.269 Y87.212 E52.1995
G1 X73.108 Y87.600
G1 X73.488 Y87.974 E52.2261
G1 X73.328 Y88.362
G1 X72.948 Y87.987 E52.2527
G1 X72.787 Y88.375
G1 X73.167 Y88.749 E52.2793
G1 X73.007 Y89.136
G1 X72.627 Y88.762 E52.3059
G1 X72.466 Y89.149
G1 X72.846 Y89.524 E52.3325
G1 X72.686 Y89.911
G1 X72.306 Y89.537 E52.3592
G1 X72.146 Y89.924
G1 X72.525 Y90.299 E52.3858
G1 X72.365 Y90.686
G1 X71.985 Y90.312 E52.4124
G1 X71.825 Y90.699
G1 X72.204 Y91.074 E52.4390
G1 X72.114 Y91.530
G1 X71.676 Y91.098 E52.4697
G1 X71.612 Y91.581
G1 X72.051 Y92.013 E52.5005
G1 X71.987 Y92.496
G1 X71.549 Y92.064 E52.5312
G1 X71.485 Y92.547
G1 X71.924 Y92.979 E52.5619
G1 X71.860 Y93.462
G1 X71.421 Y93.030 E52.5927
G1 X71.358 Y93.512
G1 X73.555 Y95.678 E52.7466
G1 X73.555 Y96.224
G1 X71.294 Y93.995 E52.9050
G1 X71.231 Y94.478
G1 X73.555 Y96.770 E53.0678
G1 X73.555 Y97.315
G1 X71.167 Y94.961 E53.2351
G1 X71.103 Y95.444
G1 X73.555 Y97.861 E53.4068
G1 X73.555 Y98.406
G1 X71.040 Y95.927 E53.5830
G1 X70.976 Y96.410
G1 X73.555 Y98.952 E53.7637
G1 X73.555 Y99.498
G1 X70.913 Y96.893 E53.9488
G1 X70.849 Y97.376
G1 X73.555 Y100.043 E54.1383
G1 X73.555 Y100.589
G1 X70.786 Y97.859 E54.3323
G1 X70.722 Y98.342
G1 X73.555 Y101.134 E54.5308
G1 X73.555 Y101.680
G1 X70.658 Y98.825 E54.7337
G1 X70.595 Y99.308
G1 X73.555 Y102.226 E54.9411
G1 X73.555 Y102.771
G1 X70.531 Y99.790 E55.1529
G1 X70.550 Y100.355
G1 X73.555 Y103.317 E55.3634
G1 X73.555 Y103.863
G1 X70.633 Y100.982 E55.5681
G1 X70.716 Y101.609
G1 X73.555 Y104.408 E55.7670
G1 X73.555 Y104.954
G1 X70.798 Y102.236 E55.9602
G1 X70.881 Y102.863
G1 X73.555 Y105.499 E56.1475
;segType:Support
G1 F4800 E55.1475
G1 X65.400 Y109.000 F10800
G1 F4800 E56.1475
G1 X70.277 Y109.000 E56.3543 F5400
G1 F4800 E55.3543
G1 X70.800 Y114.400 F10800
G1 F4800 E56.3543
G1 X65.400 Y114.400 E56.5833 F5400
G1 X65.400 Y112.600 E56.6596
G1 X70.800 Y112.600 E56.8886
G1 F4800 E55.8886
G1 X69.703 Y100.000 F10800
G1 X69.944 Y92.800
G1 F4800 E56.8886
G1 X65.400 Y92.800 E57.0814 F5400
G1 X65.400 Y91.000 E57.1577
G1 X70.277 Y91.000 E57.3645
G1 X70.800 Y89.200 E57.4440
G1 X65.400 Y89.200 E57.6730
G1 F4800 E56.6730
G1 X65.400 Y85.600 F10800
G1 F4800 E57.6730
G1 X70.800 Y85.600 E57.9020 F5400
G1 X70.800 Y83.800 E57.9783
G1 X65.400 Y83.800 E58.2073
G1 F4800 E57.2073
G1 X65.400 Y87.400 F10800
G1 F4800 E58.2073
G1 X70.800 Y87.400 E58.4363 F5400
G1 F4800 E57.4363
G1 X138.407 Y88.704 F10800
G1 X144.600 Y101.800
G1 F4800 E58.4363
G1 X146.400 Y101.800 E58.5126 F5400
G1 F4800 E57.5126
G1 X144.600 Y105.400 F10800
G1 F4800 E58.5126
G1 X146.400 Y105.400 E58.5890 F5400
G1 X144.600 Y107.200 E58.6969
G1 X146.400 Y107.200 E58.7733
; ------------------------------------
; Layer #4
; ------------------------------------
G21 ; mm
G90 ; abs
G92 E0 ; reset extr
M106 S255
;segType:Support
G1 F4800 E-1.0000
G1 F300 Z1.500
G1 X146.400 Y107.200 F10800
G1 F4800 E0.0000
G1 X144.600 Y107.200 E0.0763 F5400
G1 F4800 E-0.9237
G1 X141.000 Y109.000 F10800
G1 F4800 E0.0763
G1 X146.400 Y109.000 E0.3053 F5400
G1 F4800 E-0.6947
G1 X141.000 Y114.400 F10800
G1 F4800 E0.3053
G1 X146.400 Y114.400 E0.5343 F5400
G1 X146.400 Y112.600 E0.6107
G1 X141.000 Y112.600 E0.8397
G1 X141.000 Y110.800 E0.9160
G1 X146.400 Y110.800 E1.1450
G1 F4800 E0.1450
G1 X141.448 Y108.870 F10800
G1 X138.972 Y107.904
G1 F4800 E1.1450
;segType:Loop
G1 X138.823 Y109.040 E1.2021 F3600
G1 X135.334 Y117.464 E1.6570
G1 X129.784 Y124.696 E2.1118
G1 X122.553 Y130.245 E2.5665
G1 X114.134 Y133.732 E3.0212
G1 X105.100 Y134.921 E3.4758
G1 X96.066 Y133.732 E3.9304
G1 X87.647 Y130.245 E4.3850
G1 X80.416 Y124.696 E4.8397
G1 X74.866 Y117.464 E5.2945
G1 X71.377 Y109.040 E5.7494
G1 X70.187 Y100.000 E6.2043
G1 X71.377 Y90.960 E6.6592
G1 X74.866 Y82.536 E7.1141
G1 X80.416 Y75.304 E7.5689
G1 X87.647 Y69.755 E8.0237
G1 X96.066 Y66.268 E8.4783
G1 X105.100 Y65.079 E8.9329
G1 X114.134 Y66.268 E9.3875
G1 X122.553 Y69.755 E9.8421
G1 X129.784 Y75.304 E10.2969
G1 X135.334 Y82.536 E10.7516
G1 X138.823 Y90.960 E11.2065
G1 X139.182 Y93.692 E11.3440
G1 X139.733 Y93.692 E11.3715
G1 X139.733 Y97.880 E11.5804
G1 X140.013 Y100.000 E11.6871
G1 X139.738 Y102.086 E11.7921
G1 X139.734 Y106.508 E12.0127
G1 X139.156 Y106.508 E12.0416
G1 X138.997 Y107.713 E12.1022
G1 X139.087 Y108.598 F10800
G1 X139.313 Y106.878
G1 X139.790 Y106.328
;segType:Perimeter
G1 X139.500 Y106.960 E12.1369 F2159
G1 X139.213 Y109.142 E12.2467
G1 X135.684 Y117.660 E12.7067
G1 X130.072 Y124.976 E13.1667
G1 X122.757 Y130.588 E13.6267
G1 X114.240 Y134.116 E14.0866
G1 X105.100 Y135.319 E14.5465
G1 X95.960 Y134.116 E15.0064
G1 X87.443 Y130.588 E15.4664
G1 X80.128 Y124.976 E15.9264
G1 X74.516 Y117.660 E16.3864
G1 X70.987 Y109.142 E16.8464
G1 X69.784 Y100.000 E17.3064
G1 X70.987 Y90.858 E17.7664
G1 X74.516 Y82.339 E18.2264
G1 X80.128 Y75.024 E18.6864
G1 X87.443 Y69.412 E19.1464
G1 X95.960 Y65.884 E19.6063
G1 X105.100 Y64.681 E20.0663
G1 X114.240 Y65.884 E20.5262
G1 X122.757 Y69.412 E20.9861
G1 X130.072 Y75.024 E21.4461
G1 X135.684 Y82.339 E21.9061
G1 X139.213 Y90.858 E22.3661
G1 X139.534 Y93.297 E22.4888
G1 X140.134 Y93.297 E22.5187
G1 X140.134 Y97.854 E22.7461
G1 X140.416 Y100.000 E22.8541
G1 X140.138 Y102.112 E22.9603
G1 X140.134 Y106.903 E23.1994
G1 X139.566 Y106.903 E23.2277
G1 X138.892 Y107.105
G1 X77.799 Y119.101 F10800
G1 X73.282 Y113.118
;segType:HShell
G1 X73.837 Y112.570 E23.2666 F3600
G1 X73.677 Y112.183
G1 X73.122 Y112.730 E23.3054
G1 X72.961 Y112.343
G1 X73.516 Y111.796 E23.3443
G1 X73.356 Y111.408
G1 X72.801 Y111.955 E23.3832
G1 X72.640 Y111.568
G1 X73.195 Y111.021 E23.4221
G1 X73.035 Y110.633
G1 X72.480 Y111.181 E23.4610
G1 X72.319 Y110.793
G1 X72.874 Y110.246 E23.4999
G1 X72.714 Y109.858
G1 X72.159 Y110.406 E23.5388
G1 X71.998 Y110.018
G1 X72.554 Y109.471 E23.5777
G1 X72.393 Y109.084
G1 X71.838 Y109.631 E23.6166
G1 X71.677 Y109.244
G1 X72.256 Y108.673 E23.6572
G1 X72.193 Y108.190
G1 X71.550 Y108.823 E23.7022
G1 X71.487 Y108.340
G1 X72.129 Y107.707 E23.7472
;segType:Perimeter
G1 X72.065 Y107.229 F10800
G1 X72.687 Y106.903 E23.7822 F2159
G1 X74.134 Y106.903 E23.8544
G1 X74.134 Y93.297 E24.5332
G1 X72.602 Y93.297 E24.6096
G1 X72.857 Y91.362 E24.7070
G1 X76.190 Y83.312 E25.1417
G1 X81.496 Y76.399 E25.5765
G1 X88.409 Y71.094 E26.0112
G1 X96.460 Y67.760 E26.4459
G1 X105.100 Y66.622 E26.8808
G1 X113.740 Y67.760 E27.3155
G1 X121.792 Y71.094 E27.7503
G1 X128.705 Y76.399 E28.1850
G1 X134.010 Y83.312 E28.6198
G1 X137.343 Y91.361 E29.0545
G1 X137.598 Y93.297 E29.1519
G1 X136.727 Y93.297 E29.1953
G1 X136.727 Y105.168 E29.7875
G1 X136.790 Y106.903 E29.8741
G1 X137.572 Y106.903 E29.9132
G1 X137.343 Y108.638 E30.0005
G1 X134.010 Y116.688 E30.4352
G1 X128.705 Y123.600 E30.8699
G1 X121.792 Y128.906 E31.3047
G1 X113.740 Y132.240 E31.7394
G1 X105.100 Y133.378 E32.1742
G1 X96.460 Y132.240 E32.6090
G1 X88.409 Y128.906 E33.0437
G1 X81.496 Y123.600 E33.4785
G1 X76.190 Y116.688 E33.9133
G1 X72.857 Y108.638 E34.3479
G1 X72.636 Y106.960 E34.4324
G1 X72.884 Y106.310
;segType:Loop
G1 X73.705 Y106.508 F10800
G1 X73.734 Y106.508 E34.4338 F3600
G1 X73.734 Y93.692 E35.0733
G1 X72.147 Y93.692 E35.1525
G1 X72.467 Y91.260 E35.2748
G1 X75.840 Y83.116 E35.7146
G1 X81.209 Y76.119 E36.1546
G1 X88.205 Y70.751 E36.5946
G1 X96.354 Y67.376 E37.0346
G1 X105.100 Y66.224 E37.4747
G1 X113.846 Y67.376 E37.9148
G1 X121.996 Y70.751 E38.3549
G1 X128.993 Y76.119 E38.7949
G1 X134.360 Y83.116 E39.2348
G1 X137.733 Y91.260 E39.6746
G1 X138.053 Y93.692 E39.7970
G1 X137.127 Y93.692 E39.8432
G1 X137.127 Y105.161 E40.4154
G1 X137.176 Y106.508 E40.4827
G1 X138.027 Y106.508 E40.5251
G1 X137.733 Y108.740 E40.6374
G1 X134.360 Y116.884 E41.0772
G1 X128.993 Y123.880 E41.5171
G1 X121.996 Y129.249 E41.9571
G1 X113.846 Y132.624 E42.3972
G1 X105.100 Y133.776 E42.8373
G1 X96.354 Y132.624 E43.2775
G1 X88.205 Y129.249 E43.7175
G1 X81.208 Y123.880 E44.1575
G1 X75.840 Y116.884 E44.5974
G1 X72.467 Y108.740 E45.0372
G1 X72.173 Y106.508 E45.1495
G1 X73.509 Y106.508 E45.2162
G1 F4800 E44.2162
G1 X72.239 Y106.311 F10800
G1 F4800 E45.2162
;segType:Infill
G1 X72.239 Y93.889 E45.8359 F5400
G1 X72.481 Y106.776 F10800
G1 X72.667 Y108.688
G1 X76.020 Y116.783
G1 X81.356 Y123.736
G1 X88.310 Y129.072
G1 X96.408 Y132.426
G1 X105.100 Y133.571
G1 X113.792 Y132.426
G1 X128.845 Y123.736
G1 X136.737 Y111.667
;segType:HShell
G1 X138.059 Y110.364 E45.9285 F3600
;segType:Infill
G1 X139.508 Y100.450 F10800
G1 X137.375 Y100.450 E46.0349 F5400
G1 X137.719 Y106.776 F10800
G1 X137.532 Y108.688
G1 X136.355 Y112.589
;segType:HShell
G1 X137.676 Y111.286 E46.1275 F3600
G1 X131.020 Y122.760 F10800
G1 X127.638 Y126.093 E46.3644 F3600
G1 X132.738 Y120.520 F10800
G1 X125.142 Y128.009 E46.8966 F3600
G1 X73.785 Y111.386 F10800
G1 X72.667 Y108.688
G1 X72.481 Y106.776
G1 X72.455 Y93.424
G1 X72.667 Y91.312
G1 X73.632 Y86.038
G1 X74.953 Y84.736 E46.9891 F3600
G1 X79.011 Y77.461 F10800
G1 X82.808 Y73.718 E47.2551 F3600
G1 X75.573 Y81.942 F10800
G1 X79.338 Y78.230 E47.5188 F3600
G1 X88.723 Y69.524 F10800
G1 X86.067 Y72.142 E47.7049 F3600
G1 X88.279 Y70.506 F10800
G1 X89.677 Y69.128 E47.8028 F3600
G1 X91.586 Y68.338 F10800
G1 X90.188 Y69.716 E47.9007 F3600
G1 X89.234 Y70.111 F10800
G1 X90.631 Y68.733 E47.9986 F3600
G1 X93.494 Y67.547 F10800
G1 X92.097 Y68.925 E48.0966 F3600
G1 X88.310 Y70.928 F10800
G1 X81.356 Y76.263
G1 X76.020 Y83.217
G1 X73.807 Y87.502
G1 X72.486 Y88.805 E48.1891 F3600
G1 X72.104 Y89.727 F10800
G1 X73.425 Y88.424 E48.2817 F3600
G1 X73.250 Y86.960 F10800
G1 X74.571 Y85.658 E48.3742 F3600
G1 X74.396 Y84.194 F10800
G1 X75.898 Y82.713 E48.4795 F3600
G1 X81.356 Y76.263 F10800
G1 X88.310 Y70.928
G1 X96.408 Y67.574
G1 X105.100 Y66.429
G1 X113.792 Y67.574
G1 X121.891 Y70.928
G1 X128.845 Y76.263
G1 X134.180 Y83.217
G1 X137.532 Y91.312
G1 X138.147 Y93.889
;segType:Infill
G1 X138.147 Y106.311 E49.0992 F5400
;segType:HShell
G1 X139.609 Y98.468 F10800
G1 X139.502 Y98.574 E49.1068 F3600
G1 X139.502 Y99.120
G1 X139.673 Y98.951 E49.1187
G1 X139.737 Y99.434
G1 X139.521 Y99.647 E49.1339
G1 X139.545 Y100.169
G1 X139.800 Y99.917 E49.1518
G1 X139.743 Y100.519
G1 X139.502 Y100.757 E49.1686
G1 X139.502 Y101.302
G1 X139.660 Y101.146 E49.1797
G1 X139.578 Y101.773
G1 X139.502 Y101.848 E49.1850
G1 X138.849 Y106.311 F10800
G1 X138.166 Y106.984 E49.2329 F3600
G1 X138.083 Y107.611
G1 X138.917 Y106.789 E49.2913
G1 X138.835 Y107.416
G1 X138.001 Y108.238 E49.3497
G1 X137.501 Y109.823 F10800
G1 X138.670 Y108.670 E49.4316 F3600
G1 X138.752 Y108.043
G1 X137.883 Y108.901 E49.4926
;segType:Infill
G1 X139.502 Y104.511 F10800
G1 X137.375 Y104.511 E49.5987 F5400
;segType:HShell
G1 X138.441 Y109.442 F10800
G1 X137.119 Y110.745 E49.6913 F3600
G1 X137.766 Y106.928 F10800
G1 X138.974 Y93.639
G1 X138.720 Y93.889 E49.7091 F3600
G1 X138.268 Y93.789
G1 X138.910 Y93.156 E49.7541
G1 X138.847 Y92.673
G1 X138.204 Y93.306 E49.7991
G1 X138.141 Y92.824
G1 X138.783 Y92.190 E49.8441
G1 X138.720 Y91.707
G1 X138.077 Y92.341 E49.8891
G1 X138.014 Y91.858
G1 X138.656 Y91.224 E49.9341
G1 X138.538 Y90.795
G1 X137.950 Y91.375 E49.9753
G1 X137.823 Y90.955
G1 X138.378 Y90.407 E50.0142
G1 X138.217 Y90.020
G1 X137.662 Y90.567 E50.0531
G1 X137.502 Y90.180
G1 X138.057 Y89.632 E50.0920
G1 X137.896 Y89.245
G1 X137.341 Y89.792 E50.1309
G1 X137.181 Y89.405
G1 X137.736 Y88.858 E50.1698
G1 X137.576 Y88.470
G1 X137.021 Y89.017 E50.2086
G1 X136.860 Y88.630
G1 X137.415 Y88.083 E50.2475
G1 X137.255 Y87.695
G1 X136.700 Y88.243 E50.2864
G1 X136.539 Y87.855
G1 X137.094 Y87.308 E50.3253
G1 X136.934 Y86.921
G1 X136.379 Y87.468 E50.3641
G1 X136.218 Y87.080
G1 X136.773 Y86.533 E50.4030
G1 X136.613 Y86.146
G1 X136.058 Y86.693 E50.4419
G1 X135.897 Y86.305
G1 X136.452 Y85.758 E50.4808
G1 X136.292 Y85.371
G1 X135.737 Y85.918 E50.5196
G1 X135.577 Y85.531
G1 X136.131 Y84.984 E50.5585
G1 X135.971 Y84.596
G1 X135.416 Y85.143 E50.5974
G1 X135.256 Y84.756
G1 X135.810 Y84.209 E50.6362
G1 X135.650 Y83.821
G1 X135.095 Y84.368 E50.6751
G1 X134.935 Y83.981
G1 X135.489 Y83.434 E50.7140
G1 X135.329 Y83.047
G1 X134.774 Y83.593 E50.7528
G1 X134.614 Y83.206
G1 X135.169 Y82.659 E50.7917
G1 X134.935 Y82.344
G1 X134.413 Y82.858 E50.8282
G1 X134.175 Y82.547
G1 X134.697 Y82.033 E50.8648
G1 X134.458 Y81.722
G1 X133.937 Y82.237 E50.9013
G1 X133.698 Y81.926
G1 X134.220 Y81.412 E50.9379
G1 X133.982 Y81.101
G1 X133.460 Y81.615 E50.9744
G1 X133.222 Y81.305
G1 X133.743 Y80.790 E51.0110
G1 X133.505 Y80.480
G1 X132.983 Y80.994 E51.0475
G1 X132.745 Y80.683
G1 X133.267 Y80.169 E51.0841
G1 X133.028 Y79.859
G1 X132.507 Y80.373 E51.1206
G1 X132.268 Y80.062
G1 X132.790 Y79.548 E51.1572
G1 X132.552 Y79.237
G1 X132.030 Y79.752 E51.1937
G1 X131.792 Y79.441
G1 X132.313 Y78.927 E51.2302
G1 X132.075 Y78.616
G1 X131.553 Y79.130 E51.2668
G1 X131.315 Y78.820
G1 X131.837 Y78.305 E51.3033
G1 X131.598 Y77.995
G1 X131.077 Y78.509 E51.3399
G1 X130.838 Y78.198
G1 X131.360 Y77.684 E51.3764
G1 X131.122 Y77.373
G1 X130.600 Y77.888 E51.4129
G1 X130.362 Y77.577
G1 X130.883 Y77.063 E51.4495
G1 X130.645 Y76.752
G1 X130.123 Y77.266 E51.4860
G1 X129.885 Y76.956
G1 X130.407 Y76.442 E51.5226
G1 X130.168 Y76.131
G1 X129.647 Y76.645 E51.5591
G1 X129.408 Y76.334
G1 X129.930 Y75.820 E51.5956
G1 X129.692 Y75.510
G1 X129.170 Y76.024 E51.6322
G1 X128.869 Y75.775
G1 X129.396 Y75.256 E51.6691
G1 X129.085 Y75.017
G1 X128.558 Y75.536 E51.7060
G1 X128.247 Y75.297
G1 X128.774 Y74.778 E51.7429
G1 X128.462 Y74.539
G1 X127.936 Y75.058 E51.7798
G1 X127.624 Y74.820
G1 X128.151 Y74.300 E51.8167
G1 X127.840 Y74.062
G1 X127.313 Y74.581 E51.8536
G1 X127.002 Y74.342
G1 X127.529 Y73.823 E51.8905
G1 X127.218 Y73.584
G1 X126.691 Y74.103 E51.9274
G1 X126.380 Y73.865
G1 X126.906 Y73.345 E51.9643
G1 X126.595 Y73.106
G1 X126.068 Y73.626 E52.0012
G1 X125.757 Y73.387
G1 X126.284 Y72.868 E52.0381
G1 X125.973 Y72.629
G1 X125.446 Y73.148 E52.0750
G1 X125.135 Y72.909
G1 X125.661 Y72.390 E52.1119
G1 X125.350 Y72.151
G1 X124.823 Y72.671 E52.1488
G1 X124.512 Y72.432
G1 X125.039 Y71.912 E52.1857
G1 X124.728 Y71.674
G1 X124.201 Y72.193 E52.2226
G1 X123.890 Y71.954
G1 X124.417 Y71.435 E52.2595
G1 X124.105 Y71.196
G1 X123.579 Y71.715 E52.2964
G1 X123.267 Y71.477
G1 X123.794 Y70.957 E52.3333
G1 X123.483 Y70.718
G1 X122.956 Y71.238 E52.3702
G1 X122.645 Y70.999
G1 X123.172 Y70.480 E52.4071
G1 X122.861 Y70.241
G1 X122.334 Y70.760 E52.4441
G1 X122.004 Y70.540
G1 X122.549 Y70.002 E52.4823
G1 X122.184 Y69.816
G1 X121.614 Y70.379 E52.5223
G1 X121.224 Y70.217
G1 X121.795 Y69.655 E52.5622
G1 X121.405 Y69.494
G1 X120.834 Y70.056 E52.6022
G1 X120.445 Y69.895
G1 X121.015 Y69.332 E52.6422
G1 X120.626 Y69.171
G1 X120.055 Y69.733 E52.6822
G1 X119.665 Y69.572
G1 X120.236 Y69.009 E52.7221
G1 X119.846 Y68.848
G1 X119.276 Y69.410 E52.7621
G1 X118.886 Y69.249
G1 X119.457 Y68.686 E52.8021
G1 X119.067 Y68.525
G1 X118.496 Y69.088 E52.8421
G1 X118.106 Y68.926
G1 X118.677 Y68.364 E52.8820
G1 X118.287 Y68.202
G1 X117.717 Y68.765 E52.9220
G1 X117.327 Y68.603
G1 X117.898 Y68.041 E52.9620
G1 X117.508 Y67.879
G1 X116.937 Y68.442 E53.0020
G1 X116.548 Y68.281
G1 X117.118 Y67.718 E53.0419
G1 X116.729 Y67.557
G1 X116.158 Y68.119 E53.0819
G1 X115.768 Y67.958
G1 X116.339 Y67.395 E53.1219
G1 X115.949 Y67.234
G1 X115.378 Y67.796 E53.1619
G1 X114.989 Y67.635
G1 X115.559 Y67.072 E53.2019
G1 X115.170 Y66.911
G1 X114.599 Y67.474 E53.2418
G1 X114.209 Y67.312
G1 X114.780 Y66.750 E53.2818
G1 X114.390 Y66.588
G1 X113.799 Y67.171 E53.3232
G1 X113.311 Y67.106
G1 X113.980 Y66.447 E53.3701
G1 X113.492 Y66.383
G1 X112.823 Y67.042 E53.4170
G1 X112.335 Y66.978
G1 X113.004 Y66.318 E53.4639
G1 X112.516 Y66.254
G1 X111.847 Y66.914 E53.5107
G1 X111.358 Y66.849
G1 X112.027 Y66.190 E53.5576
G1 X111.539 Y66.125
G1 X110.870 Y66.785 E53.6044
G1 X110.382 Y66.721
G1 X111.051 Y66.061 E53.6513
G1 X110.563 Y65.997
G1 X109.894 Y66.656 E53.6981
G1 X109.406 Y66.592
G1 X110.074 Y65.933 E53.7450
G1 X109.586 Y65.868
G1 X108.917 Y66.528 E53.7918
G1 X108.429 Y66.463
G1 X109.098 Y65.804 E53.8387
G1 X108.610 Y65.740
G1 X107.941 Y66.399 E53.8855
G1 X107.453 Y66.335
G1 X108.121 Y65.676 E53.9324
G1 X107.633 Y65.611
G1 X106.965 Y66.270 E53.9792
G1 X106.477 Y66.206
G1 X107.145 Y65.547 E54.0260
G1 X106.657 Y65.483
G1 X105.988 Y66.142 E54.0728
G1 X105.500 Y66.078
G1 X106.168 Y65.419 E54.1197
G1 X105.680 Y65.354
G1 X104.985 Y66.040 E54.1684
G1 X104.346 Y66.124
G1 X105.192 Y65.290 E54.2277
G1 X104.582 Y65.346
G1 X103.707 Y66.208 E54.2889
G1 X103.068 Y66.292
G1 X103.943 Y65.430 E54.3502
G1 X103.304 Y65.514
G1 X102.430 Y66.377 E54.4114
G1 X101.791 Y66.461
G1 X102.666 Y65.599 E54.4727
G1 X102.027 Y65.683
G1 X101.152 Y66.545 E54.5340
G1 X100.513 Y66.629
G1 X101.388 Y65.767 E54.5953
G1 X100.749 Y65.851
G1 X99.875 Y66.713 E54.6566
G1 X99.236 Y66.797
G1 X100.111 Y65.935 E54.7179
G1 X99.472 Y66.019
G1 X98.597 Y66.881 E54.7792
G1 X97.958 Y66.966
G1 X98.833 Y66.103 E54.8405
G1 X98.195 Y66.187
G1 X97.320 Y67.050 E54.9018
G1 X96.681 Y67.134
G1 X97.556 Y66.271 E54.9631
G1 X96.917 Y66.355
G1 X95.914 Y67.344 E55.0334
G1 X94.960 Y67.739 F10800
G1 X96.279 Y66.439 E55.1258 F3600
G1 X94.449 Y67.152 F10800
G1 X93.051 Y68.530 E55.2237 F3600
G1 X91.142 Y69.320 F10800
G1 X92.540 Y67.942 E55.3216 F3600
G1 X105.100 Y66.429 F10800
G1 X113.792 Y67.574
G1 X121.891 Y70.928
G1 X128.845 Y76.263
G1 X134.180 Y83.217
G1 X137.532 Y91.312
G1 X137.745 Y93.424
G1 X137.375 Y96.389
;segType:Infill
G1 X139.502 Y96.389 E55.4278 F5400
G1 X107.997 Y66.810 F10800
G1 X105.100 Y66.429
G1 X96.408 Y67.574
G1 X94.005 Y68.135
;segType:HShell
G1 X95.403 Y66.757 E55.5257 F3600
G1 X88.310 Y70.928 F10800
G1 X81.356 Y76.263
G1 X76.020 Y83.217
G1 X72.667 Y91.312
G1 X71.268 Y96.389
;segType:Infill
G1 X73.534 Y96.389 E55.6388 F5400
G1 X72.455 Y93.424 F10800
G1 X72.667 Y91.312
G1 X76.020 Y83.217
G1 X81.076 Y75.971
;segType:HShell
G1 X85.304 Y71.803 E55.9350 F3600
G1 X87.768 Y69.919 F10800
G1 X83.571 Y74.057 E56.2290 F3600
G1 X81.356 Y76.263 F10800
G1 X76.020 Y83.217
G1 X72.667 Y91.312
G1 X72.455 Y93.424
G1 X72.481 Y106.776
G1 X72.667 Y108.688
G1 X76.020 Y116.783
G1 X81.356 Y123.736
G1 X88.310 Y129.072
G1 X96.408 Y132.426
G1 X105.100 Y133.571
G1 X115.334 Y132.222
G1 X113.984 Y133.552 E56.3236 F3600
G1 X113.346 Y133.637
G1 X114.380 Y132.617 E56.3960
G1 X115.845 Y132.809 F10800
G1 X117.243 Y131.432 E56.4939 F3600
G1 X77.799 Y119.101 F10800
G1 X73.443 Y113.505
G1 X73.998 Y112.958 E56.5328 F3600
G1 X74.158 Y113.345
G1 X73.603 Y113.892 E56.5716
G1 X73.764 Y114.280
G1 X74.318 Y113.733 E56.6105
G1 X74.479 Y114.120
G1 X73.924 Y114.667 E56.6494
G1 X74.084 Y115.055
G1 X74.639 Y114.508 E56.6883
G1 X74.800 Y114.895
G1 X74.245 Y115.442 E56.7271
G1 X74.405 Y115.829
G1 X74.960 Y115.282 E56.7660
G1 X75.121 Y115.670
G1 X74.566 Y116.217 E56.8048
G1 X74.726 Y116.604
G1 X75.281 Y116.057 E56.8437
G1 X75.441 Y116.445
G1 X74.887 Y116.992 E56.8826
G1 X75.050 Y117.376
G1 X75.602 Y116.832 E56.9212
G1 X75.810 Y117.173
G1 X75.288 Y117.687 E56.9578
G1 X75.527 Y117.998
G1 X76.048 Y117.483 E56.9943
G1 X76.287 Y117.794
G1 X75.765 Y118.308 E57.0309
G1 X76.003 Y118.619
G1 X76.525 Y118.104 E57.0674
G1 X76.764 Y118.415
G1 X76.242 Y118.929 E57.1040
G1 X76.480 Y119.240
G1 X77.002 Y118.726 E57.1405
G1 X77.240 Y119.036
G1 X76.718 Y119.551 E57.1771
G1 X76.957 Y119.861
G1 X77.479 Y119.347 E57.2136
G1 X77.717 Y119.657
G1 X77.195 Y120.172 E57.2502
G1 X77.433 Y120.483
G1 X77.955 Y119.968 E57.2868
G1 X78.194 Y120.279
G1 X77.672 Y120.793 E57.3234
G1 X77.910 Y121.104
G1 X78.432 Y120.589 E57.3599
G1 X78.671 Y120.900
G1 X78.148 Y121.415 E57.3965
G1 X78.387 Y121.725
G1 X78.909 Y121.210 E57.4331
G1 X79.147 Y121.521
G1 X78.625 Y122.036 E57.4697
G1 X78.863 Y122.346
G1 X79.386 Y121.832 E57.5063
G1 X79.624 Y122.142
G1 X79.102 Y122.657 E57.5428
G1 X79.340 Y122.968
G1 X79.862 Y122.453 E57.5794
G1 X80.101 Y122.763
G1 X79.578 Y123.278 E57.6160
G1 X79.817 Y123.589
G1 X80.339 Y123.074 E57.6526
G1 X80.578 Y123.385
G1 X80.055 Y123.900 E57.6892
G1 X80.293 Y124.210
G1 X80.816 Y123.695 E57.7258
G1 X81.054 Y124.006
G1 X80.532 Y124.521 E57.7624
G1 X80.835 Y124.768
G1 X81.362 Y124.248 E57.7994
G1 X81.673 Y124.487
G1 X81.146 Y125.007 E57.8364
G1 X81.457 Y125.246
G1 X81.985 Y124.725 E57.8733
G1 X82.296 Y124.964
G1 X81.768 Y125.484 E57.9103
G1 X82.080 Y125.723
G1 X82.607 Y125.203 E57.9472
G1 X82.918 Y125.442
G1 X82.391 Y125.962 E57.9842
G1 X82.702 Y126.201
G1 X83.229 Y125.681 E58.0212
G1 X83.541 Y125.919
G1 X83.013 Y126.439 E58.0581
G1 X83.324 Y126.678
G1 X83.852 Y126.158 E58.0951
G1 X84.163 Y126.397
G1 X83.636 Y126.917 E58.1320
G1 X83.947 Y127.156
G1 X84.474 Y126.636 E58.1690
G1 X84.785 Y126.875
G1 X84.258 Y127.395 E58.2059
G1 X84.569 Y127.633
G1 X85.097 Y127.113 E58.2429
G1 X85.408 Y127.352
G1 X84.880 Y127.872 E58.2798
G1 X85.192 Y128.111
G1 X85.719 Y127.591 E58.3168
G1 X86.030 Y127.830
G1 X85.503 Y128.350 E58.3537
G1 X85.814 Y128.589
G1 X86.341 Y128.069 E58.3907
G1 X86.653 Y128.307
G1 X86.125 Y128.827 E58.4276
G1 X86.436 Y129.066
G1 X86.964 Y128.546 E58.4646
G1 X87.275 Y128.785
G1 X86.748 Y129.305 E58.5015
G1 X87.059 Y129.544
G1 X87.586 Y129.024 E58.5384
G1 X87.897 Y129.263
G1 X87.370 Y129.783 E58.5754
G1 X87.681 Y130.021
G1 X88.235 Y129.475 E58.6142
G1 X88.625 Y129.637
G1 X88.054 Y130.199 E58.6542
G1 X88.444 Y130.361
G1 X89.014 Y129.798 E58.6941
G1 X89.404 Y129.960
G1 X88.833 Y130.522 E58.7341
G1 X89.223 Y130.684
G1 X89.794 Y130.121 E58.7741
G1 X90.184 Y130.282
G1 X89.613 Y130.845 E58.8141
G1 X90.003 Y131.007
G1 X90.573 Y130.444 E58.8541
G1 X90.963 Y130.605
G1 X90.392 Y131.168 E58.8941
G1 X90.782 Y131.329
G1 X91.353 Y130.767 E58.9341
G1 X91.742 Y130.928
G1 X91.172 Y131.491 E58.9740
G1 X91.561 Y131.652
G1 X92.132 Y131.090 E59.0140
G1 X92.522 Y131.251
G1 X91.951 Y131.814 E59.0540
G1 X92.341 Y131.975
G1 X92.911 Y131.412 E59.0940
G1 X93.301 Y131.574
G1 X92.731 Y132.136 E59.1339
G1 X93.120 Y132.298
G1 X93.691 Y131.735 E59.1739
G1 X94.081 Y131.897
G1 X93.510 Y132.459 E59.2139
G1 X93.900 Y132.621
G1 X94.470 Y132.058 E59.2539
G1 X94.860 Y132.219
G1 X94.289 Y132.782 E59.2939
G1 X94.679 Y132.943
G1 X95.250 Y132.381 E59.3338
G1 X95.639 Y132.542
G1 X95.069 Y133.105 E59.3738
G1 X95.458 Y133.266
G1 X96.029 Y132.704 E59.4138
G1 X96.449 Y132.836
G1 X95.848 Y133.428 E59.4558
G1 X96.268 Y133.559
G1 X96.937 Y132.900 E59.5027
G1 X97.425 Y132.964
G1 X96.756 Y133.624 E59.5496
G1 X97.244 Y133.688
G1 X97.913 Y133.029 E59.5964
G1 X98.401 Y133.093
G1 X97.733 Y133.752 E59.6433
G1 X98.221 Y133.816
G1 X98.890 Y133.157 E59.6901
G1 X99.378 Y133.221
G1 X98.709 Y133.881 E59.7370
G1 X99.197 Y133.945
G1 X99.866 Y133.286 E59.7838
G1 X100.354 Y133.350
G1 X99.686 Y134.009 E59.8307
G1 X100.174 Y134.073
G1 X100.842 Y133.414 E59.8775
G1 X101.331 Y133.479
G1 X100.662 Y134.138 E59.9244
G1 X101.150 Y134.202
G1 X101.819 Y133.543 E59.9712
G1 X102.307 Y133.607
G1 X101.639 Y134.266 E60.0180
G1 X102.127 Y134.331
G1 X102.795 Y133.672 E60.0648
G1 X103.283 Y133.736
G1 X102.615 Y134.395 E60.1117
G1 X103.103 Y134.459
G1 X103.772 Y133.800 E60.1585
G1 X104.260 Y133.864
G1 X103.591 Y134.523 E60.2053
G1 X104.080 Y134.588
G1 X104.748 Y133.929 E60.2521
G1 X105.278 Y133.952
G1 X104.568 Y134.652 E60.3019
G1 X105.056 Y134.716
G1 X105.917 Y133.868 E60.3622
G1 X106.556 Y133.783
G1 X105.681 Y134.645 E60.4234
G1 X106.320 Y134.561
G1 X107.194 Y133.699 E60.4847
G1 X107.833 Y133.615
G1 X106.959 Y134.477 E60.5460
G1 X107.597 Y134.393
G1 X108.472 Y133.531 E60.6072
G1 X109.111 Y133.447
G1 X108.236 Y134.309 E60.6685
G1 X108.875 Y134.225
G1 X109.750 Y133.363 E60.7298
G1 X110.388 Y133.279
G1 X109.514 Y134.141 E60.7911
G1 X110.152 Y134.057
G1 X111.027 Y133.194 E60.8523
G1 X111.666 Y133.110
G1 X110.791 Y133.973 E60.9136
G1 X111.430 Y133.889
G1 X112.305 Y133.026 E60.9749
G1 X112.943 Y132.942
G1 X112.068 Y133.805 E61.0362
G1 X112.707 Y133.721
G1 X113.582 Y132.858 E61.0975
G1 X114.891 Y133.204 F10800
G1 X116.288 Y131.827 E61.1954 F3600
G1 X73.785 Y111.386 F10800
G1 X72.667 Y108.688
G1 X71.387 Y104.511
;segType:Infill
G1 X73.534 Y104.511 E61.3026 F5400
G1 X72.481 Y106.776 F10800
G1 X72.667 Y108.688
G1 X76.020 Y116.783
G1 X81.356 Y123.736
G1 X88.310 Y129.072
G1 X96.408 Y132.426
G1 X105.100 Y133.571
G1 X113.792 Y132.426
G1 X121.060 Y129.851
;segType:HShell
G1 X119.663 Y131.228 E61.4004 F3600
G1 X73.785 Y111.386 F10800
G1 X72.667 Y108.688
G1 X72.481 Y106.776
G1 X72.280 Y91.190
G1 X71.439 Y92.019 E61.4593 F3600
G1 X71.357 Y92.646
G1 X72.191 Y91.823 E61.5177
G1 X72.108 Y92.450
G1 X71.274 Y93.273 E61.5762
G1 X71.192 Y93.900
G1 X72.026 Y93.077 E61.6346
G1 X71.943 Y93.704
G1 X71.756 Y93.889 E61.6477
G1 X71.522 Y91.392 F10800
G1 X72.662 Y90.268 E61.7275 F3600
G1 X73.043 Y89.346 F10800
G1 X71.722 Y90.649 E61.8201 F3600
G1 X71.387 Y94.253 F10800
G1 X71.109 Y94.527 E61.8395 F3600
G1 X71.027 Y95.154
G1 X71.387 Y94.799 E61.8648
G1 X71.387 Y95.344
G1 X70.944 Y95.781 E61.8957
G1 X70.862 Y96.408
G1 X71.326 Y95.950 E61.9283
G1 X71.243 Y96.577
G1 X70.779 Y97.034 E61.9608
G1 X70.697 Y97.661
G1 X71.161 Y97.204 E61.9933
G1 X71.078 Y97.831
G1 X70.614 Y98.288 E62.0258
G1 X70.532 Y98.915
G1 X70.995 Y98.458 E62.0582
G1 X70.913 Y99.085
G1 X70.449 Y99.542 E62.0907
G1 X70.406 Y100.130
G1 X70.830 Y99.713 E62.1204
G1 X70.827 Y100.262
G1 X70.470 Y100.613 E62.1454
G1 X70.533 Y101.096
G1 X70.890 Y100.744 E62.1704
G1 X70.954 Y101.227
G1 X70.597 Y101.579 E62.1954
G1 X70.660 Y102.062
G1 X71.017 Y101.710 E62.2204
G1 X71.081 Y102.193
G1 X70.724 Y102.545 E62.2455
G1 X70.787 Y103.028
G1 X71.145 Y102.676 E62.2705
G1 X71.208 Y103.159
G1 X70.851 Y103.511 E62.2955
G1 X70.915 Y103.994
G1 X71.272 Y103.642 E62.3206
G1 X71.336 Y104.124
G1 X70.978 Y104.477 E62.3456
G1 X71.042 Y104.960
G1 X71.387 Y104.620 E62.3698
G1 X71.387 Y105.165
G1 X71.105 Y105.443 E62.3895
G1 X71.169 Y105.926
G1 X71.387 Y105.711 E62.4048
G1 X71.387 Y106.257
G1 X71.232 Y106.409 E62.4155
G1 X71.296 Y106.892
G1 X71.885 Y106.311 E62.4568
G1 X72.002 Y106.741
G1 X71.360 Y107.375 E62.5018
G1 X71.423 Y107.857
G1 X72.066 Y107.224 E62.5468
G1 X76.020 Y116.783 F10800
G1 X81.356 Y123.736
G1 X88.310 Y129.072
G1 X96.408 Y132.426
G1 X105.100 Y133.571
G1 X113.792 Y132.426
G1 X128.845 Y123.736
G1 X135.384 Y116.820
G1 X132.413 Y119.749 E62.7550 F3600
G1 X137.294 Y112.208 F10800
