; GCode generated by CraftWare

; filename = composition.3w 
; machine = daVinciF10 
; material = abs 
; extruder = 1 
M140 S90 ; Bed (no wait) 
M106 S255 ; Start fan 
G90 ; set absolute coordinates 
G28 ; home all axis 
M190 S90 ; Bed (wait) 
M104 S210 ; Extruder (no wait) 
M109 S210 ; Extruder (wait) 
M117 Start 
M117 Cleaning 
M100 ; Cleaning 
M117 Printing 
M190 S75 ;set bed temp (wait)
M109 S220 ;set head temp (wait)
; ------------------------------------
; Layer #0
; ------------------------------------
G21 ; mm
G90 ; abs
G92 E0 ; reset extr
M106 S0
;segType:Support
G1 F4800 E-1.0000
G1 F300 Z0.300
G1 X97.800 Y105.400 F10800
G1 F4800 E0.0000
G1 X106.006 Y105.400 E0.3480 F900
G1 F4800 E-0.6520
G1 X97.800 Y109.000 F10800
G1 F4800 E0.3480
G1 X106.800 Y109.000 E0.7297 F900
G1 F4800 E-0.2703
G1 X97.800 Y107.200 F10800
G1 F4800 E0.7297
G1 X106.800 Y107.200 E1.1113 F900
G1 F4800 E0.1113
G1 X97.800 Y110.800 F10800
G1 F4800 E1.1113
G1 X106.800 Y110.800 E1.4930 F900
G1 F4800 E0.4930
G1 X97.800 Y114.400 F10800
G1 F4800 E1.4930
G1 X110.400 Y114.400 E2.0273 F900
G1 F4800 E1.0273
G1 X97.800 Y112.600 F10800
G1 F4800 E2.0273
G1 X110.400 Y112.600 E2.5616 F900
G1 F4800 E1.5616
G1 X101.400 Y98.200 F10800
G1 F4800 E2.5616
G1 X105.585 Y98.200 E2.7391 F900
G1 F4800 E1.7391
G1 X101.400 Y94.600 F10800
G1 F4800 E2.7391
G1 X106.577 Y94.600 E2.9586 F900
G1 F4800 E1.9586
G1 X101.400 Y101.800 F10800
G1 F4800 E2.9586
G1 X105.376 Y101.800 E3.1272 F900
G1 F4800 E2.1272
G1 X101.400 Y96.400 F10800
G1 F4800 E3.1272
G1 X105.869 Y96.400 E3.3167 F900
G1 F4800 E2.3167
G1 X101.400 Y118.000 F10800
G1 F4800 E3.3167
G1 X139.200 Y118.000 E4.9197 F900
G1 F4800 E3.9197
G1 X122.336 Y116.753 F10800
G1 X117.265 Y115.851
G1 X112.676 Y113.510
G1 X109.019 Y109.962
G1 X101.400 Y100.000
G1 F4800 E4.9197
G1 X105.300 Y100.000 E5.0851 F900
G1 F4800 E4.0851
G1 X101.400 Y103.600 F10800
G1 F4800 E5.0851
G1 X105.691 Y103.600 E5.2671 F900
G1 F4800 E4.2671
G1 X101.400 Y116.200 F10800
G1 F4800 E5.2671
G1 X116.603 Y116.200 E5.9118 F900
G1 F4800 E4.9118
G1 X112.676 Y113.510 F10800
G1 X109.019 Y109.962
G1 X106.656 Y105.560
G1 X105.810 Y100.694
G1 X105.000 Y91.000
G1 F4800 E5.9118
G1 X106.800 Y91.000 E5.9881 F900
G1 X105.000 Y89.200 E6.0960
G1 X110.400 Y89.200 E6.3250
G1 F4800 E5.3250
G1 X105.000 Y92.800 F10800
G1 F4800 E6.3250
G1 X106.800 Y92.800 E6.4014 F900
G1 F4800 E5.4014
G1 X105.000 Y85.600 F10800
G1 F4800 E6.4014
G1 X116.906 Y85.600 E6.9063 F900
G1 F4800 E5.9063
G1 X105.000 Y87.400 F10800
G1 F4800 E6.9063
G1 X110.400 Y87.400 E7.1353 F900
G1 F4800 E6.1353
G1 X105.000 Y83.800 F10800
G1 F4800 E7.1353
G1 X135.600 Y83.800 E8.4329 F900
G1 F4800 E7.4329
G1 X108.600 Y82.000 F10800
G1 F4800 E8.4329
G1 X124.800 Y82.000 E9.1199 F900
G1 F4800 E8.1199
G1 X108.600 Y80.200 F10800
G1 F4800 E9.1199
G1 X124.800 Y80.200 E9.8069 F900
G1 F4800 E8.8069
G1 X108.600 Y78.400 F10800
G1 F4800 E9.8069
G1 X114.000 Y78.400 E10.0359 F900
G1 F4800 E9.0359
G1 X108.600 Y76.600 F10800
G1 F4800 E10.0359
G1 X114.000 Y76.600 E10.2649 F900
G1 F4800 E9.2649
G1 X106.565 Y95.920 F10800
G1 X107.838 Y107.761
G1 X112.200 Y121.600
G1 F4800 E10.2649
G1 X135.600 Y121.600 E11.2572 F900
G1 F4800 E10.2572
G1 X112.200 Y119.800 F10800
G1 F4800 E11.2572
G1 X135.600 Y119.800 E12.2495 F900
G1 F4800 E11.2495
G1 X123.000 Y125.200 F10800
G1 F4800 E12.2495
G1 X135.600 Y125.200 E12.7838 F900
G1 F4800 E11.7838
G1 X123.000 Y123.400 F10800
G1 F4800 E12.7838
G1 X135.600 Y123.400 E13.3182 F900
G1 F4800 E12.3182
G1 X138.583 Y101.623 F10800
G1 X137.738 Y96.785
G1 X135.370 Y92.375
G1 X131.714 Y88.827
G1 X125.628 Y85.600
G1 F4800 E13.3182
G1 X135.600 Y85.600 E13.7411 F900
G1 F4800 E12.7411
G1 X138.583 Y101.623 F10800
G1 X137.815 Y106.435
G1 X135.516 Y110.716
G1 X131.928 Y114.051
G1 X128.712 Y116.200
G1 F4800 E13.7411
G1 X139.200 Y116.200 E14.1858 F900
G1 F4800 E13.1858
G1 X138.583 Y101.623 F10800
G1 X137.738 Y96.785
G1 X135.370 Y92.375
G1 X130.263 Y87.400
G1 F4800 E14.1858
G1 X146.400 Y87.400 E14.8702 F900
G1 F4800 E13.8702
G1 X132.977 Y89.200 F10800
G1 F4800 E14.8702
G1 X146.400 Y89.200 E15.4394 F900
G1 F4800 E14.4394
G1 X133.800 Y114.400 F10800
G1 F4800 E15.4394
G1 X139.200 Y114.400 E15.6684 F900
G1 F4800 E14.6684
G1 X134.388 Y112.600 F10800
G1 F4800 E15.6684
G1 X139.200 Y112.600 E15.8724 F900
G1 F4800 E14.8724
G1 X137.400 Y109.000 F10800
G1 F4800 E15.8724
G1 X139.200 Y109.000 E15.9488 F900
G1 F4800 E14.9488
G1 X138.686 Y103.857 F10800
G1 X138.429 Y101.286
G1 X137.400 Y91.000
G1 F4800 E15.9488
G1 X146.400 Y91.000 E16.3304 F900
G1 F4800 E15.3304
G1 X137.400 Y110.800 F10800
G1 F4800 E16.3304
G1 X139.200 Y110.800 E16.4068 F900
G1 F4800 E15.4068
G1 X138.583 Y101.623 F10800
G1 X137.400 Y92.800
G1 F4800 E16.4068
G1 X146.400 Y92.800 E16.7884 F900
G1 F4800 E15.7884
G1 X137.400 Y94.600 F10800
G1 F4800 E16.7884
G1 X146.400 Y94.600 E17.1701 F900
G1 F4800 E16.1701
G1 X138.099 Y107.200 F10800
G1 F4800 E17.1701
G1 X142.800 Y107.200 E17.3694 F900
G1 F4800 E16.3694
G1 X138.226 Y96.400 F10800
G1 F4800 E17.3694
G1 X146.400 Y96.400 E17.7161 F900
G1 F4800 E16.7161
G1 X138.603 Y105.400 F10800
G1 F4800 E17.7161
G1 X142.800 Y105.400 E17.8940 F900
G1 F4800 E16.8940
G1 X138.604 Y98.200 F10800
G1 F4800 E17.8940
G1 X142.800 Y98.200 E18.0720 F900
G1 F4800 E17.0720
G1 X138.915 Y100.000 F10800
G1 F4800 E18.0720
G1 X142.800 Y100.000 E18.2367 F900
G1 X141.000 Y101.800 E18.3446
G1 X142.800 Y101.800 E18.4210
G1 X141.000 Y103.600 E18.5289
G1 X142.800 Y103.600 E18.6053
G1 F4800 E17.6053
G1 X138.537 Y106.869 F10800
G1 X136.406 Y108.503
G1 X134.274 Y110.138
G1 X127.880 Y115.041
G1 F4800 E18.6053
;segType:HShell
G1 X137.119 Y105.802 E19.2571 F600
;segType:Perimeter
G1 X137.254 Y105.839 F10800
G1 X137.608 Y106.424 E19.2913 F359
G1 X135.365 Y110.599 E19.5277
G1 X131.822 Y113.893 E19.7690
G1 X127.342 Y115.948 E20.0150
G1 X122.342 Y116.563 E20.2663
G1 X117.325 Y115.671 E20.5205
G1 X112.786 Y113.355 E20.7747
G1 X109.171 Y109.847 E21.0261
G1 X106.835 Y105.498 E21.2723
G1 X106.000 Y100.692 E21.5157
G1 X106.745 Y95.981 E21.7537
G1 X109.005 Y91.756 E21.9927
G1 X112.565 Y88.445 E22.2353
G1 X117.048 Y86.389 E22.4813
G1 X122.048 Y85.773 E22.7327
G1 X127.065 Y86.666 E22.9869
G1 X131.603 Y88.982 E23.2411
G1 X135.219 Y92.490 E23.4924
G1 X137.558 Y96.847 E23.7391
G1 X138.393 Y101.624 E23.9811
G1 X137.644 Y106.318 E24.2182
G1 X137.008 Y106.569
;segType:Loop
G1 X136.788 Y107.106 F10800
G1 X135.044 Y110.352 E24.4020 F600
G1 X131.597 Y113.556 E24.6368
G1 X127.231 Y115.559 E24.8765
G1 X122.352 Y116.159 E25.1217
G1 X117.454 Y115.287 E25.3699
G1 X113.022 Y113.026 E25.6182
G1 X109.494 Y109.603 E25.8634
G1 X107.218 Y105.366 E26.1034
G1 X106.406 Y100.689 E26.3402
G1 X107.130 Y96.110 E26.5715
G1 X109.326 Y92.004 E26.8038
G1 X112.790 Y88.782 E27.0398
G1 X117.159 Y86.778 E27.2796
G1 X122.037 Y86.178 E27.5248
G1 X126.936 Y87.050 E27.7731
G1 X131.368 Y89.311 E28.0213
G1 X134.896 Y92.734 E28.2665
G1 X137.175 Y96.979 E28.5069
G1 X137.987 Y101.627 E28.7423
G1 X137.250 Y106.244 E28.9756
G1 X136.878 Y106.938 E29.0149
;segType:HShell
G1 X136.803 Y106.656 F10800
G1 X128.873 Y114.586 E29.5744 F600
G1 X134.931 Y110.140 F10800
G1 X134.305 Y110.766 E29.6186 F600
G1 X135.555 Y108.978 F10800
G1 X130.859 Y113.675 E29.9500 F600
G1 X129.866 Y114.130 F10800
G1 X136.179 Y107.817 E30.3954 F600
G1 X108.965 Y93.104 F10800
G1 X113.300 Y88.768 E30.7013 F600
G1 X108.347 Y94.259 F10800
G1 X114.293 Y88.312 E31.1209 F600
G1 X116.279 Y87.401 F10800
G1 X107.288 Y96.393 E31.7553 F600
G1 X107.728 Y95.415 F10800
G1 X115.286 Y87.857 E32.2886 F600
G1 X117.250 Y86.968 F10800
G1 X107.187 Y97.032 E32.9986 F600
G1 X107.086 Y97.670
G1 X117.863 Y86.893 E33.7590
G1 X118.476 Y86.817
G1 X106.985 Y98.309 E34.5698
G1 X106.884 Y98.947
G1 X119.089 Y86.742 E35.4309
G1 X119.702 Y86.667
G1 X106.783 Y99.586 E36.3424
G1 X106.682 Y100.225
G1 X120.315 Y86.591 E37.3043
G1 X120.927 Y86.516
G1 X106.630 Y100.814 E38.3130
G1 X106.710 Y101.272
G1 X121.540 Y86.440 E39.3594
G1 X122.122 Y86.396
G1 X106.790 Y101.729 E40.4413
G1 X106.869 Y102.187
G1 X122.579 Y86.477 E41.5497
G1 X123.035 Y86.558
G1 X106.949 Y102.645 E42.6847
G1 X107.028 Y103.103
G1 X123.491 Y86.640 E43.8463
G1 X123.948 Y86.721
G1 X107.108 Y103.561 E45.0344
G1 X107.187 Y104.019
G1 X124.404 Y86.802 E46.2491
G1 X124.860 Y86.883
G1 X107.267 Y104.477 E47.4905
G1 X107.347 Y104.935
G1 X125.317 Y86.964 E48.7584
G1 X125.773 Y87.046
G1 X107.448 Y105.371 E50.0513
G1 X107.636 Y105.721
G1 X126.229 Y87.127 E51.3632
G1 X126.685 Y87.208
G1 X107.824 Y106.070 E52.6940
G1 X108.012 Y106.420
G1 X127.082 Y87.349 E54.0395
G1 X127.438 Y87.530
G1 X108.200 Y106.770 E55.3970
G1 X108.387 Y107.120
G1 X127.794 Y87.712 E56.7662
G1 X128.150 Y87.894
G1 X108.575 Y107.469 E58.1474
G1 X108.763 Y107.819
G1 X128.506 Y88.075 E59.5404
G1 X128.862 Y88.257
G1 X108.951 Y108.169 E60.9453
G1 X109.139 Y108.519
G1 X129.218 Y88.438 E62.3620
G1 X129.574 Y88.620
G1 X109.326 Y108.868 E63.7906
G1 X109.514 Y109.218
G1 X129.930 Y88.802 E65.2311
G1 X130.286 Y88.983
G1 X109.723 Y109.547 E66.6819
G1 X109.996 Y109.811
G1 X130.642 Y89.165 E68.1386
G1 X130.998 Y89.346
G1 X110.269 Y110.076 E69.6012
G1 X110.542 Y110.341
G1 X131.329 Y89.552 E71.0679
G1 X131.602 Y89.817
G1 X110.814 Y110.606 E72.5347
G1 X111.087 Y110.870
G1 X131.875 Y90.081 E74.0014
G1 X132.148 Y90.346
G1 X111.360 Y111.135 E75.4681
G1 X111.633 Y111.400
G1 X132.421 Y90.611 E76.9349
G1 X132.694 Y90.876
G1 X111.906 Y111.664 E78.4016
G1 X112.178 Y111.929
G1 X132.966 Y91.140 E79.8683
G1 X133.239 Y91.405
G1 X112.451 Y112.194 E81.3351
G1 X112.724 Y112.459
G1 X133.512 Y91.670 E82.8018
G1 X133.785 Y91.934
G1 X112.997 Y112.723 E84.2686
G1 X113.309 Y112.948
G1 X134.058 Y92.199 E85.7325
G1 X134.330 Y92.464
G1 X113.665 Y113.130 E87.1906
G1 X114.021 Y113.312
G1 X134.603 Y92.729 E88.6428
G1 X134.832 Y93.038
G1 X114.377 Y113.493 E90.0860
G1 X114.733 Y113.675
G1 X135.020 Y93.387 E91.5173
G1 X135.207 Y93.737
G1 X115.089 Y113.856 E92.9368
G1 X115.445 Y114.038
G1 X135.395 Y94.087 E94.3445
G1 X135.583 Y94.437
G1 X115.801 Y114.219 E95.7402
G1 X116.157 Y114.401
G1 X135.771 Y94.786 E97.1241
G1 X135.958 Y95.136
G1 X116.513 Y114.583 E98.4961
G1 X116.869 Y114.764
G1 X136.146 Y95.486 E99.8563
G1 X136.334 Y95.836
G1 X117.225 Y114.946 E101.2046
G1 X117.598 Y115.110
G1 X136.522 Y96.185 E102.5398
G1 X136.710 Y96.535
G1 X118.055 Y115.191 E103.8560
G1 X118.511 Y115.272
G1 X136.897 Y96.885 E105.1533
G1 X137.027 Y97.293
G1 X118.967 Y115.353 E106.4275
G1 X119.424 Y115.435
G1 X137.107 Y97.751 E107.6752
G1 X137.187 Y98.208
G1 X119.880 Y115.516 E108.8963
G1 X120.336 Y115.597
G1 X137.267 Y98.666 E110.0908
G1 X137.347 Y99.123
G1 X120.793 Y115.678 E111.2588
G1 X121.249 Y115.759
G1 X137.427 Y99.581 E112.4003
G1 X137.507 Y100.039
G1 X121.705 Y115.841 E113.5152
G1 X122.162 Y115.922
G1 X137.586 Y100.496 E114.6035
G1 X137.666 Y100.954
G1 X122.707 Y115.914 E115.6590
G1 X123.320 Y115.838
G1 X137.746 Y101.411 E116.6769
G1 X137.731 Y101.964
G1 X123.933 Y115.763 E117.6504
G1 X124.546 Y115.688
G1 X137.629 Y102.604 E118.5735
G1 X137.527 Y103.244
G1 X125.159 Y115.612 E119.4462
G1 X125.772 Y115.537
G1 X137.425 Y103.883 E120.2684
G1 X137.323 Y104.523
G1 X126.384 Y115.462 E121.0402
G1 X126.997 Y115.386
G1 X137.221 Y105.162 E121.7615
; ------------------------------------
; Layer #1
; ------------------------------------
G21 ; mm
G90 ; abs
G92 E0 ; reset extr
M106 S255
;segType:Support
G1 F4800 E-1.0000
G1 F300 Z0.600
G1 X138.100 Y107.200 F10800
G1 F4800 E0.0000
G1 X142.800 Y107.200 E0.1993 F5400
G1 F4800 E-0.8007
G1 X133.800 Y114.400 F10800
G1 F4800 E0.1993
G1 X139.200 Y114.400 E0.4283 F5400
G1 F4800 E-0.5717
G1 X141.000 Y103.600 F10800
G1 F4800 E0.4283
G1 X142.800 Y103.600 E0.5046 F5400
G1 F4800 E-0.4954
G1 X138.915 Y100.000 F10800
G1 F4800 E0.5046
G1 X142.800 Y100.000 E0.6694 F5400
G1 X142.800 Y101.800 E0.7457
G1 X141.000 Y101.800 E0.8220
G1 F4800 E-0.1780
G1 X142.800 Y98.200 F10800
G1 F4800 E0.8220
G1 X138.604 Y98.200 E1.0000 F5400
G1 F4800 E0.0000
G1 X138.583 Y101.623 F10800
G1 X137.792 Y106.482
G1 X135.536 Y110.696
G1 X131.926 Y114.052
G1 X127.435 Y116.112
G1 X122.336 Y116.753
G1 X117.265 Y115.851
G1 X112.676 Y113.510
G1 X109.019 Y109.962
G1 X106.800 Y107.200
G1 F4800 E1.0000
G1 X97.800 Y107.200 E1.3816 F5400
G1 F4800 E0.3816
G1 X97.800 Y110.800 F10800
G1 F4800 E1.3816
G1 X106.800 Y110.800 E1.7633 F5400
G1 F4800 E0.7633
G1 X101.400 Y103.600 F10800
G1 F4800 E1.7633
G1 X105.692 Y103.600 E1.9453 F5400
G1 F4800 E0.9453
G1 X101.400 Y101.800 F10800
G1 F4800 E1.9453
G1 X105.376 Y101.800 E2.1139 F5400
G1 F4800 E1.1139
G1 X97.800 Y105.400 F10800
G1 F4800 E2.1139
G1 X106.009 Y105.400 E2.4620 F5400
G1 F4800 E1.4620
G1 X106.800 Y109.000 F10800
G1 F4800 E2.4620
G1 X97.800 Y109.000 E2.8437 F5400
G1 F4800 E1.8437
G1 X110.400 Y114.400 F10800
G1 F4800 E2.8437
G1 X97.800 Y114.400 E3.3780 F5400
G1 X97.800 Y112.600 E3.4543
G1 X110.400 Y112.600 E3.9887
G1 F4800 E2.9887
G1 X101.400 Y96.400 F10800
G1 F4800 E3.9887
G1 X105.869 Y96.400 E4.1782 F5400
G1 F4800 E3.1782
G1 X108.600 Y82.000 F10800
G1 F4800 E4.1782
G1 X124.800 Y82.000 E4.8652 F5400
G1 F4800 E3.8652
G1 X112.471 Y88.281 F10800
G1 X106.800 Y92.800
G1 F4800 E4.8652
G1 X105.000 Y92.800 E4.9415 F5400
G1 F4800 E3.9415
G1 X110.400 Y87.400 F10800
G1 F4800 E4.9415
G1 X105.000 Y87.400 E5.1705 F5400
G1 F4800 E4.1705
G1 X114.000 Y76.600 F10800
G1 F4800 E5.1705
G1 X108.600 Y76.600 E5.3995 F5400
G1 F4800 E4.3995
G1 X146.400 Y92.800 F10800
G1 F4800 E5.3995
G1 X137.400 Y92.800 E5.7812 F5400
G1 F4800 E4.7812
G1 X146.400 Y94.600 F10800
G1 F4800 E5.7812
G1 X137.400 Y94.600 E6.1628 F5400
G1 F4800 E5.1628
G1 X146.400 Y89.200 F10800
G1 F4800 E6.1628
G1 X132.977 Y89.200 E6.7321 F5400
G1 F4800 E5.7321
G1 X114.000 Y78.400 F10800
G1 F4800 E6.7321
G1 X108.600 Y78.400 E6.9611 F5400
G1 F4800 E5.9611
G1 X125.628 Y85.600 F10800
G1 F4800 E6.9611
G1 X135.600 Y85.600 E7.3840 F5400
G1 F4800 E6.3840
G1 X122.053 Y85.583 F10800
G1 X116.996 Y86.205
G1 X110.663 Y89.961
G1 X101.400 Y98.200
G1 F4800 E7.3840
G1 X105.585 Y98.200 E7.5614 F5400
;segType:HShell
G1 F4800 E6.5614
G1 X118.253 Y86.845 F10800
G1 F4800 E7.5614
G1 X137.130 Y105.722 E8.8933 F3600
;segType:Perimeter
G1 X137.311 Y105.833 F10800
G1 X137.590 Y106.457 E8.9274 F2159
G1 X135.385 Y110.580 E9.1607
G1 X131.820 Y113.894 E9.4035
G1 X127.383 Y115.930 E9.6471
G1 X122.341 Y116.563 E9.9006
G1 X117.325 Y115.671 E10.1548
G1 X112.786 Y113.355 E10.4090
G1 X109.171 Y109.847 E10.6603
G1 X106.840 Y105.506 E10.9062
G1 X106.007 Y100.770 E11.1461
G1 X106.006 Y100.655 E11.1518
G1 X106.745 Y95.981 E11.3879
G1 X109.005 Y91.756 E11.6269
G1 X112.577 Y88.439 E11.8701
G1 X117.048 Y86.388 E12.1155
G1 X122.048 Y85.773 E12.3669
G1 X127.065 Y86.666 E12.6211
G1 X131.603 Y88.982 E12.8753
G1 X135.219 Y92.490 E13.1266
G1 X137.558 Y96.847 E13.3733
G1 X138.393 Y101.624 E13.6153
G1 X137.653 Y106.299 E13.8514
G1 X137.635 Y106.353 E13.8542
G1 X136.990 Y106.579
;segType:Loop
G1 X136.772 Y107.140 F10800
G1 X135.064 Y110.333 E14.0349 F3600
G1 X131.595 Y113.557 E14.2712
G1 X127.272 Y115.540 E14.5085
G1 X122.352 Y116.159 E14.7559
G1 X117.454 Y115.287 E15.0041
G1 X113.022 Y113.026 E15.2523
G1 X109.494 Y109.603 E15.4975
G1 X107.223 Y105.373 E15.7371
G1 X106.407 Y100.734 E15.9720
G1 X106.407 Y100.685 E15.9745
G1 X107.130 Y96.110 E16.2056
G1 X109.326 Y92.004 E16.4379
G1 X112.802 Y88.776 E16.6745
G1 X117.159 Y86.778 E16.9137
G1 X122.037 Y86.178 E17.1589
G1 X126.936 Y87.050 E17.4071
G1 X131.368 Y89.311 E17.6554
G1 X134.896 Y92.734 E17.9006
G1 X137.175 Y96.979 E18.1410
G1 X137.987 Y101.628 E18.3764
G1 X137.248 Y106.248 E18.6099
G1 X136.861 Y106.972 E18.6509
G1 X134.554 Y109.103 F10800
G1 X121.391 Y115.785
;segType:HShell
G1 X106.670 Y101.063 E19.6895 F3600
G1 X106.639 Y100.495
G1 X122.045 Y115.901 E20.7765
G1 X122.607 Y115.925
G1 X106.712 Y100.031 E21.8979
G1 X106.786 Y99.567
G1 X123.084 Y115.865 E23.0479
G1 X123.561 Y115.805
G1 X106.859 Y99.102 E24.2263
G1 X106.933 Y98.638
G1 X124.039 Y115.745 E25.4333
G1 X124.516 Y115.685
G1 X107.006 Y98.174 E26.6688
G1 X107.080 Y97.710
G1 X124.994 Y115.625 E27.9328
G1 X125.471 Y115.565
G1 X107.153 Y97.246 E29.2253
G1 X107.226 Y96.782
G1 X125.949 Y115.505 E30.5463
G1 X126.426 Y115.445
G1 X107.300 Y96.318 E31.8958
G1 X107.452 Y95.932
G1 X126.904 Y115.385 E33.2683
G1 X127.344 Y115.287
G1 X107.639 Y95.582 E34.6586
G1 X107.826 Y95.232
G1 X127.712 Y115.118 E36.0617
G1 X128.081 Y114.949
G1 X108.014 Y94.881 E37.4775
G1 X108.201 Y94.531
G1 X128.449 Y114.780 E38.9062
G1 X128.818 Y114.611
G1 X108.388 Y94.181 E40.3476
G1 X108.576 Y93.831
G1 X129.186 Y114.442 E41.8018
G1 X129.555 Y114.273
G1 X108.763 Y93.480 E43.2688
G1 X108.950 Y93.130
G1 X129.923 Y114.104 E44.7486
G1 X130.292 Y113.935
G1 X109.138 Y92.780 E46.2412
G1 X109.325 Y92.430
G1 X130.660 Y113.766 E47.7465
G1 X131.029 Y113.597
G1 X109.525 Y92.092 E49.2638
G1 X109.803 Y91.833
G1 X131.397 Y113.428 E50.7873
G1 X131.696 Y113.190
G1 X110.082 Y91.574 E52.3124
G1 X110.361 Y91.316
G1 X131.975 Y112.931 E53.8374
G1 X132.254 Y112.672
G1 X110.640 Y91.057 E55.3624
G1 X110.918 Y90.798
G1 X132.532 Y112.413 E56.8875
G1 X132.811 Y112.154
G1 X111.197 Y90.539 E58.4125
G1 X111.476 Y90.280
G1 X133.089 Y111.895 E59.9375
G1 X133.368 Y111.636
G1 X111.754 Y90.022 E61.4624
G1 X112.033 Y89.763
G1 X133.647 Y111.377 E62.9874
G1 X133.925 Y111.118
G1 X112.312 Y89.504 E64.5124
G1 X112.591 Y89.245
G1 X134.204 Y110.859 E66.0373
G1 X134.482 Y110.600
G1 X112.869 Y88.986 E67.5623
G1 X113.223 Y88.803
G1 X134.761 Y110.341 E69.0819
G1 X134.995 Y110.038
G1 X113.592 Y88.634 E70.5921
G1 X113.960 Y88.465
G1 X135.182 Y109.688 E72.0894
G1 X135.369 Y109.337
G1 X114.329 Y88.296 E73.5740
G1 X114.697 Y88.127
G1 X135.557 Y108.987 E75.0457
G1 X135.744 Y108.637
G1 X115.066 Y87.958 E76.5047
G1 X115.434 Y87.789
G1 X135.931 Y108.287 E77.9510
G1 X136.119 Y107.936
G1 X115.803 Y87.620 E79.3844
G1 X116.171 Y87.451
G1 X136.306 Y107.586 E80.8050
G1 X136.493 Y107.236
G1 X116.540 Y87.282 E82.2129
G1 X116.908 Y87.113
G1 X136.681 Y106.886 E83.6080
G1 X136.868 Y106.536
G1 X117.296 Y86.962 E84.9889
G1 X117.774 Y86.904
G1 X137.055 Y106.185 E86.3493
G1 X118.732 Y86.786 F10800
G1 X137.204 Y105.259 E87.6527 F3600
G1 X137.278 Y104.796
G1 X119.210 Y86.727 E88.9275
G1 X119.689 Y86.668
G1 X137.352 Y104.332 E90.1737
G1 X137.426 Y103.869
G1 X120.168 Y86.609 E91.3915
G1 X120.646 Y86.550
G1 X137.500 Y103.405 E92.5806
G1 X137.575 Y102.942
G1 X121.125 Y86.491 E93.7413
G1 X121.604 Y86.433
G1 X137.649 Y102.478 E94.8733
G1 X137.723 Y102.015
G1 X122.101 Y86.392 E95.9756
G1 X130.936 Y89.315 F10800
G1 X135.033 Y93.412 E96.2646 F3600
G1 X135.656 Y94.572 F10800
G1 X129.839 Y88.755 E96.6751 F3600
G1 X128.741 Y88.195 F10800
G1 X136.279 Y95.733 E97.2069 F3600
G1 X136.902 Y96.893 F10800
G1 X127.644 Y87.635 E97.8601 F3600
G1 X126.678 Y87.207 F10800
G1 X137.082 Y97.612 E98.5942 F3600
G1 X137.196 Y98.263
G1 X126.024 Y87.090 E99.3824
G1 X125.370 Y86.974
G1 X137.310 Y98.914 E100.2249
G1 X137.424 Y99.566
G1 X124.716 Y86.858 E101.1215
G1 X124.063 Y86.741
G1 X137.538 Y100.217 E102.0722
G1 X137.651 Y100.868
G1 X123.409 Y86.625 E103.0772
G1 X122.755 Y86.509
G1 X137.765 Y101.520 E104.1363
G1 X106.784 Y101.715 F10800
G1 X120.737 Y115.668 E105.1207 F3600
G1 X120.083 Y115.552
G1 X106.899 Y102.367 E106.0510
G1 X107.013 Y103.019
G1 X119.429 Y115.436 E106.9270
G1 X118.775 Y115.319
G1 X107.127 Y103.671 E107.7489
G1 X107.241 Y104.322
G1 X118.121 Y115.203 E108.5166
G1 X117.433 Y115.052
G1 X107.356 Y104.974 E109.2276
G1 X107.719 Y105.875 F10800
G1 X116.336 Y114.492 E109.8356 F3600
G1 X115.238 Y113.933 F10800
G1 X108.343 Y107.036 E110.3221 F3600
G1 X108.966 Y108.197 F10800
G1 X114.141 Y113.373 E110.6872 F3600
G1 X111.566 Y111.335 F10800
G1 X109.590 Y109.359 E110.8267 F3600
;segType:Support
G1 F4800 E109.8267
G1 X146.400 Y87.400 F10800
G1 F4800 E110.8267
G1 X130.263 Y87.400 E111.5110 F5400
G1 F4800 E110.5110
G1 X135.370 Y92.375 F10800
G1 X138.226 Y96.400
G1 F4800 E111.5110
G1 X146.400 Y96.400 E111.8576 F5400
G1 F4800 E110.8576
G1 X146.400 Y91.000 F10800
G1 F4800 E111.8576
G1 X137.400 Y91.000 E112.2393 F5400
G1 F4800 E111.2393
G1 X135.600 Y83.800 F10800
G1 F4800 E112.2393
G1 X105.000 Y83.800 E113.5369 F5400
G1 X105.000 Y85.600 E113.6133
G1 X116.904 Y85.600 E114.1181
G1 F4800 E113.1181
G1 X110.400 Y89.200 F10800
G1 F4800 E114.1181
G1 X105.000 Y89.200 E114.3471 F5400
G1 F4800 E113.3471
G1 X106.239 Y103.177 F10800
G1 X119.801 Y116.302
G1 X122.336 Y116.753
G1 X127.435 Y116.112
G1 X131.926 Y114.052
G1 X134.387 Y112.600
G1 F4800 E114.3471
G1 X139.200 Y112.600 E114.5512 F5400
G1 F4800 E113.5512
G1 X137.400 Y109.000 F10800
G1 F4800 E114.5512
G1 X139.200 Y109.000 E114.6275 F5400
G1 F4800 E113.6275
G1 X142.800 Y105.400 F10800
G1 F4800 E114.6275
G1 X138.604 Y105.400 E114.8055 F5400
G1 F4800 E113.8055
G1 X138.583 Y101.623 F10800
G1 X137.738 Y96.785
G1 X135.370 Y92.375
G1 X131.714 Y88.827
G1 X127.125 Y86.486
G1 X108.600 Y80.200
G1 F4800 E114.8055
G1 X124.800 Y80.200 E115.4924 F5400
G1 F4800 E114.4924
G1 X112.471 Y88.281 F10800
G1 X106.576 Y94.600
G1 F4800 E115.4924
G1 X101.400 Y94.600 E115.7120 F5400
G1 F4800 E114.7120
G1 X105.300 Y100.000 F10800
G1 F4800 E115.7120
G1 X101.400 Y100.000 E115.8774 F5400
G1 F4800 E114.8774
G1 X105.000 Y91.000 F10800
G1 F4800 E115.8774
G1 X106.800 Y91.000 E115.9537 F5400
G1 F4800 E114.9537
G1 X101.400 Y116.200 F10800
G1 F4800 E115.9537
G1 X116.603 Y116.200 E116.5984 F5400
G1 F4800 E115.5984
G1 X135.600 Y119.800 F10800
G1 F4800 E116.5984
G1 X112.200 Y119.800 E117.5907 F5400
G1 F4800 E116.5907
G1 X123.000 Y123.400 F10800
G1 F4800 E117.5907
G1 X135.600 Y123.400 E118.1250 F5400
G1 F4800 E117.1250
G1 X128.712 Y116.200 F10800
G1 F4800 E118.1250
G1 X139.200 Y116.200 E118.5698 F5400
G1 F4800 E117.5698
G1 X123.000 Y125.200 F10800
G1 F4800 E118.5698
G1 X135.600 Y125.200 E119.1041 F5400
G1 F4800 E118.1041
G1 X135.600 Y121.600 F10800
G1 F4800 E119.1041
G1 X112.200 Y121.600 E120.0965 F5400
G1 F4800 E119.0965
G1 X101.400 Y118.000 F10800
G1 F4800 E120.0965
G1 X139.200 Y118.000 E121.6994 F5400
G1 F4800 E120.6994
G1 X137.400 Y110.800 F10800
G1 F4800 E121.6994
G1 X139.200 Y110.800 E121.7758 F5400
; ------------------------------------
; Layer #2
; ------------------------------------
G21 ; mm
G90 ; abs
G92 E0 ; reset extr
M106 S255
;segType:Support
G1 F4800 E-1.0000
G1 F300 Z0.900
G1 X137.400 Y110.800 F10800
G1 F4800 E0.0000
G1 X139.200 Y110.800 E0.0763 F5400
G1 F4800 E-0.9237
G1 X138.100 Y107.200 F10800
G1 F4800 E0.0763
G1 X142.800 Y107.200 E0.2756 F5400
G1 F4800 E-0.7244
G1 X146.400 Y96.400 F10800
G1 F4800 E0.2756
G1 X138.227 Y96.400 E0.6222 F5400
G1 F4800 E-0.3778
G1 X146.400 Y89.200 F10800
G1 F4800 E0.6222
G1 X132.977 Y89.200 E1.1915 F5400
G1 F4800 E0.1915
G1 X137.400 Y91.000 F10800
G1 F4800 E1.1915
G1 X146.400 Y91.000 E1.5731 F5400
G1 X146.400 Y92.800 E1.6495
G1 X137.400 Y92.800 E2.0311
G1 F4800 E1.0311
G1 X135.600 Y83.800 F10800
G1 F4800 E2.0311
G1 X105.000 Y83.800 E3.3288 F5400
G1 F4800 E2.3288
G1 X108.600 Y80.200 F10800
G1 F4800 E3.3288
G1 X124.800 Y80.200 E4.0158 F5400
G1 F4800 E3.0158
G1 X108.600 Y76.600 F10800
G1 F4800 E4.0158
G1 X114.000 Y76.600 E4.2448 F5400
G1 F4800 E3.2448
G1 X105.000 Y85.600 F10800
G1 F4800 E4.2448
G1 X116.904 Y85.600 E4.7496 F5400
G1 F4800 E3.7496
G1 X105.000 Y87.400 F10800
G1 F4800 E4.7496
G1 X110.400 Y87.400 E4.9786 F5400
G1 F4800 E3.9786
G1 X105.000 Y92.800 F10800
G1 F4800 E4.9786
G1 X106.800 Y92.800 E5.0549 F5400
G1 F4800 E4.0549
G1 X105.000 Y89.200 F10800
G1 F4800 E5.0549
G1 X110.400 Y89.200 E5.2839 F5400
G1 F4800 E4.2839
G1 X105.869 Y96.400 F10800
G1 F4800 E5.2839
G1 X101.400 Y96.400 E5.4734 F5400
G1 F4800 E4.4734
G1 X101.400 Y101.800 F10800
G1 F4800 E5.4734
G1 X105.377 Y101.800 E5.6421 F5400
G1 X105.694 Y103.600 E5.7196
G1 X101.400 Y103.600 E5.9017
G1 F4800 E4.9017
G1 X105.300 Y100.000 F10800
G1 F4800 E5.9017
G1 X101.400 Y100.000 E6.0671 F5400
G1 X101.400 Y98.200 E6.1434
G1 X105.585 Y98.200 E6.3208
G1 F4800 E5.3208
G1 X101.400 Y94.600 F10800
G1 F4800 E6.3208
G1 X106.577 Y94.600 E6.5404 F5400
G1 F4800 E5.5404
G1 X106.800 Y91.000 F10800
G1 F4800 E6.5404
G1 X105.000 Y91.000 E6.6167 F5400
G1 F4800 E5.6167
G1 X125.628 Y85.600 F10800
G1 F4800 E6.6167
G1 X135.600 Y85.600 E7.0396 F5400
G1 F4800 E6.0396
G1 X124.800 Y82.000 F10800
G1 F4800 E7.0396
G1 X108.600 Y82.000 E7.7266 F5400
G1 F4800 E6.7266
G1 X108.600 Y78.400 F10800
G1 F4800 E7.7266
G1 X114.000 Y78.400 E7.9556 F5400
G1 F4800 E6.9556
G1 X131.714 Y88.827 F10800
G1 X138.160 Y99.204
G1 X138.583 Y101.623
G1 X135.600 Y121.600
G1 F4800 E7.9556
G1 X112.200 Y121.600 E8.9479 F5400
G1 F4800 E7.9479
G1 X128.711 Y116.200 F10800
G1 F4800 E8.9479
G1 X139.200 Y116.200 E9.3927 F5400
G1 F4800 E8.3927
G1 X135.600 Y119.800 F10800
G1 F4800 E9.3927
G1 X112.200 Y119.800 E10.3850 F5400
G1 F4800 E9.3850
G1 X101.400 Y118.000 F10800
G1 F4800 E10.3850
G1 X139.200 Y118.000 E11.9880 F5400
G1 F4800 E10.9880
G1 X135.600 Y125.200 F10800
G1 F4800 E11.9880
G1 X123.000 Y125.200 E12.5223 F5400
G1 F4800 E11.5223
G1 X139.200 Y114.400 F10800
G1 F4800 E12.5223
G1 X133.800 Y114.400 E12.7513 F5400
G1 F4800 E11.7513
G1 X123.000 Y123.400 F10800
G1 F4800 E12.7513
G1 X135.600 Y123.400 E13.2856 F5400
G1 F4800 E12.2856
G1 X117.265 Y115.850 F10800
G1 X112.676 Y113.509
G1 X109.019 Y109.961
G1 X106.800 Y107.200
G1 F4800 E13.2856
G1 X97.800 Y107.200 E13.6673 F5400
G1 F4800 E12.6673
G1 X97.800 Y114.400 F10800
G1 F4800 E13.6673
G1 X110.400 Y114.400 E14.2016 F5400
G1 F4800 E13.2016
G1 X106.800 Y110.800 F10800
G1 F4800 E14.2016
G1 X97.800 Y110.800 E14.5832 F5400
G1 F4800 E13.5832
G1 X97.800 Y105.400 F10800
G1 F4800 E14.5832
G1 X106.012 Y105.400 E14.9315 F5400
G1 F4800 E13.9315
G1 X101.400 Y116.200 F10800
G1 F4800 E14.9315
G1 X116.603 Y116.200 E15.5762 F5400
G1 F4800 E14.5762
G1 X97.800 Y112.600 F10800
G1 F4800 E15.5762
G1 X110.400 Y112.600 E16.1105 F5400
;segType:HShell
G1 F4800 E15.1105
G1 X127.880 Y115.041 F10800
G1 F4800 E16.1105
G1 X137.126 Y105.795 E16.7629 F3600
;segType:Perimeter
G1 X137.294 Y105.865 F10800
G1 X137.573 Y106.490 E16.7970 F2159
G1 X135.385 Y110.581 E17.0284
G1 X131.826 Y113.891 E17.2709
G1 X127.342 Y115.948 E17.5171
G1 X122.342 Y116.563 E17.7684
G1 X117.325 Y115.670 E18.0226
G1 X112.786 Y113.355 E18.2768
G1 X109.171 Y109.847 E18.5281
G1 X106.844 Y105.513 E18.7735
G1 X106.013 Y100.807 E19.0119
G1 X106.012 Y100.618 E19.0214
G1 X106.745 Y95.981 E19.2556
G1 X109.004 Y91.756 E19.4946
G1 X112.588 Y88.434 E19.7384
G1 X117.048 Y86.388 E19.9832
G1 X122.048 Y85.773 E20.2346
G1 X127.065 Y86.666 E20.4888
G1 X131.603 Y88.982 E20.7430
G1 X135.219 Y92.490 E20.9943
G1 X137.558 Y96.847 E21.2410
G1 X138.393 Y101.624 E21.4830
G1 X137.659 Y106.262 E21.7172
G1 X137.618 Y106.386 E21.7237
G1 X136.972 Y106.611
;segType:Loop
G1 X136.754 Y107.173 F10800
G1 X135.064 Y110.333 E21.9025 F3600
G1 X131.601 Y113.554 E22.1385
G1 X127.231 Y115.559 E22.3783
G1 X122.352 Y116.159 E22.6236
G1 X117.454 Y115.287 E22.8718
G1 X113.022 Y113.026 E23.1200
G1 X109.494 Y109.603 E23.3653
G1 X107.227 Y105.380 E23.6044
G1 X106.413 Y100.771 E23.8379
G1 X106.412 Y100.648 E23.8440
G1 X107.130 Y96.110 E24.0733
G1 X109.326 Y92.004 E24.3055
G1 X112.813 Y88.771 E24.5428
G1 X117.159 Y86.778 E24.7813
G1 X122.037 Y86.177 E25.0265
G1 X126.936 Y87.050 E25.2748
G1 X131.368 Y89.311 E25.5230
G1 X134.896 Y92.734 E25.7682
G1 X137.175 Y96.979 E26.0087
G1 X137.987 Y101.627 E26.2441
G1 X137.269 Y106.167 E26.4733
G1 X137.231 Y106.281 E26.4793
G1 X136.843 Y107.005 E26.5203
;segType:HShell
G1 X137.227 Y105.156 F10800
G1 X126.998 Y115.386 E27.2421 F3600
G1 X126.385 Y115.461
G1 X137.328 Y104.518 E28.0142
G1 X137.429 Y103.879
G1 X125.772 Y115.537 E28.8366
G1 X125.159 Y115.612
G1 X137.530 Y103.241 E29.7095
G1 X137.631 Y102.602
G1 X124.546 Y115.688 E30.6327
G1 X123.933 Y115.763
G1 X137.731 Y101.964 E31.6063
G1 X137.746 Y101.411
G1 X123.320 Y115.838 E32.6241
G1 X122.707 Y115.914
G1 X137.666 Y100.954 E33.6796
G1 X137.586 Y100.496
G1 X122.162 Y115.922 E34.7680
G1 X121.705 Y115.841
G1 X137.507 Y100.039 E35.8829
G1 X137.427 Y99.581
G1 X121.249 Y115.759 E37.0243
G1 X120.793 Y115.678
G1 X137.347 Y99.123 E38.1923
G1 X137.267 Y98.666
G1 X120.336 Y115.597 E39.3869
G1 X119.880 Y115.516
G1 X137.187 Y98.208 E40.6080
G1 X137.107 Y97.751
G1 X119.424 Y115.434 E41.8556
G1 X118.967 Y115.353
G1 X137.027 Y97.293 E43.1299
G1 X136.897 Y96.885
G1 X118.511 Y115.272 E44.4272
G1 X118.055 Y115.191
G1 X136.710 Y96.535 E45.7434
G1 X136.522 Y96.185
G1 X117.599 Y115.110 E47.0786
G1 X117.225 Y114.946
G1 X136.334 Y95.836 E48.4268
G1 X136.146 Y95.486
G1 X116.869 Y114.764 E49.7870
G1 X116.513 Y114.582
G1 X135.959 Y95.136 E51.1590
G1 X135.771 Y94.786
G1 X116.157 Y114.401 E52.5429
G1 X115.801 Y114.219
G1 X135.583 Y94.437 E53.9386
G1 X135.395 Y94.087
G1 X115.445 Y114.038 E55.3463
G1 X115.089 Y113.856
G1 X135.207 Y93.737 E56.7657
G1 X135.020 Y93.387
G1 X114.733 Y113.675 E58.1971
G1 X114.377 Y113.493
G1 X134.832 Y93.038 E59.6403
G1 X134.603 Y92.729
G1 X114.021 Y113.311 E61.0925
G1 X113.665 Y113.130
G1 X134.331 Y92.464 E62.5505
G1 X134.058 Y92.199
G1 X113.310 Y112.948 E64.0145
G1 X112.997 Y112.723
G1 X133.785 Y91.934 E65.4812
G1 X133.512 Y91.670
G1 X112.724 Y112.459 E66.9479
G1 X112.451 Y112.194
G1 X133.239 Y91.405 E68.4147
G1 X132.966 Y91.140
G1 X112.179 Y111.929 E69.8814
G1 X111.906 Y111.664
G1 X132.694 Y90.876 E71.3481
G1 X132.421 Y90.611
G1 X111.633 Y111.400 E72.8148
G1 X111.360 Y111.135
G1 X132.148 Y90.346 E74.2816
G1 X131.875 Y90.081
G1 X111.087 Y110.870 E75.7483
G1 X110.814 Y110.605
G1 X131.602 Y89.817 E77.2150
G1 X131.330 Y89.552
G1 X110.542 Y110.341 E78.6818
G1 X110.269 Y110.076
G1 X130.998 Y89.346 E80.1443
G1 X130.642 Y89.165
G1 X109.996 Y109.811 E81.6010
G1 X109.723 Y109.547
G1 X130.286 Y88.983 E83.0519
G1 X129.930 Y88.801
G1 X109.514 Y109.218 E84.4923
G1 X109.327 Y108.868
G1 X129.574 Y88.620 E85.9209
G1 X129.218 Y88.438
G1 X109.139 Y108.518 E87.3377
G1 X108.951 Y108.169
G1 X128.862 Y88.257 E88.7425
G1 X128.506 Y88.075
G1 X108.763 Y107.819 E90.1355
G1 X108.575 Y107.469
G1 X128.150 Y87.894 E91.5167
G1 X127.794 Y87.712
G1 X108.388 Y107.120 E92.8860
G1 X108.200 Y106.770
G1 X127.438 Y87.530 E94.2434
G1 X127.082 Y87.349
G1 X108.012 Y106.420 E95.5889
G1 X107.824 Y106.070
G1 X126.685 Y87.208 E96.9197
G1 X126.229 Y87.127
G1 X107.636 Y105.721 E98.2316
G1 X107.449 Y105.371
G1 X125.773 Y87.046 E99.5245
G1 X125.317 Y86.964
G1 X107.351 Y104.931 E100.7921
G1 X107.270 Y104.474
G1 X124.860 Y86.883 E102.0332
G1 X124.404 Y86.802
G1 X107.189 Y104.017 E103.2479
G1 X107.109 Y103.561
G1 X123.948 Y86.721 E104.4360
G1 X123.491 Y86.640
G1 X107.028 Y103.104 E105.5976
G1 X106.947 Y102.647
G1 X123.035 Y86.558 E106.7327
G1 X122.579 Y86.477
G1 X106.867 Y102.190 E107.8413
G1 X106.786 Y101.733
G1 X122.122 Y86.396 E108.9234
G1 X121.541 Y86.440
G1 X106.705 Y101.276 E109.9701
G1 X106.625 Y100.819
G1 X120.928 Y86.516 E110.9793
G1 X120.315 Y86.591
G1 X106.682 Y100.225 E111.9412
G1 X106.783 Y99.586
G1 X119.702 Y86.666 E112.8527
G1 X119.089 Y86.742
G1 X106.884 Y98.947 E113.7139
G1 X106.985 Y98.309
G1 X118.476 Y86.817 E114.5247
G1 X117.863 Y86.893
G1 X107.086 Y97.670 E115.2851
G1 X107.187 Y97.032
G1 X117.250 Y86.968 E115.9951
G1 X108.964 Y93.105 F10800
G1 X113.301 Y88.767 E116.3012 F3600
G1 X114.294 Y88.312 F10800
G1 X108.346 Y94.260 E116.7208 F3600
G1 X107.728 Y95.415 F10800
G1 X115.287 Y87.856 E117.2541 F3600
G1 X116.280 Y87.401 F10800
G1 X107.288 Y96.393 E117.8886 F3600
G1 X136.805 Y106.653 F10800
G1 X128.873 Y114.585 E118.4482 F3600
G1 X129.866 Y114.130 F10800
G1 X136.187 Y107.809 E118.8942 F3600
G1 X135.569 Y108.965 F10800
G1 X130.859 Y113.674 E119.2265 F3600
G1 X134.308 Y110.763 F10800
G1 X134.951 Y110.120 E119.2718 F3600
;segType:Support
G1 F4800 E118.2718
G1 X139.200 Y112.600 F10800
G1 F4800 E119.2718
G1 X134.391 Y112.600 E119.4758 F5400
G1 F4800 E118.4758
G1 X142.800 Y105.400 F10800
G1 F4800 E119.4758
G1 X138.604 Y105.400 E119.6537 F5400
G1 F4800 E118.6537
G1 X139.200 Y109.000 F10800
G1 F4800 E119.6537
G1 X137.400 Y109.000 E119.7300 F5400
G1 F4800 E118.7300
G1 X141.000 Y103.600 F10800
G1 F4800 E119.7300
G1 X142.800 Y103.600 E119.8064 F5400
G1 X141.000 Y101.800 E119.9143
G1 X142.800 Y101.800 E119.9907
G1 X142.800 Y100.000 E120.0670
G1 X138.915 Y100.000 E120.2317
G1 F4800 E119.2317
G1 X137.738 Y96.785 F10800
G1 X135.370 Y92.375
G1 X130.263 Y87.400
G1 F4800 E120.2317
G1 X146.400 Y87.400 E120.9160 F5400
G1 F4800 E119.9160
G1 X146.400 Y94.600 F10800
G1 F4800 E120.9160
G1 X137.400 Y94.600 E121.2977 F5400
G1 F4800 E120.2977
G1 X138.604 Y98.200 F10800
G1 F4800 E121.2977
G1 X142.800 Y98.200 E121.4756 F5400
G1 F4800 E120.4756
G1 X135.536 Y110.697 F10800
G1 X131.932 Y114.049
G1 X127.393 Y116.131
G1 X122.336 Y116.753
G1 X117.265 Y115.850
G1 X112.676 Y113.509
G1 X106.800 Y109.000
G1 F4800 E121.4756
G1 X97.800 Y109.000 E121.8573 F5400
; ------------------------------------
; Layer #3
; ------------------------------------
G21 ; mm
G90 ; abs
G92 E0 ; reset extr
M106 S255
;segType:Support
G1 F4800 E-1.0000
G1 F300 Z1.200
G1 X97.800 Y110.800 F10800
G1 F4800 E0.0000
G1 X106.800 Y110.800 E0.3817 F5400
G1 F4800 E-0.6183
G1 X97.800 Y114.400 F10800
G1 F4800 E0.3817
G1 X110.400 Y114.400 E0.9160 F5400
G1 F4800 E-0.0840
G1 X97.800 Y112.600 F10800
G1 F4800 E0.9160
G1 X110.400 Y112.600 E1.4503 F5400
G1 F4800 E0.4503
G1 X97.800 Y105.400 F10800
G1 F4800 E1.4503
G1 X106.015 Y105.400 E1.7987 F5400
G1 F4800 E0.7987
G1 X97.800 Y109.000 F10800
G1 F4800 E1.7987
G1 X106.800 Y109.000 E2.1803 F5400
G1 F4800 E1.1803
G1 X97.800 Y107.200 F10800
G1 F4800 E2.1803
G1 X106.800 Y107.200 E2.5620 F5400
G1 F4800 E1.5620
G1 X101.400 Y100.000 F10800
G1 F4800 E2.5620
G1 X105.307 Y100.000 E2.7277 F5400
G1 F4800 E1.7277
G1 X101.400 Y118.000 F10800
G1 F4800 E2.7277
G1 X139.200 Y118.000 E4.3307 F5400
G1 F4800 E3.3307
G1 X101.400 Y116.200 F10800
G1 F4800 E4.3307
G1 X116.603 Y116.200 E4.9754 F5400
G1 F4800 E3.9754
G1 X112.676 Y113.509 F10800
G1 X101.400 Y103.600
G1 F4800 E4.9754
G1 X105.700 Y103.600 E5.1577 F5400
G1 F4800 E4.1577
G1 X101.400 Y94.600 F10800
G1 F4800 E5.1577
G1 X106.576 Y94.600 E5.3772 F5400
G1 F4800 E4.3772
G1 X101.400 Y98.200 F10800
G1 F4800 E5.3772
G1 X105.589 Y98.200 E5.5549 F5400
G1 F4800 E4.5549
G1 X101.400 Y96.400 F10800
G1 F4800 E5.5549
G1 X105.870 Y96.400 E5.7444 F5400
G1 F4800 E4.7444
G1 X101.400 Y101.800 F10800
G1 F4800 E5.7444
G1 X105.384 Y101.800 E5.9134 F5400
G1 F4800 E4.9134
G1 X105.000 Y85.600 F10800
G1 F4800 E5.9134
G1 X116.902 Y85.600 E6.4181 F5400
G1 F4800 E5.4181
G1 X105.000 Y87.400 F10800
G1 F4800 E6.4181
G1 X110.400 Y87.400 E6.6471 F5400
G1 F4800 E5.6471
G1 X105.000 Y83.800 F10800
G1 F4800 E6.6471
G1 X135.600 Y83.800 E7.9447 F5400
G1 F4800 E6.9447
G1 X116.996 Y86.205 F10800
G1 X105.000 Y91.000
G1 F4800 E7.9447
G1 X106.800 Y91.000 E8.0211 F5400
G1 X105.000 Y89.200 E8.1290
G1 X110.400 Y89.200 E8.3580
G1 F4800 E7.3580
G1 X105.000 Y92.800 F10800
G1 F4800 E8.3580
G1 X106.800 Y92.800 E8.4344 F5400
G1 F4800 E7.4344
G1 X108.600 Y78.400 F10800
G1 F4800 E8.4344
G1 X114.000 Y78.400 E8.6634 F5400
G1 F4800 E7.6634
G1 X108.600 Y76.600 F10800
G1 F4800 E8.6634
G1 X114.000 Y76.600 E8.8923 F5400
G1 F4800 E7.8923
G1 X108.600 Y82.000 F10800
G1 F4800 E8.8923
G1 X124.800 Y82.000 E9.5793 F5400
G1 F4800 E8.5793
G1 X108.600 Y80.200 F10800
G1 F4800 E9.5793
G1 X124.800 Y80.200 E10.2663 F5400
G1 F4800 E9.2663
G1 X112.448 Y88.292 F10800
G1 X107.844 Y107.772
G1 X112.200 Y121.600
G1 F4800 E10.2663
G1 X135.600 Y121.600 E11.2586 F5400
G1 F4800 E10.2586
G1 X112.200 Y119.800 F10800
G1 F4800 E11.2586
G1 X135.600 Y119.800 E12.2510 F5400
G1 F4800 E11.2510
G1 X123.000 Y123.400 F10800
G1 F4800 E12.2510
G1 X135.600 Y123.400 E12.7853 F5400
G1 F4800 E11.7853
G1 X123.000 Y125.200 F10800
G1 F4800 E12.7853
G1 X135.600 Y125.200 E13.3196 F5400
G1 F4800 E12.3196
G1 X138.583 Y101.623 F10800
G1 X137.738 Y96.784
G1 X135.370 Y92.375
G1 X131.714 Y88.827
G1 X125.629 Y85.600
G1 F4800 E13.3196
G1 X135.600 Y85.600 E13.7424 F5400
G1 F4800 E12.7424
G1 X138.583 Y101.623 F10800
G1 X137.824 Y106.416
G1 X135.536 Y110.696
G1 X131.924 Y114.053
G1 X128.711 Y116.200
G1 F4800 E13.7424
G1 X139.200 Y116.200 E14.1872 F5400
G1 F4800 E13.1872
G1 X138.583 Y101.623 F10800
G1 X137.738 Y96.784
G1 X135.370 Y92.375
G1 X130.264 Y87.400
G1 F4800 E14.1872
G1 X146.400 Y87.400 E14.8715 F5400
G1 F4800 E13.8715
G1 X132.977 Y89.200 F10800
G1 F4800 E14.8715
G1 X146.400 Y89.200 E15.4407 F5400
G1 F4800 E14.4407
G1 X133.800 Y114.400 F10800
G1 F4800 E15.4407
G1 X139.200 Y114.400 E15.6697 F5400
G1 F4800 E14.6697
G1 X134.391 Y112.600 F10800
G1 F4800 E15.6697
G1 X139.200 Y112.600 E15.8737 F5400
G1 F4800 E14.8737
G1 X138.583 Y101.623 F10800
G1 X137.400 Y92.800
G1 F4800 E15.8737
G1 X146.400 Y92.800 E16.2553 F5400
G1 F4800 E15.2553
G1 X137.400 Y94.600 F10800
G1 F4800 E16.2553
G1 X146.400 Y94.600 E16.6370 F5400
G1 F4800 E15.6370
G1 X137.400 Y110.800 F10800
G1 F4800 E16.6370
G1 X139.200 Y110.800 E16.7133 F5400
G1 X137.400 Y109.000 E16.8213
G1 X139.200 Y109.000 E16.8976
G1 F4800 E15.8976
G1 X138.686 Y103.857 F10800
G1 X138.429 Y101.286
G1 X137.400 Y91.000
G1 F4800 E16.8976
G1 X146.400 Y91.000 E17.2793 F5400
G1 F4800 E16.2793
G1 X138.100 Y107.200 F10800
G1 F4800 E17.2793
G1 X142.800 Y107.200 E17.4786 F5400
G1 F4800 E16.4786
G1 X138.227 Y96.400 F10800
G1 F4800 E17.4786
G1 X146.400 Y96.400 E17.8252 F5400
G1 F4800 E16.8252
G1 X138.603 Y105.400 F10800
G1 F4800 E17.8252
G1 X142.800 Y105.400 E18.0032 F5400
G1 F4800 E17.0032
G1 X138.604 Y98.200 F10800
G1 F4800 E18.0032
G1 X142.800 Y98.200 E18.1811 F5400
G1 F4800 E17.1811
G1 X138.915 Y100.000 F10800
G1 F4800 E18.1811
G1 X142.800 Y100.000 E18.3458 F5400
G1 F4800 E17.3458
G1 X141.000 Y103.600 F10800
G1 F4800 E18.3458
G1 X142.800 Y103.600 E18.4222 F5400
G1 X141.000 Y101.800 E18.5301
G1 X142.800 Y101.800 E18.6064
G1 F4800 E17.6064
G1 X138.799 Y105.326 F10800
G1 X136.799 Y107.089
G1 F4800 E18.6064
;segType:Loop
G1 X135.064 Y110.333 E18.7900 F3600
G1 X131.593 Y113.558 E19.0263
G1 X127.231 Y115.559 E19.2658
G1 X122.352 Y116.159 E19.5110
G1 X117.454 Y115.287 E19.7592
G1 X113.022 Y113.026 E20.0074
G1 X109.494 Y109.603 E20.2527
G1 X107.231 Y105.388 E20.4913
G1 X106.403 Y100.708 E20.7285
G1 X107.130 Y96.109 E20.9607
G1 X109.326 Y92.003 E21.1931
G1 X112.779 Y88.787 E21.4285
G1 X117.159 Y86.777 E21.6689
G1 X122.037 Y86.177 E21.9141
G1 X126.936 Y87.049 E22.1623
G1 X131.368 Y89.310 E22.4106
G1 X134.896 Y92.733 E22.6558
G1 X137.175 Y96.979 E22.8962
G1 X137.987 Y101.627 E23.1316
G1 X137.260 Y106.227 E23.3640
G1 X136.888 Y106.921 E23.4033
;segType:Perimeter
G1 X137.263 Y105.821 F10800
G1 X137.617 Y106.406 E23.4374 F2159
G1 X135.385 Y110.580 E23.6736
G1 X131.818 Y113.895 E23.9165
G1 X127.342 Y115.948 E24.1622
G1 X122.342 Y116.563 E24.4135
G1 X117.325 Y115.670 E24.6677
G1 X112.786 Y113.355 E24.9219
G1 X109.171 Y109.847 E25.1732
G1 X106.848 Y105.521 E25.4182
G1 X105.997 Y100.712 E25.6619
G1 X106.745 Y95.980 E25.9009
G1 X109.005 Y91.756 E26.1399
G1 X112.553 Y88.450 E26.3818
G1 X117.048 Y86.388 E26.6285
G1 X122.048 Y85.773 E26.8799
G1 X127.065 Y86.666 E27.1341
G1 X131.603 Y88.981 E27.3883
G1 X135.219 Y92.489 E27.6396
G1 X137.558 Y96.847 E27.8863
G1 X138.393 Y101.624 E28.1283
G1 X137.653 Y106.300 E28.3645
G1 X137.017 Y106.552
;segType:Infill
G1 X123.688 Y115.793 F10800
G1 X121.439 Y115.793 E28.4767 F5400
G1 X112.037 Y111.792 F10800
G1 X133.205 Y111.792 E29.5328 F5400
G1 X136.197 Y107.791 F10800
G1 X108.748 Y107.791 E30.9022 F5400
G1 X107.153 Y103.789 F10800
G1 X137.443 Y103.789 E32.4133 F5400
G1 X137.463 Y99.788 F10800
G1 X106.751 Y99.788 E33.9456 F5400
G1 X107.529 Y95.787 F10800
G1 X136.308 Y95.787 E35.3813 F5400
G1 X133.632 Y91.786 F10800
G1 X109.855 Y91.786 E36.5676 F5400
G1 X115.443 Y87.785 F10800
G1 X127.938 Y87.785 E37.1910 F5400
G1 X135.246 Y93.810 F10800
G1 X135.246 Y109.568 E37.9771 F5400
G1 X131.245 Y113.497 F10800
G1 X131.245 Y89.473 E39.1757 F5400
G1 X127.245 Y87.432 F10800
G1 X127.245 Y115.332 E40.5677 F5400
G1 X123.244 Y115.847 F10800
G1 X123.244 Y86.596 E42.0270 F5400
G1 X119.243 Y86.723 F10800
G1 X119.243 Y115.402 E43.4578 F5400
G1 X115.242 Y113.934 F10800
G1 X115.242 Y87.877 E44.7578 F5400
G1 X111.241 Y90.501 F10800
G1 X111.241 Y111.019 E45.7814 F5400
G1 X107.240 Y104.279 F10800
G1 X107.240 Y96.695 E46.1598 F5400
; ------------------------------------
; Layer #4
; ------------------------------------
G21 ; mm
G90 ; abs
G92 E0 ; reset extr
M106 S255
;segType:Loop
G1 F4800 E-1.0000
G1 F300 Z1.500
G1 X136.799 Y107.089 F10800
G1 F4800 E0.0000
G1 X135.064 Y110.333 E0.1835 F3600
G1 X131.611 Y113.549 E0.4190
G1 X127.231 Y115.559 E0.6594
G1 X122.352 Y116.159 E0.9046
G1 X117.454 Y115.287 E1.1528
G1 X113.022 Y113.026 E1.4011
G1 X109.494 Y109.603 E1.6463
G1 X107.235 Y105.395 E1.8845
G1 X106.403 Y100.708 E2.1221
G1 X107.130 Y96.109 E2.3543
G1 X109.326 Y92.003 E2.5866
G1 X112.779 Y88.787 E2.8221
G1 X117.159 Y86.777 E3.0625
G1 X122.037 Y86.177 E3.3077
G1 X126.936 Y87.049 E3.5559
G1 X131.368 Y89.310 E3.8042
G1 X134.896 Y92.733 E4.0494
G1 X137.175 Y96.979 E4.2898
G1 X137.987 Y101.627 E4.5252
G1 X137.260 Y106.227 E4.7575
G1 X136.888 Y106.921 E4.7968
;segType:Perimeter
G1 X137.263 Y105.821 F10800
G1 X137.617 Y106.406 E4.8310 F2159
G1 X135.385 Y110.580 E5.0671
G1 X131.860 Y113.864 E5.3075
G1 X131.810 Y113.898 E5.3105
G1 X127.342 Y115.948 E5.5558
G1 X122.342 Y116.563 E5.8071
G1 X117.325 Y115.670 E6.0613
G1 X112.786 Y113.355 E6.3155
G1 X109.171 Y109.847 E6.5668
G1 X106.852 Y105.528 E6.8114
G1 X105.997 Y100.712 E7.0554
G1 X106.745 Y95.980 E7.2944
G1 X109.005 Y91.756 E7.5334
G1 X112.553 Y88.450 E7.7754
G1 X117.048 Y86.388 E8.0221
G1 X122.048 Y85.773 E8.2734
G1 X127.065 Y86.666 E8.5276
G1 X131.603 Y88.981 E8.7818
G1 X135.219 Y92.489 E9.0332
G1 X137.558 Y96.847 E9.2799
G1 X138.393 Y101.624 E9.5219
G1 X137.653 Y106.300 E9.7580
G1 X137.017 Y106.552
;segType:Infill
G1 X123.686 Y115.793 F10800
G1 X121.440 Y115.793 E9.8701 F5400
G1 X112.037 Y111.792 F10800
G1 X133.205 Y111.792 E10.9261 F5400
G1 X136.197 Y107.791 F10800
G1 X108.748 Y107.791 E12.2955 F5400
G1 X107.154 Y103.789 F10800
G1 X137.443 Y103.789 E13.8067 F5400
G1 X137.463 Y99.788 F10800
G1 X106.751 Y99.788 E15.3389 F5400
G1 X107.529 Y95.787 F10800
G1 X136.308 Y95.787 E16.7747 F5400
G1 X133.632 Y91.786 F10800
G1 X109.855 Y91.786 E17.9609 F5400
G1 X115.442 Y87.785 F10800
G1 X127.938 Y87.785 E18.5844 F5400
G1 X135.246 Y93.809 F10800
G1 X135.246 Y109.568 E19.3705 F5400
G1 X131.245 Y113.493 F10800
G1 X131.245 Y89.472 E20.5689 F5400
G1 X127.245 Y87.431 F10800
G1 X127.245 Y115.332 E21.9609 F5400
G1 X123.244 Y115.847 F10800
G1 X123.244 Y86.595 E23.4203 F5400
G1 X119.243 Y86.723 F10800
G1 X119.243 Y115.402 E24.8511 F5400
G1 X115.242 Y113.933 F10800
G1 X115.242 Y87.877 E26.1510 F5400
G1 X111.241 Y90.501 F10800
G1 X111.241 Y111.019 E27.1747 F5400
G1 X107.240 Y104.277 F10800
G1 X107.240 Y96.695 E27.5529 F5400
;segType:Support
G1 F4800 E26.5529
G1 X142.800 Y101.800 F10800
G1 F4800 E27.5529
G1 X141.000 Y101.800 E27.6293 F5400
G1 X142.800 Y103.600 E27.7372
G1 X141.000 Y103.600 E27.8135
G1 F4800 E26.8135
G1 X142.800 Y100.000 F10800
G1 F4800 E27.8135
G1 X138.916 Y100.000 E27.9783 F5400
G1 F4800 E26.9783
G1 X142.800 Y98.200 F10800
G1 F4800 E27.9783
G1 X138.604 Y98.200 E28.1562 F5400
G1 F4800 E27.1562
G1 X142.800 Y105.400 F10800
G1 F4800 E28.1562
G1 X138.603 Y105.400 E28.3342 F5400
G1 F4800 E27.3342
G1 X146.400 Y96.400 F10800
G1 F4800 E28.3342
G1 X138.227 Y96.400 E28.6808 F5400
G1 F4800 E27.6808
G1 X142.800 Y107.200 F10800
G1 F4800 E28.6808
G1 X138.100 Y107.200 E28.8801 F5400
G1 F4800 E27.8801
G1 X146.400 Y91.000 F10800
G1 F4800 E28.8801
G1 X137.400 Y91.000 E29.2617 F5400
G1 F4800 E28.2617
G1 X138.429 Y101.286 F10800
G1 X138.686 Y103.857
G1 X139.200 Y109.000
G1 F4800 E29.2617
G1 X137.400 Y109.000 E29.3381 F5400
G1 X139.200 Y110.800 E29.4460
G1 X137.400 Y110.800 E29.5224
G1 F4800 E28.5224
G1 X146.400 Y94.600 F10800
G1 F4800 E29.5224
G1 X137.400 Y94.600 E29.9040 F5400
G1 F4800 E28.9040
G1 X146.400 Y92.800 F10800
G1 F4800 E29.9040
G1 X137.400 Y92.800 E30.2857 F5400
G1 F4800 E29.2857
G1 X138.583 Y101.622 F10800
G1 X139.200 Y112.600
G1 F4800 E30.2857
G1 X134.391 Y112.600 E30.4896 F5400
G1 F4800 E29.4896
G1 X139.200 Y114.400 F10800
G1 F4800 E30.4896
G1 X133.800 Y114.400 E30.7186 F5400
G1 F4800 E29.7186
G1 X146.400 Y89.200 F10800
G1 F4800 E30.7186
G1 X132.977 Y89.200 E31.2878 F5400
G1 F4800 E30.2878
G1 X146.400 Y87.400 F10800
G1 F4800 E31.2878
G1 X130.264 Y87.400 E31.9721 F5400
G1 F4800 E30.9721
G1 X138.160 Y99.203 F10800
G1 X138.583 Y101.622
G1 X139.200 Y116.200
G1 F4800 E31.9721
G1 X128.711 Y116.200 E32.4169 F5400
G1 F4800 E31.4169
G1 X131.979 Y114.012 F10800
G1 X135.536 Y110.696
G1 X137.824 Y106.416
G1 X138.583 Y101.622
G1 X135.600 Y85.600
G1 F4800 E32.4169
G1 X125.629 Y85.600 E32.8398 F5400
G1 F4800 E31.8398
G1 X138.160 Y99.203 F10800
G1 X138.583 Y101.622
G1 X135.600 Y125.200
G1 F4800 E32.8398
G1 X123.000 Y125.200 E33.3741 F5400
G1 F4800 E32.3741
G1 X135.600 Y123.400 F10800
G1 F4800 E33.3741
G1 X123.000 Y123.400 E33.9084 F5400
G1 F4800 E32.9084
G1 X135.600 Y119.800 F10800
G1 F4800 E33.9084
G1 X112.200 Y119.800 E34.9007 F5400
G1 F4800 E33.9007
G1 X135.600 Y121.600 F10800
G1 F4800 E34.9007
G1 X112.200 Y121.600 E35.8931 F5400
G1 F4800 E34.8931
G1 X106.673 Y105.591 F10800
G1 X105.807 Y100.714
G1 X106.565 Y95.920
G1 X112.448 Y88.292
G1 X124.800 Y80.200
G1 F4800 E35.8931
G1 X108.600 Y80.200 E36.5800 F5400
G1 F4800 E35.5800
G1 X124.800 Y82.000 F10800
G1 F4800 E36.5800
G1 X108.600 Y82.000 E37.2670 F5400
G1 F4800 E36.2670
G1 X114.000 Y76.600 F10800
G1 F4800 E37.2670
G1 X108.600 Y76.600 E37.4960 F5400
G1 F4800 E36.4960
G1 X114.000 Y78.400 F10800
G1 F4800 E37.4960
G1 X108.600 Y78.400 E37.7250 F5400
G1 F4800 E36.7250
G1 X106.800 Y92.800 F10800
G1 F4800 E37.7250
G1 X105.000 Y92.800 E37.8014 F5400
G1 F4800 E36.8014
G1 X110.400 Y89.200 F10800
G1 F4800 E37.8014
G1 X105.000 Y89.200 E38.0304 F5400
G1 X106.800 Y91.000 E38.1383
G1 X105.000 Y91.000 E38.2146
G1 F4800 E37.2146
G1 X116.996 Y86.205 F10800
G1 X135.600 Y83.800
G1 F4800 E38.2146
G1 X105.000 Y83.800 E39.5123 F5400
G1 F4800 E38.5123
G1 X110.400 Y87.400 F10800
G1 F4800 E39.5123
G1 X105.000 Y87.400 E39.7413 F5400
G1 F4800 E38.7413
G1 X116.902 Y85.600 F10800
G1 F4800 E39.7413
G1 X105.000 Y85.600 E40.2460 F5400
G1 F4800 E39.2460
G1 X105.385 Y101.800 F10800
G1 F4800 E40.2460
G1 X101.400 Y101.800 E40.4150 F5400
G1 F4800 E39.4150
G1 X105.870 Y96.400 F10800
G1 F4800 E40.4150
G1 X101.400 Y96.400 E40.6046 F5400
G1 F4800 E39.6046
G1 X105.589 Y98.200 F10800
G1 F4800 E40.6046
G1 X101.400 Y98.200 E40.7822 F5400
G1 F4800 E39.7822
G1 X106.576 Y94.600 F10800
G1 F4800 E40.7822
G1 X101.400 Y94.600 E41.0017 F5400
G1 F4800 E40.0017
G1 X105.701 Y103.600 F10800
G1 F4800 E41.0017
G1 X101.400 Y103.600 E41.1841 F5400
G1 F4800 E40.1841
G1 X112.676 Y113.509 F10800
G1 X116.603 Y116.200
G1 F4800 E41.1841
G1 X101.400 Y116.200 E41.8288 F5400
G1 F4800 E40.8288
G1 X139.200 Y118.000 F10800
G1 F4800 E41.8288
G1 X101.400 Y118.000 E43.4318 F5400
G1 F4800 E42.4318
G1 X105.307 Y100.000 F10800
G1 F4800 E43.4318
G1 X101.400 Y100.000 E43.5975 F5400
G1 F4800 E42.5975
G1 X106.800 Y107.200 F10800
G1 F4800 E43.5975
G1 X97.800 Y107.200 E43.9791 F5400
G1 F4800 E42.9791
G1 X106.800 Y109.000 F10800
G1 F4800 E43.9791
G1 X97.800 Y109.000 E44.3608 F5400
G1 F4800 E43.3608
G1 X106.018 Y105.400 F10800
G1 F4800 E44.3608
G1 X97.800 Y105.400 E44.7093 F5400
G1 F4800 E43.7093
G1 X110.400 Y112.600 F10800
G1 F4800 E44.7093
G1 X97.800 Y112.600 E45.2436 F5400
G1 F4800 E44.2436
G1 X110.400 Y114.400 F10800
G1 F4800 E45.2436
G1 X97.800 Y114.400 E45.7779 F5400
G1 F4800 E44.7779
G1 X106.800 Y110.800 F10800
G1 F4800 E45.7779
G1 X97.800 Y110.800 E46.1596 F5400
; ------------------------------------
; Layer #5
; ------------------------------------
G21 ; mm
G90 ; abs
G92 E0 ; reset extr
M106 S255
;segType:Support
G1 F4800 E-1.0000
G1 F300 Z1.800
G1 X101.400 Y116.200 F10800
G1 F4800 E0.0000
G1 X116.604 Y116.200 E0.6447 F5400
G1 F4800 E-0.3553
G1 X97.800 Y112.600 F10800
G1 F4800 E0.6447
G1 X110.400 Y112.600 E1.1791 F5400
G1 F4800 E0.1791
G1 X101.400 Y103.600 F10800
G1 F4800 E1.1791
G1 X105.693 Y103.600 E1.3611 F5400
G1 X106.004 Y105.400 E1.4386
G1 X97.800 Y105.400 E1.7865
G1 F4800 E0.7865
G1 X114.970 Y114.680 F10800
G1 X119.801 Y116.302
G1 X135.600 Y121.600
G1 F4800 E1.7865
G1 X112.200 Y121.600 E2.7788 F5400
G1 F4800 E1.7788
G1 X101.400 Y118.000 F10800
G1 F4800 E2.7788
G1 X139.200 Y118.000 E4.3818 F5400
G1 F4800 E3.3818
G1 X135.600 Y123.400 F10800
G1 F4800 E4.3818
G1 X123.000 Y123.400 E4.9161 F5400
G1 F4800 E3.9161
G1 X128.711 Y116.200 F10800
G1 F4800 E4.9161
G1 X139.200 Y116.200 E5.3609 F5400
G1 F4800 E4.3609
G1 X135.600 Y119.800 F10800
G1 F4800 E5.3609
G1 X112.200 Y119.800 E6.3532 F5400
G1 F4800 E5.3532
G1 X106.800 Y110.800 F10800
G1 F4800 E6.3532
G1 X97.800 Y110.800 E6.7349 F5400
G1 F4800 E5.7349
G1 X106.800 Y107.200 F10800
G1 F4800 E6.7349
G1 X97.800 Y107.200 E7.1166 F5400
G1 F4800 E6.1166
G1 X105.382 Y101.800 F10800
G1 F4800 E7.1166
G1 X101.400 Y101.800 E7.2854 F5400
G1 F4800 E6.2854
G1 X106.800 Y109.000 F10800
G1 F4800 E7.2854
G1 X97.800 Y109.000 E7.6671 F5400
G1 F4800 E6.6671
G1 X97.800 Y114.400 F10800
G1 F4800 E7.6671
G1 X110.400 Y114.400 E8.2014 F5400
G1 F4800 E7.2014
G1 X119.801 Y116.302 F10800
G1 X122.336 Y116.753
G1 X127.393 Y116.131
G1 X131.986 Y114.005
G1 X137.400 Y109.000
G1 F4800 E8.2014
G1 X139.200 Y109.000 E8.2777 F5400
G1 F4800 E7.2777
G1 X138.583 Y101.622 F10800
G1 X137.738 Y96.784
G1 X135.370 Y92.375
G1 X131.714 Y88.827
G1 X127.125 Y86.486
G1 X122.053 Y85.583
G1 X116.900 Y85.600
G1 F4800 E8.2777
G1 X105.000 Y85.600 E8.7824 F5400
G1 F4800 E7.7824
G1 X106.576 Y94.600 F10800
G1 F4800 E8.7824
G1 X101.400 Y94.600 E9.0019 F5400
G1 F4800 E8.0019
G1 X105.000 Y83.800 F10800
G1 F4800 E9.0019
G1 X135.600 Y83.800 E10.2995 F5400
G1 F4800 E9.2995
G1 X137.400 Y94.600 F10800
G1 F4800 E10.2995
G1 X146.400 Y94.600 E10.6812 F5400
G1 X146.400 Y92.800 E10.7575
G1 X137.400 Y92.800 E11.1392
G1 F4800 E10.1392
G1 X146.400 Y96.400 F10800
G1 F4800 E11.1392
G1 X138.227 Y96.400 E11.4858 F5400
G1 F4800 E10.4858
G1 X139.200 Y112.600 F10800
G1 F4800 E11.4858
G1 X134.391 Y112.600 E11.6897 F5400
G1 F4800 E10.6897
G1 X138.603 Y105.400 F10800
G1 F4800 E11.6897
G1 X142.800 Y105.400 E11.8677 F5400
G1 F4800 E10.8677
G1 X139.799 Y106.244 F10800
G1 X136.799 Y107.089
G1 F4800 E11.8677
;segType:Loop
G1 X135.064 Y110.333 E12.0512 F3600
G1 X131.604 Y113.552 E12.2870
G1 X127.231 Y115.559 E12.5270
G1 X122.352 Y116.159 E12.7723
G1 X117.454 Y115.287 E13.0205
G1 X113.022 Y113.026 E13.2687
G1 X109.494 Y109.603 E13.5140
G1 X107.215 Y105.357 E13.7544
G1 X106.403 Y100.709 E13.9898
G1 X107.130 Y96.109 E14.2221
G1 X109.326 Y92.003 E14.4544
G1 X112.779 Y88.787 E14.6898
G1 X117.159 Y86.777 E14.9303
G1 X122.037 Y86.177 E15.1755
G1 X126.936 Y87.049 E15.4237
G1 X131.368 Y89.310 E15.6719
G1 X134.896 Y92.733 E15.9172
G1 X137.175 Y96.979 E16.1576
G1 X137.987 Y101.627 E16.3930
G1 X137.260 Y106.227 E16.6253
G1 X136.888 Y106.921 E16.6646
;segType:Perimeter
G1 X137.263 Y105.821 F10800
G1 X137.617 Y106.406 E16.6988 F2159
G1 X135.385 Y110.580 E16.9349
G1 X131.868 Y113.857 E17.1748
G1 X131.802 Y113.902 E17.1787
G1 X127.342 Y115.948 E17.4236
G1 X122.342 Y116.563 E17.6749
G1 X117.325 Y115.670 E17.9291
G1 X112.786 Y113.355 E18.1833
G1 X109.171 Y109.847 E18.4346
G1 X106.832 Y105.489 E18.6813
G1 X105.997 Y100.712 E18.9233
G1 X106.745 Y95.980 E19.1623
G1 X109.005 Y91.756 E19.4013
G1 X112.553 Y88.450 E19.6433
G1 X117.048 Y86.388 E19.8900
G1 X122.048 Y85.773 E20.1413
G1 X127.065 Y86.666 E20.3955
G1 X131.603 Y88.981 E20.6497
G1 X135.219 Y92.489 E20.9011
G1 X137.558 Y96.846 E21.1478
G1 X138.393 Y101.624 E21.3898
G1 X137.653 Y106.299 E21.6259
G1 X137.017 Y106.552
;segType:Infill
G1 X123.686 Y115.793 F10800
G1 X121.440 Y115.793 E21.7380 F5400
G1 X112.037 Y111.792 F10800
G1 X133.205 Y111.792 E22.7940 F5400
G1 X136.197 Y107.791 F10800
G1 X108.748 Y107.791 E24.1634 F5400
G1 X107.153 Y103.789 F10800
G1 X137.443 Y103.789 E25.6746 F5400
G1 X137.463 Y99.788 F10800
G1 X106.751 Y99.788 E27.2068 F5400
G1 X107.529 Y95.787 F10800
G1 X136.308 Y95.787 E28.6426 F5400
G1 X133.632 Y91.786 F10800
G1 X109.854 Y91.786 E29.8289 F5400
G1 X115.442 Y87.785 F10800
G1 X127.938 Y87.785 E30.4523 F5400
G1 X135.246 Y93.809 F10800
G1 X135.246 Y109.568 E31.2385 F5400
G1 X131.245 Y113.493 F10800
G1 X131.245 Y89.472 E32.4369 F5400
G1 X127.245 Y87.431 F10800
G1 X127.245 Y115.332 E33.8289 F5400
G1 X123.244 Y115.847 F10800
G1 X123.244 Y86.595 E35.2882 F5400
G1 X119.243 Y86.723 F10800
G1 X119.243 Y115.402 E36.7190 F5400
G1 X115.242 Y113.933 F10800
G1 X115.242 Y87.877 E38.0190 F5400
G1 X111.241 Y90.501 F10800
G1 X111.241 Y111.019 E39.0426 F5400
G1 X107.240 Y104.279 F10800
G1 X107.240 Y96.695 E39.4210 F5400
;segType:Support
G1 F4800 E38.4210
G1 X142.800 Y107.200 F10800
G1 F4800 E39.4210
G1 X138.100 Y107.200 E39.6203 F5400
G1 F4800 E38.6203
G1 X142.800 Y103.600 F10800
G1 F4800 E39.6203
G1 X141.000 Y103.600 E39.6967 F5400
G1 F4800 E38.6967
G1 X146.400 Y89.200 F10800
G1 F4800 E39.6967
G1 X132.978 Y89.200 E40.2659 F5400
G1 F4800 E39.2659
G1 X137.400 Y91.000 F10800
G1 F4800 E40.2659
G1 X146.400 Y91.000 E40.6475 F5400
G1 F4800 E39.6475
G1 X142.800 Y98.200 F10800
G1 F4800 E40.6475
G1 X138.604 Y98.200 E40.8254 F5400
G1 F4800 E39.8254
G1 X142.800 Y101.800 F10800
G1 F4800 E40.8254
G1 X141.000 Y101.800 E40.9018 F5400
G1 X142.800 Y100.000 E41.0097
G1 X138.916 Y100.000 E41.1744
G1 F4800 E40.1744
G1 X139.200 Y114.400 F10800
G1 F4800 E41.1744
G1 X133.800 Y114.400 E41.4034 F5400
G1 F4800 E40.4034
G1 X137.824 Y106.416 F10800
G1 X138.583 Y101.622
G1 X137.738 Y96.784
G1 X135.370 Y92.375
G1 X131.714 Y88.827
G1 X127.125 Y86.486
G1 X122.053 Y85.583
G1 X116.996 Y86.205
G1 X110.400 Y87.400
G1 F4800 E41.4034
G1 X105.000 Y87.400 E41.6324 F5400
G1 F4800 E40.6324
G1 X101.400 Y100.000 F10800
G1 F4800 E41.6324
G1 X105.307 Y100.000 E41.7981 F5400
G1 F4800 E40.7981
G1 X106.800 Y91.000 F10800
G1 F4800 E41.7981
G1 X105.000 Y91.000 E41.8745 F5400
G1 F4800 E40.8745
G1 X110.400 Y89.200 F10800
G1 F4800 E41.8745
G1 X105.000 Y89.200 E42.1034 F5400
G1 F4800 E41.1034
G1 X106.800 Y92.800 F10800
G1 F4800 E42.1034
G1 X105.000 Y92.800 E42.1798 F5400
G1 F4800 E41.1798
G1 X101.400 Y98.200 F10800
G1 F4800 E42.1798
G1 X105.589 Y98.200 E42.3574 F5400
G1 F4800 E41.3574
G1 X114.722 Y87.248 F10800
G1 X124.800 Y80.200
G1 F4800 E42.3574
G1 X108.600 Y80.200 E43.0444 F5400
G1 F4800 E42.0444
G1 X114.000 Y78.400 F10800
G1 F4800 E43.0444
G1 X108.600 Y78.400 E43.2734 F5400
G1 X108.600 Y76.600 E43.3497
G1 X114.000 Y76.600 E43.5787
G1 F4800 E42.5787
G1 X131.714 Y88.827 F10800
G1 X138.160 Y99.203
G1 X138.583 Y101.622
G1 X137.400 Y110.800
G1 F4800 E43.5787
G1 X139.200 Y110.800 E43.6550 F5400
G1 F4800 E42.6550
G1 X127.393 Y116.131 F10800
G1 X122.336 Y116.753
G1 X117.265 Y115.850
G1 X112.676 Y113.509
G1 X109.019 Y109.961
G1 X106.652 Y105.552
G1 X105.807 Y100.714
G1 X105.870 Y96.400
G1 F4800 E43.6550
G1 X101.400 Y96.400 E43.8446 F5400
G1 F4800 E42.8446
G1 X108.600 Y82.000 F10800
G1 F4800 E43.8446
G1 X124.800 Y82.000 E44.5316 F5400
G1 F4800 E43.5316
G1 X130.264 Y87.400 F10800
G1 F4800 E44.5316
G1 X146.400 Y87.400 E45.2159 F5400
G1 F4800 E44.2159
G1 X135.600 Y85.600 F10800
G1 F4800 E45.2159
G1 X125.630 Y85.600 E45.6387 F5400
G1 F4800 E44.6387
G1 X138.160 Y99.203 F10800
G1 X138.583 Y101.622
G1 X135.600 Y125.200
G1 F4800 E45.6387
G1 X123.000 Y125.200 E46.1730 F5400
; ------------------------------------
; Layer #6
; ------------------------------------
G21 ; mm
G90 ; abs
G92 E0 ; reset extr
M106 S255
;segType:Support
G1 F4800 E-1.0000
G1 F300 Z2.100
G1 X97.800 Y110.800 F10800
G1 F4800 E0.0000
G1 X106.800 Y110.800 E0.3817 F5400
G1 F4800 E-0.6183
G1 X97.800 Y114.400 F10800
G1 F4800 E0.3817
G1 X110.400 Y114.400 E0.9160 F5400
G1 F4800 E-0.0840
G1 X97.800 Y112.600 F10800
G1 F4800 E0.9160
G1 X110.400 Y112.600 E1.4503 F5400
G1 F4800 E0.4503
G1 X97.800 Y105.400 F10800
G1 F4800 E1.4503
G1 X106.004 Y105.400 E1.7982 F5400
G1 F4800 E0.7982
G1 X97.800 Y109.000 F10800
G1 F4800 E1.7982
G1 X106.800 Y109.000 E2.1799 F5400
G1 F4800 E1.1799
G1 X97.800 Y107.200 F10800
G1 F4800 E2.1799
G1 X106.800 Y107.200 E2.5615 F5400
G1 F4800 E1.5615
G1 X101.400 Y100.000 F10800
G1 F4800 E2.5615
G1 X105.307 Y100.000 E2.7272 F5400
G1 F4800 E1.7272
G1 X101.400 Y118.000 F10800
G1 F4800 E2.7272
G1 X139.200 Y118.000 E4.3302 F5400
G1 F4800 E3.3302
G1 X101.400 Y116.200 F10800
G1 F4800 E4.3302
G1 X116.604 Y116.200 E4.9750 F5400
G1 F4800 E3.9750
G1 X112.676 Y113.509 F10800
G1 X101.400 Y103.600
G1 F4800 E4.9750
G1 X105.693 Y103.600 E5.1570 F5400
G1 F4800 E4.1570
G1 X101.400 Y94.600 F10800
G1 F4800 E5.1570
G1 X106.576 Y94.600 E5.3765 F5400
G1 F4800 E4.3765
G1 X101.400 Y98.200 F10800
G1 F4800 E5.3765
G1 X105.589 Y98.200 E5.5541 F5400
G1 F4800 E4.5541
G1 X101.400 Y96.400 F10800
G1 F4800 E5.5541
G1 X105.870 Y96.400 E5.7437 F5400
G1 F4800 E4.7437
G1 X101.400 Y101.800 F10800
G1 F4800 E5.7437
G1 X105.382 Y101.800 E5.9125 F5400
G1 F4800 E4.9125
G1 X105.000 Y85.600 F10800
G1 F4800 E5.9125
G1 X116.900 Y85.600 E6.4172 F5400
G1 F4800 E5.4172
G1 X105.000 Y87.400 F10800
G1 F4800 E6.4172
G1 X110.400 Y87.400 E6.6462 F5400
G1 F4800 E5.6462
G1 X105.000 Y83.800 F10800
G1 F4800 E6.6462
G1 X135.600 Y83.800 E7.9438 F5400
G1 F4800 E6.9438
G1 X116.996 Y86.205 F10800
G1 X105.000 Y91.000
G1 F4800 E7.9438
G1 X106.800 Y91.000 E8.0202 F5400
G1 X105.000 Y89.200 E8.1281
G1 X110.400 Y89.200 E8.3571
G1 F4800 E7.3571
G1 X105.000 Y92.800 F10800
G1 F4800 E8.3571
G1 X106.800 Y92.800 E8.4334 F5400
G1 F4800 E7.4334
G1 X108.600 Y78.400 F10800
G1 F4800 E8.4334
G1 X114.000 Y78.400 E8.6624 F5400
G1 F4800 E7.6624
G1 X108.600 Y76.600 F10800
G1 F4800 E8.6624
G1 X114.000 Y76.600 E8.8914 F5400
G1 F4800 E7.8914
G1 X108.600 Y82.000 F10800
G1 F4800 E8.8914
G1 X124.800 Y82.000 E9.5784 F5400
G1 F4800 E8.5784
G1 X108.600 Y80.200 F10800
G1 F4800 E9.5784
G1 X124.800 Y80.200 E10.2654 F5400
G1 F4800 E9.2654
G1 X112.448 Y88.292 F10800
G1 X107.836 Y107.756
G1 X112.200 Y121.600
G1 F4800 E10.2654
G1 X135.600 Y121.600 E11.2577 F5400
G1 F4800 E10.2577
G1 X112.200 Y119.800 F10800
G1 F4800 E11.2577
G1 X135.600 Y119.800 E12.2500 F5400
G1 F4800 E11.2500
G1 X123.000 Y123.400 F10800
G1 F4800 E12.2500
G1 X135.600 Y123.400 E12.7844 F5400
G1 F4800 E11.7844
G1 X123.000 Y125.200 F10800
G1 F4800 E12.7844
G1 X135.600 Y125.200 E13.3187 F5400
G1 F4800 E12.3187
G1 X138.583 Y101.622 F10800
G1 X137.738 Y96.784
G1 X135.370 Y92.375
G1 X131.714 Y88.827
G1 X125.630 Y85.600
G1 F4800 E13.3187
G1 X135.600 Y85.600 E13.7415 F5400
G1 F4800 E12.7415
G1 X138.583 Y101.622 F10800
G1 X137.824 Y106.416
G1 X135.536 Y110.696
G1 X131.887 Y114.071
G1 X128.711 Y116.200
G1 F4800 E13.7415
G1 X139.200 Y116.200 E14.1863 F5400
G1 F4800 E13.1863
G1 X138.583 Y101.622 F10800
G1 X137.738 Y96.784
G1 X135.370 Y92.375
G1 X130.264 Y87.400
G1 F4800 E14.1863
G1 X146.400 Y87.400 E14.8706 F5400
G1 F4800 E13.8706
G1 X132.978 Y89.200 F10800
G1 F4800 E14.8706
G1 X146.400 Y89.200 E15.4398 F5400
G1 F4800 E14.4398
G1 X133.800 Y114.400 F10800
G1 F4800 E15.4398
G1 X139.200 Y114.400 E15.6688 F5400
G1 F4800 E14.6688
G1 X134.391 Y112.600 F10800
G1 F4800 E15.6688
G1 X139.200 Y112.600 E15.8727 F5400
G1 F4800 E14.8727
G1 X138.583 Y101.622 F10800
G1 X137.400 Y92.800
G1 F4800 E15.8727
G1 X146.400 Y92.800 E16.2544 F5400
G1 F4800 E15.2544
G1 X137.400 Y94.600 F10800
G1 F4800 E16.2544
G1 X146.400 Y94.600 E16.6360 F5400
G1 F4800 E15.6360
G1 X137.400 Y110.800 F10800
G1 F4800 E16.6360
G1 X139.200 Y110.800 E16.7124 F5400
G1 X137.400 Y109.000 E16.8203
G1 X139.200 Y109.000 E16.8966
G1 F4800 E15.8966
G1 X138.686 Y103.857 F10800
G1 X138.429 Y101.286
G1 X137.400 Y91.000
G1 F4800 E16.8966
G1 X146.400 Y91.000 E17.2783 F5400
G1 F4800 E16.2783
G1 X138.100 Y107.200 F10800
G1 F4800 E17.2783
G1 X142.800 Y107.200 E17.4776 F5400
G1 F4800 E16.4776
G1 X138.227 Y96.400 F10800
G1 F4800 E17.4776
G1 X146.400 Y96.400 E17.8242 F5400
G1 F4800 E16.8242
G1 X138.603 Y105.400 F10800
G1 F4800 E17.8242
G1 X142.800 Y105.400 E18.0022 F5400
G1 F4800 E17.0022
G1 X138.604 Y98.200 F10800
G1 F4800 E18.0022
G1 X142.800 Y98.200 E18.1801 F5400
G1 F4800 E17.1801
G1 X138.916 Y100.000 F10800
G1 F4800 E18.1801
G1 X142.800 Y100.000 E18.3448 F5400
G1 F4800 E17.3448
G1 X141.000 Y103.600 F10800
G1 F4800 E18.3448
G1 X142.800 Y103.600 E18.4212 F5400
G1 X141.000 Y101.800 E18.5291
G1 X142.800 Y101.800 E18.6054
G1 F4800 E17.6054
G1 X138.799 Y105.326 F10800
G1 X136.799 Y107.089
G1 F4800 E18.6054
;segType:Loop
G1 X135.064 Y110.333 E18.7890 F3600
G1 X131.596 Y113.556 E19.0252
G1 X127.231 Y115.559 E19.2648
G1 X122.353 Y116.159 E19.5100
G1 X117.454 Y115.287 E19.7582
G1 X113.022 Y113.026 E20.0065
G1 X109.494 Y109.603 E20.2517
G1 X107.215 Y105.357 E20.4921
G1 X106.403 Y100.709 E20.7275
G1 X107.130 Y96.109 E20.9598
G1 X109.326 Y92.003 E21.1922
G1 X112.779 Y88.787 E21.4276
G1 X117.159 Y86.777 E21.6680
G1 X122.037 Y86.177 E21.9132
G1 X126.936 Y87.049 E22.1615
G1 X131.368 Y89.310 E22.4097
G1 X134.896 Y92.733 E22.6549
G1 X137.175 Y96.979 E22.8953
G1 X137.987 Y101.627 E23.1307
G1 X137.260 Y106.227 E23.3631
G1 X136.888 Y106.921 E23.4024
;segType:Perimeter
G1 X137.263 Y105.821 F10800
G1 X137.617 Y106.406 E23.4365 F2159
G1 X135.385 Y110.580 E23.6727
G1 X131.875 Y113.850 E23.9120
G1 X131.794 Y113.905 E23.9169
G1 X127.342 Y115.948 E24.1613
G1 X122.342 Y116.563 E24.4126
G1 X117.325 Y115.670 E24.6668
G1 X112.786 Y113.355 E24.9210
G1 X109.171 Y109.847 E25.1723
G1 X106.832 Y105.489 E25.4191
G1 X105.997 Y100.712 E25.6610
G1 X106.745 Y95.980 E25.9000
G1 X109.005 Y91.755 E26.1391
G1 X112.553 Y88.450 E26.3810
G1 X117.048 Y86.388 E26.6277
G1 X122.048 Y85.773 E26.8791
G1 X127.065 Y86.666 E27.1333
G1 X131.603 Y88.981 E27.3875
G1 X135.219 Y92.489 E27.6388
G1 X137.558 Y96.846 E27.8855
G1 X138.393 Y101.624 E28.1275
G1 X137.653 Y106.299 E28.3636
G1 X137.017 Y106.552
;segType:Infill
G1 X123.686 Y115.793 F10800
G1 X121.440 Y115.793 E28.4757 F5400
G1 X112.038 Y111.792 F10800
G1 X133.205 Y111.792 E29.5317 F5400
G1 X136.197 Y107.791 F10800
G1 X108.748 Y107.791 E30.9011 F5400
G1 X107.153 Y103.789 F10800
G1 X137.443 Y103.789 E32.4123 F5400
G1 X137.463 Y99.788 F10800
G1 X106.751 Y99.788 E33.9445 F5400
G1 X107.529 Y95.787 F10800
G1 X136.308 Y95.787 E35.3803 F5400
G1 X133.632 Y91.786 F10800
G1 X109.852 Y91.786 E36.5667 F5400
G1 X115.442 Y87.785 F10800
G1 X127.938 Y87.785 E37.1901 F5400
G1 X135.246 Y93.809 F10800
G1 X135.246 Y109.568 E37.9763 F5400
G1 X131.245 Y113.497 F10800
G1 X131.245 Y89.472 E39.1749 F5400
G1 X127.245 Y87.431 F10800
G1 X127.245 Y115.332 E40.5669 F5400
G1 X123.244 Y115.847 F10800
G1 X123.244 Y86.595 E42.0262 F5400
G1 X119.243 Y86.723 F10800
G1 X119.243 Y115.401 E43.4570 F5400
G1 X115.242 Y113.933 F10800
G1 X115.242 Y87.877 E44.7570 F5400
G1 X111.241 Y90.493 F10800
G1 X111.241 Y111.019 E45.7810 F5400
G1 X107.240 Y104.279 F10800
G1 X107.240 Y96.695 E46.1594 F5400
; ------------------------------------
; Layer #7
; ------------------------------------
G21 ; mm
G90 ; abs
G92 E0 ; reset extr
M106 S255
;segType:Loop
G1 F4800 E-1.0000
G1 F300 Z2.400
G1 X136.799 Y107.089 F10800
G1 F4800 E0.0000
G1 X135.064 Y110.333 E0.1835 F3600
G1 X131.632 Y113.530 E0.4175
G1 X131.588 Y113.560 E0.4202
G1 X127.231 Y115.558 E0.6593
G1 X122.353 Y116.158 E0.9046
G1 X117.454 Y115.286 E1.1528
G1 X113.022 Y113.025 E1.4010
G1 X109.494 Y109.602 E1.6463
G1 X107.215 Y105.357 E1.8867
G1 X106.403 Y100.709 E2.1221
G1 X107.130 Y96.109 E2.3544
G1 X109.326 Y92.003 E2.5867
G1 X112.779 Y88.786 E2.8221
G1 X117.159 Y86.777 E3.0626
G1 X122.037 Y86.177 E3.3078
G1 X126.936 Y87.049 E3.5560
G1 X131.368 Y89.310 E3.8043
G1 X134.896 Y92.733 E4.0495
G1 X137.175 Y96.979 E4.2899
G1 X137.987 Y101.627 E4.5253
G1 X137.260 Y106.226 E4.7576
G1 X136.888 Y106.921 E4.7969
;segType:Perimeter
G1 X137.263 Y105.821 F10800
G1 X137.617 Y106.406 E4.8311 F2159
G1 X135.385 Y110.580 E5.0672
G1 X131.883 Y113.843 E5.3061
G1 X131.786 Y113.909 E5.3119
G1 X127.342 Y115.948 E5.5558
G1 X122.342 Y116.563 E5.8072
G1 X117.325 Y115.670 E6.0614
G1 X112.786 Y113.354 E6.3156
G1 X109.171 Y109.846 E6.5669
G1 X106.832 Y105.489 E6.8136
G1 X105.997 Y100.712 E7.0556
G1 X106.745 Y95.980 E7.2946
G1 X109.005 Y91.755 E7.5336
G1 X112.553 Y88.450 E7.7756
G1 X117.048 Y86.388 E8.0223
G1 X122.048 Y85.773 E8.2736
G1 X127.065 Y86.666 E8.5278
G1 X131.603 Y88.981 E8.7820
G1 X135.219 Y92.489 E9.0333
G1 X137.558 Y96.846 E9.2801
G1 X138.393 Y101.624 E9.5220
G1 X137.653 Y106.299 E9.7582
G1 X137.017 Y106.552
;segType:Infill
G1 X123.686 Y115.793 F10800
G1 X121.440 Y115.793 E9.8702 F5400
G1 X112.037 Y111.792 F10800
G1 X133.205 Y111.792 E10.9263 F5400
G1 X136.197 Y107.791 F10800
G1 X108.748 Y107.791 E12.2957 F5400
G1 X107.153 Y103.789 F10800
G1 X137.443 Y103.789 E13.8068 F5400
G1 X137.463 Y99.788 F10800
G1 X106.751 Y99.788 E15.3391 F5400
G1 X107.529 Y95.787 F10800
G1 X136.309 Y95.787 E16.7749 F5400
G1 X133.633 Y91.786 F10800
G1 X109.851 Y91.786 E17.9614 F5400
G1 X115.441 Y87.785 F10800
G1 X127.940 Y87.785 E18.5850 F5400
G1 X135.246 Y93.808 F10800
G1 X135.246 Y109.568 E19.3712 F5400
G1 X131.245 Y113.493 F10800
G1 X131.245 Y89.472 E20.5696 F5400
G1 X127.245 Y87.431 F10800
G1 X127.245 Y115.332 E21.9617 F5400
G1 X123.244 Y115.847 F10800
G1 X123.244 Y86.595 E23.4211 F5400
G1 X119.243 Y86.722 F10800
G1 X119.243 Y115.402 E24.8519 F5400
G1 X115.242 Y113.933 F10800
G1 X115.242 Y87.876 E26.1519 F5400
G1 X111.241 Y90.492 F10800
G1 X111.241 Y111.019 E27.1760 F5400
G1 X107.240 Y104.279 F10800
G1 X107.240 Y96.695 E27.5544 F5400
;segType:Support
G1 F4800 E26.5544
G1 X142.800 Y101.800 F10800
G1 F4800 E27.5544
G1 X141.000 Y101.800 E27.6307 F5400
G1 X142.800 Y103.600 E27.7386
G1 X141.000 Y103.600 E27.8150
G1 F4800 E26.8150
G1 X142.800 Y100.000 F10800
G1 F4800 E27.8150
G1 X138.916 Y100.000 E27.9797 F5400
G1 F4800 E26.9797
G1 X142.800 Y98.200 F10800
G1 F4800 E27.9797
G1 X138.604 Y98.200 E28.1576 F5400
G1 F4800 E27.1576
G1 X142.800 Y105.400 F10800
G1 F4800 E28.1576
G1 X138.603 Y105.400 E28.3356 F5400
G1 F4800 E27.3356
G1 X146.400 Y96.400 F10800
G1 F4800 E28.3356
G1 X138.227 Y96.400 E28.6822 F5400
G1 F4800 E27.6822
G1 X142.800 Y107.200 F10800
G1 F4800 E28.6822
G1 X138.100 Y107.200 E28.8815 F5400
G1 F4800 E27.8815
G1 X146.400 Y91.000 F10800
G1 F4800 E28.8815
G1 X137.400 Y91.000 E29.2632 F5400
G1 F4800 E28.2632
G1 X138.429 Y101.286 F10800
G1 X138.686 Y103.857
G1 X139.200 Y109.000
G1 F4800 E29.2632
G1 X137.400 Y109.000 E29.3395 F5400
G1 X139.200 Y110.800 E29.4474
G1 X137.400 Y110.800 E29.5238
G1 F4800 E28.5238
G1 X146.400 Y94.600 F10800
G1 F4800 E29.5238
G1 X137.400 Y94.600 E29.9054 F5400
G1 F4800 E28.9054
G1 X146.400 Y92.800 F10800
G1 F4800 E29.9054
G1 X137.400 Y92.800 E30.2871 F5400
G1 F4800 E29.2871
G1 X138.583 Y101.622 F10800
G1 X139.200 Y112.600
G1 F4800 E30.2871
G1 X134.391 Y112.600 E30.4910 F5400
G1 F4800 E29.4910
G1 X139.200 Y114.400 F10800
G1 F4800 E30.4910
G1 X133.800 Y114.400 E30.7200 F5400
G1 F4800 E29.7200
G1 X146.400 Y89.200 F10800
G1 F4800 E30.7200
G1 X132.978 Y89.200 E31.2892 F5400
G1 F4800 E30.2892
G1 X146.400 Y87.400 F10800
G1 F4800 E31.2892
G1 X130.264 Y87.400 E31.9735 F5400
G1 F4800 E30.9735
G1 X138.160 Y99.203 F10800
G1 X138.583 Y101.622
G1 X139.200 Y116.200
G1 F4800 E31.9735
G1 X128.710 Y116.200 E32.4183 F5400
G1 F4800 E31.4183
G1 X132.001 Y113.992 F10800
G1 X135.536 Y110.696
G1 X137.824 Y106.416
G1 X138.583 Y101.622
G1 X135.600 Y85.600
G1 F4800 E32.4183
G1 X125.631 Y85.600 E32.8411 F5400
G1 F4800 E31.8411
G1 X138.160 Y99.203 F10800
G1 X138.583 Y101.622
G1 X135.600 Y125.200
G1 F4800 E32.8411
G1 X123.000 Y125.200 E33.3754 F5400
G1 F4800 E32.3754
G1 X135.600 Y123.400 F10800
G1 F4800 E33.3754
G1 X123.000 Y123.400 E33.9098 F5400
G1 F4800 E32.9098
G1 X135.600 Y119.800 F10800
G1 F4800 E33.9098
G1 X112.200 Y119.800 E34.9021 F5400
G1 F4800 E33.9021
G1 X135.600 Y121.600 F10800
G1 F4800 E34.9021
G1 X112.200 Y121.600 E35.8944 F5400
G1 F4800 E34.8944
G1 X106.652 Y105.551 F10800
G1 X105.807 Y100.713
G1 X106.565 Y95.919
G1 X112.448 Y88.292
G1 X124.800 Y80.200
G1 F4800 E35.8944
G1 X108.600 Y80.200 E36.5814 F5400
G1 F4800 E35.5814
G1 X124.800 Y82.000 F10800
G1 F4800 E36.5814
G1 X108.600 Y82.000 E37.2684 F5400
G1 F4800 E36.2684
G1 X114.000 Y76.600 F10800
G1 F4800 E37.2684
G1 X108.600 Y76.600 E37.4974 F5400
G1 F4800 E36.4974
G1 X114.000 Y78.400 F10800
G1 F4800 E37.4974
G1 X108.600 Y78.400 E37.7264 F5400
G1 F4800 E36.7264
G1 X106.800 Y92.800 F10800
G1 F4800 E37.7264
G1 X105.000 Y92.800 E37.8027 F5400
G1 F4800 E36.8027
G1 X110.400 Y89.200 F10800
G1 F4800 E37.8027
G1 X105.000 Y89.200 E38.0317 F5400
G1 X106.800 Y91.000 E38.1396
G1 X105.000 Y91.000 E38.2160
G1 F4800 E37.2160
G1 X116.996 Y86.205 F10800
G1 X135.600 Y83.800
G1 F4800 E38.2160
G1 X105.000 Y83.800 E39.5136 F5400
G1 F4800 E38.5136
G1 X110.400 Y87.400 F10800
G1 F4800 E39.5136
G1 X105.000 Y87.400 E39.7426 F5400
G1 F4800 E38.7426
G1 X116.900 Y85.600 F10800
G1 F4800 E39.7426
G1 X105.000 Y85.600 E40.2473 F5400
G1 F4800 E39.2473
G1 X105.382 Y101.800 F10800
G1 F4800 E40.2473
G1 X101.400 Y101.800 E40.4161 F5400
G1 F4800 E39.4161
G1 X105.870 Y96.400 F10800
G1 F4800 E40.4161
G1 X101.400 Y96.400 E40.6057 F5400
G1 F4800 E39.6057
G1 X105.589 Y98.200 F10800
G1 F4800 E40.6057
G1 X101.400 Y98.200 E40.7833 F5400
G1 F4800 E39.7833
G1 X106.576 Y94.600 F10800
G1 F4800 E40.7833
G1 X101.400 Y94.600 E41.0028 F5400
G1 F4800 E40.0028
G1 X105.693 Y103.600 F10800
G1 F4800 E41.0028
G1 X101.400 Y103.600 E41.1849 F5400
G1 F4800 E40.1849
G1 X112.676 Y113.509 F10800
G1 X116.605 Y116.200
G1 F4800 E41.1849
G1 X101.400 Y116.200 E41.8296 F5400
G1 F4800 E40.8296
G1 X139.200 Y118.000 F10800
G1 F4800 E41.8296
G1 X101.400 Y118.000 E43.4326 F5400
G1 F4800 E42.4326
G1 X105.307 Y100.000 F10800
G1 F4800 E43.4326
G1 X101.400 Y100.000 E43.5983 F5400
G1 F4800 E42.5983
G1 X106.800 Y107.200 F10800
G1 F4800 E43.5983
G1 X97.800 Y107.200 E43.9799 F5400
G1 F4800 E42.9799
G1 X106.800 Y109.000 F10800
G1 F4800 E43.9799
G1 X97.800 Y109.000 E44.3616 F5400
G1 F4800 E43.3616
G1 X106.004 Y105.400 F10800
G1 F4800 E44.3616
G1 X97.800 Y105.400 E44.7095 F5400
G1 F4800 E43.7095
G1 X110.400 Y112.600 F10800
G1 F4800 E44.7095
G1 X97.800 Y112.600 E45.2438 F5400
G1 F4800 E44.2438
G1 X110.400 Y114.400 F10800
G1 F4800 E45.2438
G1 X97.800 Y114.400 E45.7782 F5400
G1 F4800 E44.7782
G1 X106.800 Y110.800 F10800
G1 F4800 E45.7782
G1 X97.800 Y110.800 E46.1598 F5400
; ------------------------------------
; Layer #8
; ------------------------------------
G21 ; mm
G90 ; abs
G92 E0 ; reset extr
M106 S255
;segType:Support
G1 F4800 E-1.0000
G1 F300 Z2.700
G1 X101.400 Y116.200 F10800
G1 F4800 E0.0000
G1 X116.605 Y116.200 E0.6448 F5400
G1 F4800 E-0.3552
G1 X97.800 Y112.600 F10800
G1 F4800 E0.6448
G1 X110.400 Y112.600 E1.1791 F5400
G1 F4800 E0.1791
G1 X101.400 Y103.600 F10800
G1 F4800 E1.1791
G1 X105.693 Y103.600 E1.3612 F5400
G1 X106.004 Y105.400 E1.4386
G1 X97.800 Y105.400 E1.7865
G1 F4800 E0.7865
G1 X114.970 Y114.679 F10800
G1 X119.801 Y116.301
G1 X135.600 Y121.600
G1 F4800 E1.7865
G1 X112.200 Y121.600 E2.7789 F5400
G1 F4800 E1.7789
G1 X101.400 Y118.000 F10800
G1 F4800 E2.7789
G1 X139.200 Y118.000 E4.3818 F5400
G1 F4800 E3.3818
G1 X135.600 Y123.400 F10800
G1 F4800 E4.3818
G1 X123.000 Y123.400 E4.9162 F5400
G1 F4800 E3.9162
G1 X128.710 Y116.200 F10800
G1 F4800 E4.9162
G1 X139.200 Y116.200 E5.3610 F5400
G1 F4800 E4.3610
G1 X135.600 Y119.800 F10800
G1 F4800 E5.3610
G1 X112.200 Y119.800 E6.3533 F5400
G1 F4800 E5.3533
G1 X106.800 Y110.800 F10800
G1 F4800 E6.3533
G1 X97.800 Y110.800 E6.7350 F5400
G1 F4800 E5.7350
G1 X106.800 Y107.200 F10800
G1 F4800 E6.7350
G1 X97.800 Y107.200 E7.1166 F5400
G1 F4800 E6.1166
G1 X105.382 Y101.800 F10800
G1 F4800 E7.1166
G1 X101.400 Y101.800 E7.2855 F5400
G1 F4800 E6.2855
G1 X106.800 Y109.000 F10800
G1 F4800 E7.2855
G1 X97.800 Y109.000 E7.6671 F5400
G1 F4800 E6.6671
G1 X97.800 Y114.400 F10800
G1 F4800 E7.6671
G1 X110.400 Y114.400 E8.2015 F5400
G1 F4800 E7.2015
G1 X119.801 Y116.301 F10800
G1 X122.337 Y116.753
G1 X127.393 Y116.130
G1 X132.008 Y113.985
G1 X137.400 Y109.000
G1 F4800 E8.2015
G1 X139.200 Y109.000 E8.2778 F5400
G1 F4800 E7.2778
G1 X138.583 Y101.622 F10800
G1 X137.738 Y96.784
G1 X135.370 Y92.374
G1 X131.714 Y88.826
G1 X127.125 Y86.485
G1 X122.053 Y85.583
G1 X116.898 Y85.600
G1 F4800 E8.2778
G1 X105.000 Y85.600 E8.7823 F5400
G1 F4800 E7.7823
G1 X106.576 Y94.600 F10800
G1 F4800 E8.7823
G1 X101.400 Y94.600 E9.0019 F5400
G1 F4800 E8.0019
G1 X105.000 Y83.800 F10800
G1 F4800 E9.0019
G1 X135.600 Y83.800 E10.2995 F5400
G1 F4800 E9.2995
G1 X137.400 Y94.600 F10800
G1 F4800 E10.2995
G1 X146.400 Y94.600 E10.6812 F5400
G1 X146.400 Y92.800 E10.7575
G1 X137.400 Y92.800 E11.1391
G1 F4800 E10.1391
G1 X146.400 Y96.400 F10800
G1 F4800 E11.1391
G1 X138.227 Y96.400 E11.4857 F5400
G1 F4800 E10.4857
G1 X139.200 Y112.600 F10800
G1 F4800 E11.4857
G1 X134.390 Y112.600 E11.6897 F5400
G1 F4800 E10.6897
G1 X138.603 Y105.400 F10800
G1 F4800 E11.6897
G1 X142.800 Y105.400 E11.8677 F5400
G1 F4800 E10.8677
G1 X139.799 Y106.244 F10800
G1 X136.799 Y107.089
G1 F4800 E11.8677
;segType:Loop
G1 X135.064 Y110.333 E12.0512 F3600
G1 X131.639 Y113.523 E12.2847
G1 X131.580 Y113.563 E12.2883
G1 X127.231 Y115.558 E12.5270
G1 X122.353 Y116.158 E12.7722
G1 X117.454 Y115.286 E13.0204
G1 X113.022 Y113.025 E13.2687
G1 X109.494 Y109.602 E13.5139
G1 X107.215 Y105.357 E13.7543
G1 X106.403 Y100.708 E13.9897
G1 X107.130 Y96.109 E14.2221
G1 X109.326 Y92.003 E14.4544
G1 X112.779 Y88.786 E14.6898
G1 X117.159 Y86.777 E14.9302
G1 X122.037 Y86.177 E15.1754
G1 X126.936 Y87.049 E15.4237
G1 X131.368 Y89.310 E15.6719
G1 X134.896 Y92.733 E15.9171
G1 X137.175 Y96.979 E16.1576
G1 X137.987 Y101.627 E16.3930
G1 X137.260 Y106.226 E16.6253
G1 X136.888 Y106.921 E16.6646
;segType:Perimeter
G1 X137.263 Y105.821 F10800
G1 X137.617 Y106.406 E16.6987 F2159
G1 X135.385 Y110.580 E16.9349
G1 X131.890 Y113.836 E17.1732
G1 X131.778 Y113.913 E17.1800
G1 X127.342 Y115.948 E17.4235
G1 X122.342 Y116.563 E17.6748
G1 X117.325 Y115.670 E17.9290
G1 X112.786 Y113.354 E18.1832
G1 X109.171 Y109.846 E18.4345
G1 X106.832 Y105.489 E18.6813
G1 X105.997 Y100.712 E18.9232
G1 X106.745 Y95.980 E19.1622
G1 X109.005 Y91.755 E19.4012
G1 X112.553 Y88.450 E19.6432
G1 X117.048 Y86.388 E19.8899
G1 X122.048 Y85.773 E20.1413
G1 X127.065 Y86.665 E20.3955
G1 X131.603 Y88.981 E20.6497
G1 X135.219 Y92.489 E20.9010
G1 X137.558 Y96.846 E21.1477
G1 X138.393 Y101.624 E21.3897
G1 X137.653 Y106.299 E21.6258
G1 X137.017 Y106.552
;segType:Infill
G1 X123.686 Y115.793 F10800
G1 X121.440 Y115.793 E21.7379 F5400
G1 X112.038 Y111.792 F10800
G1 X133.205 Y111.792 E22.7939 F5400
G1 X136.197 Y107.791 F10800
G1 X108.748 Y107.791 E24.1633 F5400
G1 X107.144 Y103.789 F10800
G1 X137.443 Y103.789 E25.6749 F5400
G1 X137.463 Y99.788 F10800
G1 X106.751 Y99.788 E27.2072 F5400
G1 X107.529 Y95.787 F10800
G1 X136.309 Y95.787 E28.6430 F5400
G1 X133.633 Y91.786 F10800
G1 X109.851 Y91.786 E29.8295 F5400
G1 X115.441 Y87.785 F10800
G1 X127.940 Y87.785 E30.4531 F5400
G1 X135.246 Y93.808 F10800
G1 X135.246 Y109.568 E31.2393 F5400
G1 X131.245 Y113.497 F10800
G1 X131.245 Y89.471 E32.4379 F5400
G1 X127.245 Y87.431 F10800
G1 X127.245 Y115.332 E33.8299 F5400
G1 X123.244 Y115.847 F10800
G1 X123.244 Y86.595 E35.2893 F5400
G1 X119.243 Y86.722 F10800
G1 X119.243 Y115.401 E36.7202 F5400
G1 X115.242 Y113.933 F10800
G1 X115.242 Y87.876 E38.0201 F5400
G1 X111.241 Y90.492 F10800
G1 X111.241 Y111.018 E39.0442 F5400
G1 X107.240 Y104.339 F10800
G1 X107.240 Y96.695 E39.4256 F5400
;segType:Support
G1 F4800 E38.4256
G1 X142.800 Y107.200 F10800
G1 F4800 E39.4256
G1 X138.100 Y107.200 E39.6249 F5400
G1 F4800 E38.6249
G1 X142.800 Y103.600 F10800
G1 F4800 E39.6249
G1 X141.000 Y103.600 E39.7012 F5400
G1 F4800 E38.7012
G1 X146.400 Y89.200 F10800
G1 F4800 E39.7012
G1 X132.978 Y89.200 E40.2704 F5400
G1 F4800 E39.2704
G1 X137.400 Y91.000 F10800
G1 F4800 E40.2704
G1 X146.400 Y91.000 E40.6521 F5400
G1 F4800 E39.6521
G1 X142.800 Y98.200 F10800
G1 F4800 E40.6521
G1 X138.604 Y98.200 E40.8300 F5400
G1 F4800 E39.8300
G1 X142.800 Y101.800 F10800
G1 F4800 E40.8300
G1 X141.000 Y101.800 E40.9063 F5400
G1 X142.800 Y100.000 E41.0143
G1 X138.916 Y100.000 E41.1790
G1 F4800 E40.1790
G1 X139.200 Y114.400 F10800
G1 F4800 E41.1790
G1 X133.800 Y114.400 E41.4080 F5400
G1 F4800 E40.4080
G1 X137.824 Y106.416 F10800
G1 X138.583 Y101.622
G1 X137.738 Y96.784
G1 X135.370 Y92.374
G1 X131.714 Y88.826
G1 X127.125 Y86.485
G1 X122.053 Y85.583
G1 X116.996 Y86.205
G1 X110.400 Y87.400
G1 F4800 E41.4080
G1 X105.000 Y87.400 E41.6370 F5400
G1 F4800 E40.6370
G1 X101.400 Y100.000 F10800
G1 F4800 E41.6370
G1 X105.307 Y100.000 E41.8027 F5400
G1 F4800 E40.8027
G1 X106.800 Y91.000 F10800
G1 F4800 E41.8027
G1 X105.000 Y91.000 E41.8790 F5400
G1 F4800 E40.8790
G1 X110.400 Y89.200 F10800
G1 F4800 E41.8790
G1 X105.000 Y89.200 E42.1080 F5400
G1 F4800 E41.1080
G1 X106.800 Y92.800 F10800
G1 F4800 E42.1080
G1 X105.000 Y92.800 E42.1843 F5400
G1 F4800 E41.1843
G1 X101.400 Y98.200 F10800
G1 F4800 E42.1843
G1 X105.589 Y98.200 E42.3619 F5400
G1 F4800 E41.3619
G1 X114.722 Y87.248 F10800
G1 X124.800 Y80.200
G1 F4800 E42.3619
G1 X108.600 Y80.200 E43.0489 F5400
G1 F4800 E42.0489
G1 X114.000 Y78.400 F10800
G1 F4800 E43.0489
G1 X108.600 Y78.400 E43.2779 F5400
G1 X108.600 Y76.600 E43.3543
G1 X114.000 Y76.600 E43.5833
G1 F4800 E42.5833
G1 X131.714 Y88.826 F10800
G1 X138.160 Y99.203
G1 X138.583 Y101.622
G1 X137.400 Y110.800
G1 F4800 E43.5833
G1 X139.200 Y110.800 E43.6596 F5400
G1 F4800 E42.6596
G1 X127.393 Y116.130 F10800
G1 X122.337 Y116.753
G1 X117.265 Y115.850
G1 X112.676 Y113.509
G1 X109.019 Y109.961
G1 X106.652 Y105.551
G1 X105.807 Y100.713
G1 X105.870 Y96.400
G1 F4800 E43.6596
G1 X101.400 Y96.400 E43.8492 F5400
G1 F4800 E42.8492
G1 X108.600 Y82.000 F10800
G1 F4800 E43.8492
G1 X124.800 Y82.000 E44.5361 F5400
G1 F4800 E43.5361
G1 X130.265 Y87.400 F10800
G1 F4800 E44.5361
G1 X146.400 Y87.400 E45.2204 F5400
G1 F4800 E44.2204
G1 X135.600 Y85.600 F10800
G1 F4800 E45.2204
G1 X125.632 Y85.600 E45.6431 F5400
G1 F4800 E44.6431
G1 X138.160 Y99.203 F10800
G1 X138.583 Y101.622
G1 X135.600 Y125.200
G1 F4800 E45.6431
G1 X123.000 Y125.200 E46.1774 F5400
; ------------------------------------
; Layer #9
; ------------------------------------
G21 ; mm
G90 ; abs
G92 E0 ; reset extr
M106 S255
;segType:Support
G1 F4800 E-1.0000
G1 F300 Z3.000
G1 X97.800 Y110.800 F10800
G1 F4800 E0.0000
G1 X106.800 Y110.800 E0.3817 F5400
G1 F4800 E-0.6183
G1 X97.800 Y114.400 F10800
G1 F4800 E0.3817
G1 X110.400 Y114.400 E0.9160 F5400
G1 F4800 E-0.0840
G1 X97.800 Y112.600 F10800
G1 F4800 E0.9160
G1 X110.400 Y112.600 E1.4503 F5400
G1 F4800 E0.4503
G1 X97.800 Y105.400 F10800
G1 F4800 E1.4503
G1 X106.004 Y105.400 E1.7982 F5400
G1 F4800 E0.7982
G1 X97.800 Y109.000 F10800
G1 F4800 E1.7982
G1 X106.800 Y109.000 E2.1799 F5400
G1 F4800 E1.1799
G1 X97.800 Y107.200 F10800
G1 F4800 E2.1799
G1 X106.800 Y107.200 E2.5616 F5400
G1 F4800 E1.5616
G1 X101.400 Y100.000 F10800
G1 F4800 E2.5616
G1 X105.307 Y100.000 E2.7272 F5400
G1 F4800 E1.7272
G1 X101.400 Y118.000 F10800
G1 F4800 E2.7272
G1 X139.200 Y118.000 E4.3302 F5400
G1 F4800 E3.3302
G1 X101.400 Y116.200 F10800
G1 F4800 E4.3302
G1 X116.605 Y116.200 E4.9750 F5400
G1 F4800 E3.9750
G1 X112.676 Y113.509 F10800
G1 X101.400 Y103.600
G1 F4800 E4.9750
G1 X105.693 Y103.600 E5.1570 F5400
G1 F4800 E4.1570
G1 X101.400 Y94.600 F10800
G1 F4800 E5.1570
G1 X106.576 Y94.600 E5.3766 F5400
G1 F4800 E4.3766
G1 X101.400 Y98.200 F10800
G1 F4800 E5.3766
G1 X105.589 Y98.200 E5.5542 F5400
G1 F4800 E4.5542
G1 X101.400 Y96.400 F10800
G1 F4800 E5.5542
G1 X105.870 Y96.400 E5.7437 F5400
G1 F4800 E4.7437
G1 X101.400 Y101.800 F10800
G1 F4800 E5.7437
G1 X105.382 Y101.800 E5.9126 F5400
G1 F4800 E4.9126
G1 X105.000 Y85.600 F10800
G1 F4800 E5.9126
G1 X116.898 Y85.600 E6.4172 F5400
G1 F4800 E5.4172
G1 X105.000 Y87.400 F10800
G1 F4800 E6.4172
G1 X110.400 Y87.400 E6.6462 F5400
G1 F4800 E5.6462
G1 X105.000 Y83.800 F10800
G1 F4800 E6.6462
G1 X135.600 Y83.800 E7.9438 F5400
G1 F4800 E6.9438
G1 X116.997 Y86.205 F10800
G1 X105.000 Y91.000
G1 F4800 E7.9438
G1 X106.800 Y91.000 E8.0201 F5400
G1 X105.000 Y89.200 E8.1281
G1 X110.400 Y89.200 E8.3571
G1 F4800 E7.3571
G1 X105.000 Y92.800 F10800
G1 F4800 E8.3571
G1 X106.800 Y92.800 E8.4334 F5400
G1 F4800 E7.4334
G1 X108.600 Y78.400 F10800
G1 F4800 E8.4334
G1 X114.000 Y78.400 E8.6624 F5400
G1 F4800 E7.6624
G1 X108.600 Y76.600 F10800
G1 F4800 E8.6624
G1 X114.000 Y76.600 E8.8914 F5400
G1 F4800 E7.8914
G1 X108.600 Y82.000 F10800
G1 F4800 E8.8914
G1 X124.800 Y82.000 E9.5784 F5400
G1 F4800 E8.5784
G1 X108.600 Y80.200 F10800
G1 F4800 E9.5784
G1 X124.800 Y80.200 E10.2654 F5400
G1 F4800 E9.2654
G1 X112.448 Y88.292 F10800
G1 X107.836 Y107.756
G1 X112.200 Y121.600
G1 F4800 E10.2654
G1 X135.600 Y121.600 E11.2577 F5400
G1 F4800 E10.2577
G1 X112.200 Y119.800 F10800
G1 F4800 E11.2577
G1 X135.600 Y119.800 E12.2500 F5400
G1 F4800 E11.2500
G1 X123.000 Y123.400 F10800
G1 F4800 E12.2500
G1 X135.600 Y123.400 E12.7843 F5400
G1 F4800 E11.7843
G1 X123.000 Y125.200 F10800
G1 F4800 E12.7843
G1 X135.600 Y125.200 E13.3187 F5400
G1 F4800 E12.3187
G1 X138.583 Y101.622 F10800
G1 X137.738 Y96.784
G1 X135.371 Y92.374
G1 X131.714 Y88.826
G1 X125.632 Y85.600
G1 F4800 E13.3187
G1 X135.600 Y85.600 E13.7414 F5400
G1 F4800 E12.7414
G1 X138.583 Y101.622 F10800
G1 X137.824 Y106.416
G1 X135.536 Y110.696
G1 X131.863 Y114.082
G1 X128.710 Y116.200
G1 F4800 E13.7414
G1 X139.200 Y116.200 E14.1862 F5400
G1 F4800 E13.1862
G1 X138.583 Y101.622 F10800
G1 X137.738 Y96.784
G1 X135.371 Y92.374
G1 X130.265 Y87.400
G1 F4800 E14.1862
G1 X146.400 Y87.400 E14.8705 F5400
G1 F4800 E13.8705
G1 X132.978 Y89.200 F10800
G1 F4800 E14.8705
G1 X146.400 Y89.200 E15.4397 F5400
G1 F4800 E14.4397
G1 X133.800 Y114.400 F10800
G1 F4800 E15.4397
G1 X139.200 Y114.400 E15.6687 F5400
G1 F4800 E14.6687
G1 X134.390 Y112.600 F10800
G1 F4800 E15.6687
G1 X139.200 Y112.600 E15.8726 F5400
G1 F4800 E14.8726
G1 X138.583 Y101.622 F10800
G1 X137.400 Y92.800
G1 F4800 E15.8726
G1 X146.400 Y92.800 E16.2543 F5400
G1 F4800 E15.2543
G1 X137.400 Y94.600 F10800
G1 F4800 E16.2543
G1 X146.400 Y94.600 E16.6359 F5400
G1 F4800 E15.6359
G1 X137.400 Y110.800 F10800
G1 F4800 E16.6359
G1 X139.200 Y110.800 E16.7123 F5400
G1 X137.400 Y109.000 E16.8202
G1 X139.200 Y109.000 E16.8966
G1 F4800 E15.8966
G1 X138.686 Y103.857 F10800
G1 X138.429 Y101.286
G1 X137.400 Y91.000
G1 F4800 E16.8966
G1 X146.400 Y91.000 E17.2782 F5400
G1 F4800 E16.2782
G1 X138.100 Y107.200 F10800
G1 F4800 E17.2782
G1 X142.800 Y107.200 E17.4775 F5400
G1 F4800 E16.4775
G1 X138.227 Y96.400 F10800
G1 F4800 E17.4775
G1 X146.400 Y96.400 E17.8241 F5400
G1 F4800 E16.8241
G1 X138.603 Y105.400 F10800
G1 F4800 E17.8241
G1 X142.800 Y105.400 E18.0021 F5400
G1 F4800 E17.0021
G1 X138.604 Y98.200 F10800
G1 F4800 E18.0021
G1 X142.800 Y98.200 E18.1800 F5400
G1 F4800 E17.1800
G1 X138.916 Y100.000 F10800
G1 F4800 E18.1800
G1 X142.800 Y100.000 E18.3448 F5400
G1 F4800 E17.3448
G1 X141.000 Y103.600 F10800
G1 F4800 E18.3448
G1 X142.800 Y103.600 E18.4211 F5400
G1 X141.000 Y101.800 E18.5290
G1 X142.800 Y101.800 E18.6054
G1 F4800 E17.6054
G1 X138.799 Y105.326 F10800
G1 X136.799 Y107.088
G1 F4800 E18.6054
;segType:Loop
G1 X135.064 Y110.333 E18.7889 F3600
G1 X131.646 Y113.516 E19.0219
G1 X131.572 Y113.567 E19.0264
G1 X127.231 Y115.558 E19.2647
G1 X122.353 Y116.158 E19.5099
G1 X117.454 Y115.286 E19.7581
G1 X113.022 Y113.025 E20.0064
G1 X109.494 Y109.602 E20.2516
G1 X107.215 Y105.356 E20.4920
G1 X106.403 Y100.708 E20.7274
G1 X107.130 Y96.109 E20.9598
G1 X109.326 Y92.003 E21.1921
G1 X112.779 Y88.786 E21.4275
G1 X117.159 Y86.777 E21.6679
G1 X122.037 Y86.177 E21.9131
G1 X126.936 Y87.049 E22.1614
G1 X131.368 Y89.310 E22.4096
G1 X134.896 Y92.733 E22.6548
G1 X137.175 Y96.979 E22.8952
G1 X137.987 Y101.627 E23.1306
G1 X137.260 Y106.226 E23.3630
G1 X136.888 Y106.921 E23.4023
;segType:Perimeter
G1 X137.263 Y105.820 F10800
G1 X137.617 Y106.405 E23.4364 F2159
G1 X135.385 Y110.580 E23.6726
G1 X131.897 Y113.829 E23.9104
G1 X131.770 Y113.916 E23.9181
G1 X127.342 Y115.947 E24.1611
G1 X122.342 Y116.563 E24.4125
G1 X117.325 Y115.670 E24.6667
G1 X112.786 Y113.354 E24.9209
G1 X109.171 Y109.846 E25.1722
G1 X106.832 Y105.489 E25.4189
G1 X105.997 Y100.712 E25.6609
G1 X106.745 Y95.980 E25.8999
G1 X109.005 Y91.755 E26.1389
G1 X112.553 Y88.450 E26.3809
G1 X117.048 Y86.388 E26.6276
G1 X122.048 Y85.773 E26.8789
G1 X127.065 Y86.665 E27.1331
G1 X131.603 Y88.981 E27.3873
G1 X135.219 Y92.489 E27.6387
G1 X137.558 Y96.846 E27.8854
G1 X138.393 Y101.623 E28.1273
G1 X137.653 Y106.299 E28.3635
G1 X137.017 Y106.551
;segType:Infill
G1 X123.682 Y115.793 F10800
G1 X121.443 Y115.793 E28.4752 F5400
G1 X112.038 Y111.792 F10800
G1 X133.205 Y111.792 E29.5312 F5400
G1 X136.197 Y107.791 F10800
G1 X108.749 Y107.791 E30.9006 F5400
G1 X107.144 Y103.789 F10800
G1 X137.443 Y103.789 E32.4122 F5400
G1 X137.463 Y99.788 F10800
G1 X106.751 Y99.788 E33.9445 F5400
G1 X107.529 Y95.787 F10800
G1 X136.309 Y95.787 E35.3803 F5400
G1 X133.634 Y91.786 F10800
G1 X109.851 Y91.786 E36.5668 F5400
G1 X115.441 Y87.785 F10800
G1 X127.940 Y87.785 E37.1904 F5400
G1 X135.246 Y93.808 F10800
G1 X135.246 Y109.568 E37.9766 F5400
G1 X131.245 Y113.496 F10800
G1 X131.245 Y89.471 E39.1752 F5400
G1 X127.245 Y87.431 F10800
G1 X127.245 Y115.331 E40.5672 F5400
G1 X123.244 Y115.847 F10800
G1 X123.244 Y86.595 E42.0266 F5400
G1 X119.243 Y86.722 F10800
G1 X119.243 Y115.401 E43.4574 F5400
G1 X115.242 Y113.933 F10800
G1 X115.242 Y87.876 E44.7574 F5400
G1 X111.241 Y90.492 F10800
G1 X111.241 Y111.018 E45.7815 F5400
G1 X107.240 Y104.339 F10800
G1 X107.240 Y96.695 E46.1628 F5400
; ------------------------------------
; Layer #10
; ------------------------------------
G21 ; mm
G90 ; abs
G92 E0 ; reset extr
M106 S255
;segType:Loop
G1 F4800 E-1.0000
G1 F300 Z3.300
G1 X136.799 Y107.088 F10800
G1 F4800 E0.0000
G1 X135.064 Y110.333 E0.1835 F3600
G1 X131.653 Y113.509 E0.4161
G1 X131.564 Y113.571 E0.4215
G1 X127.231 Y115.558 E0.6593
G1 X122.353 Y116.158 E0.9045
G1 X117.454 Y115.286 E1.1528
G1 X113.022 Y113.025 E1.4010
G1 X109.494 Y109.602 E1.6462
G1 X107.215 Y105.356 E1.8866
G1 X106.403 Y100.708 E2.1220
G1 X107.130 Y96.109 E2.3544
G1 X109.326 Y92.002 E2.5867
G1 X112.779 Y88.786 E2.8221
G1 X117.159 Y86.777 E3.0625
G1 X122.037 Y86.177 E3.3077
G1 X126.936 Y87.049 E3.5560
G1 X131.368 Y89.310 E3.8042
G1 X134.896 Y92.733 E4.0494
G1 X137.175 Y96.978 E4.2899
G1 X137.987 Y101.627 E4.5253
G1 X137.260 Y106.226 E4.7576
G1 X136.888 Y106.921 E4.7969
;segType:Perimeter
G1 X137.263 Y105.820 F10800
G1 X137.617 Y106.405 E4.8310 F2159
G1 X135.385 Y110.580 E5.0672
G1 X131.904 Y113.822 E5.3045
G1 X131.761 Y113.920 E5.3132
G1 X127.342 Y115.947 E5.5558
G1 X122.342 Y116.562 E5.8071
G1 X117.325 Y115.670 E6.0613
G1 X112.786 Y113.354 E6.3155
G1 X109.171 Y109.846 E6.5668
G1 X106.832 Y105.489 E6.8136
G1 X105.997 Y100.712 E7.0555
G1 X106.746 Y95.980 E7.2945
G1 X109.005 Y91.755 E7.5335
G1 X112.553 Y88.449 E7.7755
G1 X117.048 Y86.387 E8.0222
G1 X122.048 Y85.772 E8.2735
G1 X127.065 Y86.665 E8.5277
G1 X131.603 Y88.981 E8.7819
G1 X135.219 Y92.489 E9.0333
G1 X137.558 Y96.846 E9.2800
G1 X138.393 Y101.623 E9.5220
G1 X137.653 Y106.299 E9.7581
G1 X137.017 Y106.551
;segType:Infill
G1 X123.682 Y115.793 F10800
G1 X121.443 Y115.793 E9.8698 F5400
G1 X112.038 Y111.792 F10800
G1 X133.204 Y111.792 E10.9258 F5400
G1 X136.196 Y107.791 F10800
G1 X108.749 Y107.791 E12.2952 F5400
G1 X107.144 Y103.789 F10800
G1 X137.443 Y103.789 E13.8068 F5400
G1 X137.463 Y99.788 F10800
G1 X106.751 Y99.788 E15.3391 F5400
G1 X107.529 Y95.787 F10800
G1 X136.309 Y95.787 E16.7749 F5400
G1 X133.634 Y91.786 F10800
G1 X109.851 Y91.786 E17.9614 F5400
G1 X115.440 Y87.785 F10800
G1 X127.940 Y87.785 E18.5850 F5400
G1 X135.246 Y93.808 F10800
G1 X135.246 Y109.567 E19.3713 F5400
G1 X131.245 Y113.496 F10800
G1 X131.245 Y89.471 E20.5699 F5400
G1 X127.245 Y87.430 F10800
G1 X127.245 Y115.331 E21.9619 F5400
G1 X123.244 Y115.847 F10800
G1 X123.244 Y86.594 E23.4213 F5400
G1 X119.243 Y86.722 F10800
G1 X119.243 Y115.401 E24.8521 F5400
G1 X115.242 Y113.933 F10800
G1 X115.242 Y87.876 E26.1521 F5400
G1 X111.241 Y90.492 F10800
G1 X111.241 Y111.018 E27.1762 F5400
G1 X107.240 Y104.339 F10800
G1 X107.240 Y96.695 E27.5575 F5400
;segType:Support
G1 F4800 E26.5575
G1 X142.800 Y101.800 F10800
G1 F4800 E27.5575
G1 X141.000 Y101.800 E27.6339 F5400
G1 X142.800 Y103.600 E27.7418
G1 X141.000 Y103.600 E27.8181
G1 F4800 E26.8181
G1 X142.800 Y100.000 F10800
G1 F4800 E27.8181
G1 X138.916 Y100.000 E27.9829 F5400
G1 F4800 E26.9829
G1 X142.800 Y98.200 F10800
G1 F4800 E27.9829
G1 X138.604 Y98.200 E28.1608 F5400
G1 F4800 E27.1608
G1 X142.800 Y105.400 F10800
G1 F4800 E28.1608
G1 X138.603 Y105.400 E28.3387 F5400
G1 F4800 E27.3387
G1 X146.400 Y96.400 F10800
G1 F4800 E28.3387
G1 X138.227 Y96.400 E28.6853 F5400
G1 F4800 E27.6853
G1 X142.800 Y107.200 F10800
G1 F4800 E28.6853
G1 X138.100 Y107.200 E28.8847 F5400
G1 F4800 E27.8847
G1 X146.400 Y91.000 F10800
G1 F4800 E28.8847
G1 X137.400 Y91.000 E29.2663 F5400
G1 F4800 E28.2663
G1 X138.429 Y101.286 F10800
G1 X138.686 Y103.857
G1 X139.200 Y109.000
G1 F4800 E29.2663
G1 X137.400 Y109.000 E29.3426 F5400
G1 X139.200 Y110.800 E29.4506
G1 X137.400 Y110.800 E29.5269
G1 F4800 E28.5269
G1 X146.400 Y94.600 F10800
G1 F4800 E29.5269
G1 X137.400 Y94.600 E29.9086 F5400
G1 F4800 E28.9086
G1 X146.400 Y92.800 F10800
G1 F4800 E29.9086
G1 X137.400 Y92.800 E30.2903 F5400
G1 F4800 E29.2903
G1 X138.583 Y101.622 F10800
G1 X139.200 Y112.600
G1 F4800 E30.2903
G1 X134.390 Y112.600 E30.4942 F5400
G1 F4800 E29.4942
G1 X139.200 Y114.400 F10800
G1 F4800 E30.4942
G1 X133.800 Y114.400 E30.7232 F5400
G1 F4800 E29.7232
G1 X146.400 Y89.200 F10800
G1 F4800 E30.7232
G1 X132.978 Y89.200 E31.2924 F5400
G1 F4800 E30.2924
G1 X146.400 Y87.400 F10800
G1 F4800 E31.2924
G1 X130.265 Y87.400 E31.9766 F5400
G1 F4800 E30.9766
G1 X138.160 Y99.203 F10800
G1 X138.583 Y101.622
G1 X139.200 Y116.200
G1 F4800 E31.9766
G1 X128.710 Y116.200 E32.4215 F5400
G1 F4800 E31.4215
G1 X132.023 Y113.971 F10800
G1 X135.536 Y110.696
G1 X137.824 Y106.416
G1 X138.583 Y101.622
G1 X135.600 Y85.600
G1 F4800 E32.4215
G1 X125.633 Y85.600 E32.8441 F5400
G1 F4800 E31.8441
G1 X138.160 Y99.203 F10800
G1 X138.583 Y101.622
G1 X135.600 Y125.200
G1 F4800 E32.8441
G1 X123.000 Y125.200 E33.3785 F5400
G1 F4800 E32.3785
G1 X135.600 Y123.400 F10800
G1 F4800 E33.3785
G1 X123.000 Y123.400 E33.9128 F5400
G1 F4800 E32.9128
G1 X135.600 Y119.800 F10800
G1 F4800 E33.9128
G1 X112.200 Y119.800 E34.9051 F5400
G1 F4800 E33.9051
G1 X135.600 Y121.600 F10800
G1 F4800 E34.9051
G1 X112.200 Y121.600 E35.8974 F5400
G1 F4800 E34.8974
G1 X106.652 Y105.551 F10800
G1 X105.807 Y100.713
G1 X106.566 Y95.919
G1 X112.448 Y88.291
G1 X124.800 Y80.200
G1 F4800 E35.8974
G1 X108.600 Y80.200 E36.5844 F5400
G1 F4800 E35.5844
G1 X124.800 Y82.000 F10800
G1 F4800 E36.5844
G1 X108.600 Y82.000 E37.2714 F5400
G1 F4800 E36.2714
G1 X114.000 Y76.600 F10800
G1 F4800 E37.2714
G1 X108.600 Y76.600 E37.5004 F5400
G1 F4800 E36.5004
G1 X114.000 Y78.400 F10800
G1 F4800 E37.5004
G1 X108.600 Y78.400 E37.7294 F5400
G1 F4800 E36.7294
G1 X106.800 Y92.800 F10800
G1 F4800 E37.7294
G1 X105.000 Y92.800 E37.8057 F5400
G1 F4800 E36.8057
G1 X110.400 Y89.200 F10800
G1 F4800 E37.8057
G1 X105.000 Y89.200 E38.0347 F5400
G1 X106.800 Y91.000 E38.1427
G1 X105.000 Y91.000 E38.2190
G1 F4800 E37.2190
G1 X116.997 Y86.205 F10800
G1 X135.600 Y83.800
G1 F4800 E38.2190
G1 X105.000 Y83.800 E39.5166 F5400
G1 F4800 E38.5166
G1 X110.400 Y87.400 F10800
G1 F4800 E39.5166
G1 X105.000 Y87.400 E39.7456 F5400
G1 F4800 E38.7456
G1 X116.896 Y85.600 F10800
G1 F4800 E39.7456
G1 X105.000 Y85.600 E40.2501 F5400
G1 F4800 E39.2501
G1 X105.382 Y101.800 F10800
G1 F4800 E40.2501
G1 X101.400 Y101.800 E40.4190 F5400
G1 F4800 E39.4190
G1 X105.870 Y96.400 F10800
G1 F4800 E40.4190
G1 X101.400 Y96.400 E40.6085 F5400
G1 F4800 E39.6085
G1 X105.589 Y98.200 F10800
G1 F4800 E40.6085
G1 X101.400 Y98.200 E40.7862 F5400
G1 F4800 E39.7862
G1 X106.576 Y94.600 F10800
G1 F4800 E40.7862
G1 X101.400 Y94.600 E41.0057 F5400
G1 F4800 E40.0057
G1 X105.693 Y103.600 F10800
G1 F4800 E41.0057
G1 X101.400 Y103.600 E41.1877 F5400
G1 F4800 E40.1877
G1 X112.676 Y113.509 F10800
G1 X116.605 Y116.200
G1 F4800 E41.1877
G1 X101.400 Y116.200 E41.8325 F5400
G1 F4800 E40.8325
G1 X139.200 Y118.000 F10800
G1 F4800 E41.8325
G1 X101.400 Y118.000 E43.4355 F5400
G1 F4800 E42.4355
G1 X105.307 Y100.000 F10800
G1 F4800 E43.4355
G1 X101.400 Y100.000 E43.6012 F5400
G1 F4800 E42.6012
G1 X106.800 Y107.200 F10800
G1 F4800 E43.6012
G1 X97.800 Y107.200 E43.9828 F5400
G1 F4800 E42.9828
G1 X106.800 Y109.000 F10800
G1 F4800 E43.9828
G1 X97.800 Y109.000 E44.3645 F5400
G1 F4800 E43.3645
G1 X106.004 Y105.400 F10800
G1 F4800 E44.3645
G1 X97.800 Y105.400 E44.7124 F5400
G1 F4800 E43.7124
G1 X110.400 Y112.600 F10800
G1 F4800 E44.7124
G1 X97.800 Y112.600 E45.2467 F5400
G1 F4800 E44.2467
G1 X110.400 Y114.400 F10800
G1 F4800 E45.2467
G1 X97.800 Y114.400 E45.7811 F5400
G1 F4800 E44.7811
G1 X106.800 Y110.800 F10800
G1 F4800 E45.7811
G1 X97.800 Y110.800 E46.1627 F5400
; ------------------------------------
; Layer #11
; ------------------------------------
G21 ; mm
G90 ; abs
G92 E0 ; reset extr
M106 S255
;segType:Support
G1 F4800 E-1.0000
G1 F300 Z3.600
G1 X101.400 Y116.200 F10800
G1 F4800 E0.0000
G1 X116.605 Y116.200 E0.6448 F5400
G1 F4800 E-0.3552
G1 X97.800 Y112.600 F10800
G1 F4800 E0.6448
G1 X110.400 Y112.600 E1.1791 F5400
G1 F4800 E0.1791
G1 X101.400 Y103.600 F10800
G1 F4800 E1.1791
G1 X105.693 Y103.600 E1.3612 F5400
G1 X106.004 Y105.400 E1.4386
G1 X97.800 Y105.400 E1.7866
G1 F4800 E0.7866
G1 X114.970 Y114.679 F10800
G1 X119.801 Y116.301
G1 X135.600 Y121.600
G1 F4800 E1.7866
G1 X112.200 Y121.600 E2.7789 F5400
G1 F4800 E1.7789
G1 X101.400 Y118.000 F10800
G1 F4800 E2.7789
G1 X139.200 Y118.000 E4.3819 F5400
G1 F4800 E3.3819
G1 X135.600 Y123.400 F10800
G1 F4800 E4.3819
G1 X123.000 Y123.400 E4.9162 F5400
G1 F4800 E3.9162
G1 X128.710 Y116.200 F10800
G1 F4800 E4.9162
G1 X139.200 Y116.200 E5.3610 F5400
G1 F4800 E4.3610
G1 X135.600 Y119.800 F10800
G1 F4800 E5.3610
G1 X112.200 Y119.800 E6.3534 F5400
G1 F4800 E5.3534
G1 X106.800 Y110.800 F10800
G1 F4800 E6.3534
G1 X97.800 Y110.800 E6.7350 F5400
G1 F4800 E5.7350
G1 X106.800 Y107.200 F10800
G1 F4800 E6.7350
G1 X97.800 Y107.200 E7.1167 F5400
G1 F4800 E6.1167
G1 X105.382 Y101.800 F10800
G1 F4800 E7.1167
G1 X101.400 Y101.800 E7.2855 F5400
G1 F4800 E6.2855
G1 X106.800 Y109.000 F10800
G1 F4800 E7.2855
G1 X97.800 Y109.000 E7.6672 F5400
G1 F4800 E6.6672
G1 X97.800 Y114.400 F10800
G1 F4800 E7.6672
G1 X110.400 Y114.400 E8.2015 F5400
G1 F4800 E7.2015
G1 X119.801 Y116.301 F10800
G1 X122.337 Y116.752
G1 X127.393 Y116.130
G1 X132.030 Y113.964
G1 X137.400 Y109.000
G1 F4800 E8.2015
G1 X139.200 Y109.000 E8.2778 F5400
G1 F4800 E7.2778
G1 X138.583 Y101.622 F10800
G1 X137.738 Y96.784
G1 X135.371 Y92.374
G1 X131.714 Y88.826
G1 X127.125 Y86.485
G1 X122.053 Y85.582
G1 X116.896 Y85.600
G1 F4800 E8.2778
G1 X105.000 Y85.600 E8.7823 F5400
G1 F4800 E7.7823
G1 X106.576 Y94.600 F10800
G1 F4800 E8.7823
G1 X101.400 Y94.600 E9.0018 F5400
G1 F4800 E8.0018
G1 X105.000 Y83.800 F10800
G1 F4800 E9.0018
G1 X135.600 Y83.800 E10.2995 F5400
G1 F4800 E9.2995
G1 X137.400 Y94.600 F10800
G1 F4800 E10.2995
G1 X146.400 Y94.600 E10.6811 F5400
G1 X146.400 Y92.800 E10.7575
G1 X137.400 Y92.800 E11.1391
G1 F4800 E10.1391
G1 X146.400 Y96.400 F10800
G1 F4800 E11.1391
G1 X138.227 Y96.400 E11.4857 F5400
G1 F4800 E10.4857
G1 X139.200 Y112.600 F10800
G1 F4800 E11.4857
G1 X134.390 Y112.600 E11.6897 F5400
G1 F4800 E10.6897
G1 X138.603 Y105.400 F10800
G1 F4800 E11.6897
G1 X142.800 Y105.400 E11.8676 F5400
G1 F4800 E10.8676
G1 X139.799 Y106.244 F10800
G1 X136.799 Y107.088
G1 F4800 E11.8676
;segType:Loop
G1 X135.064 Y110.332 E12.0512 F3600
G1 X131.661 Y113.502 E12.2832
G1 X131.556 Y113.574 E12.2895
G1 X127.231 Y115.558 E12.5269
G1 X122.353 Y116.158 E12.7722
G1 X117.454 Y115.286 E13.0204
G1 X113.022 Y113.025 E13.2686
G1 X109.494 Y109.602 E13.5139
G1 X107.215 Y105.356 E13.7543
G1 X106.403 Y100.708 E13.9897
G1 X107.130 Y96.109 E14.2220
G1 X109.326 Y92.002 E14.4543
G1 X112.779 Y88.786 E14.6897
G1 X117.159 Y86.777 E14.9302
G1 X122.037 Y86.177 E15.1754
G1 X126.936 Y87.049 E15.4236
G1 X131.368 Y89.310 E15.6719
G1 X134.896 Y92.733 E15.9171
G1 X137.175 Y96.978 E16.1575
G1 X137.987 Y101.626 E16.3929
G1 X137.260 Y106.226 E16.6252
G1 X136.888 Y106.921 E16.6645
;segType:Perimeter
G1 X137.263 Y105.820 F10800
G1 X137.617 Y106.405 E16.6987 F2159
G1 X135.385 Y110.580 E16.9348
G1 X131.912 Y113.815 E17.1717
G1 X131.753 Y113.923 E17.1812
G1 X127.342 Y115.947 E17.4234
G1 X122.342 Y116.562 E17.6747
G1 X117.325 Y115.670 E17.9289
G1 X112.786 Y113.354 E18.1831
G1 X109.171 Y109.846 E18.4344
G1 X106.832 Y105.489 E18.6812
G1 X105.997 Y100.711 E18.9231
G1 X106.746 Y95.980 E19.1621
G1 X109.005 Y91.755 E19.4012
G1 X112.553 Y88.449 E19.6431
G1 X117.048 Y86.387 E19.8898
G1 X122.048 Y85.772 E20.1412
G1 X127.065 Y86.665 E20.3954
G1 X131.604 Y88.981 E20.6496
G1 X135.219 Y92.489 E20.9009
G1 X137.558 Y96.846 E21.1476
G1 X138.393 Y101.623 E21.3896
G1 X137.653 Y106.299 E21.6258
G1 X137.017 Y106.551
;segType:Infill
G1 X123.680 Y115.793 F10800
G1 X121.444 Y115.793 E21.7373 F5400
