; GCode generated by CraftWare

; filename = composition.3w 
; machine = daVinciF10 
; material = abs 
; extruder = 1 
M140 S90 ; Bed (no wait) 
M106 S255 ; Start fan 
G90 ; set absolute coordinates 
G28 ; home all axis 
M190 S90 ; Bed (wait) 
M104 S210 ; Extruder (no wait) 
M109 S210 ; Extruder (wait) 
M117 Start 
M117 Cleaning 
M100 ; Cleaning 
M117 Printing 
M109 S220 ;set head temp (wait)
M190 S75 ;set bed temp (wait)
; ------------------------------------
; Layer #0
; ------------------------------------
G21 ; mm
G90 ; abs
G92 E0 ; reset extr
M106 S0
;segType:Support
G1 F4800 E-1.0000
G1 F300 Z0.300
G1 X106.109 Y132.365 F10800
G1 F4800 E0.0000
G1 X104.835 Y132.365 E0.0540 F900
G1 F4800 E-0.9460
G1 X112.435 Y131.672 F10800
G1 X119.166 Y129.856
G1 F4800 E0.0540
;segType:HShell
G1 X116.313 Y132.822 E0.2593 F600
G1 X116.134 Y132.447
G1 X119.092 Y129.372 E0.4722
G1 X119.019 Y128.887
G1 X115.955 Y132.072 E0.6926
;segType:Perimeter
G1 X115.822 Y131.830 F10800
G1 X115.138 Y131.896 E0.7269 F359
G1 X114.744 Y132.156 E0.7504
G1 X112.946 Y132.797 E0.8456
G1 X111.014 Y133.016 E0.9426
G1 X109.082 Y132.797 E1.0397
G1 X107.284 Y132.156 E1.1349
G1 X105.744 Y131.140 E1.2269
G1 X104.568 Y129.821 E1.3151
G1 X103.832 Y128.290 E1.3998
G1 X103.582 Y126.654 E1.4824
G1 X103.832 Y125.017 E1.5650
G1 X104.568 Y123.487 E1.6497
G1 X105.744 Y122.168 E1.7379
G1 X107.284 Y121.152 E1.8299
G1 X109.082 Y120.511 E1.9252
G1 X111.014 Y120.292 E2.0222
G1 X112.946 Y120.511 E2.1192
G1 X114.744 Y121.152 E2.2144
G1 X115.186 Y121.444 E2.2408
G1 X117.139 Y117.350 E2.4671
G1 X120.550 Y113.488 E2.7242
G1 X125.002 Y110.521 E2.9911
G1 X130.193 Y108.654 E3.2663
G1 X135.764 Y108.017 E3.5461
G1 X141.335 Y108.654 E3.8259
G1 X146.525 Y110.521 E4.1010
G1 X150.977 Y113.488 E4.3679
G1 X154.388 Y117.350 E4.6250
G1 X156.530 Y121.840 E4.8732
G1 X157.259 Y126.654 E5.1161
G1 X156.530 Y131.467 E5.3590
G1 X154.388 Y135.958 E5.6072
G1 X150.977 Y139.820 E5.8642
G1 X146.525 Y142.787 E6.1312
G1 X141.335 Y144.654 E6.4063
G1 X135.764 Y145.291 E6.6861
G1 X130.193 Y144.654 E6.9658
G1 X125.002 Y142.787 E7.2410
G1 X120.550 Y139.820 E7.5079
G1 X117.139 Y135.958 E7.7650
G1 X115.212 Y131.918 E7.9883
G1 X114.661 Y131.491
;segType:Loop
G1 X114.087 Y130.827 F10800
G1 X113.815 Y131.007 E8.0046 F600
G1 X112.460 Y131.489 E8.0763
G1 X111.014 Y131.653 E8.1489
G1 X109.568 Y131.489 E8.2215
G1 X108.212 Y131.006 E8.2933
G1 X107.035 Y130.228 E8.3637
G1 X106.117 Y129.199 E8.4325
G1 X105.530 Y127.978 E8.5001
G1 X105.327 Y126.654 E8.5669
G1 X105.530 Y125.330 E8.6338
G1 X106.117 Y124.109 E8.7013
G1 X107.035 Y123.080 E8.7701
G1 X108.212 Y122.302 E8.8406
G1 X109.568 Y121.819 E8.9123
G1 X111.014 Y121.654 E8.9850
G1 X112.461 Y121.819 E9.0576
G1 X113.815 Y122.302 E9.1293
G1 X115.195 Y123.212 E9.2118
G1 X114.673 Y126.654 E9.3855
G1 X115.195 Y130.097 E9.5592
G1 X114.248 Y130.721 E9.6158
G1 X114.861 Y130.060 F10800
G1 X115.218 Y128.912
;segType:HShell
G1 X119.084 Y124.892 E9.8941 F600
G1 X119.288 Y125.241
G1 X115.291 Y129.397 E10.1817
;segType:Perimeter
G1 X115.257 Y129.491 F10800
G1 X114.710 Y129.924 E10.2165 F359
G1 X113.641 Y130.629 E10.2804
G1 X112.373 Y131.081 E10.3476
G1 X111.014 Y131.235 E10.4158
G1 X109.656 Y131.081 E10.4840
G1 X108.387 Y130.629 E10.5512
G1 X107.293 Y129.906 E10.6166
G1 X106.449 Y128.960 E10.6799
G1 X105.916 Y127.849 E10.7413
G1 X105.732 Y126.654 E10.8016
G1 X105.916 Y125.459 E10.8620
G1 X106.449 Y124.349 E10.9234
G1 X107.293 Y123.402 E10.9867
G1 X108.387 Y122.679 E11.0521
G1 X109.655 Y122.227 E11.1193
G1 X111.014 Y122.073 E11.1875
G1 X112.373 Y122.227 E11.2557
G1 X113.641 Y122.679 E11.3229
G1 X114.759 Y123.417 E11.3897
G1 X114.268 Y126.654 E11.5531
G1 X114.750 Y129.833 E11.7135
G1 X114.798 Y130.546
;segType:Loop
G1 X114.117 Y131.939 F10800
G1 X112.859 Y132.388 E11.7801 F600
G1 X111.014 Y132.598 E11.8727
G1 X109.170 Y132.388 E11.9654
G1 X107.459 Y131.778 E12.0560
G1 X106.002 Y130.817 E12.1430
G1 X104.901 Y129.581 E12.2256
G1 X104.217 Y128.161 E12.3043
G1 X103.987 Y126.654 E12.3803
G1 X104.217 Y125.146 E12.4564
G1 X104.901 Y123.727 E12.5350
G1 X106.002 Y122.490 E12.6177
G1 X107.459 Y121.529 E12.7047
G1 X109.170 Y120.919 E12.7953
G1 X111.014 Y120.710 E12.8879
G1 X112.859 Y120.919 E12.9806
G1 X114.569 Y121.529 E13.0711
G1 X115.347 Y122.043 E13.1177
G1 X117.472 Y117.588 E13.3639
G1 X120.810 Y113.809 E13.6155
G1 X125.178 Y110.898 E13.8774
G1 X130.281 Y109.062 E14.1479
G1 X135.764 Y108.436 E14.4232
G1 X141.247 Y109.062 E14.6986
G1 X146.349 Y110.898 E14.9691
G1 X150.717 Y113.809 E15.2310
G1 X154.055 Y117.588 E15.4825
G1 X156.144 Y121.967 E15.7246
G1 X156.854 Y126.654 E15.9611
G1 X156.144 Y131.339 E16.1975
G1 X154.055 Y135.721 E16.4397
G1 X150.717 Y139.499 E16.6912
G1 X146.349 Y142.410 E16.9531
G1 X141.247 Y144.246 E17.2236
G1 X135.764 Y144.872 E17.4989
G1 X130.281 Y144.246 E17.7742
G1 X125.178 Y142.410 E18.0448
G1 X120.810 Y139.499 E18.3067
G1 X117.472 Y135.721 E18.5582
G1 X115.348 Y131.266 E18.8044
G1 X114.570 Y131.778 E18.8509
G1 X114.298 Y131.875 E18.8653
G1 X114.982 Y130.289 F10800
G1 X119.370 Y123.438
G1 X119.466 Y122.804 E18.8973 F600
G1 X121.171 Y119.230 E19.0948
G1 X123.867 Y116.178 E19.2980
G1 X127.364 Y113.848 E19.5077
G1 X131.419 Y112.389 E19.7227
G1 X135.764 Y111.891 E19.9408
G1 X140.108 Y112.389 E20.1590
G1 X144.164 Y113.848 E20.3740
G1 X147.661 Y116.178 E20.5837
G1 X150.356 Y119.230 E20.7868
G1 X152.061 Y122.803 E20.9844
G1 X152.645 Y126.654 E21.1787
G1 X152.061 Y130.505 E21.3730
G1 X150.356 Y134.077 E21.5705
G1 X147.661 Y137.130 E21.7736
G1 X144.164 Y139.460 E21.9833
G1 X140.108 Y140.919 E22.1983
G1 X135.764 Y141.416 E22.4165
G1 X131.419 Y140.919 E22.6346
G1 X127.364 Y139.460 E22.8496
G1 X123.867 Y137.130 E23.0593
G1 X121.171 Y134.078 E23.2625
G1 X119.585 Y130.753 E23.4462
G1 X119.447 Y130.374 E23.4664
G1 X119.110 Y128.152 E23.5785
G1 X120.678 Y128.602 E23.6599
G1 X120.368 Y128.411 E23.6780
G1 X120.026 Y128.098 E23.7012
G1 X119.407 Y127.815 E23.7351
G1 X118.998 Y127.411 E23.7638
G1 X118.882 Y126.654 E23.8020
G1 X118.967 Y126.102 E23.8299
G1 X119.279 Y125.683 E23.8560
G1 X119.757 Y125.406 E23.8835
G1 X119.882 Y125.382 E23.8898
G1 X120.231 Y125.008 E23.9154
G1 X120.545 Y124.784 E23.9346
G1 X119.982 Y124.972 E23.9642
G1 X119.296 Y125.031 E23.9986
G1 X119.236 Y124.318 E24.0342
G1 X119.340 Y123.634 E24.0688
G1 X119.470 Y124.600 F10800
G1 X119.970 Y125.158
;segType:Perimeter
G1 X119.655 Y124.524 E24.1041 F359
G1 X119.639 Y124.333 E24.1137
G1 X119.852 Y122.931 E24.1844
G1 X121.504 Y119.468 E24.3758
G1 X124.127 Y116.499 E24.5735
G1 X127.540 Y114.225 E24.7781
G1 X131.507 Y112.797 E24.9885
G1 X135.764 Y112.310 E25.2022
G1 X140.020 Y112.797 E25.4159
G1 X143.988 Y114.225 E25.6263
G1 X147.401 Y116.499 E25.8309
G1 X150.023 Y119.468 E26.0286
G1 X151.675 Y122.931 E26.2200
G1 X152.240 Y126.654 E26.4078
G1 X151.675 Y130.377 E26.5957
G1 X150.023 Y133.840 E26.7871
G1 X147.401 Y136.809 E26.9847
G1 X143.988 Y139.083 E27.1894
G1 X140.020 Y140.511 E27.3998
G1 X135.764 Y140.997 E27.6135
G1 X131.507 Y140.511 E27.8272
G1 X127.540 Y139.083 E28.0376
G1 X124.127 Y136.809 E28.2422
G1 X121.504 Y133.840 E28.4399
G1 X119.952 Y130.586 E28.6197
G1 X119.835 Y130.267 E28.6367
G1 X119.601 Y128.725 E28.7145
G1 X120.579 Y129.007 E28.7652
G1 X121.414 Y129.134 E28.8073
G1 X122.278 Y129.161 E28.8505
G1 X123.139 Y129.085 E28.8936
G1 X123.568 Y128.995 E28.9155
G1 X123.548 Y128.539 E28.9382
G1 X123.375 Y128.390 E28.9496
G1 X123.145 Y128.384 E28.9611
G1 X122.692 Y128.523 E28.9848
G1 X122.246 Y128.571 E29.0071
G1 X121.801 Y128.548 E29.0294
G1 X121.368 Y128.455 E29.0514
G1 X120.965 Y128.295 E29.0731
G1 X120.604 Y128.073 E29.0942
G1 X120.319 Y127.812 E29.1135
G1 X120.207 Y127.663 E29.1228
G1 X119.993 Y127.634 E29.1336
G1 X119.634 Y127.465 E29.1534
G1 X119.372 Y127.206 E29.1718
G1 X119.287 Y126.654 E29.1997
G1 X119.346 Y126.273 E29.2189
G1 X119.546 Y126.005 E29.2356
G1 X119.894 Y125.803 E29.2557
G1 X120.126 Y125.759 E29.2675
G1 X120.208 Y125.624 E29.2753
G1 X120.489 Y125.328 E29.2957
G1 X120.831 Y125.085 E29.3166
G1 X121.221 Y124.902 E29.3381
G1 X121.645 Y124.785 E29.3601
G1 X122.087 Y124.737 E29.3822
G1 X122.535 Y124.760 E29.4046
G1 X123.005 Y124.874 E29.4288
G1 X123.218 Y124.868 E29.4394
G1 X123.383 Y124.725 E29.4502
G1 X123.362 Y124.241 E29.4744
G1 X122.919 Y124.174 E29.4967
G1 X122.055 Y124.148 E29.5399
G1 X121.194 Y124.222 E29.5830
G1 X120.373 Y124.396 E29.6249
G1 X119.901 Y124.562 E29.6498
G1 X119.717 Y124.578 E29.6590
G1 X119.062 Y124.363
;segType:HShell
G1 X119.546 Y122.168 F10800
G1 X114.924 Y126.973 E29.9917 F600
G1 X114.997 Y127.458
G1 X119.224 Y123.063 E30.2959
G1 X119.123 Y123.729
G1 X115.071 Y127.943 E30.5875
G1 X115.144 Y128.427
G1 X119.041 Y124.376 E30.8679
G1 X114.146 Y131.709 F10800
G1 X118.725 Y126.949 E31.1975 F600
G1 X118.799 Y127.433
G1 X115.348 Y131.021 E31.4458
G1 X115.598 Y131.322
G1 X118.872 Y127.918 E31.6814
G1 X118.945 Y128.403
G1 X115.777 Y131.697 E31.9095
G1 X119.239 Y130.341 F10800
G1 X116.492 Y133.197 E32.1072 F600
G1 X116.671 Y133.572
G1 X119.374 Y130.762 E32.3017
G1 X119.547 Y131.143
G1 X116.850 Y133.947 E32.4958
G1 X117.029 Y134.322
G1 X119.726 Y131.518 E32.6900
G1 X119.905 Y131.893
G1 X117.208 Y134.697 E32.8841
G1 X117.386 Y135.072
G1 X120.084 Y132.268 E33.0783
G1 X120.263 Y132.643
G1 X117.565 Y135.448 E33.2724
G1 X117.791 Y135.774
G1 X120.442 Y133.018 E33.4632
G1 X120.621 Y133.393
G1 X118.049 Y136.066 E33.6483
G1 X118.308 Y136.359
G1 X120.800 Y133.768 E33.8277
G1 X120.979 Y134.143
G1 X118.566 Y136.651 E34.0013
G1 X118.824 Y136.944
G1 X121.226 Y134.447 E34.1741
G1 X121.484 Y134.739
G1 X119.083 Y137.236 E34.3470
G1 X119.341 Y137.528
G1 X121.742 Y135.032 E34.5198
G1 X122.001 Y135.324
G1 X119.599 Y137.821 E34.6926
G1 X119.858 Y138.113
G1 X122.259 Y135.617 E34.8654
G1 X122.517 Y135.909
G1 X120.116 Y138.406 E35.0383
G1 X120.374 Y138.698
G1 X122.776 Y136.202 E35.2111
G1 X123.034 Y136.494
G1 X120.633 Y138.991 E35.3839
G1 X120.891 Y139.283
G1 X123.292 Y136.786 E35.5567
G1 X123.551 Y137.079
G1 X121.207 Y139.516 E35.7254
G1 X121.535 Y139.735
G1 X123.829 Y137.351 E35.8905
G1 X124.158 Y137.570
G1 X121.864 Y139.954 E36.0555
G1 X122.193 Y140.173
G1 X124.486 Y137.789 E36.2205
G1 X124.815 Y138.008
G1 X122.522 Y140.393 E36.3856
G1 X122.851 Y140.612
G1 X125.144 Y138.227 E36.5506
G1 X125.473 Y138.447
G1 X123.180 Y140.831 E36.7157
G1 X123.508 Y141.050
G1 X125.802 Y138.666 E36.8807
G1 X126.130 Y138.885
G1 X123.837 Y141.269 E37.0458
G1 X124.166 Y141.488
G1 X126.459 Y139.104 E37.2108
G1 X126.788 Y139.323
G1 X124.495 Y141.708 E37.3759
G1 X124.824 Y141.927
G1 X127.117 Y139.542 E37.5409
G1 X127.483 Y139.723
G1 X125.152 Y142.146 E37.7087
G1 X125.528 Y142.316
G1 X127.884 Y139.867 E37.8782
G1 X128.285 Y140.011
G1 X125.929 Y142.460 E38.0477
G1 X126.330 Y142.604
G1 X128.686 Y140.156 E38.2172
G1 X129.086 Y140.300
G1 X126.731 Y142.749 E38.3867
G1 X127.132 Y142.893
G1 X129.487 Y140.444 E38.5562
G1 X129.888 Y140.588
G1 X127.533 Y143.037 E38.7257
G1 X127.934 Y143.181
G1 X130.289 Y140.733 E38.8952
G1 X130.690 Y140.877
G1 X128.335 Y143.326 E39.0648
G1 X128.736 Y143.470
G1 X131.091 Y141.021 E39.2343
G1 X131.517 Y141.139
G1 X129.136 Y143.614 E39.4056
G1 X129.537 Y143.758
G1 X132.003 Y141.195 E39.5830
G1 X132.489 Y141.251
G1 X129.938 Y143.902 E39.7665
G1 X130.342 Y144.044
G1 X132.975 Y141.306 E39.9560
G1 X133.461 Y141.362
G1 X130.828 Y144.099 E40.1455
G1 X131.314 Y144.155
G1 X133.947 Y141.417 E40.3350
G1 X134.433 Y141.473
G1 X131.801 Y144.210 E40.5245
G1 X132.287 Y144.266
G1 X134.920 Y141.529 E40.7139
G1 X135.406 Y141.584
G1 X132.773 Y144.321 E40.9034
G1 X133.259 Y144.377
G1 X135.924 Y141.607 E41.0952
G1 X136.530 Y141.538
G1 X133.745 Y144.432 E41.2955
G1 X134.232 Y144.488
G1 X137.136 Y141.468 E41.5046
G1 X137.742 Y141.399
G1 X134.718 Y144.543 E41.7223
G1 X135.204 Y144.599
G1 X138.349 Y141.330 E41.9486
G1 X138.955 Y141.260
G1 X135.690 Y144.655 E42.1835
G1 X136.278 Y144.604
G1 X139.561 Y141.191 E42.4198
G1 X140.173 Y141.116
G1 X136.884 Y144.535 E42.6565
G1 X137.491 Y144.466
G1 X140.998 Y140.819 E42.9089
G1 X151.383 Y138.438 F10800
G1 X150.391 Y139.469 E42.9803 F600
G1 X148.887 Y140.471 F10800
G1 X154.200 Y134.947 E43.3627 F600
G1 X154.731 Y133.834 F10800
G1 X147.384 Y141.473 E43.8915 F600
G1 X146.052 Y142.297 F10800
G1 X155.262 Y132.722 E44.5543 F600
G1 X155.792 Y131.609 F10800
G1 X145.227 Y142.594 E45.3147 F600
G1 X144.402 Y142.891
G1 X156.022 Y130.809 E46.1510
G1 X142.751 Y143.485 F10800
G1 X156.224 Y129.477 E47.1206 F600
G1 X156.123 Y130.143
G1 X143.576 Y143.188 E48.0235
G1 X149.590 Y135.252 F10800
G1 X156.425 Y128.146 E48.5155 F600
G1 X156.325 Y128.812
G1 X141.926 Y143.781 E49.5517
G1 X145.840 Y138.590 F10800
G1 X140.522 Y144.119 E49.9345 F600
G1 X141.128 Y144.050
G1 X147.343 Y137.588 E50.3818
G1 X151.504 Y132.141 F10800
G1 X156.627 Y126.814 E50.7505 F600
G1 X156.526 Y127.480
G1 X150.972 Y133.254 E51.1502
G1 X147.524 Y136.960 F10800
G1 X143.474 Y139.928
G1 X139.309 Y144.258 E51.4499 F600
G1 X139.915 Y144.189
G1 X144.337 Y139.592 E51.7682
G1 X150.180 Y133.952 F10800
G1 X151.857 Y130.437
G1 X152.431 Y126.654
G1 X151.857 Y122.871
G1 X148.852 Y117.851
G1 X142.067 Y113.325
G1 X137.913 Y112.357
G1 X135.764 Y112.111
G1 X130.445 Y112.519
G1 X133.975 Y108.849 E52.0222 F600
G1 X134.581 Y108.780
G1 X131.270 Y112.222 E52.2605
G1 X131.904 Y112.124
G1 X135.187 Y108.711 E52.4967
G1 X135.788 Y108.648
G1 X132.511 Y112.055 E52.7326
G1 X133.117 Y111.985
G1 X136.274 Y108.703 E52.9597
G1 X136.760 Y108.759
G1 X133.724 Y111.916 E53.1783
G1 X134.330 Y111.846
G1 X137.246 Y108.814 E53.3881
G1 X137.732 Y108.870
G1 X134.936 Y111.777 E53.5894
G1 X135.543 Y111.707
G1 X138.219 Y108.925 E53.7819
G1 X138.705 Y108.981
G1 X136.073 Y111.717 E53.9714
G1 X136.559 Y111.773
G1 X139.191 Y109.036 E54.1608
G1 X139.677 Y109.092
G1 X137.045 Y111.829 E54.3502
G1 X137.531 Y111.884
G1 X140.163 Y109.148 E54.5397
G1 X140.650 Y109.203
G1 X138.017 Y111.940 E54.7292
G1 X138.503 Y111.996
G1 X141.136 Y109.259 E54.9186
G1 X141.548 Y109.391
G1 X138.989 Y112.051 E55.1028
G1 X139.475 Y112.107
G1 X141.949 Y109.535 E55.2809
G1 X142.350 Y109.679
G1 X139.961 Y112.163 E55.4528
G1 X140.396 Y112.272
G1 X142.751 Y109.823 E55.6223
G1 X143.152 Y109.968
G1 X140.797 Y112.416 E55.7918
G1 X141.197 Y112.561
G1 X143.553 Y110.112 E55.9614
G1 X143.954 Y110.256
G1 X141.598 Y112.705 E56.1309
G1 X141.999 Y112.849
G1 X144.355 Y110.400 E56.3004
G1 X144.755 Y110.545
G1 X142.400 Y112.993 E56.4699
G1 X142.801 Y113.138
G1 X145.156 Y110.689 E56.6394
G1 X145.557 Y110.833
G1 X143.202 Y113.282 E56.8089
G1 X143.603 Y113.426
G1 X145.958 Y110.977 E56.9784
G1 X146.341 Y111.140
G1 X144.004 Y113.570 E57.1466
G1 X144.377 Y113.743
G1 X146.670 Y111.359 E57.3117
G1 X146.999 Y111.578
G1 X144.706 Y113.962 E57.4767
G1 X145.035 Y114.181
G1 X147.328 Y111.797 E57.6417
G1 X147.657 Y112.016
G1 X145.364 Y114.400 E57.8067
G1 X145.693 Y114.619
G1 X147.985 Y112.236 E57.9717
G1 X148.314 Y112.455
G1 X146.022 Y114.838 E58.1367
G1 X146.350 Y115.058
G1 X148.643 Y112.674 E58.3017
G1 X148.972 Y112.893
G1 X146.679 Y115.277 E58.4667
G1 X147.008 Y115.496
G1 X149.301 Y113.112 E58.6317
G1 X149.629 Y113.331
G1 X147.337 Y115.715 E58.7967
G1 X147.666 Y115.934
G1 X149.958 Y113.551 E58.9617
G1 X150.287 Y113.770
G1 X147.951 Y116.199 E59.1298
G1 X148.209 Y116.491
G1 X150.610 Y113.995 E59.3026
G1 X150.868 Y114.288
G1 X148.467 Y116.784 E59.4753
G1 X148.726 Y117.076
G1 X151.126 Y114.580 E59.6481
G1 X151.385 Y114.873
G1 X148.984 Y117.369 E59.8209
G1 X149.242 Y117.661
G1 X151.643 Y115.165 E59.9937
G1 X151.901 Y115.457
G1 X149.500 Y117.954 E60.1665
G1 X149.759 Y118.246
G1 X152.160 Y115.750 E60.3393
G1 X152.418 Y116.042
G1 X150.017 Y118.539 E60.5121
G1 X150.275 Y118.831
G1 X152.676 Y116.335 E60.6849
G1 X152.935 Y116.627
G1 X150.530 Y119.127 E60.8580
G1 X150.709 Y119.502
G1 X153.193 Y116.920 E61.0368
G1 X153.451 Y117.212
G1 X150.888 Y119.877 E61.2213
G1 X151.067 Y120.252
G1 X153.710 Y117.505 E61.4115
G1 X153.944 Y117.822
G1 X151.246 Y120.627 E61.6056
G1 X151.425 Y121.002
G1 X154.123 Y118.197 E61.7998
G1 X154.301 Y118.572
G1 X151.604 Y121.377 E61.9939
G1 X151.783 Y121.752
G1 X154.480 Y118.948 E62.1881
G1 X154.659 Y119.323
G1 X151.962 Y122.127 E62.3822
G1 X152.141 Y122.502
G1 X154.838 Y119.698 E62.5763
G1 X155.017 Y120.073
G1 X152.281 Y122.917 E62.7732
G1 X152.354 Y123.402
G1 X155.196 Y120.448 E62.9777
G1 X155.375 Y120.823
G1 X152.428 Y123.887 E63.1898
G1 X152.501 Y124.371
G1 X155.554 Y121.198 E63.4095
G1 X155.733 Y121.573
G1 X152.575 Y124.856 E63.6368
G1 X152.648 Y125.340
G1 X155.912 Y121.948 E63.8716
G1 X156.008 Y122.408
G1 X152.722 Y125.825 E64.1081
G1 X152.795 Y126.310
G1 X156.082 Y122.893 E64.3447
G1 X156.155 Y123.377
G1 X152.818 Y126.847 E64.5848
G1 X152.717 Y127.513
G1 X156.229 Y123.862 E64.8375
G1 X156.302 Y124.347
G1 X152.616 Y128.179 E65.1028
G1 X152.515 Y128.845
G1 X156.375 Y124.832 E65.3806
G1 X156.449 Y125.316
G1 X152.414 Y129.511 E65.6709
G1 X152.313 Y130.177
G1 X156.522 Y125.801 E65.9738
G1 X156.596 Y126.286
G1 X152.035 Y131.027 E66.3021
G1 X141.823 Y140.522 F10800
G1 X138.097 Y144.396 E66.5702 F600
G1 X138.703 Y144.327
G1 X142.648 Y140.225 E66.8542
G1 X122.675 Y135.456 F10800
G1 X121.347 Y133.952
G1 X119.651 Y130.317
G1 X118.909 Y127.879
G1 X119.042 Y127.741 E66.8637 F600
G1 X114.444 Y130.838 F10800
G1 X113.324 Y132.002 E66.9443 F600
G1 X118.720 Y126.393 F10800
G1 X115.364 Y129.881 E67.1858 F600
G1 X113.724 Y130.808 F10800
G1 X112.414 Y131.274
G1 X111.014 Y131.433
G1 X109.614 Y131.274
G1 X108.304 Y130.808
G1 X107.171 Y130.059
G1 X106.293 Y129.072
G1 X105.734 Y127.910
G1 X105.255 Y125.805
G1 X104.224 Y126.878 E67.2600 F600
G1 X104.298 Y127.362
G1 X105.153 Y126.473 E67.3216
G1 X105.179 Y127.006
G1 X104.372 Y127.846 E67.3797
G1 X104.497 Y128.277
G1 X105.253 Y127.490 E67.4342
G1 X105.327 Y127.974
G1 X104.676 Y128.651 E67.4810
G1 X104.856 Y129.025
G1 X105.492 Y128.364 E67.5268
G1 X105.672 Y128.738
G1 X105.036 Y129.399 E67.5725
G1 X105.282 Y129.704
G1 X105.852 Y129.112 E67.6135
G1 X106.068 Y129.449
G1 X105.542 Y129.995 E67.6513
G1 X105.802 Y130.286
G1 X106.327 Y129.740 E67.6892
G1 X106.587 Y130.031
G1 X106.061 Y130.577 E67.7270
G1 X106.372 Y130.815
G1 X106.846 Y130.322 E67.7611
G1 X107.160 Y130.557
G1 X106.702 Y131.033 E67.7940
G1 X107.032 Y131.251
G1 X107.490 Y130.775 E67.8270
G1 X107.820 Y130.993
G1 X107.362 Y131.469 E67.8599
G1 X107.724 Y131.653
G1 X108.155 Y131.206 E67.8909
G1 X108.557 Y131.349
G1 X108.126 Y131.797 E67.9219
G1 X108.528 Y131.940
G1 X108.959 Y131.492 E67.9529
G1 X109.361 Y131.635
G1 X108.930 Y132.083 E67.9839
G1 X109.357 Y132.200
G1 X109.813 Y131.726 E68.0167
G1 X110.299 Y131.781
G1 X109.843 Y132.256 E68.0496
G1 X110.330 Y132.311
G1 X110.786 Y131.836 E68.0824
G1 X111.336 Y131.826
G1 X110.816 Y132.366 E68.1197
G1 X111.373 Y132.348
G1 X111.941 Y131.757 E68.1606
G1 X112.562 Y131.672
G1 X111.979 Y132.279 E68.2026
G1 X112.585 Y132.210
G1 X113.383 Y131.380 E68.2601
G1 X114.861 Y130.060 F10800
G1 X121.347 Y119.356
G1 X124.004 Y116.347
G1 X128.795 Y113.113
G1 X132.762 Y108.988 E68.5456 F600
G1 X133.369 Y108.919
G1 X129.620 Y112.816 E68.8154
G1 X127.036 Y113.819 F10800
G1 X131.550 Y109.126 E69.1403 F600
G1 X132.156 Y109.057
G1 X127.969 Y113.410 E69.4416
G1 X124.004 Y116.347 F10800
G1 X120.609 Y119.941
G1 X115.011 Y125.761 E69.8444 F600
G1 X114.910 Y126.427
G1 X120.077 Y121.054 E70.2163
G1 X124.031 Y115.821 F10800
G1 X130.338 Y109.265 E70.6702 F600
G1 X130.944 Y109.196
G1 X125.534 Y114.820 E71.0595
G1 X129.517 Y109.557 F10800
G1 X115.213 Y124.429 E72.0890 F600
G1 X115.112 Y125.095
G1 X122.551 Y117.360 E72.6244
G1 X127.867 Y110.151 F10800
G1 X115.406 Y123.105 E73.5211 F600
G1 X115.314 Y123.763
G1 X128.692 Y109.854 E74.4839
G1 X115.237 Y121.635 F10800
G1 X109.862 Y121.576
G1 X110.430 Y120.986 E74.5248 F600
G1 X111.032 Y120.922
G1 X110.468 Y121.507 E74.5654
G1 X111.062 Y121.451
G1 X111.518 Y120.977 E74.5982
G1 X112.005 Y121.032
G1 X111.549 Y121.506 E74.6310
G1 X112.035 Y121.561
G1 X112.492 Y121.087 E74.6639
G1 X112.950 Y121.171
G1 X112.519 Y121.620 E74.6949
G1 X112.920 Y121.763
G1 X113.352 Y121.315 E74.7259
G1 X113.753 Y121.458
G1 X113.322 Y121.906 E74.7570
G1 X113.724 Y122.049
G1 X114.155 Y121.601 E74.7880
G1 X114.543 Y121.759
G1 X114.086 Y122.234 E74.8209
G1 X114.416 Y122.452
G1 X114.873 Y121.977 E74.8538
G1 X115.203 Y122.195
G1 X114.746 Y122.670 E74.8867
G1 X115.076 Y122.888
G1 X127.042 Y110.448 E75.7478
G1 X126.216 Y110.744
G1 X115.788 Y121.587 E76.4983
G1 X116.319 Y120.474 F10800
G1 X125.391 Y111.041 E77.1512 F600
G1 X123.991 Y111.936 F10800
G1 X116.850 Y119.361 E77.6652 F600
G1 X117.381 Y118.248 F10800
G1 X122.487 Y112.938 E78.0327 F600
G1 X120.984 Y113.940 F10800
G1 X120.761 Y114.173 E78.0488 F600
G1 X115.237 Y121.635 F10800
G1 X108.341 Y122.036
G1 X109.219 Y121.123 E78.1121 F600
G1 X109.825 Y121.054
G1 X109.161 Y121.744 E78.1598
G1 X106.323 Y123.573 F10800
G1 X104.346 Y125.628 E78.3021 F600
G1 X104.244 Y126.295
G1 X105.441 Y125.051 E78.3882
G1 X108.400 Y121.413 F10800
G1 X107.032 Y122.836 E78.4867 F600
G1 X104.612 Y124.791 F10800
G1 X107.579 Y121.706 E78.7002 F600
G1 F4800 E77.7002
G1 X123.379 Y67.011 F10800
G1 X124.097 Y64.525
G1 F4800 E78.7002
;segType:Loop
G1 X124.305 Y63.062 E78.7739 F600
G1 X125.455 Y60.496 E78.9142
G1 X127.293 Y58.281 E79.0578
G1 X129.699 Y56.574 E79.2050
G1 X132.512 Y55.496 E79.3553
G1 X135.537 Y55.128 E79.5073
G1 X138.561 Y55.496 E79.6593
G1 X141.375 Y56.574 E79.8096
G1 X143.781 Y58.281 E79.9568
G1 X145.619 Y60.496 E80.1004
G1 X146.768 Y63.062 E80.2407
G1 X147.159 Y65.808 E80.3791
G1 X146.768 Y68.553 E80.5174
G1 X145.619 Y71.120 E80.6577
G1 X143.781 Y73.334 E80.8012
G1 X141.375 Y75.041 E80.9485
G1 X138.561 Y76.119 E81.0988
G1 X135.537 Y76.487 E81.2508
G1 X132.512 Y76.119 E81.4028
G1 X129.699 Y75.041 E81.5531
G1 X127.293 Y73.334 E81.7003
G1 X125.455 Y71.120 E81.8438
G1 X124.304 Y68.551 E81.9842
G1 X123.987 Y66.395 E82.0930
G1 X123.574 Y66.127 E82.1175
G1 X123.544 Y66.078 E82.1204
G1 X123.636 Y65.969 E82.1276
G1 X123.915 Y65.806 E82.1437
G1 X124.069 Y64.721 E82.1983
;segType:Perimeter
G1 X123.525 Y66.198 F10800
G1 X123.556 Y65.485 E82.2340 F359
G1 X123.918 Y62.941 E82.3621
G1 X125.116 Y60.268 E82.5083
G1 X127.024 Y57.968 E82.6573
G1 X129.515 Y56.201 E82.8097
G1 X132.418 Y55.089 E82.9648
G1 X135.537 Y54.709 E83.1216
G1 X138.654 Y55.089 E83.2783
G1 X141.559 Y56.201 E83.4334
G1 X144.049 Y57.968 E83.5858
G1 X145.958 Y60.268 E83.7349
G1 X147.155 Y62.941 E83.8810
G1 X147.563 Y65.808 E84.0255
G1 X147.155 Y68.674 E84.1699
G1 X145.958 Y71.348 E84.3161
G1 X144.049 Y73.647 E84.4651
G1 X141.559 Y75.414 E84.6175
G1 X138.654 Y76.526 E84.7726
G1 X135.537 Y76.906 E84.9293
G1 X132.418 Y76.526 E85.0860
G1 X129.515 Y75.414 E85.2412
G1 X127.024 Y73.647 E85.3936
G1 X125.116 Y71.348 E85.5426
G1 X123.918 Y68.673 E85.6888
G1 X123.620 Y66.647 E85.7910
G1 X123.293 Y66.435 E85.8104
G1 X123.162 Y66.241 E85.8221
G1 X123.134 Y66.038 E85.8323
G1 X123.206 Y65.820 E85.8438
G1 X123.397 Y65.631 E85.8572
G1 X123.498 Y65.573 E85.8630
G1 X124.128 Y65.288
G1 X126.641 Y62.373 F10800
G1 X128.431 Y60.219
G1 X130.222 Y58.064
G1 X132.013 Y55.909
;segType:HShell
G1 X129.448 Y58.575 E86.0476 F600
G1 X130.824 Y59.377 F10800
G1 X131.163 Y61.849
G1 X133.809 Y60.732
;segType:Loop
G1 X133.713 Y61.616 E86.0920 F600
G1 X133.563 Y62.749 E86.1490
G1 X133.405 Y63.813 E86.2026
G1 X132.518 Y69.322 E86.4810
G1 X132.287 Y67.632 E86.5661
G1 X132.795 Y66.889 E86.6110
G1 X134.131 Y58.493 E87.0351
G1 X134.295 Y59.870 E87.1043
G1 X133.872 Y60.550 E87.1443
G1 X131.200 Y62.119 F10800
G1 X130.879 Y59.783
G1 X129.429 Y58.596
;segType:Perimeter
G1 X129.850 Y59.160 E87.1794 F359
G1 X129.885 Y59.389 E87.1909
G1 X128.539 Y69.408 E87.6953
G1 X128.479 Y69.774 E87.7138
G1 X128.397 Y70.070 E87.7291
G1 X128.293 Y70.298 E87.7416
G1 X128.139 Y70.479 E87.7535
G1 X127.842 Y70.637 E87.7703
G1 X127.425 Y70.165 E87.8017
G1 X126.484 Y68.063 E87.9166
G1 X126.163 Y65.808 E88.0302
G1 X126.484 Y63.552 E88.1439
G1 X127.424 Y61.452 E88.2587
G1 X128.953 Y59.628 E88.3774
G1 X129.574 Y59.188 E88.4154
G1 X129.786 Y59.119 E88.4265
G1 X130.459 Y59.261
G1 F4800 E87.4265
G1 X134.407 Y58.047 F10800
G1 X137.196 Y56.692
G1 F4800 E88.4265
;segType:HShell
G1 X138.188 Y55.660 E88.4979 F600
G1 X138.642 Y55.749
G1 X137.679 Y56.750 E88.5673
G1 X138.150 Y56.821
G1 X139.037 Y55.900 E88.6311
G1 X139.431 Y56.051
G1 X138.544 Y56.972 E88.6949
G1 X138.939 Y57.123
G1 X139.825 Y56.202 E88.7587
G1 X140.219 Y56.353
G1 X139.333 Y57.275 E88.8224
G1 X139.728 Y57.426
G1 X140.614 Y56.504 E88.8862
G1 X141.008 Y56.655
G1 X140.122 Y57.577 E88.9500
;segType:Perimeter
G1 X139.904 Y57.533 F10800
G1 X139.967 Y58.244 E88.9856 F359
G1 X138.835 Y66.216 E89.3873
G1 X138.639 Y66.515 E89.4052
G1 X138.440 Y66.218 E89.4230
G1 X137.197 Y57.849 E89.8451
G1 X136.331 Y57.849 E89.8883
G1 X135.563 Y63.815 E90.1884
G1 X135.363 Y64.117 E90.2065
G1 X135.166 Y63.812 E90.2246
G1 X134.458 Y57.849 E90.5242
G1 X133.828 Y57.849 E90.5556
G1 X132.415 Y66.726 E91.0040
G1 X132.214 Y67.021 E91.0218
G1 X132.020 Y66.721 E91.0397
G1 X130.866 Y58.274 E91.4650
G1 X133.117 Y57.413 E91.5852
G1 X135.537 Y57.118 E91.7069
G1 X137.957 Y57.413 E91.8285
G1 X139.922 Y58.165 E91.9334
G1 X140.492 Y58.562
;segType:Loop
G1 X140.685 Y59.208 F10800
G1 X140.794 Y58.481 E91.9701 F600
G1 X141.561 Y58.728 E92.0103
G1 X142.425 Y59.341 E92.0632
G1 X143.988 Y61.225 E92.1853
G1 X144.977 Y63.431 E92.3059
G1 X145.315 Y65.808 E92.4257
G1 X144.977 Y68.184 E92.5454
G1 X143.898 Y70.591 E92.6771
G1 X143.310 Y70.725 E92.7071
G1 X142.871 Y70.630 E92.7295
G1 X142.510 Y70.372 E92.7517
G1 X142.272 Y69.984 E92.7744
G1 X142.204 Y69.769 E92.7856
G1 X141.956 Y70.260 E92.8131
G1 X141.613 Y70.560 E92.8358
G1 X141.515 Y70.589 E92.8409
G1 X141.514 Y70.838 E92.8534
G1 X142.365 Y70.838 E92.8958
G1 X143.123 Y71.073 E92.9354
G1 X142.799 Y71.824 E92.9762
G1 X142.424 Y72.274 E93.0054
G1 X140.399 Y73.711 E93.1293
G1 X138.051 Y74.610 E93.2548
G1 X135.537 Y74.916 E93.3811
G1 X133.023 Y74.610 E93.5074
G1 X130.674 Y73.711 E93.6330
G1 X128.649 Y72.275 E93.7568
G1 X128.239 Y71.782 E93.7888
G1 X127.926 Y71.059 E93.8281
G1 X127.752 Y71.151 E93.8379
G1 X127.089 Y70.399 E93.8880
G1 X126.097 Y68.184 E94.0090
G1 X125.759 Y65.808 E94.1288
G1 X126.097 Y63.431 E94.2485
G1 X127.086 Y61.224 E94.3692
G1 X128.685 Y59.315 E94.4935
G1 X129.398 Y58.810 E94.5370
G1 X130.164 Y58.561 E94.5772
G1 X130.289 Y59.385 E94.6188
G1 X128.934 Y69.472 E95.1265
G1 X128.869 Y69.867 E95.1465
G1 X128.773 Y70.217 E95.1647
G1 X128.631 Y70.529 E95.1817
G1 X128.389 Y70.814 E95.2004
G1 X128.068 Y70.984 E95.2185
G1 X128.673 Y70.796 E95.2501
G1 X129.651 Y70.796 E95.2989
G1 X129.483 Y70.644 E95.3103
G1 X129.309 Y70.334 E95.3280
G1 X129.218 Y70.003 E95.3451
G1 X129.178 Y69.645 E95.3631
G1 X129.184 Y69.234 E95.3836
G1 X129.255 Y68.448 E95.4230
G1 X129.874 Y63.639 E95.6649
G1 X130.070 Y61.949 E95.7498
G1 X130.182 Y60.692 E95.8127
G1 X130.682 Y59.886 E95.8600
G1 X130.424 Y58.000 E95.9550
G1 X133.023 Y57.005 E96.0938
G1 X135.537 Y56.699 E96.2201
G1 X138.051 Y57.005 E96.3465
G1 X140.418 Y57.912 E96.4730
G1 X139.218 Y66.372 E96.8993
G1 X138.680 Y67.187 E96.9480
G1 X139.059 Y69.642 E97.0719
G1 X139.919 Y63.609 E97.3759
G1 X140.062 Y62.511 E97.4312
G1 X140.212 Y60.848 E97.5145
G1 X140.745 Y59.942 E97.5669
G1 X140.760 Y59.962 E97.5682
G1 X140.683 Y59.404 E97.5963
;segType:HShell
G1 X140.389 Y59.543 F10800
G1 X140.486 Y59.442 E97.6034 F600
G1 X137.341 Y60.119 F10800
G1 X137.072 Y60.189
;segType:Loop
G1 X136.641 Y60.804 E97.6408 F600
G1 X136.568 Y61.268 E97.6643
G1 X136.468 Y62.407 E97.7213
G1 X136.349 Y63.680 E97.7851
G1 X136.281 Y64.302 E97.8163
G1 X135.825 Y68.016 E98.0030
G1 X135.757 Y68.824 E98.0434
G1 X135.774 Y69.446 E98.0745
G1 X135.852 Y69.862 E98.0956
G1 X136.023 Y70.242 E98.1164
G1 X136.316 Y70.518 E98.1364
G1 X136.569 Y70.633 E98.1503
G1 X136.569 Y70.838 E98.1606
G1 X134.537 Y70.838 E98.2620
G1 X134.537 Y70.540 E98.2769
G1 X134.664 Y70.481 E98.2838
G1 X134.941 Y70.151 E98.3053
G1 X135.107 Y69.778 E98.3257
G1 X135.224 Y69.346 E98.3480
G1 X135.320 Y68.831 E98.3741
G1 X135.611 Y66.572 E98.4878
G1 X135.416 Y64.771 E98.5782
G1 X135.947 Y63.968 E98.6261
G1 X136.681 Y58.265 E98.9130
G1 X136.854 Y58.265 E98.9217
G1 X137.114 Y60.011 E99.0097
;segType:Perimeter
G1 X140.499 Y59.181 F10800
G1 X141.172 Y59.038 E99.0441 F359
G1 X141.385 Y59.107 E99.0552
G1 X142.156 Y59.654 E99.1024
G1 X143.649 Y61.453 E99.2190
G1 X144.590 Y63.552 E99.3338
G1 X144.911 Y65.808 E99.4475
G1 X144.590 Y68.063 E99.5611
G1 X143.619 Y70.229 E99.6795
G1 X143.308 Y70.300 E99.6955
G1 X143.031 Y70.240 E99.7096
G1 X142.804 Y70.078 E99.7235
G1 X142.636 Y69.805 E99.7395
G1 X142.505 Y69.390 E99.7612
G1 X142.393 Y68.835 E99.7894
G1 X142.278 Y68.093 E99.8269
G1 X141.074 Y59.308 E100.2693
G1 X141.109 Y59.079 E100.2808
G1 X141.528 Y58.514
G1 X141.017 Y58.852 F10800
G1 X140.884 Y59.307
G1 X141.260 Y62.063
G1 X142.316 Y70.443
;segType:HShell
G1 X142.136 Y70.630 E100.2938 F600
;segType:Perimeter
G1 X142.500 Y70.678 F10800
G1 X142.548 Y71.390 E100.3294 F359
G1 X142.458 Y71.598 E100.3407
G1 X142.156 Y71.961 E100.3643
G1 X140.215 Y73.338 E100.4830
G1 X137.957 Y74.203 E100.6036
G1 X135.537 Y74.497 E100.7252
G1 X133.117 Y74.203 E100.8469
G1 X130.858 Y73.338 E100.9675
G1 X128.917 Y71.962 E101.0862
G1 X128.580 Y71.556 E101.1126
G1 X128.467 Y71.294 E101.1268
G1 X128.731 Y71.212 E101.1406
G1 X130.293 Y71.212 E101.2185
G1 X130.293 Y70.609 E101.2486
G1 X130.175 Y70.606 E101.2545
G1 X129.965 Y70.529 E101.2656
G1 X129.795 Y70.375 E101.2770
G1 X129.680 Y70.169 E101.2888
G1 X129.612 Y69.921 E101.3017
G1 X129.578 Y69.624 E101.3165
G1 X129.584 Y69.257 E101.3349
G1 X129.653 Y68.495 E101.3730
G1 X130.271 Y63.692 E101.6147
G1 X130.468 Y61.993 E101.7000
G1 X130.572 Y60.832 E101.7581
G1 X130.764 Y60.521 E101.7764
G1 X130.969 Y60.824 E101.7947
G1 X131.222 Y62.805 E101.8943
G1 X132.354 Y71.073 E102.3106
G1 X132.642 Y71.073 E102.3250
G1 X133.800 Y63.879 E102.6885
G1 X133.959 Y62.809 E102.7425
G1 X134.110 Y61.668 E102.7999
G1 X134.207 Y60.777 E102.8447
G1 X134.397 Y60.470 E102.8627
G1 X134.603 Y60.766 E102.8806
G1 X134.648 Y61.051 E102.8950
G1 X134.752 Y62.196 E102.9523
G1 X134.907 Y63.785 E103.0320
G1 X135.208 Y66.567 E103.1716
G1 X134.925 Y68.764 E103.2821
G1 X134.834 Y69.250 E103.3068
G1 X134.731 Y69.633 E103.3266
G1 X134.602 Y69.922 E103.3424
G1 X134.420 Y70.139 E103.3565
G1 X134.137 Y70.271 E103.3721
G1 X134.137 Y71.254 E103.4211
G1 X136.969 Y71.254 E103.5624
G1 X136.969 Y70.282 E103.6109
G1 X136.765 Y70.267 E103.6212
G1 X136.536 Y70.164 E103.6337
G1 X136.352 Y69.990 E103.6463
G1 X136.235 Y69.732 E103.6605
G1 X136.173 Y69.400 E103.6773
G1 X136.157 Y68.836 E103.7055
G1 X136.223 Y68.061 E103.7443
G1 X136.678 Y64.352 E103.9307
G1 X136.746 Y63.723 E103.9623
G1 X136.866 Y62.446 E104.0262
G1 X136.965 Y61.321 E104.0826
G1 X137.020 Y60.968 E104.1004
G1 X137.228 Y60.672 E104.1185
G1 X137.417 Y60.982 E104.1365
G1 X137.497 Y61.847 E104.1799
G1 X137.612 Y62.783 E104.2269
G1 X137.774 Y63.945 E104.2855
G1 X138.880 Y71.105 E104.6469
G1 X139.255 Y71.105 E104.6656
G1 X140.315 Y63.668 E105.0404
G1 X140.460 Y62.558 E105.0962
G1 X140.602 Y60.983 E105.1752
G1 X140.783 Y60.674 E105.1931
G1 X140.996 Y60.960 E105.2109
G1 X141.060 Y61.283 E105.2273
G1 X141.142 Y62.188 E105.2726
G1 X141.252 Y63.131 E105.3200
G1 X141.333 Y63.723 E105.3498
G1 X141.833 Y67.606 E105.5451
G1 X141.926 Y68.739 E105.6018
G1 X141.880 Y69.410 E105.6354
G1 X141.830 Y69.615 E105.6459
G1 X141.638 Y69.994 E105.6671
G1 X141.422 Y70.184 E105.6815
G1 X141.116 Y70.273 E105.6974
G1 X141.113 Y71.254 E105.7463
G1 X142.306 Y71.254 E105.8059
G1 X142.516 Y71.319 E105.8168
G1 X143.004 Y71.822
;segType:HShell
G1 X138.975 Y74.478 F10800
G1 X137.470 Y76.042 E105.9251 F600
G1 X138.081 Y75.968
G1 X139.829 Y74.151 E106.0509
G1 X146.613 Y68.219 F10800
G1 X139.618 Y75.493 E106.5544 F600
G1 F4800 E105.5544
G1 X135.264 Y69.921 F10800
G1 F4800 E106.5544
G1 X135.595 Y69.577 E106.5782 F600
G1 X135.563 Y69.049
G1 X135.464 Y69.152 E106.5853
G1 X136.844 Y60.892 F10800
G1 X137.234 Y60.474
G1 X140.296 Y60.201
G1 X140.456 Y60.035 E106.5968 F600
G1 X141.170 Y60.877 F10800
G1 X142.667 Y70.215
G1 X143.354 Y71.047
G1 X143.501 Y70.894 E106.6074 F600
G1 X142.008 Y69.686 F10800
G1 X142.117 Y68.737
G1 X141.170 Y60.877
G1 X140.773 Y60.475
G1 X137.234 Y60.474
G1 X136.844 Y60.892
G1 X135.661 Y70.630
G1 X135.888 Y70.394 E106.6237 F600
G1 X135.704 Y70.024
G1 X135.121 Y70.630 E106.6657
G1 X136.844 Y60.892 F10800
G1 X137.234 Y60.474
G1 X137.597 Y60.917
G1 X139.685 Y66.739
G1 X140.421 Y60.920
G1 X140.773 Y60.475
G1 X141.170 Y60.877
G1 X142.667 Y70.215
G1 X143.309 Y70.498
G1 X143.738 Y70.384
G1 X144.875 Y68.905
G1 X146.801 Y66.902 E106.8043 F600
G1 X146.707 Y67.561
G1 X144.404 Y69.956 E106.9701
G1 X144.803 Y71.784 F10800
G1 X143.069 Y73.587 E107.0949 F600
G1 X138.763 Y75.820 F10800
G1 X140.872 Y73.627 E107.2466 F600
G1 X146.299 Y69.107 F10800
G1 X140.472 Y75.165 E107.6660 F600
G1 X143.628 Y70.388 F10800
G1 X145.206 Y68.000
G1 X146.895 Y66.244 E107.7876 F600
G1 X146.933 Y65.642
G1 X145.299 Y67.341 E107.9052
G1 X145.393 Y66.683
G1 X146.864 Y65.154 E108.0110
G1 X146.794 Y64.665
G1 X145.486 Y66.025 E108.1052
G1 X145.471 Y65.480
G1 X146.724 Y64.177 E108.1954
G1 X146.655 Y63.688
G1 X145.401 Y64.991 E108.2856
G1 X145.332 Y64.502
G1 X146.585 Y63.199 E108.3758
G1 X146.430 Y62.800
G1 X145.262 Y64.014 E108.4598
G1 X145.193 Y63.525
G1 X146.258 Y62.417 E108.5365
G1 X146.087 Y62.034
G1 X145.053 Y63.109 E108.6109
G1 X144.882 Y62.726
G1 X145.916 Y61.651 E108.6853
G1 X145.744 Y61.269
G1 X144.710 Y62.343 E108.7597
G1 X144.539 Y61.961
G1 X145.573 Y60.886 E108.8341
G1 X145.379 Y60.526
G1 X144.367 Y61.578 E108.9070
G1 X144.196 Y61.196
G1 X145.129 Y60.225 E108.9742
G1 X144.880 Y59.923
G1 X143.963 Y60.876 E109.0402
G1 X143.713 Y60.575
G1 X144.630 Y59.622 E109.1061
G1 X144.380 Y59.321
G1 X143.463 Y60.274 E109.1721
G1 X143.213 Y59.973
G1 X144.130 Y59.020 E109.2381
G1 X143.880 Y58.719
G1 X142.963 Y59.672 E109.3040
G1 X142.713 Y59.370
G1 X143.625 Y58.423 E109.3696
G1 X143.304 Y58.195
G1 X142.436 Y59.097 E109.4321
G1 X142.116 Y58.870
G1 X142.984 Y57.967 E109.4946
G1 X142.663 Y57.740
G1 X141.795 Y58.642 E109.5570
G1 X141.424 Y58.467
G1 X142.342 Y57.512 E109.6231
G1 X142.021 Y57.285
G1 X141.013 Y58.334 E109.6957
G1 X140.576 Y58.226
G1 X141.701 Y57.057 E109.7766
G1 X141.380 Y56.830
G1 X140.516 Y57.728 E109.8388
G1 X137.553 Y61.533 F10800
G1 X137.198 Y59.155
G1 X136.734 Y59.415
G1 X136.811 Y59.336 E109.8443 F600
G1 X136.883 Y59.822
G1 X136.651 Y60.063 E109.8610
G1 X137.408 Y60.571 F10800
G1 X140.773 Y60.475
G1 X141.170 Y60.877
G1 X141.374 Y62.446
G1 X141.311 Y62.511 E109.8655 F600
G1 X141.244 Y62.020
G1 X141.321 Y61.940 E109.8711
G1 X141.274 Y61.427
G1 X141.176 Y61.529 E109.8781
G1 X141.109 Y61.038
G1 X141.198 Y60.946 E109.8845
G1 X140.139 Y58.084 F10800
G1 X136.713 Y56.633
G1 X137.705 Y55.601 E109.9559 F600
G1 X137.222 Y55.542
G1 X136.229 Y56.574 E110.0274
G1 X135.746 Y56.515
G1 X136.739 Y55.484 E110.0988
G1 X136.256 Y55.425
G1 X135.191 Y56.532 E110.1754
G1 X134.580 Y56.606
G1 X135.773 Y55.366 E110.2613
G1 X135.224 Y55.375
G1 X133.969 Y56.681 E110.3517
G1 X133.357 Y56.755
G1 X134.613 Y55.450 E110.4420
G1 X134.002 Y55.524
G1 X132.655 Y56.925 E110.5390
G1 X131.158 Y56.237 F10800
G1 X124.492 Y63.167 E111.0187 F600
G1 X126.301 Y68.120 F10800
G1 X130.391 Y60.767
G1 X130.761 Y60.322
G1 X131.147 Y60.752
G1 X131.824 Y66.765
G1 X131.949 Y66.635 E111.0277 F600
G1 X131.882 Y66.144
G1 X131.756 Y66.274 E111.0367
G1 X131.689 Y65.783
G1 X131.814 Y65.653 E111.0457
G1 X131.747 Y65.162
G1 X131.622 Y65.291 E111.0547
G1 X131.555 Y64.800
G1 X131.680 Y64.670 E111.0637
G1 X131.613 Y64.179
G1 X131.488 Y64.309 E111.0727
G1 X131.421 Y63.818
G1 X131.546 Y63.688 E111.0816
G1 X131.478 Y63.197
G1 X131.354 Y63.326 E111.0906
G1 X131.287 Y62.835
G1 X131.412 Y62.705 E111.0996
G1 X131.348 Y62.210
G1 X131.220 Y62.344 E111.1088
G1 X131.153 Y61.852
G1 X131.285 Y61.715 E111.1183
G1 X131.221 Y61.220
G1 X131.086 Y61.361 E111.1281
G1 X131.018 Y60.870
G1 X131.151 Y60.732 E111.1377
G1 X134.392 Y60.272 F10800
G1 X134.779 Y60.690
G1 X135.037 Y63.985
G1 X135.121 Y63.898 E111.1437 F600
G1 X135.070 Y63.390
G1 X134.931 Y63.534 E111.1536
G1 X134.872 Y63.035
G1 X135.020 Y62.881 E111.1643
G1 X134.970 Y62.372
G1 X134.813 Y62.535 E111.1756
G1 X134.754 Y62.036
G1 X134.922 Y61.861 E111.1877
G1 X134.876 Y61.348
G1 X134.694 Y61.536 E111.2008
G1 X134.635 Y61.037
G1 X134.818 Y60.847 E111.2139
G1 X134.642 Y60.468
G1 X134.576 Y60.538 E111.2188
G1 X133.740 Y59.618 F10800
G1 X131.082 Y61.046
G1 X130.702 Y58.172
G1 X130.303 Y56.564
G1 X124.938 Y62.143 E111.6049 F600
G1 X125.409 Y61.092 F10800
G1 X129.110 Y57.244 E111.8713 F600
G1 X131.801 Y57.251 F10800
G1 X133.391 Y55.598 E111.9857 F600
G1 X132.780 Y55.673
G1 X130.947 Y57.578 E112.1176
G1 X130.547 Y60.126 F10800
G1 X128.950 Y70.314
G1 X129.063 Y70.196 E112.1258 F600
G1 X127.808 Y70.832 F10800
G1 X127.267 Y70.275
G1 X126.301 Y68.120
G1 X125.972 Y65.808
G1 X126.301 Y63.495
G1 X126.834 Y61.293
G1 X124.399 Y63.825 E112.3011 F600
G1 X124.305 Y64.484
G1 X126.363 Y62.344 E112.4492
G1 X125.901 Y63.385 F10800
G1 X124.211 Y65.142 E112.5708 F600
G1 X124.118 Y65.800
G1 X125.808 Y64.043 E112.6924
G1 X125.714 Y64.702
G1 X124.176 Y66.301 E112.8031
G1 X124.247 Y66.788
G1 X125.620 Y65.360 E112.9019
G1 X125.579 Y65.964
G1 X124.319 Y67.274 E112.9926
G1 X124.390 Y67.761
G1 X125.648 Y66.453 E113.0831
G1 X125.718 Y66.942
G1 X124.462 Y68.248 E113.1735
G1 X124.584 Y68.682
G1 X125.787 Y67.431 E113.2602
G1 X125.857 Y67.919
G1 X124.755 Y69.065 E113.3395
G1 X124.927 Y69.448
G1 X125.961 Y68.372 E113.4139
G1 X126.132 Y68.755
G1 X125.098 Y69.830 E113.4883
G1 X125.270 Y70.213
G1 X126.304 Y69.138 E113.5627
G1 X126.475 Y69.521
G1 X125.441 Y70.596 E113.6371
G1 X125.613 Y70.978
G1 X126.646 Y69.904 E113.7116
G1 X126.818 Y70.286
G1 X125.857 Y71.286 E113.7807
G1 X126.107 Y71.587
G1 X127.024 Y70.633 E113.8467
G1 X127.282 Y70.926
G1 X126.357 Y71.888 E113.9134
G1 X126.607 Y72.189
G1 X127.540 Y71.218 E113.9806
G1 X127.870 Y71.436
G1 X126.857 Y72.490 E114.0535
G1 X127.107 Y72.791
G1 X128.038 Y71.823 E114.1205
G1 X128.272 Y72.140
G1 X127.356 Y73.093 E114.1865
G1 X127.657 Y73.341
G1 X128.525 Y72.439 E114.2489
G1 X128.846 Y72.666
G1 X127.978 Y73.568 E114.3114
G1 X128.299 Y73.796
G1 X129.167 Y72.894 E114.3738
G1 X129.487 Y73.121
G1 X128.620 Y74.023 E114.4363
G1 X128.940 Y74.251
G1 X129.808 Y73.349 E114.4987
G1 X130.129 Y73.576
G1 X129.261 Y74.478 E114.5612
G1 X129.582 Y74.706
G1 X130.450 Y73.804 E114.6236
G1 X130.814 Y73.986
G1 X129.928 Y74.907 E114.6874
G1 X130.322 Y75.058
G1 X131.208 Y74.137 E114.7511
G1 X131.603 Y74.288
G1 X130.717 Y75.209 E114.8149
G1 X131.111 Y75.360
G1 X131.997 Y74.439 E114.8787
G1 X132.392 Y74.590
G1 X131.505 Y75.511 E114.9425
G1 X131.899 Y75.663
G1 X132.786 Y74.741 E115.0063
G1 X133.226 Y74.844
G1 X132.294 Y75.814 E115.0734
G1 X132.717 Y75.935
G1 X133.709 Y74.903 E115.1448
G1 X134.192 Y74.962
G1 X133.200 Y75.993 E115.2162
G1 X133.683 Y76.052
G1 X134.676 Y75.020 E115.2877
G1 X135.159 Y75.079
G1 X134.166 Y76.111 E115.3591
G1 X134.649 Y76.170
G1 X135.670 Y75.109 E115.4325
G1 X136.281 Y75.035
G1 X135.132 Y76.229 E115.5152
G1 X135.636 Y76.266
G1 X136.892 Y74.960 E115.6055
G1 X137.503 Y74.886
G1 X136.247 Y76.191 E115.6959
G1 X136.859 Y76.117
G1 X138.120 Y74.805 E115.7867
G1 X141.370 Y74.793 F10800
G1 X145.830 Y70.156 E116.1076 F600
G1 X143.309 Y70.498 F10800
G1 X141.170 Y60.877
G1 X140.773 Y60.475
G1 X137.234 Y60.474
G1 X136.844 Y60.892
G1 X136.039 Y64.626
G1 X135.646 Y65.035 E116.1359 F600
G1 X135.701 Y65.539
G1 X135.961 Y65.269 E116.1546
G1 X135.882 Y65.912
G1 X135.755 Y66.044 E116.1637
G1 X136.844 Y60.892 F10800
G1 X137.234 Y60.474
G1 X137.597 Y60.917
G1 X138.244 Y66.261
G1 X138.322 Y66.180 E116.1693 F600
G1 X138.247 Y65.697
G1 X138.172 Y65.775 E116.1748
G1 X138.100 Y65.289
G1 X138.173 Y65.213 E116.1800
G1 X138.098 Y64.730
G1 X138.028 Y64.803 E116.1851
G1 X137.955 Y64.317
G1 X138.023 Y64.247 E116.1900
G1 X137.951 Y63.761
G1 X137.883 Y63.831 E116.1948
G1 X137.811 Y63.345
G1 X137.882 Y63.271 E116.1999
G1 X137.813 Y62.782
G1 X137.739 Y62.859 E116.2053
G1 X137.667 Y62.373
G1 X137.752 Y62.284 E116.2114
G1 X137.693 Y61.785
G1 X137.595 Y61.887 E116.2185
G1 X137.522 Y61.401
G1 X137.645 Y61.274 E116.2272
G1 X137.550 Y60.812
G1 X137.450 Y60.915 E116.2344
G1 X137.662 Y62.277 F10800
G1 X139.248 Y66.900
G1 X138.895 Y67.267 E116.2598 F600
G1 X138.970 Y67.751
G1 X139.154 Y67.559 E116.2731
G1 F4800 E115.2731
G1 X138.886 Y67.391 F10800
G1 X137.958 Y60.789
G1 X137.247 Y60.077
G1 X135.131 Y60.537
G1 X134.383 Y59.876
G1 X131.502 Y60.607
G1 X130.753 Y59.926
G1 X130.031 Y60.637
G1 X128.771 Y70.625
G1 X127.740 Y71.222
G1 X123.408 Y66.241
G1 X121.132 Y65.972
G1 F4800 E116.2731
;segType:Loop
G1 X121.255 Y66.019 E116.2796 F600
G1 X121.285 Y66.080 E116.2831
G1 X121.157 Y66.194 E116.2916
G1 X120.967 Y66.215 E116.3012
G1 X120.772 Y66.115 E116.3121
G1 X120.812 Y66.002 E116.3181
G1 X120.812 Y66.002
;segType:Perimeter
G1 X120.959 Y66.414 F10800
G1 X120.348 Y66.086 E116.3526 F359
G1 X120.380 Y65.875 E116.3633
G1 X120.587 Y65.643 E116.3788
G1 X120.923 Y65.522 E116.3967
G1 X121.110 Y65.522 E116.4059
G1 X121.447 Y65.643 E116.4238
G1 X121.565 Y65.745 E116.4316
G1 X121.678 Y65.943 E116.4430
G1 X121.698 Y66.077 E116.4497
G1 X121.649 Y66.284 E116.4604
G1 X121.447 Y66.511 E116.4755
G1 X121.289 Y66.589 E116.4843
G1 X121.110 Y66.631 E116.4935
G1 X120.923 Y66.631 E116.5028
G1 X120.744 Y66.589 E116.5120
G1 X120.464 Y66.404 E116.5287
G1 X120.365 Y66.198 E116.5401
G1 X120.851 Y65.694
;segType:Support
G1 F4800 E115.5401
G1 X106.404 Y119.996 F10800
G1 F4800 E116.5401
G1 X104.996 Y119.996 E116.5998 F900
G1 X104.996 Y121.404 E116.6595
G1 X105.410 Y121.404 E116.6771
; ------------------------------------
; Layer #1
; ------------------------------------
G21 ; mm
G90 ; abs
G92 E0 ; reset extr
M106 S255
;segType:Support
G1 F4800 E-1.0000
G1 F300 Z0.600
G1 X105.725 Y120.725 F10800
G1 F4800 E0.0000
G1 X105.296 Y120.296 E0.0257 F5400
G1 X106.104 Y120.296 E0.0600
G1 F4800 E-0.9400
G1 X120.347 Y68.909 F10800
G1 X121.059 Y66.339
G1 F4800 E0.0600
;segType:Loop
G1 X120.879 Y66.339 E0.0690 F3600
G1 X120.668 Y66.236 E0.0807
G1 X120.587 Y66.033 E0.0916
G1 X120.668 Y65.918 E0.0986
G1 X120.879 Y65.814 E0.1104
G1 X121.154 Y65.814 E0.1241
G1 X121.376 Y65.925 E0.1365
G1 X121.522 Y66.077 E0.1470
G1 X121.376 Y66.229 E0.1575
G1 X121.376 Y66.229
;segType:Perimeter
G1 X121.545 Y65.643 F10800
G1 X121.950 Y66.220 E0.1927 F2159
G1 X121.628 Y66.555 E0.2158
G1 X121.450 Y66.673 E0.2265
G1 X121.243 Y66.748 E0.2375
G1 X121.016 Y66.774 E0.2489
G1 X120.791 Y66.748 E0.2602
G1 X120.583 Y66.673 E0.2712
G1 X120.409 Y66.557 E0.2816
G1 X120.280 Y66.411 E0.2914
G1 X120.201 Y66.248 E0.3004
G1 X120.176 Y66.077 E0.3090
G1 X120.201 Y65.906 E0.3177
G1 X120.280 Y65.743 E0.3267
G1 X120.409 Y65.597 E0.3364
G1 X120.583 Y65.481 E0.3468
G1 X120.791 Y65.405 E0.3579
G1 X121.016 Y65.380 E0.3692
G1 X121.243 Y65.405 E0.3805
G1 X121.450 Y65.481 E0.3916
G1 X121.628 Y65.599 E0.4022
G1 X121.979 Y65.964 E0.4275
G1 X121.987 Y66.118 E0.4352
G1 X121.315 Y66.267
G1 F4800 E-0.5648
G1 X123.459 Y65.876 F10800
G1 X125.602 Y65.485
G1 F4800 E0.4352
;segType:HShell
G1 X124.348 Y64.181 E0.5254 F3600
G1 X124.279 Y64.670
G1 X125.588 Y66.032 E0.6197
G1 X125.682 Y66.690
G1 X124.209 Y65.159 E0.7257
G1 X124.140 Y65.648
G1 X125.776 Y67.349 E0.8435
G1 X125.870 Y68.007
G1 X123.880 Y65.939 E0.9867
;segType:Perimeter
G1 X123.495 Y66.043 F10800
G1 X123.578 Y65.334 E1.0223 F2159
G1 X123.918 Y62.941 E1.1428
G1 X125.116 Y60.268 E1.2890
G1 X127.024 Y57.968 E1.4381
G1 X129.515 Y56.201 E1.5904
G1 X132.418 Y55.089 E1.7456
G1 X135.537 Y54.709 E1.9023
G1 X138.654 Y55.089 E2.0590
G1 X141.559 Y56.201 E2.2142
G1 X144.049 Y57.968 E2.3665
G1 X145.958 Y60.268 E2.5156
G1 X147.155 Y62.941 E2.6617
G1 X147.563 Y65.808 E2.8062
G1 X147.155 Y68.674 E2.9506
G1 X145.958 Y71.348 E3.0968
G1 X144.049 Y73.647 E3.2458
G1 X141.559 Y75.414 E3.3982
G1 X138.654 Y76.526 E3.5534
G1 X135.537 Y76.906 E3.7101
G1 X132.418 Y76.526 E3.8668
G1 X129.515 Y75.414 E4.0219
G1 X127.024 Y73.647 E4.1743
G1 X125.116 Y71.348 E4.3233
G1 X123.918 Y68.674 E4.4695
G1 X123.695 Y67.110 E4.5483
G1 X123.616 Y66.777 E4.5654
G1 X123.277 Y66.615 E4.5841
G1 X123.050 Y66.385 E4.6003
G1 X122.975 Y66.171 E4.6116
G1 X122.975 Y65.983 E4.6209
G1 X123.050 Y65.769 E4.6323
G1 X123.139 Y65.654 E4.6395
G1 X123.334 Y65.499 E4.6519
G1 X123.517 Y65.416 E4.6620
G1 X124.153 Y65.148
;segType:Loop
G1 X124.119 Y64.374 F10800
G1 X124.305 Y63.062 E4.7281 F3600
G1 X125.455 Y60.496 E4.8684
G1 X127.293 Y58.281 E5.0119
G1 X129.699 Y56.574 E5.1592
G1 X132.512 Y55.496 E5.3094
G1 X135.537 Y55.128 E5.4614
G1 X138.561 Y55.496 E5.6134
G1 X141.375 Y56.574 E5.7638
G1 X143.781 Y58.281 E5.9109
G1 X145.619 Y60.496 E6.0545
G1 X146.768 Y63.062 E6.1948
G1 X147.159 Y65.808 E6.3332
G1 X146.768 Y68.553 E6.4715
G1 X145.619 Y71.120 E6.6118
G1 X143.781 Y73.334 E6.7554
G1 X141.375 Y75.041 E6.9026
G1 X138.561 Y76.119 E7.0529
G1 X135.537 Y76.487 E7.2049
G1 X132.512 Y76.119 E7.3569
G1 X129.699 Y75.041 E7.5072
G1 X127.293 Y73.334 E7.6544
G1 X125.455 Y71.120 E7.7979
G1 X124.305 Y68.553 E7.9383
G1 X124.088 Y67.030 E8.0150
G1 X123.959 Y66.483 E8.0431
G1 X123.507 Y66.267 E8.0681
G1 X123.375 Y66.097 E8.0788
G1 X123.404 Y65.976 E8.0850
G1 X123.538 Y65.861 E8.0938
G1 X123.933 Y65.682 E8.1155
G1 X124.091 Y64.570 E8.1714
;segType:HShell
G1 X127.608 Y60.277 F10800
G1 X126.691 Y59.324 E8.2374 F3600
G1 X126.941 Y59.023
G1 X127.858 Y59.976 E8.3033
G1 X128.108 Y59.675
G1 X127.191 Y58.722 E8.3693
G1 X127.445 Y58.425
G1 X128.358 Y59.373 E8.4350
G1 X128.634 Y59.100
G1 X127.766 Y58.197 E8.4975
G1 X128.087 Y57.970
G1 X128.955 Y58.872 E8.5599
G1 X129.275 Y58.645
G1 X128.407 Y57.742 E8.6224
G1 X128.728 Y57.515
G1 X129.677 Y58.501 E8.6907
;segType:Perimeter
G1 X129.429 Y58.596 F10800
G1 X129.850 Y59.160 E8.7258 F2159
G1 X129.885 Y59.389 E8.7373
G1 X128.539 Y69.408 E9.2417
G1 X128.479 Y69.774 E9.2602
G1 X128.397 Y70.070 E9.2755
G1 X128.293 Y70.298 E9.2880
G1 X128.139 Y70.479 E9.2999
G1 X127.842 Y70.637 E9.3167
G1 X127.425 Y70.165 E9.3481
G1 X126.484 Y68.063 E9.4630
G1 X126.163 Y65.808 E9.5766
G1 X126.484 Y63.552 E9.6903
G1 X127.424 Y61.453 E9.8050
G1 X128.917 Y59.654 E9.9217
G1 X129.574 Y59.188 E9.9618
G1 X129.786 Y59.119 E9.9730
G1 X130.459 Y59.261
G1 F4800 E8.9730
G1 X133.809 Y60.732 F10800
G1 F4800 E9.9730
;segType:Loop
G1 X133.713 Y61.616 E10.0174 F3600
G1 X133.563 Y62.749 E10.0744
G1 X133.405 Y63.813 E10.1281
G1 X132.518 Y69.322 E10.4064
G1 X132.287 Y67.632 E10.4915
G1 X132.795 Y66.889 E10.5364
G1 X134.131 Y58.493 E10.9605
G1 X134.295 Y59.870 E11.0297
G1 X133.872 Y60.550 E11.0697
G1 X134.027 Y60.710 F10800
G1 X134.392 Y60.272
G1 X134.779 Y60.690
G1 X136.119 Y60.990
G1 X137.402 Y60.527
G1 X140.518 Y59.674
;segType:HShell
G1 X140.389 Y59.540 E11.0790 F3600
G1 X140.320 Y60.029
G1 X140.406 Y60.119 E11.0852
;segType:Loop
G1 X140.685 Y59.208 F10800
G1 X140.794 Y58.481 E11.1218 F3600
G1 X141.561 Y58.728 E11.1621
G1 X142.425 Y59.341 E11.2149
G1 X143.988 Y61.225 E11.3370
G1 X144.977 Y63.431 E11.4576
G1 X145.315 Y65.808 E11.5774
G1 X144.977 Y68.184 E11.6972
G1 X143.898 Y70.591 E11.8288
G1 X143.310 Y70.725 E11.8589
G1 X142.871 Y70.630 E11.8812
G1 X142.510 Y70.372 E11.9034
G1 X142.272 Y69.984 E11.9261
G1 X142.199 Y69.754 E11.9381
G1 X142.149 Y69.924 E11.9470
G1 X141.933 Y70.283 E11.9679
G1 X141.606 Y70.564 E11.9894
G1 X141.531 Y70.590 E11.9934
G1 X141.524 Y70.838 E12.0058
G1 X142.365 Y70.838 E12.0477
G1 X143.123 Y71.073 E12.0873
G1 X142.799 Y71.824 E12.1281
G1 X142.424 Y72.274 E12.1573
G1 X140.399 Y73.711 E12.2812
G1 X138.051 Y74.610 E12.4066
G1 X135.537 Y74.916 E12.5330
G1 X133.023 Y74.610 E12.6593
G1 X130.674 Y73.711 E12.7849
G1 X128.649 Y72.275 E12.9087
G1 X128.239 Y71.782 E12.9407
G1 X127.926 Y71.059 E12.9800
G1 X127.752 Y71.151 E12.9898
G1 X127.089 Y70.399 E13.0399
G1 X126.097 Y68.184 E13.1609
G1 X125.759 Y65.808 E13.2806
G1 X126.097 Y63.431 E13.4004
G1 X127.085 Y61.225 E13.5210
G1 X128.649 Y59.341 E13.6432
G1 X129.398 Y58.810 E13.6890
G1 X130.164 Y58.561 E13.7292
G1 X130.289 Y59.385 E13.7708
G1 X128.934 Y69.472 E14.2785
G1 X128.869 Y69.867 E14.2985
G1 X128.773 Y70.217 E14.3166
G1 X128.631 Y70.529 E14.3337
G1 X128.389 Y70.814 E14.3524
G1 X128.068 Y70.984 E14.3705
G1 X128.673 Y70.796 E14.4021
G1 X129.651 Y70.796 E14.4509
G1 X129.483 Y70.644 E14.4622
G1 X129.309 Y70.334 E14.4800
G1 X129.218 Y70.003 E14.4971
G1 X129.178 Y69.645 E14.5150
G1 X129.184 Y69.234 E14.5356
G1 X129.255 Y68.448 E14.5749
G1 X129.874 Y63.639 E14.8168
G1 X130.070 Y61.949 E14.9017
G1 X130.182 Y60.692 E14.9647
G1 X130.682 Y59.886 E15.0120
G1 X130.424 Y58.000 E15.1070
G1 X133.023 Y57.005 E15.2458
G1 X135.537 Y56.699 E15.3721
G1 X138.051 Y57.005 E15.4985
G1 X140.418 Y57.912 E15.6250
G1 X139.218 Y66.372 E16.0513
G1 X138.680 Y67.187 E16.1000
G1 X139.059 Y69.642 E16.2239
G1 X139.919 Y63.609 E16.5279
G1 X140.062 Y62.511 E16.5832
G1 X140.212 Y60.848 E16.6665
G1 X140.745 Y59.942 E16.7189
G1 X140.760 Y59.962 E16.7202
G1 X140.683 Y59.404 E16.7483
;segType:Perimeter
G1 X140.499 Y59.181 F10800
G1 X141.172 Y59.038 E16.7826 F2159
G1 X141.385 Y59.107 E16.7938
G1 X142.156 Y59.654 E16.8409
G1 X143.649 Y61.453 E16.9576
G1 X144.590 Y63.552 E17.0723
G1 X144.911 Y65.808 E17.1860
G1 X144.590 Y68.063 E17.2997
G1 X143.619 Y70.229 E17.4181
G1 X143.308 Y70.300 E17.4340
G1 X143.031 Y70.240 E17.4481
G1 X142.804 Y70.078 E17.4621
G1 X142.636 Y69.805 E17.4781
G1 X142.505 Y69.390 E17.4997
G1 X142.393 Y68.835 E17.5280
G1 X142.278 Y68.093 E17.5655
G1 X141.074 Y59.308 E18.0078
G1 X141.109 Y59.079 E18.0194
G1 X141.528 Y58.514
;segType:HShell
G1 X138.288 Y55.672 F10800
G1 X140.118 Y57.575 E18.1511 F3600
G1 X137.303 Y59.859 F10800
G1 X137.072 Y60.189
;segType:Loop
G1 X136.641 Y60.804 E18.1886 F3600
G1 X136.568 Y61.268 E18.2120
G1 X136.468 Y62.407 E18.2691
G1 X136.349 Y63.680 E18.3328
G1 X136.281 Y64.302 E18.3641
G1 X135.825 Y68.016 E18.5508
G1 X135.757 Y68.824 E18.5912
G1 X135.774 Y69.446 E18.6222
G1 X135.852 Y69.862 E18.6434
G1 X136.023 Y70.242 E18.6642
G1 X136.316 Y70.518 E18.6842
G1 X136.569 Y70.633 E18.6981
G1 X136.569 Y70.838 E18.7084
G1 X134.537 Y70.838 E18.8097
G1 X134.537 Y70.540 E18.8246
G1 X134.664 Y70.481 E18.8316
G1 X134.941 Y70.151 E18.8531
G1 X135.107 Y69.778 E18.8735
G1 X135.224 Y69.346 E18.8958
G1 X135.320 Y68.831 E18.9219
G1 X135.611 Y66.572 E19.0356
G1 X135.416 Y64.771 E19.1259
G1 X135.947 Y63.968 E19.1739
G1 X136.681 Y58.265 E19.4608
G1 X136.854 Y58.265 E19.4695
G1 X137.114 Y60.011 E19.5575
;segType:Perimeter
G1 X139.904 Y57.533 F10800
G1 X139.967 Y58.244 E19.5931 F2159
G1 X138.835 Y66.216 E19.9949
G1 X138.639 Y66.515 E20.0127
G1 X138.440 Y66.218 E20.0305
G1 X137.197 Y57.849 E20.4526
G1 X136.331 Y57.849 E20.4959
G1 X135.563 Y63.815 E20.7959
G1 X135.363 Y64.117 E20.8140
G1 X135.166 Y63.812 E20.8321
G1 X134.458 Y57.849 E21.1317
G1 X133.828 Y57.849 E21.1631
G1 X132.415 Y66.726 E21.6116
G1 X132.214 Y67.021 E21.6294
G1 X132.020 Y66.721 E21.6472
G1 X130.866 Y58.274 E22.0725
G1 X133.117 Y57.413 E22.1928
G1 X135.537 Y57.118 E22.3144
G1 X137.957 Y57.413 E22.4360
G1 X139.922 Y58.165 E22.5410
G1 X140.492 Y58.562
G1 X141.017 Y58.852 F10800
G1 X140.884 Y59.307
G1 X141.250 Y61.986
G1 X142.434 Y70.643
;segType:HShell
G1 X142.138 Y70.334 E22.5623 F3600
;segType:Perimeter
G1 X142.500 Y70.678 F10800
G1 X142.548 Y71.390 E22.5979 F2159
G1 X142.458 Y71.598 E22.6092
G1 X142.156 Y71.961 E22.6328
G1 X140.215 Y73.338 E22.7515
G1 X137.957 Y74.203 E22.8721
G1 X135.537 Y74.497 E22.9938
G1 X133.117 Y74.203 E23.1154
G1 X130.858 Y73.338 E23.2360
G1 X128.917 Y71.962 E23.3548
G1 X128.580 Y71.556 E23.3811
G1 X128.467 Y71.294 E23.3953
G1 X128.731 Y71.212 E23.4091
G1 X130.293 Y71.212 E23.4870
G1 X130.293 Y70.609 E23.5171
G1 X130.175 Y70.606 E23.5230
G1 X129.965 Y70.529 E23.5342
G1 X129.795 Y70.375 E23.5456
G1 X129.680 Y70.169 E23.5573
G1 X129.612 Y69.921 E23.5702
G1 X129.578 Y69.624 E23.5851
G1 X129.584 Y69.257 E23.6034
G1 X129.653 Y68.495 E23.6416
G1 X130.271 Y63.692 E23.8832
G1 X130.468 Y61.993 E23.9685
G1 X130.572 Y60.832 E24.0267
G1 X130.764 Y60.521 E24.0449
G1 X130.969 Y60.824 E24.0632
G1 X131.222 Y62.805 E24.1628
G1 X132.354 Y71.073 E24.5792
G1 X132.642 Y71.073 E24.5935
G1 X133.800 Y63.879 E24.9571
G1 X133.959 Y62.809 E25.0110
G1 X134.110 Y61.668 E25.0685
G1 X134.207 Y60.777 E25.1132
G1 X134.397 Y60.470 E25.1312
G1 X134.603 Y60.766 E25.1491
G1 X134.648 Y61.051 E25.1635
G1 X134.752 Y62.196 E25.2209
G1 X134.907 Y63.785 E25.3005
G1 X135.208 Y66.567 E25.4402
G1 X134.925 Y68.764 E25.5506
G1 X134.834 Y69.250 E25.5753
G1 X134.731 Y69.633 E25.5951
G1 X134.602 Y69.922 E25.6109
G1 X134.420 Y70.139 E25.6250
G1 X134.137 Y70.271 E25.6406
G1 X134.137 Y71.254 E25.6896
G1 X136.969 Y71.254 E25.8309
G1 X136.969 Y70.282 E25.8795
G1 X136.765 Y70.267 E25.8897
G1 X136.536 Y70.164 E25.9022
G1 X136.352 Y69.990 E25.9149
G1 X136.235 Y69.732 E25.9290
G1 X136.173 Y69.400 E25.9458
G1 X136.157 Y68.836 E25.9740
G1 X136.223 Y68.061 E26.0128
G1 X136.678 Y64.352 E26.1992
G1 X136.746 Y63.723 E26.2308
G1 X136.866 Y62.446 E26.2948
G1 X136.965 Y61.321 E26.3511
G1 X137.020 Y60.968 E26.3689
G1 X137.228 Y60.672 E26.3870
G1 X137.417 Y60.982 E26.4051
G1 X137.497 Y61.847 E26.4484
G1 X137.612 Y62.783 E26.4954
G1 X137.774 Y63.945 E26.5540
G1 X138.880 Y71.105 E26.9154
G1 X139.255 Y71.105 E26.9341
G1 X140.315 Y63.668 E27.3089
G1 X140.460 Y62.558 E27.3648
G1 X140.602 Y60.983 E27.4437
G1 X140.783 Y60.674 E27.4616
G1 X140.996 Y60.960 E27.4794
G1 X141.060 Y61.283 E27.4958
G1 X141.142 Y62.188 E27.5411
G1 X141.252 Y63.131 E27.5885
G1 X141.333 Y63.723 E27.6184
G1 X141.834 Y67.612 E27.8139
G1 X141.918 Y68.554 E27.8611
G1 X141.921 Y69.041 E27.8855
G1 X141.877 Y69.429 E27.9049
G1 X141.782 Y69.749 E27.9216
G1 X141.628 Y70.006 E27.9365
G1 X141.410 Y70.193 E27.9509
G1 X141.139 Y70.284 E27.9651
G1 X141.113 Y71.254 E28.0135
G1 X142.306 Y71.254 E28.0731
G1 X142.516 Y71.319 E28.0840
G1 X143.004 Y71.822
G1 X143.029 Y70.472 F10800
G1 X141.170 Y60.877
G1 X140.773 Y60.475
G1 X137.538 Y61.444
G1 X136.706 Y59.638
;segType:HShell
G1 X136.883 Y59.822 E28.0968 F3600
G1 X136.770 Y60.266
G1 X136.642 Y60.132 E28.1060
G1 X136.047 Y64.563 F10800
G1 X135.898 Y64.408 E28.1167 F3600
G1 X135.679 Y64.741
G1 X135.986 Y65.061 E28.1389
G1 X135.925 Y65.558
G1 X135.675 Y65.298 E28.1569
G1 X135.743 Y65.930
G1 X135.864 Y66.056 E28.1656
G1 X136.844 Y60.892 F10800
G1 X137.234 Y60.474
G1 X137.634 Y61.164
G1 X137.460 Y60.983 E28.1781 F3600
G1 X137.559 Y61.647
G1 X137.693 Y61.786 E28.1877
G1 X137.770 Y62.427
G1 X137.657 Y62.310 E28.1958
G1 X137.756 Y62.974
G1 X137.855 Y63.076 E28.2029
G1 X137.947 Y63.733
G1 X137.855 Y63.637 E28.2095
G1 X137.953 Y64.300
G1 X138.047 Y64.398 E28.2163
G1 X138.150 Y65.066
G1 X138.052 Y64.964 E28.2234
G1 X138.150 Y65.627
G1 X138.253 Y65.735 E28.2308
G1 X138.357 Y66.403
G1 X138.249 Y66.291 E28.2386
G1 X138.999 Y67.071 F10800
G1 X139.195 Y67.275 E28.2526 F3600
G1 X139.125 Y67.763
G1 X138.942 Y67.573 E28.2658
G1 X138.435 Y66.970 F10800
G1 X137.597 Y60.917
G1 X137.234 Y60.474
G1 X134.779 Y60.690
G1 X134.392 Y60.272
G1 X131.223 Y61.230
G1 X131.042 Y61.042 E28.2788 F3600
G1 X131.131 Y61.696
G1 X131.306 Y61.877 E28.2914
G1 X131.389 Y62.525
G1 X131.221 Y62.350 E28.3034
G1 X131.310 Y63.004
G1 X131.475 Y63.176 E28.3154
G1 X131.565 Y63.830
G1 X131.399 Y63.658 E28.3273
G1 X131.488 Y64.312
G1 X131.655 Y64.484 E28.3392
G1 X131.744 Y65.138
G1 X131.578 Y64.966 E28.3512
G1 X131.667 Y65.619
G1 X131.834 Y65.793 E28.3632
G1 X131.923 Y66.447
G1 X131.756 Y66.273 E28.3752
G1 X134.027 Y60.710 F10800
G1 X134.392 Y60.272
G1 X134.779 Y60.690
G1 X137.234 Y60.474
G1 X140.773 Y60.475
G1 X141.197 Y60.941
G1 X141.079 Y60.818 E28.3837 F3600
G1 X141.169 Y61.472
G1 X141.290 Y61.599 E28.3924
G1 X141.348 Y62.220
G1 X141.258 Y62.127 E28.3988
G1 X141.348 Y62.781
G1 X141.422 Y62.857 E28.4041
G1 X141.506 Y63.506
G1 X141.437 Y63.435 E28.4090
G1 X141.527 Y64.089
G1 X141.591 Y64.156 E28.4136
G1 X141.170 Y60.877 F10800
G1 X140.773 Y60.475
G1 X140.421 Y60.920
G1 X138.796 Y66.627
G1 X138.411 Y66.814
G1 X137.597 Y60.917
G1 X137.234 Y60.474
G1 X136.844 Y60.892
G1 X135.487 Y69.030
G1 X135.565 Y69.111 E28.4192 F3600
G1 X135.624 Y69.733
G1 X135.392 Y69.492 E28.4359
G1 X135.264 Y69.920
G1 X135.947 Y70.630 E28.4851
G1 X135.407 Y70.630
G1 X135.085 Y70.295 E28.5083
G1 X135.399 Y66.569 F10800
G1 X135.097 Y63.764
G1 X134.779 Y60.690
G1 X134.392 Y60.272
G1 X134.027 Y60.710
G1 X132.431 Y70.227
G1 X132.091 Y67.744
G1 X131.147 Y60.752
G1 X130.761 Y60.322
G1 X130.391 Y60.767
G1 X129.067 Y70.209
G1 X129.002 Y70.141 E28.5130 F3600
G1 X128.293 Y71.212 F10800
G1 X127.987 Y73.574
G1 X126.309 Y71.830 E28.6337 F3600
G1 X125.249 Y70.167 F10800
G1 X129.685 Y74.779 E28.9530 F3600
G1 X130.593 Y75.162 F10800
G1 X124.778 Y69.117 E29.3714 F3600
G1 X126.675 Y69.966 F10800
G1 X124.367 Y67.567 E29.5375 F3600
G1 X124.461 Y68.225
G1 X131.447 Y75.489 E30.0403
G1 X132.302 Y75.817
G1 X130.186 Y73.616 E30.1926
G1 X124.263 Y66.898 F10800
G1 X126.204 Y68.916 E30.3323 F3600
G1 X128.790 Y72.110 F10800
G1 X131.236 Y74.148
G1 X132.986 Y75.967 E30.4583 F3600
G1 X128.419 Y71.663 F10800
G1 X128.293 Y71.212
G1 X130.391 Y60.767
G1 X130.761 Y60.322
G1 X131.147 Y60.752
G1 X133.921 Y61.644
G1 X134.027 Y60.710
G1 X134.392 Y60.272
G1 X134.779 Y60.690
G1 X136.844 Y60.892
G1 X137.234 Y60.474
G1 X137.597 Y60.917
G1 X139.132 Y57.651
G1 X139.264 Y57.248
G1 X137.677 Y55.598 E30.5725 F3600
G1 X137.065 Y55.523
G1 X138.410 Y56.921 E30.6693
G1 X140.598 Y58.074 F10800
G1 X140.773 Y58.256 E30.6819 F3600
G1 X142.543 Y59.816 F10800
G1 X144.715 Y62.355
G1 X146.769 Y64.490 E30.8297 F3600
G1 X146.863 Y65.149
G1 X145.174 Y63.393 E30.9513
G1 X145.268 Y64.051
G1 X146.957 Y65.807 E31.0728
G1 X146.887 Y66.296
G1 X145.361 Y64.709 E31.1827
G1 X145.455 Y65.368
G1 X146.818 Y66.785 E31.2808
G1 X146.748 Y67.273
G1 X145.494 Y65.970 E31.3710
G1 X145.425 Y66.458
G1 X146.678 Y67.762 E31.4612
G1 X146.609 Y68.250
G1 X145.355 Y66.947 E31.5514
G1 X145.286 Y67.436
G1 X146.488 Y68.686 E31.6379
G1 X146.316 Y69.069
G1 X145.216 Y67.925 E31.7171
G1 X145.111 Y68.377
G1 X146.145 Y69.451 E31.7915
G1 X145.974 Y69.834
G1 X144.940 Y68.759 E31.8659
G1 X144.768 Y69.142
G1 X145.802 Y70.217 E31.9403
G1 X145.631 Y70.600
G1 X144.597 Y69.525 E32.0148
G1 X144.425 Y69.907
G1 X145.460 Y70.983 E32.0892
G1 X145.214 Y71.289
G1 X144.254 Y70.290 E32.1584
G1 X144.082 Y70.673
G1 X144.964 Y71.590 E32.2219
G1 X144.714 Y71.891
G1 X143.710 Y70.847 E32.2941
G1 X143.357 Y71.041
G1 X144.464 Y72.192 E32.3739
G1 X144.214 Y72.493
G1 X143.189 Y71.428 E32.4476
G1 X143.022 Y71.815
G1 X143.964 Y72.795 E32.5155
G1 X143.714 Y73.096
G1 X142.798 Y72.143 E32.5814
G1 X142.545 Y72.441
G1 X143.413 Y73.343 E32.6439
G1 X143.092 Y73.571
G1 X142.224 Y72.668 E32.7063
G1 X141.903 Y72.896
G1 X142.771 Y73.798 E32.7688
G1 X142.451 Y74.026
G1 X141.583 Y73.123 E32.8313
G1 X141.262 Y73.351
G1 X142.130 Y74.253 E32.8938
G1 X141.809 Y74.481
G1 X140.941 Y73.578 E32.9563
G1 X140.620 Y73.806
G1 X141.489 Y74.709 E33.0187
G1 X141.142 Y74.909
G1 X140.255 Y73.988 E33.0825
G1 X139.861 Y74.139
G1 X140.747 Y75.060 E33.1463
G1 X140.353 Y75.211
G1 X139.467 Y74.290 E33.2101
G1 X139.072 Y74.441
G1 X139.959 Y75.362 E33.2738
G1 X139.564 Y75.513
G1 X138.678 Y74.592 E33.3376
G1 X138.284 Y74.743
G1 X139.170 Y75.664 E33.4014
G1 X138.776 Y75.815
G1 X137.842 Y74.845 E33.4686
G1 X137.359 Y74.904
G1 X138.351 Y75.935 E33.5400
G1 X137.868 Y75.994
G1 X136.876 Y74.962 E33.6114
G1 X136.393 Y75.021
G1 X137.385 Y76.053 E33.6828
G1 X136.902 Y76.112
G1 X135.910 Y75.080 E33.7542
G1 X135.398 Y75.108
G1 X136.419 Y76.170 E33.8277
G1 X135.936 Y76.229
G1 X134.787 Y75.034 E33.9105
G1 X134.175 Y74.960
G1 X135.431 Y76.265 E34.0008
G1 X134.820 Y76.191
G1 X133.564 Y74.885 E34.0912
G1 X132.944 Y74.801
G1 X134.209 Y76.116 E34.1822
G1 X133.597 Y76.042
G1 X132.090 Y74.475 E34.2907
G1 X128.790 Y72.110 F10800
G1 X128.419 Y71.663
G1 X128.293 Y71.212
G1 X130.391 Y60.767
G1 X130.761 Y60.322
G1 X131.147 Y60.752
G1 X133.921 Y61.644
G1 X134.027 Y60.710
G1 X134.392 Y60.272
G1 X134.779 Y60.690
G1 X136.844 Y60.892
G1 X137.234 Y60.474
G1 X137.597 Y60.917
G1 X141.556 Y58.509
G1 X139.052 Y55.906 E34.4709 F3600
G1 X139.907 Y56.233
G1 X146.581 Y63.173 E34.9513
G1 X146.675 Y63.831
G1 X144.244 Y61.304 E35.1262
G1 X146.140 Y62.153 F10800
G1 X140.761 Y56.561 E35.5134 F3600
G1 X141.945 Y57.231 F10800
G1 X145.670 Y61.103 E35.7815 F3600
G1 X137.710 Y56.754 F10800
G1 X136.454 Y55.449 E35.8718 F3600
G1 X135.843 Y55.375
G1 X137.099 Y56.680 E35.9622
G1 X136.487 Y56.606
G1 X135.296 Y55.367 E36.0479
G1 X134.813 Y55.425
G1 X135.876 Y56.531 E36.1245
G1 X135.322 Y56.516
G1 X134.330 Y55.484 E36.1959
G1 X133.847 Y55.543
G1 X134.839 Y56.575 E36.2673
G1 X134.356 Y56.634
G1 X133.364 Y55.602 E36.3388
G1 X132.880 Y55.660
G1 X133.873 Y56.692 E36.4102
G1 X133.390 Y56.751
G1 X132.427 Y55.750 E36.4795
G1 X132.033 Y55.901
G1 X132.920 Y56.823 E36.5433
G1 X132.525 Y56.974
G1 X131.639 Y56.052 E36.6071
G1 X131.244 Y56.204
G1 X132.131 Y57.125 E36.6709
G1 X131.736 Y57.276
G1 X130.850 Y56.355 E36.7347
G1 X130.456 Y56.506
G1 X131.342 Y57.427 E36.7985
G1 X130.948 Y57.578
G1 X130.062 Y56.657 E36.8622
G1 X129.690 Y56.832
G1 X130.553 Y57.729 E36.9243
G1 X130.214 Y57.937
G1 X129.370 Y57.060 E36.9851
G1 X129.049 Y57.287
G1 X130.088 Y58.368 E37.0599
G1 X127.358 Y60.578 F10800
G1 X126.441 Y59.625 E37.1258 F3600
G1 X126.192 Y59.927
G1 X127.108 Y60.879 E37.1918
G1 X126.876 Y61.199
G1 X125.942 Y60.228 E37.2590
G1 X125.692 Y60.529
G1 X126.704 Y61.582 E37.3319
G1 X126.533 Y61.965
G1 X125.499 Y60.890 E37.4063
G1 X125.328 Y61.273
G1 X126.362 Y62.347 E37.4807
G1 X126.190 Y62.730
G1 X125.156 Y61.655 E37.5551
G1 X124.985 Y62.038
G1 X126.019 Y63.113 E37.6295
G1 X125.881 Y63.530
G1 X124.813 Y62.421 E37.7063
G1 X124.642 Y62.803
G1 X125.811 Y64.019 E37.7905
G1 X125.742 Y64.508
G1 X124.487 Y63.204 E37.8807
G1 X124.418 Y63.693
G1 X125.672 Y64.997 E37.9710
G1 F4800 E36.9710
G1 X121.032 Y119.131 F10800
G1 X119.176 Y123.565
G1 X119.341 Y124.881
G1 X121.067 Y124.409
G1 X118.826 Y126.008
G1 X118.856 Y127.459
G1 X121.240 Y128.958
G1 X122.258 Y129.092
G1 X123.333 Y129.015
G1 X123.106 Y128.624
G1 X121.426 Y128.671
G1 X120.618 Y128.549
G1 X119.244 Y128.435
G1 X119.306 Y130.557
G1 X125.598 Y142.341
G1 F4800 E37.9710
G1 X116.185 Y132.555 E38.6484 F3600
;segType:Perimeter
G1 X115.992 Y132.187 F10800
G1 X115.308 Y132.254 E38.6827 F2159
G1 X114.963 Y132.482 E38.7034
G1 X113.060 Y133.161 E38.8042
G1 X111.014 Y133.393 E38.9069
G1 X108.969 Y133.161 E39.0096
G1 X107.065 Y132.482 E39.1104
G1 X105.435 Y131.406 E39.2079
G1 X104.190 Y130.009 E39.3012
G1 X103.410 Y128.387 E39.3910
G1 X103.145 Y126.654 E39.4785
G1 X103.410 Y124.920 E39.5660
G1 X104.190 Y123.300 E39.6557
G1 X105.435 Y121.902 E39.7491
G1 X107.065 Y120.826 E39.8466
G1 X108.969 Y120.147 E39.9474
G1 X111.014 Y119.915 E40.0501
G1 X113.060 Y120.147 E40.1528
G1 X114.963 Y120.826 E40.2536
G1 X115.357 Y121.086 E40.2772
G1 X117.139 Y117.350 E40.4837
G1 X120.550 Y113.488 E40.7408
G1 X125.002 Y110.521 E41.0077
G1 X130.193 Y108.654 E41.2829
G1 X135.764 Y108.017 E41.5626
G1 X141.335 Y108.654 E41.8424
G1 X146.525 Y110.521 E42.1175
G1 X150.977 Y113.488 E42.3845
G1 X154.388 Y117.350 E42.6415
G1 X156.530 Y121.840 E42.8897
G1 X157.259 Y126.654 E43.1326
G1 X156.530 Y131.467 E43.3755
G1 X154.388 Y135.958 E43.6237
G1 X150.977 Y139.820 E43.8808
G1 X146.525 Y142.787 E44.1477
G1 X141.335 Y144.654 E44.4228
G1 X135.764 Y145.291 E44.7026
G1 X130.193 Y144.654 E44.9824
G1 X125.002 Y142.787 E45.2576
G1 X120.550 Y139.820 E45.5245
G1 X117.139 Y135.958 E45.7815
G1 X115.382 Y132.276 E45.9851
G1 X114.831 Y131.850
;segType:Loop
G1 X114.282 Y132.285 F10800
G1 X112.972 Y132.752 E46.0545 F3600
G1 X111.014 Y132.974 E46.1528
G1 X109.057 Y132.752 E46.2510
G1 X107.240 Y132.105 E46.3473
G1 X105.693 Y131.084 E46.4397
G1 X104.522 Y129.769 E46.5276
G1 X103.795 Y128.259 E46.6112
G1 X103.550 Y126.654 E46.6922
G1 X103.795 Y125.049 E46.7732
G1 X104.522 Y123.539 E46.8568
G1 X105.693 Y122.224 E46.9446
G1 X107.240 Y121.203 E47.0371
G1 X109.057 Y120.555 E47.1333
G1 X111.014 Y120.333 E47.2316
G1 X112.972 Y120.555 E47.3299
G1 X114.788 Y121.203 E47.4261
G1 X115.518 Y121.685 E47.4698
G1 X117.472 Y117.588 E47.6963
G1 X120.810 Y113.809 E47.9478
G1 X125.178 Y110.898 E48.2097
G1 X130.281 Y109.062 E48.4802
G1 X135.764 Y108.436 E48.7555
G1 X141.247 Y109.062 E49.0309
G1 X146.349 Y110.898 E49.3014
G1 X150.717 Y113.809 E49.5633
G1 X154.055 Y117.588 E49.8148
G1 X156.144 Y121.967 E50.0569
G1 X156.854 Y126.654 E50.2934
G1 X156.144 Y131.339 E50.5298
G1 X154.055 Y135.721 E50.7720
G1 X150.717 Y139.499 E51.0235
G1 X146.349 Y142.410 E51.2854
G1 X141.247 Y144.246 E51.5559
G1 X135.764 Y144.872 E51.8312
G1 X130.281 Y144.246 E52.1065
G1 X125.178 Y142.410 E52.3771
G1 X120.810 Y139.499 E52.6390
G1 X117.472 Y135.720 E52.8905
G1 X115.518 Y131.624 E53.1170
G1 X114.789 Y132.104 E53.1605
G1 X114.462 Y132.221 E53.1778
G1 X113.641 Y132.744 F10800
G1 X115.408 Y132.031
G1 X128.899 Y143.528
;segType:HShell
G1 X115.288 Y129.378 E54.1573 F3600
;segType:Perimeter
G1 X115.157 Y128.933 F10800
G1 X114.639 Y129.401 E54.1922 F2159
G1 X114.426 Y129.640 E54.2082
G1 X113.423 Y130.303 E54.2681
G1 X112.259 Y130.717 E54.3297
G1 X111.014 Y130.858 E54.3923
G1 X109.769 Y130.717 E54.4548
G1 X108.606 Y130.303 E54.5164
G1 X107.603 Y129.640 E54.5764
G1 X106.828 Y128.771 E54.6344
G1 X106.338 Y127.752 E54.6908
G1 X106.170 Y126.654 E54.7463
G1 X106.338 Y125.556 E54.8017
G1 X106.828 Y124.537 E54.8581
G1 X107.603 Y123.668 E54.9162
G1 X108.606 Y123.005 E54.9761
G1 X109.769 Y122.591 E55.0377
G1 X111.014 Y122.449 E55.1003
G1 X112.260 Y122.591 E55.1628
G1 X113.423 Y123.005 E55.2244
G1 X114.426 Y123.668 E55.2844
G1 X114.678 Y123.951 E55.3033
G1 X114.268 Y126.654 E55.4397
G1 X114.669 Y129.299 E55.5731
G1 X114.848 Y129.988
;segType:Loop
G1 X114.067 Y130.370 F10800
G1 X113.597 Y130.680 E55.6012 F3600
G1 X112.347 Y131.125 E55.6674
G1 X111.014 Y131.277 E55.7344
G1 X109.681 Y131.125 E55.8013
G1 X108.431 Y130.680 E55.8675
G1 X107.345 Y129.962 E55.9325
G1 X106.496 Y129.010 E55.9961
G1 X105.953 Y127.881 E56.0586
G1 X105.765 Y126.654 E56.1205
G1 X105.953 Y125.427 E56.1824
G1 X106.496 Y124.298 E56.2450
G1 X107.345 Y123.346 E56.3086
G1 X108.431 Y122.628 E56.3736
G1 X109.681 Y122.183 E56.4398
G1 X111.014 Y122.031 E56.5067
G1 X112.347 Y122.183 E56.5736
G1 X113.597 Y122.628 E56.6398
G1 X114.684 Y123.346 E56.7048
G1 X115.103 Y123.817 E56.7363
G1 X114.673 Y126.654 E56.8794
G1 X115.103 Y129.493 E57.0227
G1 X114.684 Y129.962 E57.0541
G1 X114.228 Y130.263 E57.0813
;segType:HShell
G1 X119.093 Y124.358 F10800
G1 X116.000 Y121.142 E57.3039 F3600
G1 X115.821 Y121.517
G1 X119.161 Y124.989 E57.5442
G1 X119.876 Y125.172
G1 X119.751 Y125.042 E57.5532
G1 X119.256 Y125.087
G1 X119.495 Y125.337 E57.5705
;segType:Perimeter
G1 X120.018 Y124.992 F10800
G1 X119.697 Y124.361 E57.6058 F2159
G1 X119.677 Y124.175 E57.6152
G1 X119.743 Y123.650 E57.6416
G1 X119.852 Y122.931 E57.6778
G1 X121.504 Y119.468 E57.8692
G1 X124.127 Y116.499 E58.0669
G1 X127.540 Y114.225 E58.2715
G1 X131.507 Y112.797 E58.4819
G1 X135.764 Y112.310 E58.6956
G1 X140.020 Y112.797 E58.9093
G1 X143.988 Y114.225 E59.1198
G1 X147.401 Y116.499 E59.3244
G1 X150.023 Y119.468 E59.5220
G1 X151.675 Y122.931 E59.7134
G1 X152.240 Y126.654 E59.9013
G1 X151.675 Y130.377 E60.0891
G1 X150.023 Y133.840 E60.2806
G1 X147.401 Y136.809 E60.4782
G1 X143.988 Y139.083 E60.6828
G1 X140.020 Y140.511 E60.8932
G1 X135.764 Y140.997 E61.1069
G1 X131.507 Y140.511 E61.3206
G1 X127.540 Y139.083 E61.5310
G1 X124.127 Y136.809 E61.7356
G1 X121.504 Y133.840 E61.9333
G1 X119.852 Y130.377 E62.1247
G1 X119.625 Y128.879 E62.2003
G1 X120.500 Y129.131 E62.2457
G1 X121.376 Y129.264 E62.2899
G1 X122.284 Y129.292 E62.3352
G1 X123.187 Y129.213 E62.3804
G1 X123.852 Y129.072 E62.4143
G1 X123.837 Y128.733 E62.4313
G1 X123.365 Y128.376 E62.4608
G1 X122.890 Y128.390 E62.4845
G1 X122.668 Y128.451 E62.4960
G1 X122.243 Y128.497 E62.5173
G1 X121.815 Y128.475 E62.5387
G1 X121.400 Y128.386 E62.5599
G1 X121.013 Y128.233 E62.5807
G1 X120.665 Y128.018 E62.6011
G1 X120.305 Y127.676 E62.6258
G1 X120.025 Y127.639 E62.6400
G1 X119.589 Y127.444 E62.6638
G1 X119.371 Y127.199 E62.6801
G1 X119.287 Y126.654 E62.7076
G1 X119.350 Y126.248 E62.7281
G1 X119.532 Y126.010 E62.7431
G1 X119.985 Y125.785 E62.7683
G1 X120.227 Y125.740 E62.7806
G1 X120.554 Y125.380 E62.8049
G1 X120.884 Y125.145 E62.8251
G1 X121.259 Y124.969 E62.8458
G1 X121.666 Y124.857 E62.8668
G1 X122.090 Y124.810 E62.8881
G1 X122.518 Y124.833 E62.9095
G1 X122.745 Y124.881 E62.9210
G1 X123.218 Y124.868 E62.9447
G1 X123.641 Y124.503 E62.9725
G1 X123.635 Y124.147 E62.9903
G1 X122.957 Y124.044 E63.0245
G1 X122.049 Y124.016 E63.0698
G1 X121.146 Y124.094 E63.1151
G1 X120.284 Y124.277 E63.1590
G1 X119.940 Y124.398 E63.1772
G1 X119.761 Y124.415 E63.1862
G1 X119.102 Y124.212
;segType:Loop
G1 X119.395 Y123.274 F10800
G1 X119.466 Y122.804 E63.2099 F3600
G1 X121.171 Y119.230 E63.4075
G1 X123.867 Y116.178 E63.6107
G1 X127.364 Y113.848 E63.8203
G1 X131.419 Y112.389 E64.0353
G1 X135.764 Y111.891 E64.2535
G1 X140.108 Y112.389 E64.4716
G1 X144.164 Y113.848 E64.6867
G1 X147.661 Y116.178 E64.8963
G1 X150.356 Y119.230 E65.0995
G1 X152.061 Y122.803 E65.2970
G1 X152.645 Y126.654 E65.4913
G1 X152.061 Y130.505 E65.6856
G1 X150.356 Y134.077 E65.8831
G1 X147.661 Y137.130 E66.0862
G1 X144.164 Y139.460 E66.2959
G1 X140.108 Y140.919 E66.5110
G1 X135.764 Y141.416 E66.7291
G1 X131.419 Y140.919 E66.9473
G1 X127.364 Y139.460 E67.1623
G1 X123.867 Y137.130 E67.3719
G1 X121.171 Y134.078 E67.5751
G1 X119.466 Y130.505 E67.7726
G1 X119.134 Y128.307 E67.8835
G1 X120.582 Y128.723 E67.9587
G1 X121.411 Y128.849 E68.0005
G1 X121.606 Y128.855 E68.0103
G1 X121.288 Y128.787 E68.0265
G1 X120.839 Y128.609 E68.0506
G1 X120.425 Y128.354 E68.0749
G1 X120.128 Y128.072 E68.0953
G1 X119.918 Y128.044 E68.1059
G1 X119.352 Y127.791 E68.1368
G1 X118.995 Y127.389 E68.1637
G1 X118.882 Y126.654 E68.2008
G1 X118.971 Y126.075 E68.2300
G1 X119.276 Y125.676 E68.2550
G1 X119.861 Y125.386 E68.2876
G1 X120.027 Y125.355 E68.2960
G1 X120.292 Y125.062 E68.3158
G1 X120.688 Y124.781 E68.3400
G1 X121.125 Y124.576 E68.3640
G1 X121.455 Y124.485 E68.3812
G1 X121.203 Y124.507 E68.3938
G1 X120.389 Y124.679 E68.4353
G1 X120.023 Y124.808 E68.4547
G1 X119.350 Y124.870 E68.4884
G1 X119.275 Y124.171 E68.5235
G1 X119.347 Y123.591 E68.5527
G1 X119.365 Y123.470 E68.5587
;segType:HShell
G1 X115.643 Y121.892 F10800
G1 X119.136 Y125.525 E68.8102 F3600
G1 X119.116 Y123.821 F10800
G1 X116.179 Y120.767 E69.0216 F3600
G1 X116.358 Y120.392
G1 X119.184 Y123.330 E69.2250
G1 X119.257 Y122.845
G1 X116.537 Y120.017 E69.4207
G1 X116.716 Y119.642
G1 X119.413 Y122.446 E69.6149
G1 X119.592 Y122.071
G1 X116.895 Y119.267 E69.8090
G1 X117.074 Y118.892
G1 X119.771 Y121.696 E70.0031
G1 X119.950 Y121.321
G1 X117.252 Y118.517 E70.1973
G1 X117.431 Y118.142
G1 X120.129 Y120.946 E70.3914
G1 X120.308 Y120.571
G1 X117.610 Y117.766 E70.5856
G1 X117.856 Y117.461
G1 X120.487 Y120.196 E70.7750
G1 X120.666 Y119.821
G1 X118.114 Y117.168 E70.9586
G1 X118.372 Y116.876
G1 X120.845 Y119.446 E71.1365
G1 X121.032 Y119.080
G1 X118.631 Y116.584 E71.3093
G1 X118.889 Y116.291
G1 X121.290 Y118.788 E71.4822
G1 X121.549 Y118.495
G1 X119.147 Y115.999 E71.6550
G1 X119.406 Y115.706
G1 X121.807 Y118.203 E71.8278
G1 X122.065 Y117.910
G1 X119.664 Y115.414 E72.0006
G1 X119.922 Y115.121
G1 X122.324 Y117.618 E72.1734
G1 X122.582 Y117.325
G1 X120.181 Y114.829 E72.3462
G1 X120.439 Y114.537
G1 X122.840 Y117.033 E72.5190
G1 X123.099 Y116.740
G1 X120.697 Y114.244 E72.6918
G1 X120.960 Y113.956
G1 X123.357 Y116.448 E72.8643
G1 X123.615 Y116.155
G1 X121.289 Y113.737 E73.0317
G1 X121.618 Y113.518
G1 X123.911 Y115.902 E73.1967
G1 X124.240 Y115.683
G1 X121.947 Y113.299 E73.3618
G1 X122.275 Y113.080
G1 X124.568 Y115.463 E73.5268
G1 X124.897 Y115.244
G1 X122.604 Y112.860 E73.6918
G1 X122.933 Y112.641
G1 X125.226 Y115.025 E73.8568
G1 X125.555 Y114.806
G1 X123.262 Y112.422 E74.0219
G1 X123.591 Y112.203
G1 X125.884 Y114.587 E74.1869
G1 X126.213 Y114.368
G1 X123.920 Y111.984 E74.3519
G1 X124.248 Y111.765
G1 X126.542 Y114.149 E74.5170
G1 X126.870 Y113.930
G1 X124.577 Y111.545 E74.6820
G1 X124.906 Y111.326
G1 X127.199 Y113.711 E74.8471
G1 X127.583 Y113.549
G1 X125.235 Y111.107 E75.0161
G1 X125.629 Y110.956
G1 X127.984 Y113.405 E75.1856
G1 X128.385 Y113.260
G1 X126.030 Y110.812 E75.3551
G1 X126.431 Y110.667
G1 X128.786 Y113.116 E75.5246
G1 X129.187 Y112.972
G1 X126.832 Y110.523 E75.6942
G1 X127.232 Y110.379
G1 X129.588 Y112.828 E75.8637
G1 X129.989 Y112.683
G1 X127.633 Y110.235 E76.0332
G1 X128.034 Y110.090
G1 X130.389 Y112.539 E76.2027
G1 X130.790 Y112.395
G1 X128.435 Y109.946 E76.3722
G1 X128.836 Y109.802
G1 X131.191 Y112.251 E76.5417
G1 X131.638 Y112.154
G1 X129.237 Y109.658 E76.7145
G1 X129.638 Y109.514
G1 X132.124 Y112.099 E76.8935
G1 X132.610 Y112.043
G1 X130.039 Y109.369 E77.0786
G1 X130.464 Y109.250
G1 X133.097 Y111.987 E77.2680
G1 X133.583 Y111.932
G1 X130.950 Y109.195 E77.4575
G1 X131.436 Y109.139
G1 X134.069 Y111.876 E77.6469
G1 X134.555 Y111.820
G1 X131.922 Y109.084 E77.8364
G1 X132.409 Y109.028
G1 X135.041 Y111.765 E78.0258
G1 X135.527 Y111.709
G1 X132.895 Y108.973 E78.2152
G1 X133.381 Y108.917
G1 X136.075 Y111.718 E78.4091
G1 X136.681 Y111.787
G1 X133.867 Y108.862 E78.6116
G1 X134.353 Y108.806
G1 X137.287 Y111.857 E78.8227
G1 X137.894 Y111.926
G1 X134.840 Y108.751 E79.0426
G1 X135.326 Y108.695
G1 X138.500 Y111.995 E79.2710
G1 X139.107 Y112.065
G1 X135.824 Y108.652 E79.5073
G1 X136.430 Y108.721
G1 X139.713 Y112.134 E79.7436
G1 X144.072 Y114.046 F10800
G1 X147.524 Y116.347
G1 X150.180 Y119.356
G1 X151.857 Y122.871
G1 X152.431 Y126.654
G1 X151.857 Y130.437
G1 X147.524 Y136.960
G1 X137.913 Y140.950
G1 X128.073 Y143.232
G1 X115.127 Y129.771 E80.6753 F3600
G1 X119.583 Y124.574 F10800
G1 X119.554 Y123.621
G1 X119.670 Y122.871
G1 X121.347 Y119.356
G1 X124.004 Y116.347
G1 X127.456 Y114.046
G1 X131.465 Y112.603
G1 X135.764 Y112.111
G1 X149.264 Y113.088
G1 X154.067 Y118.082 E81.0210 F3600
G1 X154.598 Y119.195 F10800
G1 X147.761 Y112.086 E81.5131 F3600
G1 X146.259 Y111.086 F10800
G1 X155.129 Y120.308 E82.1515 F3600
G1 X155.660 Y121.421 F10800
G1 X145.434 Y110.789 E82.8875 F3600
G1 X144.608 Y110.492
G1 X155.997 Y122.332 E83.7071
G1 X142.958 Y109.898 F10800
G1 X156.199 Y123.664 E84.6600 F3600
G1 X156.098 Y122.998
G1 X143.783 Y110.195 E85.5463
G1 X148.082 Y116.347 F10800
G1 X156.400 Y124.995 E86.1449 F3600
G1 X156.299 Y124.330
G1 X142.133 Y109.601 E87.1645
G1 X146.216 Y114.968 F10800
G1 X140.674 Y109.206 E87.5633 F3600
G1 X141.308 Y109.304
G1 X147.718 Y115.969 E88.0247
G1 X151.370 Y120.888 F10800
G1 X156.602 Y126.327 E88.4012 F3600
G1 X156.501 Y125.661
G1 X150.839 Y119.774 E88.8087
G1 X147.524 Y116.347 F10800
G1 X143.680 Y113.454
G1 X139.461 Y109.067 E89.1123 F3600
G1 X140.067 Y109.137
G1 X144.713 Y113.967 E89.4467
G1 X147.524 Y116.347 F10800
G1 X150.180 Y119.356
G1 X151.857 Y122.871
G1 X152.431 Y126.654
G1 X151.857 Y130.437
G1 X147.524 Y136.960
G1 X133.615 Y140.950
G1 X130.652 Y140.863
G1 X134.127 Y144.476 E89.6968 F3600
G1 X134.733 Y144.545
G1 X131.450 Y141.132 E89.9331
G1 X132.056 Y141.201
G1 X135.339 Y144.614 E90.1693
G1 X135.909 Y144.646
G1 X132.663 Y141.271 E90.4030
G1 X133.269 Y141.340
G1 X136.396 Y144.591 E90.6281
G1 X136.882 Y144.535
G1 X133.875 Y141.409 E90.8444
G1 X134.481 Y141.479
G1 X137.368 Y144.480 E91.0522
G1 X137.854 Y144.424
G1 X135.088 Y141.548 E91.2513
G1 X135.694 Y141.617
G1 X138.340 Y144.369 E91.4418
G1 X138.827 Y144.313
G1 X136.194 Y141.576 E91.6312
G1 X136.680 Y141.520
G1 X139.313 Y144.258 E91.8207
G1 X139.799 Y144.202
G1 X137.166 Y141.465 E92.0102
G1 X137.652 Y141.409
G1 X140.285 Y144.146 E92.1997
G1 X140.771 Y144.091
G1 X138.138 Y141.354 E92.3892
G1 X138.625 Y141.298
G1 X141.248 Y144.025 E92.5780
G1 X141.649 Y143.881
G1 X139.111 Y141.242 E92.7606
G1 X139.597 Y141.187
G1 X142.050 Y143.737 E92.9372
G1 X142.451 Y143.593
G1 X140.083 Y141.131 E93.1075
G1 X140.496 Y141.000
G1 X142.851 Y143.448 E93.2771
G1 X143.252 Y143.304
G1 X140.897 Y140.855 E93.4466
G1 X141.298 Y140.711
G1 X143.653 Y143.160 E93.6161
G1 X144.054 Y143.016
G1 X141.699 Y140.567 E93.7856
G1 X142.100 Y140.423
G1 X144.455 Y142.871 E93.9551
G1 X144.856 Y142.727
G1 X142.501 Y140.278 E94.1246
G1 X142.901 Y140.134
G1 X145.257 Y142.583 E94.2941
G1 X145.658 Y142.439
G1 X143.302 Y139.990 E94.4636
G1 X143.703 Y139.846
G1 X146.058 Y142.295 E94.6331
G1 X146.424 Y142.113
G1 X144.104 Y139.702 E94.8001
G1 X144.460 Y139.510
G1 X146.753 Y141.894 E94.9651
G1 X147.081 Y141.675
G1 X144.788 Y139.291 E95.1301
G1 X145.117 Y139.072
G1 X147.410 Y141.456 E95.2951
G1 X147.739 Y141.237
G1 X145.446 Y138.853 E95.4602
G1 X145.775 Y138.633
G1 X148.068 Y141.017 E95.6252
G1 X148.397 Y140.798
G1 X146.104 Y138.414 E95.7902
G1 X146.433 Y138.195
G1 X148.725 Y140.579 E95.9552
G1 X149.054 Y140.360
G1 X146.761 Y137.976 E96.1202
G1 X147.090 Y137.757
G1 X149.383 Y140.141 E96.2853
G1 X149.712 Y139.922
G1 X147.419 Y137.538 E96.4503
G1 X147.748 Y137.319
G1 X150.041 Y139.702 E96.6153
G1 X150.369 Y139.483
G1 X148.015 Y137.036 E96.7847
G1 X148.274 Y136.743
G1 X150.674 Y139.239 E96.9575
G1 X150.933 Y138.947
G1 X148.532 Y136.451 E97.1303
G1 X148.790 Y136.158
G1 X151.191 Y138.655 E97.3031
G1 X151.450 Y138.362
G1 X149.048 Y135.866 E97.4759
G1 X149.307 Y135.573
G1 X151.708 Y138.070 E97.6487
G1 X151.966 Y137.777
G1 X149.565 Y135.281 E97.8215
G1 X149.823 Y134.988
G1 X152.225 Y137.485 E97.9943
G1 X152.483 Y137.192
G1 X150.082 Y134.696 E98.1672
G1 X150.340 Y134.403
G1 X152.741 Y136.900 E98.3400
G1 X153.000 Y136.608
G1 X150.575 Y134.087 E98.5145
G1 X150.754 Y133.712
G1 X153.258 Y136.315 E98.6947
G1 X153.516 Y136.023
G1 X150.933 Y133.337 E98.8806
G1 X151.112 Y132.962
G1 X153.775 Y135.730 E99.0723
G1 X153.988 Y135.392
G1 X151.291 Y132.587 E99.2664
G1 X151.470 Y132.212
G1 X154.167 Y135.016 E99.4606
G1 X154.346 Y134.641
G1 X151.649 Y131.837 E99.6547
G1 X151.828 Y131.462
G1 X154.525 Y134.266 E99.8489
G1 X154.704 Y133.891
G1 X152.007 Y131.087 E100.0430
G1 X152.186 Y130.712
G1 X154.883 Y133.516 E100.2371
G1 X155.062 Y133.141
G1 X152.299 Y130.269 E100.4359
G1 X152.373 Y129.785
G1 X155.241 Y132.766 E100.6423
G1 X155.419 Y132.391
G1 X152.446 Y129.300 E100.8563
G1 X152.520 Y128.815
G1 X155.598 Y132.016 E101.0778
G1 X155.777 Y131.641
G1 X152.593 Y128.331 E101.3070
G1 X152.667 Y127.846
G1 X155.953 Y131.263 E101.5435
G1 X156.027 Y130.778
G1 X152.740 Y127.361 E101.7800
G1 X152.814 Y126.877
G1 X156.100 Y130.294 E102.0165
G1 X156.174 Y129.809
G1 X152.793 Y126.294 E102.2598
G1 X152.692 Y125.628
G1 X156.247 Y129.324 E102.5157
G1 X156.320 Y128.840
G1 X152.591 Y124.962 E102.7841
G1 X152.490 Y124.296
G1 X156.394 Y128.355 E103.0650
G1 X156.467 Y127.870
G1 X152.389 Y123.630 E103.3585
G1 X152.288 Y122.964
G1 X156.541 Y127.385 E103.6646
G1 X156.614 Y126.901
G1 X151.902 Y122.002 E104.0037
G1 X145.798 Y115.197 F10800
G1 X142.030 Y112.860
G1 X138.249 Y108.929 E104.2758 F3600
G1 X138.855 Y108.998
G1 X142.855 Y113.157 E104.5637
G1 X140.380 Y112.267 F10800
G1 X137.036 Y108.790 E104.8044 F3600
G1 X137.643 Y108.860
G1 X141.205 Y112.563 E105.0608
G1 X135.764 Y112.111 F10800
G1 X131.465 Y112.603
G1 X127.456 Y114.046
G1 X115.408 Y121.277
G1 X113.759 Y121.056
G1 X118.743 Y126.238 E105.4195 F3600
G1 X118.897 Y125.837
G1 X114.580 Y121.349 E105.7302
G1 X119.413 Y130.861 F10800
G1 X114.942 Y126.213 E106.0519 F3600
G1 X115.016 Y125.729
G1 X119.199 Y130.078 E106.3530
G1 X119.098 Y129.412
G1 X115.089 Y125.244 E106.6415
G1 X115.163 Y124.759
G1 X118.998 Y128.747 E106.9176
G1 X118.897 Y128.081
G1 X115.236 Y124.275 E107.1811
G1 X115.310 Y123.790
G1 X118.796 Y127.415 E107.4320
G1 X118.694 Y126.748
G1 X112.937 Y120.762 E107.8463
G1 X119.393 Y128.035 F10800
G1 X119.566 Y128.215 E107.8588 F3600
G1 X113.359 Y122.324 F10800
G1 X111.724 Y120.623 E107.9765 F3600
G1 X112.329 Y120.691
G1 X114.579 Y123.030 E108.1384
G1 X112.301 Y122.398 F10800
G1 X111.014 Y122.251
G1 X109.727 Y122.398
G1 X108.523 Y122.827
G1 X107.481 Y123.516
G1 X106.672 Y124.424
G1 X106.156 Y125.495
G1 X105.750 Y127.876
G1 X103.865 Y125.917 E108.2740 F3600
G1 X103.939 Y125.433
G1 X105.648 Y127.209 E108.3969
G1 X105.575 Y126.573
G1 X104.049 Y124.986 E108.5068
G1 X104.229 Y124.612
G1 X105.649 Y126.089 E108.6090
G1 X105.723 Y125.605
G1 X104.409 Y124.238 E108.7035
G1 X104.589 Y123.865
G1 X105.850 Y125.176 E108.7943
G1 X106.030 Y124.802
G1 X104.805 Y123.528 E108.8825
G1 X105.064 Y123.236
G1 X106.210 Y124.428 E108.9650
G1 X106.416 Y124.081
G1 X105.324 Y122.945 E109.0436
G1 X105.583 Y122.654
G1 X106.676 Y123.790 E109.1223
G1 X106.936 Y123.499
G1 X105.848 Y122.368 E109.2005
G1 X106.178 Y122.150
G1 X107.195 Y123.208 E109.2738
G1 X107.520 Y122.984
G1 X106.508 Y121.933 E109.3466
G1 X106.838 Y121.715
G1 X107.849 Y122.766 E109.4193
G1 X108.179 Y122.548
G1 X107.168 Y121.497 E109.4921
G1 X107.535 Y121.318
G1 X108.545 Y122.368 E109.5648
G1 X108.947 Y122.224
G1 X107.937 Y121.174 E109.6375
G1 X108.339 Y121.031
G1 X109.349 Y122.081 E109.7102
G1 X109.775 Y121.963
G1 X108.741 Y120.888 E109.7847
G1 X109.151 Y120.753
G1 X110.261 Y121.907 E109.8645
G1 X110.747 Y121.852
G1 X109.638 Y120.698 E109.9444
G1 X110.125 Y120.643
G1 X111.288 Y121.853 E110.0281
G1 X111.894 Y121.922
G1 X110.611 Y120.588 E110.1204
G1 X111.118 Y120.554
G1 X112.539 Y122.031 E110.2226
G1 X114.548 Y123.516 F10800
G1 X121.347 Y133.952
G1 X124.004 Y136.960
G1 X129.001 Y140.269
G1 X132.914 Y144.337 E110.5042 F3600
G1 X133.521 Y144.407
G1 X129.827 Y140.566 E110.7701
G1 X127.351 Y139.675 F10800
G1 X131.702 Y144.199 E111.0832 F3600
G1 X132.308 Y144.268
G1 X128.176 Y139.972 E111.3806
G1 X124.004 Y136.960 F10800
G1 X120.476 Y133.088
G1 X114.986 Y127.380 E111.7757 F3600
G1 X114.885 Y126.714
G1 X119.944 Y131.975 E112.1398
G1 X122.919 Y135.815 F10800
G1 X124.406 Y137.736
G1 X130.489 Y144.060 E112.5776 F3600
G1 X131.096 Y144.130
G1 X125.909 Y138.738 E112.9509
G1 X129.724 Y143.825 F10800
G1 X115.187 Y128.712 E113.9970 F3600
G1 X115.087 Y128.046
G1 X121.031 Y134.227 E114.4248
G1 X115.408 Y132.031 F10800
G1 X109.596 Y131.315
G1 X110.989 Y132.762 E114.5250 F3600
G1 X111.480 Y132.712
G1 X110.213 Y131.395 E114.6162
G1 X110.819 Y131.464
G1 X111.967 Y132.657 E114.6989
G1 X112.454 Y132.602
G1 X111.344 Y131.448 E114.7787
G1 X111.830 Y131.393
G1 X112.938 Y132.545 E114.8585
G1 X113.340 Y132.401
G1 X112.317 Y131.338 E114.9321
G1 X112.732 Y131.208
G1 X113.741 Y132.258 E115.0048
G1 X114.143 Y132.115
G1 X113.134 Y131.065 E115.0774
G1 X113.536 Y130.922
G1 X114.545 Y131.971 E115.1501
G1 X114.903 Y131.783
G1 X113.892 Y130.732 E115.2228
G1 X114.222 Y130.514
G1 X115.233 Y131.565 E115.2956
G1 X115.564 Y131.347
G1 X114.552 Y130.296 E115.3684
G1 X114.867 Y130.062
G1 X127.248 Y142.935 E116.2595
G1 X126.423 Y142.638
G1 X115.654 Y131.441 E117.0345
G1 X124.368 Y141.623 F10800
G1 X116.716 Y133.668 E117.5852 F3600
G1 X117.247 Y134.781 F10800
G1 X122.864 Y140.621 E117.9894 F3600
G1 X121.361 Y139.619 F10800
G1 X119.238 Y137.411 E118.1422 F3600
G1 X115.408 Y132.031 F10800
G1 X107.642 Y130.405
G1 X109.777 Y132.625 E118.2959 F3600
G1 X110.383 Y132.694
G1 X108.776 Y131.023 E118.4116
G1 X109.172 Y132.556 F10800
G1 X103.801 Y126.972 E118.7981 F3600
G1 X103.791 Y126.401
G1 X106.245 Y128.952 E118.9747
G1 X103.903 Y127.639 F10800
G1 X108.376 Y132.290 E119.2966 F3600
G1 X107.555 Y131.997
G1 X104.079 Y128.383 E119.5468
G1 X104.619 Y129.506 F10800
G1 X106.259 Y131.211 E119.6647 F3600
; ------------------------------------
; Layer #2
; ------------------------------------
G21 ; mm
G90 ; abs
G92 E0 ; reset extr
M106 S255
;segType:HShell
G1 F4800 E-1.0000
G1 F300 Z0.900
G1 X115.955 Y132.072 F10800
G1 F4800 E0.0000
G1 X119.019 Y128.887 E0.2205 F3600
G1 X118.965 Y128.382
G1 X115.776 Y131.697 E0.4500
;segType:Loop
G1 X114.382 Y132.494 F10800
G1 X113.040 Y132.972 E0.5210 F3600
G1 X111.014 Y133.202 E0.6228
G1 X108.988 Y132.972 E0.7245
G1 X107.108 Y132.302 E0.8241
G1 X105.507 Y131.244 E0.9198
G1 X104.294 Y129.883 E1.0108
G1 X103.540 Y128.318 E1.0975
G1 X103.286 Y126.654 E1.1814
G1 X103.540 Y124.990 E1.2654
G1 X104.294 Y123.425 E1.3521
G1 X105.507 Y122.063 E1.4431
G1 X107.108 Y121.006 E1.5388
G1 X108.988 Y120.335 E1.6384
G1 X111.014 Y120.106 E1.7401
G1 X113.040 Y120.335 E1.8418
G1 X114.921 Y121.006 E1.9414
G1 X115.621 Y121.468 E1.9833
G1 X117.472 Y117.588 E2.1978
G1 X120.810 Y113.809 E2.4493
G1 X125.178 Y110.898 E2.7112
G1 X130.281 Y109.062 E2.9818
G1 X135.764 Y108.436 E3.2571
G1 X141.247 Y109.062 E3.5324
G1 X146.349 Y110.898 E3.8029
G1 X150.717 Y113.809 E4.0648
G1 X154.055 Y117.588 E4.3163
G1 X156.144 Y121.967 E4.5584
G1 X156.854 Y126.654 E4.7949
G1 X156.144 Y131.339 E5.0313
G1 X154.055 Y135.721 E5.2735
G1 X150.717 Y139.499 E5.5250
G1 X146.349 Y142.410 E5.7869
G1 X141.247 Y144.246 E6.0574
G1 X135.764 Y144.872 E6.3328
G1 X130.281 Y144.246 E6.6081
G1 X125.178 Y142.410 E6.8786
G1 X120.810 Y139.499 E7.1405
G1 X117.472 Y135.721 E7.3920
G1 X115.621 Y131.840 E7.6066
G1 X114.921 Y132.302 E7.6484
G1 X114.562 Y132.430 E7.6674
G1 X114.187 Y132.794 F10800
G1 X115.358 Y132.271
G1 X116.096 Y132.403
;segType:Perimeter
G1 X115.412 Y132.470 E7.7017 F2159
G1 X115.095 Y132.680 E7.7206
G1 X113.128 Y133.381 E7.8248
G1 X111.014 Y133.620 E7.9309
G1 X108.901 Y133.381 E8.0371
G1 X106.933 Y132.680 E8.1413
G1 X105.248 Y131.566 E8.2420
G1 X103.962 Y130.122 E8.3385
G1 X103.155 Y128.447 E8.4313
G1 X102.881 Y126.654 E8.5218
G1 X103.155 Y124.861 E8.6122
G1 X103.962 Y123.186 E8.7050
G1 X105.248 Y121.741 E8.8015
G1 X106.933 Y120.628 E8.9023
G1 X108.901 Y119.927 E9.0065
G1 X111.014 Y119.688 E9.1126
G1 X113.128 Y119.927 E9.2187
G1 X115.095 Y120.628 E9.3229
G1 X115.460 Y120.869 E9.3447
G1 X117.139 Y117.350 E9.5393
G1 X120.550 Y113.488 E9.7963
G1 X125.002 Y110.521 E10.0633
G1 X130.193 Y108.654 E10.3384
G1 X135.764 Y108.017 E10.6182
G1 X141.335 Y108.654 E10.8980
G1 X146.525 Y110.521 E11.1731
G1 X150.977 Y113.488 E11.4400
G1 X154.388 Y117.350 E11.6971
G1 X156.530 Y121.840 E11.9453
G1 X157.259 Y126.654 E12.1882
G1 X156.530 Y131.467 E12.4311
G1 X154.388 Y135.958 E12.6793
G1 X150.977 Y139.820 E12.9364
G1 X146.525 Y142.787 E13.2033
G1 X141.335 Y144.654 E13.4784
G1 X135.764 Y145.291 E13.7582
G1 X130.193 Y144.654 E14.0380
G1 X125.002 Y142.787 E14.3131
G1 X120.550 Y139.820 E14.5801
G1 X117.139 Y135.958 E14.8371
G1 X115.486 Y132.492 E15.0287
G1 X114.934 Y132.066
;segType:HShell
G1 X115.144 Y128.427 F10800
G1 X119.023 Y124.395 E15.3079 F3600
G1 X119.124 Y123.729
G1 X115.071 Y127.943 E15.5995
;segType:Perimeter
G1 X115.109 Y128.615 F10800
G1 X114.591 Y129.084 E15.6344 F2159
G1 X114.239 Y129.479 E15.6608
G1 X113.291 Y130.105 E15.7175
G1 X112.191 Y130.497 E15.7758
G1 X111.014 Y130.630 E15.8348
G1 X109.837 Y130.497 E15.8939
G1 X108.738 Y130.105 E15.9521
G1 X107.790 Y129.479 E16.0088
G1 X107.057 Y128.657 E16.0638
G1 X106.593 Y127.693 E16.1171
G1 X106.435 Y126.654 E16.1696
G1 X106.593 Y125.615 E16.2220
G1 X107.057 Y124.650 E16.2754
G1 X107.790 Y123.829 E16.3303
G1 X108.738 Y123.203 E16.3870
G1 X109.837 Y122.811 E16.4452
G1 X111.014 Y122.676 E16.5044
G1 X112.191 Y122.811 E16.5634
G1 X113.291 Y123.203 E16.6217
G1 X114.239 Y123.829 E16.6784
G1 X114.629 Y124.267 E16.7076
G1 X114.268 Y126.654 E16.8281
G1 X114.621 Y128.981 E16.9455
G1 X114.800 Y129.670
;segType:Loop
G1 X114.053 Y130.094 F10800
G1 X113.465 Y130.483 E16.9807 F3600
G1 X112.278 Y130.906 E17.0436
G1 X111.014 Y131.049 E17.1070
G1 X109.750 Y130.906 E17.1705
G1 X108.564 Y130.483 E17.2333
G1 X107.532 Y129.801 E17.2950
G1 X106.725 Y128.897 E17.3555
G1 X106.208 Y127.822 E17.4150
G1 X106.030 Y126.654 E17.4740
G1 X106.208 Y125.486 E17.5329
G1 X106.725 Y124.411 E17.5924
G1 X107.532 Y123.507 E17.6529
G1 X108.564 Y122.825 E17.7146
G1 X109.749 Y122.402 E17.7774
G1 X111.014 Y122.258 E17.8409
G1 X112.279 Y122.402 E17.9044
G1 X113.465 Y122.825 E17.9672
G1 X114.497 Y123.507 E18.0289
G1 X115.055 Y124.132 E18.0707
G1 X114.673 Y126.654 E18.1980
G1 X115.055 Y129.174 E18.3251
G1 X114.498 Y129.801 E18.3670
G1 X114.214 Y129.988 E18.3839
G1 X119.238 Y124.314 F10800
G1 X119.466 Y122.804 E18.4601 F3600
G1 X121.171 Y119.230 E18.6576
G1 X123.867 Y116.178 E18.8608
G1 X127.364 Y113.848 E19.0705
G1 X131.419 Y112.389 E19.2855
G1 X135.764 Y111.891 E19.5036
G1 X140.108 Y112.389 E19.7218
G1 X144.164 Y113.848 E19.9369
G1 X147.661 Y116.178 E20.1465
G1 X150.356 Y119.230 E20.3497
G1 X152.061 Y122.803 E20.5472
G1 X152.645 Y126.654 E20.7415
G1 X152.061 Y130.505 E20.9358
G1 X150.356 Y134.077 E21.1333
G1 X147.661 Y137.130 E21.3364
G1 X144.164 Y139.460 E21.5461
G1 X140.108 Y140.919 E21.7611
G1 X135.764 Y141.416 E21.9793
G1 X131.419 Y140.919 E22.1974
G1 X127.364 Y139.460 E22.4125
G1 X123.867 Y137.130 E22.6221
G1 X121.171 Y134.078 E22.8253
G1 X119.466 Y130.505 E23.0228
G1 X119.235 Y128.977 E23.0999
G1 X119.234 Y128.976 E23.0999
G1 X119.168 Y128.535 E23.1222
G1 X119.168 Y128.533 E23.1223
G1 X119.157 Y128.460 E23.1260
G1 X119.175 Y128.465 E23.1269
G1 X119.235 Y127.807 E23.1598
G1 X119.445 Y127.832 E23.1704
G1 X119.344 Y127.781 E23.1760
G1 X118.995 Y127.389 E23.2022
G1 X118.882 Y126.654 E23.2393
G1 X118.971 Y126.075 E23.2685
G1 X119.269 Y125.685 E23.2930
G1 X119.390 Y125.621 E23.2998
G1 X119.246 Y125.653 E23.3072
G1 X119.153 Y124.874 E23.3464
G1 X119.157 Y124.845 E23.3478
G1 X119.208 Y124.510 E23.3647
G1 F4800 E22.3647
G1 X119.654 Y124.237 F10800
G1 F4800 E23.3647
;segType:Perimeter
G1 X119.852 Y122.931 E23.4306 F2159
G1 X121.504 Y119.468 E23.6221
G1 X124.127 Y116.499 E23.8197
G1 X127.540 Y114.225 E24.0243
G1 X131.507 Y112.797 E24.2347
G1 X135.764 Y112.310 E24.4484
G1 X140.020 Y112.797 E24.6621
G1 X143.988 Y114.225 E24.8726
G1 X147.401 Y116.499 E25.0772
G1 X150.023 Y119.468 E25.2748
G1 X151.675 Y122.931 E25.4662
G1 X152.240 Y126.654 E25.6541
G1 X151.675 Y130.377 E25.8419
G1 X150.023 Y133.840 E26.0334
G1 X147.401 Y136.809 E26.2310
G1 X143.988 Y139.083 E26.4356
G1 X140.020 Y140.511 E26.6460
G1 X135.764 Y140.997 E26.8597
G1 X131.507 Y140.511 E27.0735
G1 X127.540 Y139.083 E27.2838
G1 X124.127 Y136.809 E27.4885
G1 X121.504 Y133.840 E27.6861
G1 X119.852 Y130.377 E27.8775
G1 X119.649 Y129.033 E27.9454
G1 X120.403 Y129.250 E27.9845
G1 X121.320 Y129.391 E28.0308
G1 X122.270 Y129.423 E28.0782
G1 X123.249 Y129.338 E28.1273
G1 X123.858 Y129.209 E28.1583
G1 X123.837 Y128.732 E28.1821
G1 X123.338 Y128.377 E28.2127
G1 X122.699 Y128.561 E28.2458
G1 X122.248 Y128.609 E28.2685
G1 X121.793 Y128.587 E28.2912
G1 X121.352 Y128.492 E28.3137
G1 X120.940 Y128.328 E28.3358
G1 X120.571 Y128.101 E28.3574
G1 X120.262 Y127.817 E28.3784
G1 X120.138 Y127.647 E28.3888
G1 X119.891 Y127.593 E28.4015
G1 X119.586 Y127.440 E28.4185
G1 X119.371 Y127.199 E28.4346
G1 X119.287 Y126.654 E28.4621
G1 X119.350 Y126.248 E28.4826
G1 X119.529 Y126.013 E28.4974
G1 X119.930 Y125.796 E28.5201
G1 X120.066 Y125.770 E28.5271
G1 X120.167 Y125.604 E28.5368
G1 X120.454 Y125.302 E28.5575
G1 X120.803 Y125.054 E28.5789
G1 X121.202 Y124.866 E28.6009
G1 X121.634 Y124.747 E28.6232
G1 X122.085 Y124.698 E28.6459
G1 X122.426 Y124.715 E28.6629
G1 X122.979 Y124.814 E28.6909
G1 X123.198 Y124.869 E28.7022
G1 X123.654 Y124.490 E28.7318
G1 X123.633 Y124.010 E28.7558
G1 X123.007 Y123.915 E28.7873
G1 X122.063 Y123.885 E28.8344
G1 X121.078 Y123.971 E28.8838
G1 X120.168 Y124.166 E28.9302
G1 X119.701 Y124.282 E28.9542
G1 X119.083 Y123.971
G1 X119.199 Y127.286 F10800
G1 X120.857 Y128.507
G1 X121.298 Y128.682
G1 X123.094 Y128.879
;segType:Loop
G1 X123.094 Y128.879 F3600
G1 X123.265 Y128.830 E28.9631
G1 X123.352 Y128.892 E28.9684
G1 X123.145 Y128.917 E28.9788
G1 F4800 E27.9788
G1 X120.693 Y129.292 F10800
G1 X119.961 Y129.075
G1 X118.994 Y128.481
G1 F4800 E28.9788
;segType:Perimeter
G1 X119.651 Y128.274 E29.0132 F2159
G1 X119.839 Y128.296 E29.0226
G1 X120.212 Y128.442 E29.0426
G1 X120.855 Y128.632 E29.0761
G1 X121.545 Y128.740 E29.1109
G1 X122.024 Y128.755 E29.1349
G1 X122.291 Y128.787 E29.1483
G1 X122.587 Y129.010 E29.1667
G1 X122.272 Y129.202 E29.1851
G1 X121.498 Y129.217 E29.2238
G1 X120.733 Y129.098 E29.2624
G1 X120.027 Y128.889 E29.2991
G1 X119.596 Y128.689 E29.3228
G1 X119.571 Y128.522 E29.3312
G1 X119.589 Y128.327 E29.3410
G1 X119.918 Y127.700
G1 X119.959 Y125.690 F10800
G1 X119.582 Y125.093 E29.3762 F2159
G1 X119.557 Y124.880 E29.3869
G1 X119.585 Y124.685 E29.3967
G1 X119.821 Y124.558 E29.4101
G1 X120.532 Y124.297 E29.4479
G1 X121.279 Y124.135 E29.4860
G1 X121.739 Y124.094 E29.5091
G1 X122.072 Y124.106 E29.5257
G1 X122.385 Y124.300 E29.5440
G1 X122.089 Y124.520 E29.5625
G1 X121.363 Y124.607 E29.5989
G1 X120.680 Y124.755 E29.6338
G1 X120.062 Y124.978 E29.6665
G1 X119.847 Y125.095 E29.6787
G1 X119.645 Y125.139 E29.6891
G1 X118.979 Y124.964
;segType:HShell
G1 X113.195 Y132.697 F10800
G1 X118.725 Y126.949 E30.0870 F3600
G1 X118.720 Y126.393
G1 X112.538 Y132.820 E30.5319
G1 X111.932 Y132.889
G1 X119.042 Y125.497 E31.0436
G1 X118.977 Y125.004
G1 X115.218 Y128.912 E31.3142
G1 X114.997 Y127.458 F10800
G1 X119.224 Y123.063 E31.6184 F3600
G1 X119.516 Y124.441 F10800
G1 X120.209 Y124.359
G1 X120.475 Y124.302
G1 X120.592 Y124.081
G1 X119.745 Y124.376
G1 X119.430 Y124.570
G1 X119.479 Y125.313
G1 X120.018 Y125.480
G1 X119.175 Y126.168
G1 X119.199 Y127.286
G1 X120.857 Y128.507
G1 X121.298 Y128.682
G1 X122.735 Y128.756
G1 X123.222 Y129.141
G1 X121.337 Y129.193
G1 X120.442 Y129.056
G1 X119.522 Y128.885
G1 X119.670 Y130.437
G1 X121.347 Y133.952
G1 X124.004 Y136.960
G1 X127.456 Y139.262
G1 X131.465 Y140.705
G1 X135.764 Y141.196
G1 X140.173 Y141.116
G1 X136.884 Y144.535 E31.8551 F3600
G1 X136.278 Y144.604
G1 X139.561 Y141.191 E32.0913
G1 X138.955 Y141.260
G1 X135.690 Y144.655 E32.3263
G1 X135.204 Y144.599
G1 X138.349 Y141.330 E32.5526
G1 X137.742 Y141.399
G1 X134.718 Y144.543 E32.7703
G1 X134.232 Y144.488
G1 X137.136 Y141.468 E32.9793
G1 X136.530 Y141.538
G1 X133.745 Y144.432 E33.1797
G1 X133.259 Y144.377
G1 X135.924 Y141.607 E33.3715
G1 X135.406 Y141.584
G1 X132.773 Y144.321 E33.5609
G1 X132.287 Y144.266
G1 X134.920 Y141.529 E33.7504
G1 X134.433 Y141.473
G1 X131.801 Y144.210 E33.9399
G1 X131.314 Y144.155
G1 X133.947 Y141.417 E34.1294
G1 X133.461 Y141.362
G1 X130.828 Y144.099 E34.3188
G1 X130.342 Y144.044
G1 X132.975 Y141.306 E34.5083
G1 X132.489 Y141.251
G1 X129.938 Y143.902 E34.6919
G1 X129.537 Y143.758
G1 X132.003 Y141.195 E34.8693
G1 X131.517 Y141.139
G1 X129.136 Y143.614 E35.0406
G1 X128.736 Y143.470
G1 X131.091 Y141.021 E35.2101
G1 X130.690 Y140.877
G1 X128.335 Y143.326 E35.3796
G1 X127.934 Y143.181
G1 X130.289 Y140.733 E35.5491
G1 X129.888 Y140.588
G1 X127.533 Y143.037 E35.7186
G1 X127.132 Y142.893
G1 X129.487 Y140.444 E35.8882
G1 X129.086 Y140.300
G1 X126.731 Y142.749 E36.0577
G1 X126.330 Y142.604
G1 X128.686 Y140.156 E36.2272
G1 X128.285 Y140.011
G1 X125.929 Y142.460 E36.3967
G1 X125.528 Y142.316
G1 X127.884 Y139.867 E36.5662
G1 X127.483 Y139.723
G1 X125.152 Y142.146 E36.7339
G1 X124.824 Y141.927
G1 X127.117 Y139.542 E36.8990
G1 X126.788 Y139.323
G1 X124.495 Y141.708 E37.0640
G1 X124.166 Y141.488
G1 X126.459 Y139.104 E37.2291
G1 X126.130 Y138.885
G1 X123.837 Y141.269 E37.3941
G1 X123.508 Y141.050
G1 X125.802 Y138.666 E37.5592
G1 X125.473 Y138.447
G1 X123.180 Y140.831 E37.7242
G1 X122.851 Y140.612
G1 X125.144 Y138.228 E37.8893
G1 X124.815 Y138.008
G1 X122.522 Y140.393 E38.0543
G1 X122.193 Y140.173
G1 X124.486 Y137.789 E38.2194
G1 X124.158 Y137.570
G1 X121.864 Y139.954 E38.3844
G1 X121.535 Y139.735
G1 X123.829 Y137.351 E38.5494
G1 X123.551 Y137.079
G1 X121.207 Y139.516 E38.7181
G1 X120.891 Y139.283
G1 X123.292 Y136.786 E38.8910
G1 X123.034 Y136.494
G1 X120.633 Y138.991 E39.0638
G1 X120.374 Y138.698
G1 X122.776 Y136.202 E39.2366
G1 X122.517 Y135.909
G1 X120.116 Y138.406 E39.4094
G1 X119.858 Y138.113
G1 X122.259 Y135.617 E39.5823
G1 X122.001 Y135.324
G1 X119.599 Y137.821 E39.7551
G1 X119.341 Y137.528
G1 X121.742 Y135.032 E39.9279
G1 X121.484 Y134.739
G1 X119.083 Y137.236 E40.1007
G1 X118.824 Y136.944
G1 X121.226 Y134.447 E40.2735
G1 X120.979 Y134.143
G1 X118.566 Y136.651 E40.4472
G1 X118.308 Y136.359
G1 X120.800 Y133.768 E40.6265
G1 X120.621 Y133.393
G1 X118.049 Y136.066 E40.8116
G1 X117.791 Y135.774
G1 X120.442 Y133.018 E41.0024
G1 X120.263 Y132.643
G1 X117.565 Y135.448 E41.1966
G1 X117.386 Y135.073
G1 X120.084 Y132.268 E41.3907
G1 X119.905 Y131.893
G1 X117.207 Y134.698 E41.5849
G1 X117.029 Y134.322
G1 X119.726 Y131.518 E41.7790
G1 X119.547 Y131.143
G1 X116.850 Y133.947 E41.9731
G1 X116.671 Y133.572
G1 X119.368 Y130.768 E42.1673
G1 X119.239 Y130.341
G1 X116.492 Y133.197 E42.3650
G1 X116.313 Y132.822
G1 X119.166 Y129.856 E42.5703
G1 X119.092 Y129.372
G1 X116.134 Y132.447 E42.7832
G1 X108.655 Y130.284 F10800
G1 X107.668 Y129.631
G1 X106.900 Y128.770
G1 X104.188 Y124.110
G1 X106.639 Y121.562 E42.9596 F3600
G1 X107.707 Y121.012 F10800
G1 X103.717 Y125.160 E43.2467 F3600
G1 X106.407 Y124.608 F10800
G1 X103.619 Y127.506 E43.4474 F3600
G1 X103.545 Y127.022
G1 X109.872 Y120.445 E43.9027
G1 X109.266 Y120.513
G1 X103.513 Y126.494 E44.3167
G1 X103.615 Y125.827
G1 X108.528 Y120.719 E44.6703
G1 X109.034 Y122.438 F10800
G1 X111.069 Y120.321 E44.8168 F3600
G1 X110.477 Y120.376
G1 X108.001 Y122.951 E44.9951
G1 X106.900 Y124.538 F10800
G1 X106.411 Y125.554
G1 X106.244 Y126.654
G1 X106.411 Y127.754
G1 X106.900 Y128.770
G1 X107.668 Y129.631
G1 X108.655 Y130.284
G1 X109.796 Y130.691
G1 X111.988 Y131.148
