; GCode generated by CraftWare

; filename = composition.3w 
; machine = daVinciF10 
; material = abs 
; extruder = 1 
M140 S90 ; Bed (no wait) 
M106 S255 ; Start fan 
G90 ; set absolute coordinates 
G28 ; home all axis 
M190 S90 ; Bed (wait) 
M104 S210 ; Extruder (no wait) 
M109 S210 ; Extruder (wait) 
M117 Start 
M117 Cleaning 
M100 ; Cleaning 
M117 Printing 
M190 S75 ;set bed temp (wait)
M109 S220 ;set head temp (wait)
; ------------------------------------
; Layer #0
; ------------------------------------
G21 ; mm
G90 ; abs
G92 E0 ; reset extr
M106 S0
G1 F4800 E-1.0000
G1 F300 Z0.400
G1 X126.350 Y110.239 F10800
G1 X128.973 Y109.121
G1 X127.735 Y106.653
G1 X120.133 Y103.276
G1 X121.510 Y101.493
G1 X122.886 Y99.709
G1 F4800 E0.0000
;segType:HShell
G1 X120.797 Y101.593 E0.1871 F1200
G1 X120.957 Y101.944
G1 X123.059 Y100.049 E0.3753
G1 X123.178 Y100.437
G1 X121.197 Y102.223 E0.5528
G1 X121.505 Y102.441
G1 X123.229 Y100.886 E0.7072
G1 X123.130 Y101.471
G1 X121.924 Y102.559 E0.8153
;segType:Perimeter
G1 X122.325 Y102.615 F10800
G1 X121.883 Y103.103 E0.8591 F719
G1 X121.369 Y103.008 E0.8939
G1 X120.844 Y102.696 E0.9346
G1 X120.417 Y102.198 E0.9782
G1 X120.138 Y101.560 E1.0245
G1 X120.041 Y100.848 E1.0723
G1 X120.138 Y100.136 E1.1201
G1 X120.417 Y99.498 E1.1664
G1 X120.844 Y99.000 E1.2101
G1 X121.369 Y98.688 E1.2507
G1 X121.940 Y98.582 E1.2893
G1 X122.511 Y98.688 E1.3280
G1 X123.036 Y99.000 E1.3686
G1 X123.463 Y99.498 E1.4122
G1 X123.742 Y100.136 E1.4585
G1 X123.839 Y100.848 E1.5064
G1 X123.744 Y101.541 E1.5529
G1 X123.452 Y102.211 E1.6015
G1 X123.022 Y102.704 E1.6450
G1 X122.511 Y103.008 E1.6846
G1 X121.997 Y103.103 E1.7193
G1 X121.555 Y102.615
;segType:Loop
G1 X121.184 Y102.466 F10800
G1 X121.120 Y102.428 E1.7243 F1200
G1 X120.768 Y102.018 E1.7603
G1 X120.529 Y101.471 E1.8000
G1 X120.444 Y100.848 E1.8418
G1 X120.529 Y100.225 E1.8836
G1 X120.768 Y99.678 E1.9233
G1 X121.120 Y99.268 E1.9592
G1 X121.525 Y99.027 E1.9906
G1 X121.940 Y98.950 E2.0187
G1 X122.355 Y99.027 E2.0468
G1 X122.760 Y99.268 E2.0781
G1 X123.112 Y99.678 E2.1140
G1 X123.351 Y100.225 E2.1538
G1 X123.435 Y100.848 E2.1956
G1 X123.353 Y101.452 E2.2361
G1 X123.101 Y102.030 E2.2780
G1 X122.748 Y102.435 E2.3138
G1 X122.355 Y102.669 E2.3442
G1 X121.940 Y102.746 E2.3723
G1 X121.525 Y102.669 E2.4004
G1 X121.346 Y102.563 E2.4142
G1 F4800 E1.4142
G1 X121.484 Y100.901 F10800
G1 X122.646 Y99.430
G1 F4800 E2.4142
;segType:HShell
G1 X120.693 Y101.191 E2.5892 F1200
G1 X120.663 Y100.723
G1 X122.324 Y99.225 E2.7380
G1 X121.858 Y99.150
G1 X120.795 Y100.108 E2.8332
G1 F4800 E1.8332
G1 X125.365 Y106.763 F10800
G1 X126.889 Y108.982
G1 F4800 E2.8332
G1 X127.510 Y108.422 E2.8888 F1200
;segType:Loop
G1 X127.310 Y109.024 F10800
G1 X126.926 Y109.163 E2.9160 F1200
G1 X126.112 Y109.379 E2.9720
G1 X125.265 Y109.535 E3.0293
G1 X124.412 Y109.627 E3.0864
G1 X123.475 Y109.656 E3.1487
G1 X122.141 Y109.573 E3.2376
G1 X120.963 Y109.342 E3.3174
G1 X119.862 Y108.951 E3.3952
G1 X118.871 Y108.433 E3.4696
G1 X117.997 Y107.794 E3.5416
G1 X117.237 Y107.029 E3.6133
G1 X116.583 Y106.130 E3.6873
G1 X116.035 Y105.116 E3.7640
G1 X115.598 Y103.991 E3.8443
G1 X115.290 Y102.753 E3.9291
G1 X115.103 Y101.428 E4.0181
G1 X115.040 Y100.018 E4.1120
G1 X115.095 Y98.571 E4.2083
G1 X115.256 Y97.220 E4.2988
G1 X115.523 Y95.971 E4.3838
G1 X115.911 Y94.825 E4.4643
G1 X116.406 Y93.807 E4.5396
G1 X117.007 Y92.918 E4.6110
G1 X117.726 Y92.156 E4.6806
G1 X118.553 Y91.520 E4.7501
G1 X119.486 Y91.007 E4.8209
G1 X120.539 Y90.641 E4.8950
G1 X121.736 Y90.418 E4.9760
G1 X123.090 Y90.342 E5.0662
G1 X124.008 Y90.366 E5.1273
G1 X124.902 Y90.432 E5.1869
G1 X125.653 Y90.532 E5.2374
G1 X126.349 Y90.662 E5.2845
G1 X127.019 Y90.850 E5.3308
G1 X127.333 Y90.963 E5.3529
G1 X127.337 Y92.053 E5.4254
G1 X126.644 Y91.880 E5.4729
G1 X125.890 Y91.708 E5.5244
G1 X125.134 Y91.582 E5.5754
G1 X124.329 Y91.504 E5.6291
G1 X123.491 Y91.478 E5.6849
G1 X122.398 Y91.541 E5.7577
G1 X121.376 Y91.730 E5.8269
G1 X120.436 Y92.051 E5.8930
G1 X119.592 Y92.511 E5.9569
G1 X118.851 Y93.081 E6.0191
G1 X118.211 Y93.764 E6.0814
G1 X117.676 Y94.565 E6.1455
G1 X117.246 Y95.469 E6.2120
G1 X116.916 Y96.472 E6.2822
G1 X116.684 Y97.556 E6.3560
G1 X116.545 Y98.731 E6.4347
G1 X116.500 Y100.002 E6.5193
G1 X116.552 Y101.231 E6.6011
G1 X116.712 Y102.386 E6.6787
G1 X116.981 Y103.465 E6.7527
G1 X117.348 Y104.457 E6.8230
G1 X117.803 Y105.353 E6.8899
G1 X118.354 Y106.160 E6.9549
G1 X119.011 Y106.851 E7.0183
G1 X119.753 Y107.432 E7.0810
G1 X120.585 Y107.903 E7.1446
G1 X121.497 Y108.238 E7.2092
G1 X122.470 Y108.437 E7.2753
G1 X123.492 Y108.502 E7.3434
G1 X124.370 Y108.466 E7.4019
G1 X125.193 Y108.358 E7.4571
G1 X125.965 Y108.176 E7.5098
G1 X126.663 Y107.932 E7.5590
G1 X127.351 Y107.649 E7.6085
G1 X127.906 Y108.784 E7.6925
G1 X127.680 Y108.891 E7.7092
G1 X127.490 Y108.959 E7.7226
G1 F4800 E6.7226
G1 X127.858 Y108.544 F10800
G1 F4800 E7.7226
;segType:Perimeter
G1 X128.371 Y108.972 E7.7670 F719
G1 X127.847 Y109.219 E7.8056
G1 X127.057 Y109.504 E7.8615
G1 X126.209 Y109.729 E7.9198
G1 X125.329 Y109.891 E7.9794
G1 X124.443 Y109.987 E8.0387
G1 X123.468 Y110.017 E8.1035
G1 X122.085 Y109.931 E8.1957
G1 X120.847 Y109.689 E8.2796
G1 X119.687 Y109.277 E8.3615
G1 X118.643 Y108.731 E8.4399
G1 X117.721 Y108.056 E8.5159
G1 X116.919 Y107.250 E8.5915
G1 X116.234 Y106.309 E8.6689
G1 X115.665 Y105.255 E8.7486
G1 X115.213 Y104.090 E8.8317
G1 X114.895 Y102.816 E8.9191
G1 X114.704 Y101.458 E9.0103
G1 X114.640 Y100.020 E9.1061
G1 X114.696 Y98.546 E9.2042
G1 X114.860 Y97.167 E9.2966
G1 X115.134 Y95.884 E9.3839
G1 X115.535 Y94.699 E9.4670
G1 X116.051 Y93.640 E9.5454
G1 X116.682 Y92.706 E9.6204
G1 X117.442 Y91.901 E9.6940
G1 X118.318 Y91.227 E9.7676
G1 X119.309 Y90.682 E9.8428
G1 X120.425 Y90.294 E9.9214
G1 X121.683 Y90.059 E10.0065
G1 X123.083 Y89.981 E10.0998
G1 X124.030 Y90.005 E10.1628
G1 X124.947 Y90.074 E10.2240
G1 X125.718 Y90.177 E10.2757
G1 X126.092 Y90.237 E10.3009
G1 X126.454 Y90.314 E10.3255
G1 X127.153 Y90.510 E10.3738
G1 X127.732 Y90.719 E10.4148
G1 X127.739 Y92.537 E10.5357
G1 X127.266 Y92.409 E10.5683
G1 X126.542 Y92.228 E10.6180
G1 X125.804 Y92.061 E10.6683
G1 X125.076 Y91.939 E10.7174
G1 X124.301 Y91.864 E10.7692
G1 X123.497 Y91.839 E10.8227
G1 X122.452 Y91.899 E10.8924
G1 X121.488 Y92.077 E10.9576
G1 X120.612 Y92.377 E11.0191
G1 X119.827 Y92.804 E11.0786
G1 X119.136 Y93.336 E11.1366
G1 X118.537 Y93.975 E11.1948
G1 X118.033 Y94.730 E11.2553
G1 X117.622 Y95.592 E11.3187
G1 X117.305 Y96.557 E11.3863
G1 X117.080 Y97.609 E11.4579
G1 X116.945 Y98.757 E11.5348
G1 X116.900 Y100.001 E11.6176
G1 X116.951 Y101.202 E11.6975
G1 X117.107 Y102.324 E11.7729
G1 X117.367 Y103.369 E11.8445
G1 X117.721 Y104.324 E11.9123
G1 X118.156 Y105.183 E11.9764
G1 X118.678 Y105.947 E12.0379
G1 X119.296 Y106.596 E12.0975
G1 X119.991 Y107.141 E12.1563
G1 X120.769 Y107.581 E12.2157
G1 X121.618 Y107.893 E12.2759
G1 X122.529 Y108.079 E12.3377
G1 X123.497 Y108.141 E12.4023
G1 X124.332 Y108.107 E12.4579
G1 X125.113 Y108.004 E12.5102
G1 X125.842 Y107.832 E12.5601
G1 X126.508 Y107.599 E12.6070
G1 X127.139 Y107.342 E12.6523
G1 X127.544 Y107.150 E12.6821
G1 X128.399 Y108.899 E12.8117
G1 X127.702 Y108.945
;segType:HShell
G1 X127.342 Y108.078 F10800
G1 X126.106 Y109.192 E12.9224 F1200
G1 X125.410 Y109.324
G1 X126.793 Y108.077 E13.0463
G1 X125.914 Y108.374
G1 X124.769 Y109.407 E13.1489
G1 X124.167 Y109.454
G1 X125.178 Y108.542 E13.2395
G1 X124.535 Y108.627
G1 X123.598 Y109.472 E13.3234
G1 X123.073 Y109.450
G1 X123.944 Y108.664 E13.4015
G1 X123.382 Y108.676
G1 X122.559 Y109.418 E13.4752
G1 X122.060 Y109.372
G1 X122.869 Y108.643 E13.5476
G1 X122.366 Y108.601
G1 X121.609 Y109.284 E13.6155
G1 X121.157 Y109.196
G1 X121.918 Y108.509 E13.6837
G1 X121.471 Y108.418
G1 X120.746 Y109.071 E13.7487
G1 X120.351 Y108.931
G1 X121.076 Y108.278 E13.8135
G1 X120.685 Y108.135
G1 X119.957 Y108.791 E13.8788
G1 X119.608 Y108.610
G1 X120.322 Y107.967 E13.9427
G1 X119.984 Y107.776
G1 X119.261 Y108.429 E14.0075
G1 X118.922 Y108.238
G1 X119.647 Y107.585 E14.0724
G1 X119.351 Y107.356
G1 X118.619 Y108.016 E14.1380
G1 X118.315 Y107.795
G1 X119.057 Y107.126 E14.2044
G1 X118.777 Y106.882
G1 X118.030 Y107.557 E14.2714
G1 X117.770 Y107.295
G1 X118.524 Y106.616 E14.3389
G1 X118.270 Y106.349
G1 X117.510 Y107.034 E14.4069
G1 X117.274 Y106.752
G1 X118.047 Y106.055 E14.4762
G1 X117.838 Y105.748
G1 X117.056 Y106.452 E14.5461
G1 X116.839 Y106.153
G1 X117.628 Y105.441 E14.6168
G1 X117.455 Y105.102
G1 X116.645 Y105.833 E14.6895
G1 X116.465 Y105.500
G1 X117.283 Y104.762 E14.7628
G1 X117.121 Y104.412
G1 X116.285 Y105.166 E14.8376
G1 X116.129 Y104.812
G1 X116.983 Y104.041 E14.9142
G1 X116.846 Y103.669
G1 X115.986 Y104.445 E14.9912
G1 X115.843 Y104.078
G1 X116.730 Y103.279 E15.0706
G1 X116.629 Y102.874
G1 X115.727 Y103.687 E15.1514
G1 X115.626 Y103.283
G1 X116.528 Y102.470 E15.2322
G1 X116.462 Y102.034
G1 X115.526 Y102.878 E15.3161
G1 X115.449 Y102.452
G1 X116.401 Y101.593 E15.4014
G1 X116.348 Y101.145
G1 X115.387 Y102.013 E15.4875
G1 X115.325 Y101.573
G1 X116.328 Y100.668 E15.5774
G1 X116.307 Y100.191
G1 X115.289 Y101.110 E15.6686
G1 X115.268 Y100.633
G1 X116.311 Y99.693 E15.7621
G1 X116.329 Y99.181
G1 X115.247 Y100.157 E15.8590
G1 X115.254 Y99.655
G1 X116.352 Y98.665 E15.9574
G1 X116.418 Y98.110
G1 X115.273 Y99.142 E16.0599
G1 X115.293 Y98.629
G1 X116.483 Y97.555 E16.1665
G1 X116.611 Y96.944
G1 X115.355 Y98.078 E16.2791
G1 X115.421 Y97.522
G1 X116.759 Y96.316 E16.3989
G1 X116.492 Y94.079 F10800
G1 X119.809 Y91.088 E16.6960 F1200
G1 X117.498 Y92.677 F10800
G1 X118.312 Y91.943 E16.7689 F1200
G1 X115.837 Y95.661 F10800
G1 X118.033 Y93.681 E16.9656 F1200
G1 X117.351 Y94.791 F10800
G1 X115.651 Y96.324 E17.1178 F1200
G1 X115.520 Y96.938
G1 X116.990 Y95.612 E17.2495
G1 X118.998 Y93.213 F10800
G1 X120.527 Y92.220
G1 X122.426 Y91.725
G1 X127.135 Y91.419
G1 X126.790 Y91.729 E17.2803 F1200
G1 X126.353 Y91.628
G1 X127.006 Y91.039 E17.3388
G1 X126.590 Y90.919
G1 X125.914 Y91.529 E17.3993
G1 X125.450 Y91.451
G1 X126.160 Y90.811 E17.4629
G1 X125.705 Y90.726
G1 X124.974 Y91.385 E17.5283
G1 X124.478 Y91.337
G1 X125.230 Y90.658 E17.5958
G1 X124.744 Y90.601
G1 X123.956 Y91.312 E17.6664
G1 X123.418 Y91.302
G1 X124.237 Y90.564 E17.7397
G1 X123.715 Y90.538
G1 X122.831 Y91.335 E17.8188
G1 X122.222 Y91.389
G1 X123.181 Y90.524 E17.9047
G1 X122.604 Y90.549
G1 X121.531 Y91.517 E18.0008
G1 X119.520 Y92.339 F10800
G1 X121.372 Y90.670 E18.1667 F1200
G1 X122.018 Y90.582
G1 X120.705 Y91.766 E18.2843
G1 X116.078 Y94.948 F10800
G1 X120.679 Y90.799 E18.6965 F1200
G1 F4800 E17.6965
G1 X133.937 Y97.816 F10800
G1 X136.857 Y99.001
G1 F4800 E18.6965
G1 X136.084 Y99.699 E18.7657 F1200
G1 X135.535 Y99.699
G1 X136.308 Y99.001 E18.8350
G1 X135.759 Y99.001
G1 X134.985 Y99.699 E18.9043
G1 X134.436 Y99.699
G1 X135.209 Y99.001 E18.9736
G1 X134.660 Y99.001
G1 X133.000 Y100.498 E19.1222
G1 X133.000 Y100.002
G1 X134.110 Y99.001 E19.2217
G1 X133.920 Y98.677
G1 X133.000 Y99.507 E19.3041
G1 X133.000 Y99.011
G1 X133.920 Y98.182 E19.3865
;segType:Perimeter
G1 X134.578 Y98.460 E19.4324 F719
G1 X137.941 Y98.460 E19.6561
G1 X142.701 Y90.260 E20.2868
G1 X145.222 Y90.260 E20.4545
G1 X139.881 Y99.043 E21.1383
G1 X140.560 Y99.323 E21.1871
G1 X141.028 Y99.552 E21.2218
G1 X141.487 Y99.809 E21.2568
G1 X141.923 Y100.101 E21.2917
G1 X142.329 Y100.436 E21.3267
G1 X142.702 Y100.811 E21.3619
G1 X143.026 Y101.245 E21.3979
G1 X143.309 Y101.735 E21.4356
G1 X143.550 Y102.278 E21.4751
G1 X143.733 Y102.877 E21.5168
G1 X143.843 Y103.544 E21.5617
G1 X143.880 Y104.275 E21.6104
G1 X143.691 Y105.972 E21.7240
G1 X143.131 Y107.337 E21.8221
G1 X142.204 Y108.384 E21.9151
G1 X140.901 Y109.132 E22.0151
G1 X139.175 Y109.586 E22.1338
G1 X137.012 Y109.740 E22.2780
G1 X132.400 Y109.740 E22.5848
G1 X132.400 Y90.260 E23.8806
G1 X134.520 Y90.260 E24.0216
G1 X134.520 Y98.408 E24.5636
G1 X134.788 Y98.990
;segType:Loop
G1 X135.588 Y98.821 F10800
G1 X138.183 Y98.821 E24.7362 F1200
G1 X142.943 Y90.621 E25.3669
G1 X144.547 Y90.621 E25.4736
G1 X139.324 Y99.210 E26.1423
G1 X140.381 Y99.646 E26.2184
G1 X140.828 Y99.864 E26.2514
G1 X141.262 Y100.108 E26.2846
G1 X141.669 Y100.380 E26.3171
G1 X142.044 Y100.690 E26.3495
G1 X142.385 Y101.033 E26.3817
G1 X142.682 Y101.430 E26.4146
G1 X142.945 Y101.886 E26.4497
G1 X143.170 Y102.393 E26.4866
G1 X143.341 Y102.952 E26.5254
G1 X143.444 Y103.579 E26.5677
G1 X143.479 Y104.265 E26.6134
G1 X143.298 Y105.890 E26.7222
G1 X142.778 Y107.158 E26.8133
G1 X141.933 Y108.112 E26.8981
G1 X140.734 Y108.800 E26.9901
G1 X139.102 Y109.229 E27.1023
G1 X136.996 Y109.379 E27.2427
G1 X132.800 Y109.379 E27.5219
G1 X132.800 Y90.621 E28.7697
G1 X134.120 Y90.621 E28.8575
G1 X134.120 Y98.821 E29.4030
G1 X135.394 Y98.821 E29.4877
G1 X134.383 Y100.116 F10800
G1 X133.000 Y106.443
;segType:HShell
G1 X133.920 Y105.614 E29.5701 F1200
G1 X133.920 Y106.109
G1 X133.000 Y106.939 E29.6525
G1 X133.000 Y107.434
G1 X133.920 Y106.605 E29.7349
G1 X133.920 Y107.100
G1 X133.000 Y107.930 E29.8174
G1 X133.000 Y108.425
G1 X133.920 Y107.596 E29.8998
G1 X133.920 Y108.091
G1 X133.000 Y108.921 E29.9822
G1 X133.241 Y109.199
G1 X134.037 Y108.481 E30.0535
G1 X134.587 Y108.481
G1 X133.791 Y109.199 E30.1248
G1 X134.340 Y109.199
G1 X135.136 Y108.481 E30.1961
;segType:Perimeter
G1 X134.788 Y108.470 F10800
G1 X134.520 Y107.888 E30.2387 F719
G1 X134.520 Y100.240 E30.7474
G1 X136.924 Y100.240 E30.9074
G1 X137.697 Y100.267 E30.9588
G1 X138.397 Y100.350 E31.0057
G1 X139.020 Y100.487 E31.0481
G1 X139.583 Y100.680 E31.0877
G1 X140.075 Y100.927 E31.1244
G1 X140.499 Y101.229 E31.1590
G1 X140.850 Y101.598 E31.1929
G1 X141.120 Y102.008 E31.2255
G1 X141.325 Y102.472 E31.2593
G1 X141.483 Y103.009 E31.2965
G1 X141.571 Y103.569 E31.3342
G1 X141.600 Y104.160 E31.3735
G1 X141.568 Y104.797 E31.4160
G1 X141.472 Y105.372 E31.4547
G1 X141.308 Y105.883 E31.4905
G1 X141.079 Y106.332 E31.5240
G1 X140.787 Y106.725 E31.5565
G1 X140.432 Y107.057 E31.5889
G1 X139.997 Y107.342 E31.6235
G1 X139.496 Y107.567 E31.6600
G1 X138.931 Y107.735 E31.6992
G1 X138.304 Y107.849 E31.7416
G1 X137.614 Y107.918 E31.7877
G1 X136.863 Y107.940 E31.8377
G1 X134.578 Y107.940 E31.9897
G1 X133.932 Y107.699
;segType:Loop
G1 X134.120 Y106.977 F10800
G1 X134.120 Y99.879 E32.4618 F1200
G1 X136.932 Y99.879 E32.6489
G1 X137.731 Y99.907 E32.7021
G1 X138.471 Y99.995 E32.7516
G1 X139.139 Y100.142 E32.7971
G1 X139.752 Y100.352 E32.8402
G1 X140.298 Y100.626 E32.8809
G1 X140.778 Y100.968 E32.9201
G1 X141.176 Y101.387 E32.9586
G1 X141.480 Y101.848 E32.9953
G1 X141.706 Y102.359 E33.0324
G1 X141.875 Y102.937 E33.0725
G1 X141.970 Y103.536 E33.1128
G1 X142.001 Y104.160 E33.1544
G1 X141.967 Y104.833 E33.1992
G1 X141.864 Y105.449 E33.2408
G1 X141.684 Y106.009 E33.2799
G1 X141.429 Y106.509 E33.3172
G1 X141.099 Y106.952 E33.3540
G1 X140.695 Y107.330 E33.3908
G1 X140.205 Y107.651 E33.4297
G1 X139.649 Y107.902 E33.4703
G1 X139.034 Y108.084 E33.5130
G1 X138.366 Y108.206 E33.5582
G1 X137.643 Y108.278 E33.6065
G1 X136.870 Y108.301 E33.6579
G1 X134.120 Y108.301 E33.8409
G1 X134.120 Y107.152 E33.9173
;segType:HShell
G1 X133.920 Y100.164 F10800
G1 X133.000 Y100.993 E33.9997 F1200
G1 X133.000 Y101.489
G1 X133.920 Y100.659 E34.0821
G1 X133.920 Y101.155
G1 X133.000 Y101.984 E34.1645
G1 X133.000 Y102.480
G1 X133.920 Y101.650 E34.2469
G1 X133.920 Y102.146
G1 X133.000 Y102.975 E34.3293
G1 X133.000 Y103.471
G1 X133.920 Y102.641 E34.4117
G1 X133.920 Y103.136
G1 X133.000 Y103.966 E34.4941
G1 X133.000 Y104.462
G1 X133.920 Y103.632 E34.5766
G1 X133.920 Y104.127
G1 X133.000 Y104.957 E34.6590
G1 X133.000 Y105.453
G1 X133.920 Y104.623 E34.7414
G1 X133.920 Y105.118
G1 X133.000 Y105.948 E34.8238
G1 X134.383 Y108.064 F10800
G1 X135.685 Y108.481
G1 X134.890 Y109.199 E34.8951 F1200
G1 X135.439 Y109.199
G1 X136.235 Y108.481 E34.9664
G1 X136.784 Y108.481
G1 X135.988 Y109.199 E35.0377
G1 X136.538 Y109.199
G1 X137.349 Y108.467 E35.1104
G1 X137.940 Y108.430
G1 X137.096 Y109.191 E35.1860
G1 X137.692 Y109.149
G1 X138.576 Y108.352 E35.2651
G1 X140.559 Y107.189 F10800
G1 X141.490 Y105.944
G1 X141.794 Y104.160
G1 X141.510 Y102.417
G1 X140.634 Y101.103
G1 X139.077 Y100.320
G1 X134.383 Y98.584
G1 X133.314 Y90.801
G1 X133.000 Y91.084 E35.2932 F1200
G1 X133.000 Y91.579
G1 X133.863 Y90.801 E35.3705
G1 X133.920 Y91.245
G1 X133.000 Y92.075 E35.4529
G1 X133.000 Y92.570
G1 X133.920 Y91.741 E35.5353
G1 X133.920 Y92.236
G1 X133.000 Y93.066 E35.6177
G1 X133.000 Y93.561
G1 X133.920 Y92.732 E35.7001
G1 X133.920 Y93.227
G1 X133.000 Y94.057 E35.7826
G1 X133.000 Y94.552
G1 X133.920 Y93.723 E35.8650
G1 X133.920 Y94.218
G1 X133.000 Y95.048 E35.9474
G1 X133.000 Y95.543
G1 X133.920 Y94.713 E36.0298
G1 X133.920 Y95.209
G1 X133.000 Y96.039 E36.1122
G1 X133.000 Y96.534
G1 X133.920 Y95.704 E36.1946
G1 X133.920 Y96.200
G1 X133.000 Y97.030 E36.2770
G1 X133.000 Y97.525
G1 X133.920 Y96.695 E36.3594
G1 X133.920 Y97.191
G1 X133.000 Y98.020 E36.4418
G1 X133.000 Y98.516
G1 X133.920 Y97.686 E36.5242
G1 X134.383 Y98.584 F10800
G1 X137.407 Y99.001
G1 X136.633 Y99.699 E36.5935 F1200
G1 X137.174 Y99.707
G1 X137.956 Y99.001 E36.6636
G1 X141.008 Y101.496 F10800
G1 X141.673 Y102.974
G1 X142.026 Y107.718
G1 X141.639 Y108.067 E36.6983 F1200
G1 X140.383 Y108.705 F10800
G1 X142.839 Y106.490 E36.9183 F1200
G1 X141.571 Y106.642 F10800
G1 X143.174 Y105.196 E37.0619 F1200
G1 X143.113 Y105.747
G1 X139.607 Y108.908 E37.3759
G1 X139.299 Y108.195
G1 X138.289 Y109.106 E37.4664
G1 X138.886 Y109.063
G1 X140.251 Y107.832 E37.5887
G1 X141.490 Y105.944 F10800
G1 X141.794 Y104.160
G1 X141.510 Y102.417
G1 X140.634 Y101.103
G1 X139.207 Y99.360
G1 X138.662 Y99.851 E37.6375 F1200
G1 X139.103 Y99.949
G1 X139.584 Y99.515 E37.6805
G1 X139.961 Y99.671
G1 X139.511 Y100.077 E37.7208
G1 X139.901 Y100.220
G1 X140.335 Y99.829 E37.7597
G1 X140.692 Y100.003
G1 X140.254 Y100.398 E37.7989
G1 X140.581 Y100.598
G1 X141.032 Y100.191 E37.8393
G1 X141.356 Y100.395
G1 X140.888 Y100.817 E37.8812
G1 X141.147 Y101.079
G1 X141.659 Y100.617 E37.9271
G1 X141.942 Y100.857
G1 X141.388 Y101.356 E37.9767
G1 X141.593 Y101.667
G1 X142.202 Y101.119 E38.0311
G1 X142.427 Y101.411
G1 X141.766 Y102.007 E38.0903
G1 X141.915 Y102.368
G1 X142.627 Y101.726 E38.1541
G1 X142.807 Y102.059
G1 X142.030 Y102.760 E38.2236
G1 X142.115 Y103.178
G1 X142.964 Y102.413 E38.2997
G1 X143.087 Y102.798
G1 X142.174 Y103.621 E38.3814
G1 X142.197 Y104.095
G1 X143.181 Y103.209 E38.4695
G1 X143.247 Y103.644
G1 X142.179 Y104.608 E38.5652
G1 X142.114 Y105.161
G1 X143.271 Y104.118 E38.6688
G1 X143.235 Y104.646
G1 X141.961 Y105.795 E38.7829
G1 X141.673 Y102.974 F10800
G1 X140.403 Y99.451
G1 X139.697 Y99.098
G1 X140.093 Y97.570
G1 X137.702 Y99.726 E38.9971 F1200
G1 X138.192 Y99.780
G1 X139.426 Y98.667 E39.1076
G1 X138.686 Y98.343
G1 X140.760 Y96.473 E39.2933
G1 X141.427 Y95.376 F10800
G1 X139.290 Y97.303 E39.4847 F1200
G1 X139.894 Y96.263 F10800
G1 X142.094 Y94.279 E39.6818 F1200
G1 X142.761 Y93.182 F10800
G1 X140.497 Y95.224 E39.8847 F1200
G1 X141.101 Y94.184 F10800
G1 X143.429 Y92.085 E40.0932 F1200
G1 X142.308 Y92.104 F10800
G1 X143.753 Y90.801 E40.2226 F1200
G1 X144.096 Y90.988
G1 X141.704 Y93.144 E40.4368
G1 X143.204 Y90.801 F10800
G1 X142.911 Y91.065 E40.4630 F1200
; ------------------------------------
; Layer #1
; ------------------------------------
G21 ; mm
G90 ; abs
G92 E0 ; reset extr
M106 S255
G1 F4800 E-1.0000
G1 F300 Z0.700
G1 X136.175 Y98.871 F10800
G1 X134.108 Y98.832
G1 X133.920 Y94.490
G1 F4800 E0.0000
;segType:HShell
G1 X133.000 Y93.660 E0.0618 F3600
G1 X133.000 Y94.156
G1 X133.920 Y94.986 E0.1236
G1 X133.920 Y95.481
G1 X133.000 Y94.651 E0.1854
G1 X133.000 Y95.147
G1 X133.920 Y95.976 E0.2472
G1 X133.920 Y96.472
G1 X133.000 Y95.642 E0.3090
G1 X133.000 Y96.138
G1 X133.920 Y96.967 E0.3708
G1 X133.920 Y97.463
G1 X133.000 Y96.633 E0.4326
G1 X133.000 Y97.129
G1 X133.920 Y97.958 E0.4945
;segType:Perimeter
G1 X133.932 Y98.219 F10800
G1 X134.578 Y98.460 E0.5289 F2159
G1 X137.941 Y98.460 E0.6966
G1 X142.701 Y90.260 E1.1697
G1 X145.222 Y90.260 E1.2955
G1 X139.881 Y99.043 E1.8083
G1 X140.560 Y99.323 E1.8449
G1 X141.028 Y99.552 E1.8710
G1 X141.487 Y99.809 E1.8972
G1 X141.923 Y100.101 E1.9234
G1 X142.329 Y100.436 E1.9496
G1 X142.702 Y100.811 E1.9760
G1 X143.026 Y101.245 E2.0030
G1 X143.309 Y101.735 E2.0313
G1 X143.550 Y102.278 E2.0609
G1 X143.733 Y102.877 E2.0922
G1 X143.843 Y103.544 E2.1259
G1 X143.880 Y104.275 E2.1624
G1 X143.691 Y105.972 E2.2476
G1 X143.131 Y107.337 E2.3212
G1 X142.204 Y108.384 E2.3909
G1 X140.901 Y109.132 E2.4659
G1 X139.175 Y109.586 E2.5549
G1 X137.012 Y109.740 E2.6631
G1 X132.400 Y109.740 E2.8932
G1 X132.400 Y90.260 E3.8650
G1 X134.520 Y90.260 E3.9708
G1 X134.520 Y98.408 E4.3773
G1 X134.788 Y98.990
;segType:Loop
G1 X135.588 Y98.821 F10800
G1 X138.183 Y98.821 E4.5068 F3600
G1 X142.943 Y90.621 E4.9798
G1 X144.547 Y90.621 E5.0598
G1 X139.324 Y99.210 E5.5613
G1 X140.381 Y99.646 E5.6184
G1 X140.828 Y99.864 E5.6432
G1 X141.262 Y100.108 E5.6680
G1 X141.669 Y100.380 E5.6924
G1 X142.044 Y100.690 E5.7167
G1 X142.385 Y101.033 E5.7409
G1 X142.682 Y101.430 E5.7656
G1 X142.945 Y101.886 E5.7918
G1 X143.170 Y102.393 E5.8195
G1 X143.341 Y102.952 E5.8487
G1 X143.444 Y103.579 E5.8804
G1 X143.479 Y104.265 E5.9146
G1 X143.298 Y105.890 E5.9962
G1 X142.778 Y107.158 E6.0646
G1 X141.933 Y108.112 E6.1281
G1 X140.734 Y108.800 E6.1971
G1 X139.102 Y109.229 E6.2813
G1 X136.996 Y109.379 E6.3866
G1 X132.800 Y109.379 E6.5960
G1 X132.800 Y90.621 E7.5318
G1 X134.120 Y90.621 E7.5977
G1 X134.120 Y98.821 E8.0068
G1 X135.394 Y98.821 E8.0704
G1 X140.634 Y101.103 F10800
G1 X141.505 Y102.406
G1 X141.794 Y104.160
G1 X141.490 Y105.944
G1 X139.583 Y107.724
G1 X139.659 Y108.088
;segType:HShell
G1 X140.352 Y108.713 E8.1169 F3600
G1 X139.926 Y108.825
G1 X139.246 Y108.211 E8.1626
G1 X138.806 Y108.310
G1 X139.501 Y108.936 E8.2093
G1 X139.075 Y109.048
G1 X138.345 Y108.390 E8.2583
G1 X137.850 Y108.439
G1 X138.568 Y109.086 E8.3065
G1 X138.059 Y109.122
G1 X137.333 Y108.468 E8.3553
G1 X136.798 Y108.481
G1 X137.550 Y109.159 E8.4058
G1 X137.041 Y109.195
G1 X136.249 Y108.481 E8.4590
G1 X135.699 Y108.481
G1 X136.495 Y109.199 E8.5125
G1 X135.946 Y109.199
G1 X135.150 Y108.481 E8.5660
;segType:Perimeter
G1 X134.788 Y108.470 F10800
G1 X134.520 Y107.888 E8.5979 F2159
G1 X134.520 Y100.240 E8.9795
G1 X136.924 Y100.240 E9.0994
G1 X137.697 Y100.267 E9.1380
G1 X138.397 Y100.350 E9.1732
G1 X139.020 Y100.487 E9.2050
G1 X139.583 Y100.680 E9.2347
G1 X140.075 Y100.927 E9.2622
G1 X140.499 Y101.229 E9.2882
G1 X140.850 Y101.598 E9.3136
G1 X141.114 Y101.998 E9.3375
G1 X141.321 Y102.461 E9.3627
G1 X141.485 Y103.022 E9.3919
G1 X141.572 Y103.584 E9.4203
G1 X141.600 Y104.160 E9.4491
G1 X141.568 Y104.797 E9.4809
G1 X141.472 Y105.372 E9.5099
G1 X141.308 Y105.883 E9.5367
G1 X141.079 Y106.332 E9.5619
G1 X140.787 Y106.725 E9.5863
G1 X140.432 Y107.057 E9.6106
G1 X139.997 Y107.342 E9.6365
G1 X139.496 Y107.567 E9.6639
G1 X138.931 Y107.735 E9.6933
G1 X138.304 Y107.849 E9.7251
G1 X137.614 Y107.918 E9.7597
G1 X136.863 Y107.940 E9.7972
G1 X134.578 Y107.940 E9.9112
G1 X133.932 Y107.699
;segType:Loop
G1 X134.120 Y106.977 F10800
G1 X134.120 Y99.879 E10.2653 F3600
G1 X136.932 Y99.879 E10.4056
G1 X137.731 Y99.907 E10.4454
G1 X138.471 Y99.995 E10.4826
G1 X139.139 Y100.142 E10.5167
G1 X139.752 Y100.352 E10.5491
G1 X140.298 Y100.626 E10.5795
G1 X140.778 Y100.968 E10.6089
G1 X141.176 Y101.387 E10.6378
G1 X141.473 Y101.837 E10.6647
G1 X141.701 Y102.347 E10.6926
G1 X141.878 Y102.951 E10.7240
G1 X141.970 Y103.551 E10.7542
G1 X142.001 Y104.160 E10.7847
G1 X141.967 Y104.833 E10.8183
G1 X141.864 Y105.449 E10.8494
G1 X141.684 Y106.009 E10.8788
G1 X141.429 Y106.509 E10.9068
G1 X141.099 Y106.952 E10.9343
G1 X140.695 Y107.330 E10.9619
G1 X140.205 Y107.651 E10.9912
G1 X139.649 Y107.902 E11.0216
G1 X139.034 Y108.084 E11.0536
G1 X138.366 Y108.206 E11.0875
G1 X137.643 Y108.278 E11.1238
G1 X136.870 Y108.301 E11.1623
G1 X134.120 Y108.301 E11.2995
G1 X134.120 Y107.152 E11.3568
;segType:HShell
G1 X134.051 Y108.481 F10800
G1 X134.847 Y109.199 E11.4103 F3600
G1 X135.396 Y109.199
G1 X134.600 Y108.481 E11.4638
G1 X140.033 Y107.930 F10800
G1 X140.751 Y108.577 E11.5120 F3600
G1 X141.086 Y108.384
G1 X140.388 Y107.755 E11.5589
G1 X140.706 Y107.546
G1 X141.422 Y108.192 E11.6070
G1 X141.758 Y107.999
G1 X140.994 Y107.310 E11.6583
G1 X141.263 Y107.057
G1 X142.013 Y107.733 E11.7087
G1 X142.257 Y107.458
G1 X141.483 Y106.760 E11.7606
G1 X141.682 Y106.444
G1 X142.500 Y107.182 E11.8156
G1 X142.688 Y106.856
G1 X141.855 Y106.105 E11.8716
G1 X141.983 Y105.725
G1 X142.837 Y106.494 E11.9289
G1 X142.985 Y106.133
G1 X142.087 Y105.323 E11.9892
G1 X142.159 Y104.893
G1 X143.112 Y105.752 E12.0532
G1 X143.162 Y105.302
G1 X142.188 Y104.423 E12.1187
G1 X142.189 Y103.929
G1 X143.212 Y104.851 E12.1875
G1 X143.262 Y104.401
G1 X142.148 Y103.396 E12.2623
G1 X142.042 Y102.805
G1 X143.260 Y103.903 E12.3441
G1 X143.205 Y103.359
G1 X141.804 Y102.095 E12.4383
G1 X140.183 Y100.782 F10800
G1 X138.433 Y100.177
G1 X133.920 Y98.949
G1 X133.000 Y98.120 E12.5001 F3600
G1 X133.000 Y97.624
G1 X133.920 Y98.454 E12.5619
G1 X133.920 Y93.995 F10800
G1 X133.000 Y93.165 E12.6237 F3600
G1 X133.000 Y92.669
G1 X133.920 Y93.499 E12.6855
G1 X133.920 Y93.004
G1 X133.000 Y92.174 E12.7473
G1 X133.000 Y91.679
G1 X133.920 Y92.508 E12.8092
G1 X133.920 Y92.013
G1 X133.000 Y91.183 E12.8710
G1 X133.126 Y90.801
G1 X133.920 Y91.517 E12.9243
G1 X133.920 Y91.022
G1 X133.675 Y90.801 E12.9407
G1 X134.383 Y98.584 F10800
G1 X139.600 Y100.107
G1 X138.328 Y98.960 E13.0262 F3600
G1 X138.517 Y98.635
G1 X139.116 Y99.176 E13.0664
G1 X139.311 Y98.856
G1 X138.706 Y98.310 E13.1071
G1 X138.894 Y97.985
G1 X139.506 Y98.536 E13.1482
G1 X139.700 Y98.216
G1 X139.083 Y97.659 E13.1896
G1 X139.272 Y97.334
G1 X139.895 Y97.896 E13.2315
G1 X140.089 Y97.576
G1 X139.461 Y97.009 E13.2737
G1 X139.650 Y96.684
G1 X140.284 Y97.256 E13.3163
G1 X140.478 Y96.936
G1 X139.838 Y96.359 E13.3593
G1 X140.027 Y96.033
G1 X140.673 Y96.616 E13.4027
G1 X140.868 Y96.296
G1 X140.216 Y95.708 E13.4465
G1 X140.405 Y95.383
G1 X141.062 Y95.976 E13.4907
G1 X141.257 Y95.656
G1 X140.593 Y95.058 E13.5352
G1 X140.782 Y94.732
G1 X141.451 Y95.336 E13.5802
G1 X141.646 Y95.016
G1 X140.971 Y94.407 E13.6255
G1 X141.160 Y94.082
G1 X141.841 Y94.696 E13.6713
G1 X142.035 Y94.376
G1 X141.349 Y93.757 E13.7174
G1 X141.537 Y93.432
G1 X142.230 Y94.056 E13.7639
G1 X142.424 Y93.736
G1 X141.726 Y93.106 E13.8108
G1 X141.915 Y92.781
G1 X142.619 Y93.416 E13.8581
G1 X142.814 Y93.096
G1 X142.104 Y92.456 E13.9058
G1 X142.293 Y92.131
G1 X143.008 Y92.776 E13.9539
G1 X143.203 Y92.456
G1 X142.481 Y91.805 E14.0023
G1 X142.670 Y91.480
G1 X143.397 Y92.136 E14.0512
G1 X143.592 Y91.816
G1 X142.859 Y91.155 E14.1004
G1 X143.048 Y90.830
G1 X143.787 Y91.496 E14.1501
G1 X143.981 Y91.176
G1 X143.565 Y90.801 E14.1780
G1 X139.697 Y99.098 F10800
G1 X142.769 Y101.974
G1 X140.455 Y99.888 E14.3334 F3600
G1 X139.416 Y99.446 F10800
G1 X143.069 Y102.740 E14.5788 F3600
G1 X140.938 Y106.835 F10800
G1 X139.570 Y107.729
G1 X133.199 Y109.199
G1 X133.000 Y109.020 E14.5921 F3600
G1 X133.000 Y108.524
G1 X133.748 Y109.199 E14.6424
G1 X134.297 Y109.199
G1 X133.000 Y108.029 E14.7295
G1 X133.000 Y107.534
G1 X133.920 Y108.363 E14.7913
G1 X133.920 Y107.868
G1 X133.000 Y107.038 E14.8531
G1 X133.000 Y106.543
G1 X133.920 Y107.372 E14.9149
G1 X133.920 Y106.877
G1 X133.000 Y106.047 E14.9767
G1 X133.000 Y105.552
G1 X133.920 Y106.381 E15.0385
G1 X133.920 Y105.886
G1 X133.000 Y105.056 E15.1004
G1 X133.000 Y104.561
G1 X133.920 Y105.390 E15.1622
G1 X133.920 Y104.895
G1 X133.000 Y104.065 E15.2240
G1 X133.000 Y103.570
G1 X133.920 Y104.399 E15.2858
G1 X133.920 Y103.904
G1 X133.000 Y103.074 E15.3476
G1 X133.000 Y102.579
G1 X133.920 Y103.409 E15.4094
G1 X133.920 Y102.913
G1 X133.000 Y102.083 E15.4712
G1 X133.000 Y101.588
G1 X133.920 Y102.418 E15.5330
G1 X133.920 Y101.922
G1 X133.000 Y101.092 E15.5948
G1 X133.000 Y100.597
G1 X133.920 Y101.427 E15.6566
G1 X133.920 Y100.931
G1 X133.000 Y100.101 E15.7184
G1 X133.000 Y99.606
G1 X133.920 Y100.436 E15.7802
G1 X133.920 Y99.940
G1 X133.000 Y99.111 E15.8420
G1 X133.000 Y98.615
G1 X134.202 Y99.699 E15.9228
G1 X134.751 Y99.699
G1 X133.978 Y99.001 E15.9747
G1 X134.527 Y99.001
G1 X135.301 Y99.699 E16.0267
G1 X135.850 Y99.699
G1 X135.077 Y99.001 E16.0787
G1 X135.626 Y99.001
G1 X136.400 Y99.699 E16.1306
G1 X136.950 Y99.699
G1 X136.176 Y99.001 E16.1826
G1 X136.725 Y99.001
G1 X137.522 Y99.720 E16.2361
G1 X138.130 Y99.773
G1 X137.274 Y99.001 E16.2936
G1 X137.824 Y99.001
G1 X138.800 Y99.882 E16.3592
G1 F4800 E15.3592
G1 X134.108 Y99.868 F10800
G1 X127.740 Y106.715
G1 X125.674 Y108.092
G1 X123.608 Y109.469
G1 F4800 E16.3592
G1 X122.679 Y108.631 E16.4216 F3600
G1 X123.270 Y108.669
G1 X124.141 Y109.454 E16.4801
G1 X124.652 Y109.420
G1 X123.820 Y108.669 E16.5360
G1 X124.346 Y108.648
G1 X125.143 Y109.367 E16.5896
G1 X125.605 Y109.288
G1 X124.829 Y108.588 E16.6417
G1 X125.302 Y108.519
G1 X126.060 Y109.203 E16.6927
G1 X126.486 Y109.091
G1 X125.737 Y108.416 E16.7430
G1 X126.159 Y108.301
G1 X126.905 Y108.974 E16.7931
G1 X127.296 Y108.831
G1 X126.555 Y108.163 E16.8429
G1 X126.942 Y108.016
G1 X127.576 Y108.588 E16.8855
;segType:Perimeter
G1 X127.843 Y108.548 F10800
G1 X128.354 Y108.980 E16.9188 F2159
G1 X127.827 Y109.226 E16.9478
G1 X127.036 Y109.510 E16.9897
G1 X126.187 Y109.733 E17.0335
G1 X125.306 Y109.894 E17.0782
G1 X124.443 Y109.987 E17.1215
G1 X123.433 Y110.015 E17.1719
G1 X122.117 Y109.937 E17.2377
G1 X120.847 Y109.689 E17.3022
G1 X119.687 Y109.277 E17.3637
G1 X118.643 Y108.731 E17.4224
G1 X117.721 Y108.056 E17.4795
G1 X116.919 Y107.250 E17.5362
G1 X116.234 Y106.309 E17.5943
G1 X115.665 Y105.255 E17.6540
G1 X115.213 Y104.090 E17.7163
G1 X114.895 Y102.816 E17.7819
G1 X114.704 Y101.458 E17.8503
G1 X114.640 Y100.020 E17.9221
G1 X114.696 Y98.546 E17.9957
G1 X114.860 Y97.167 E18.0650
G1 X115.134 Y95.884 E18.1304
G1 X115.535 Y94.699 E18.1928
G1 X116.051 Y93.640 E18.2516
G1 X116.682 Y92.706 E18.3079
G1 X117.442 Y91.901 E18.3631
G1 X118.318 Y91.227 E18.4182
G1 X119.309 Y90.682 E18.4746
G1 X120.425 Y90.294 E18.5336
G1 X121.683 Y90.059 E18.5974
G1 X123.083 Y89.981 E18.6674
G1 X124.031 Y90.006 E18.7147
G1 X124.957 Y90.075 E18.7611
G1 X125.708 Y90.175 E18.7988
G1 X126.445 Y90.312 E18.8362
G1 X127.145 Y90.507 E18.8725
G1 X127.723 Y90.716 E18.9032
G1 X127.739 Y92.537 E18.9940
G1 X127.248 Y92.405 E19.0194
G1 X126.523 Y92.224 E19.0567
G1 X125.786 Y92.058 E19.0944
G1 X125.076 Y91.939 E19.1303
G1 X124.301 Y91.864 E19.1691
G1 X123.497 Y91.839 E19.2093
G1 X122.452 Y91.899 E19.2615
G1 X121.488 Y92.077 E19.3104
G1 X120.612 Y92.377 E19.3566
G1 X119.827 Y92.804 E19.4012
G1 X119.136 Y93.336 E19.4447
G1 X118.537 Y93.975 E19.4884
G1 X118.033 Y94.730 E19.5337
G1 X117.622 Y95.592 E19.5813
G1 X117.305 Y96.557 E19.6320
G1 X117.080 Y97.609 E19.6857
G1 X116.945 Y98.757 E19.7433
G1 X116.900 Y100.001 E19.8054
G1 X116.951 Y101.202 E19.8654
G1 X117.107 Y102.324 E19.9219
G1 X117.367 Y103.369 E19.9756
G1 X117.721 Y104.324 E20.0265
G1 X118.156 Y105.183 E20.0745
G1 X118.678 Y105.947 E20.1206
G1 X119.296 Y106.596 E20.1654
G1 X119.991 Y107.141 E20.2095
G1 X120.769 Y107.581 E20.2540
G1 X121.618 Y107.893 E20.2992
G1 X122.529 Y108.079 E20.3455
G1 X123.497 Y108.141 E20.3940
G1 X124.332 Y108.107 E20.4356
G1 X125.113 Y108.004 E20.4749
G1 X125.842 Y107.832 E20.5123
G1 X126.508 Y107.599 E20.5475
G1 X127.139 Y107.342 E20.5815
G1 X127.542 Y107.150 E20.6037
G1 X128.382 Y108.907 E20.7009
G1 X127.684 Y108.950
;segType:Loop
G1 X127.292 Y109.030 F10800
G1 X126.906 Y109.168 E20.7214 F3600
G1 X126.091 Y109.383 E20.7634
G1 X125.242 Y109.538 E20.8064
G1 X124.413 Y109.627 E20.8481
G1 X123.440 Y109.654 E20.8966
G1 X122.173 Y109.579 E20.9600
G1 X120.964 Y109.342 E21.0214
G1 X119.862 Y108.951 E21.0798
G1 X118.871 Y108.433 E21.1356
G1 X117.997 Y107.794 E21.1896
G1 X117.237 Y107.029 E21.2434
G1 X116.583 Y106.130 E21.2988
G1 X116.035 Y105.116 E21.3564
G1 X115.598 Y103.991 E21.4166
G1 X115.290 Y102.753 E21.4802
G1 X115.103 Y101.428 E21.5470
G1 X115.040 Y100.018 E21.6174
G1 X115.095 Y98.571 E21.6896
G1 X115.256 Y97.220 E21.7575
G1 X115.523 Y95.971 E21.8212
G1 X115.911 Y94.825 E21.8816
G1 X116.406 Y93.807 E21.9381
G1 X117.007 Y92.918 E21.9916
G1 X117.726 Y92.156 E22.0438
G1 X118.553 Y91.520 E22.0959
G1 X119.486 Y91.007 E22.1490
G1 X120.539 Y90.641 E22.2046
G1 X121.736 Y90.418 E22.2654
G1 X123.090 Y90.342 E22.3330
G1 X124.009 Y90.366 E22.3789
G1 X124.912 Y90.433 E22.4241
G1 X125.638 Y90.530 E22.4606
G1 X126.345 Y90.662 E22.4965
G1 X127.011 Y90.848 E22.5310
G1 X127.325 Y90.961 E22.5477
G1 X127.335 Y92.052 E22.6021
G1 X126.625 Y91.875 E22.6386
G1 X125.871 Y91.705 E22.6772
G1 X125.134 Y91.582 E22.7145
G1 X124.329 Y91.504 E22.7548
G1 X123.491 Y91.478 E22.7966
G1 X122.398 Y91.541 E22.8512
G1 X121.376 Y91.730 E22.9031
G1 X120.436 Y92.051 E22.9527
G1 X119.592 Y92.511 E23.0006
G1 X118.851 Y93.081 E23.0472
G1 X118.211 Y93.764 E23.0940
G1 X117.676 Y94.565 E23.1420
G1 X117.246 Y95.469 E23.1920
G1 X116.916 Y96.472 E23.2446
G1 X116.684 Y97.556 E23.2999
G1 X116.545 Y98.731 E23.3590
G1 X116.500 Y100.002 E23.4224
G1 X116.552 Y101.231 E23.4838
G1 X116.712 Y102.386 E23.5420
G1 X116.981 Y103.465 E23.5975
G1 X117.348 Y104.457 E23.6502
G1 X117.803 Y105.353 E23.7004
G1 X118.354 Y106.160 E23.7491
G1 X119.011 Y106.851 E23.7967
G1 X119.753 Y107.432 E23.8437
G1 X120.585 Y107.903 E23.8914
G1 X121.497 Y108.238 E23.9399
G1 X122.470 Y108.437 E23.9894
G1 X123.492 Y108.502 E24.0405
G1 X124.370 Y108.466 E24.0843
G1 X125.193 Y108.358 E24.1257
G1 X125.965 Y108.176 E24.1653
G1 X126.663 Y107.932 E24.2022
G1 X127.346 Y107.651 E24.2391
G1 X127.891 Y108.790 E24.3020
G1 X127.661 Y108.898 E24.3147
G1 X127.473 Y108.965 E24.3247
G1 F4800 E23.3247
G1 X124.365 Y109.072 F10800
G1 X122.016 Y108.529
G1 F4800 E24.3247
;segType:HShell
G1 X123.037 Y109.449 E24.3932 F3600
G1 X119.158 Y106.720 F10800
G1 X117.985 Y105.266
G1 X117.180 Y103.416
G1 X116.758 Y101.216
G1 X116.888 Y97.583
G1 X117.440 Y95.532
G1 X118.379 Y93.873
G1 X119.713 Y92.662
G1 X121.434 Y91.909
G1 X126.696 Y90.948
G1 X127.129 Y91.338 E24.4223 F3600
G1 X127.098 Y91.806
G1 X125.952 Y90.773 E24.4992
G1 X120.527 Y92.220 F10800
G1 X118.998 Y93.213
G1 X117.860 Y94.651
G1 X117.117 Y96.516
G1 X116.751 Y98.744
G1 X116.726 Y103.263
G1 X115.394 Y102.061 E24.5888 F3600
G1 X115.313 Y101.494
G1 X116.566 Y102.624 E24.6729
G1 X116.462 Y102.034
G1 X115.282 Y100.970 E24.7522
G1 X115.260 Y100.454
G1 X116.383 Y101.468 E24.8277
G1 X116.339 Y100.932
G1 X115.243 Y99.944 E24.9013
G1 X115.261 Y99.465
G1 X116.317 Y100.417 E24.9722
G1 X116.303 Y99.908
G1 X115.279 Y98.985 E25.0410
G1 X115.303 Y98.511
G1 X116.320 Y99.429 E25.1093
G1 X116.337 Y98.949
G1 X115.356 Y98.064 E25.1752
G1 X115.410 Y97.617
G1 X116.373 Y98.486 E25.2399
G1 X116.426 Y98.038
G1 X115.469 Y97.175 E25.3042
G1 X115.558 Y96.759
G1 X116.479 Y97.590 E25.3661
G1 X116.563 Y97.170
G1 X115.647 Y96.344 E25.4277
G1 X115.744 Y95.936
G1 X116.652 Y96.755 E25.4887
G1 X116.749 Y96.347
G1 X115.872 Y95.556 E25.5476
G1 X116.000 Y95.177
G1 X116.874 Y95.964 E25.6063
G1 X117.000 Y95.582
G1 X116.138 Y94.805 E25.6641
G1 X116.306 Y94.461
G1 X117.147 Y95.219 E25.7206
G1 X117.312 Y94.873
G1 X116.474 Y94.117 E25.7769
G1 X116.655 Y93.785
G1 X117.477 Y94.526 E25.8321
G1 X117.678 Y94.212
G1 X116.863 Y93.477 E25.8869
G1 X117.072 Y93.170
G1 X117.885 Y93.903 E25.9415
G1 X118.101 Y93.602
G1 X117.303 Y92.883 E25.9951
G1 X117.556 Y92.615
G1 X118.352 Y93.334 E26.0486
G1 X118.604 Y93.065
G1 X117.808 Y92.348 E26.1020
G1 X118.094 Y92.110
G1 X118.882 Y92.820 E26.1549
G1 X119.178 Y92.592
G1 X118.391 Y91.882 E26.2079
G1 X118.690 Y91.656
G1 X119.475 Y92.364 E26.2606
G1 X119.817 Y92.178
G1 X119.031 Y91.468 E26.3134
G1 X119.373 Y91.281
G1 X120.160 Y91.991 E26.3663
G1 X120.528 Y91.827
G1 X119.736 Y91.113 E26.4195
G1 X120.133 Y90.976
G1 X120.926 Y91.691 E26.4728
G1 X121.325 Y91.555
G1 X120.529 Y90.838 E26.5262
G1 X120.975 Y90.744
G1 X121.781 Y91.471 E26.5804
G1 X122.237 Y91.386
G1 X121.430 Y90.659 E26.6346
G1 X121.902 Y90.589
G1 X122.736 Y91.341 E26.6906
G1 X123.252 Y91.311
G1 X122.419 Y90.560 E26.7466
G1 X122.936 Y90.531
G1 X123.797 Y91.307 E26.8044
G1 X124.368 Y91.326
G1 X123.488 Y90.533 E26.8636
G1 X124.057 Y90.551
G1 X124.984 Y91.386 E26.9258
G1 X125.641 Y91.483
G1 X124.656 Y90.595 E26.9920
G1 X125.283 Y90.665
G1 X126.350 Y91.627 E27.0636
G1 X122.426 Y91.725 F10800
G1 X120.527 Y92.220
G1 X118.998 Y93.213
G1 X117.860 Y94.651
G1 X117.117 Y96.516
G1 X115.474 Y102.629
G1 X116.956 Y103.965 E27.1632 F3600
G1 X118.602 Y105.945 F10800
G1 X120.248 Y107.925
G1 X121.795 Y109.320 E27.2671 F3600
G1 X122.449 Y109.414
G1 X121.266 Y108.348 E27.3466
G1 X118.980 Y106.533 F10800
G1 X117.277 Y104.751
G1 X115.620 Y103.256 E27.4580 F3600
G1 X115.779 Y103.895
G1 X117.844 Y105.758 E27.5967
G1 X121.094 Y109.183 F10800
G1 X116.065 Y104.649 E27.9345 F3600
G1 X116.470 Y105.509 F10800
G1 X120.208 Y108.881 E28.1857 F3600
G1 X119.016 Y108.300 F10800
G1 X117.228 Y106.689 E28.3057 F3600
G1 F4800 E27.3057
G1 X120.673 Y103.849 F10800
G1 X122.395 Y102.429
G1 F4800 E28.3057
G1 X120.646 Y100.853 E28.4232 F3600
G1 X120.723 Y101.418
G1 X121.983 Y102.554 E28.5078
;segType:Loop
G1 X121.184 Y102.466 F10800
G1 X121.120 Y102.428 E28.5116 F3600
G1 X120.768 Y102.018 E28.5385
G1 X120.529 Y101.471 E28.5683
G1 X120.444 Y100.848 E28.5997
G1 X120.529 Y100.225 E28.6310
G1 X120.768 Y99.678 E28.6608
G1 X121.120 Y99.268 E28.6878
G1 X121.525 Y99.027 E28.7113
G1 X121.940 Y98.950 E28.7323
G1 X122.355 Y99.027 E28.7534
G1 X122.760 Y99.268 E28.7769
G1 X123.112 Y99.678 E28.8039
G1 X123.351 Y100.225 E28.8336
G1 X123.435 Y100.848 E28.8650
G1 X123.355 Y101.436 E28.8946
G1 X123.120 Y101.998 E28.9250
G1 X122.733 Y102.444 E28.9545
G1 X122.355 Y102.669 E28.9764
G1 X121.940 Y102.746 E28.9975
G1 X121.525 Y102.669 E29.0186
G1 X121.346 Y102.563 E29.0289
G1 F4800 E28.0289
G1 X122.325 Y102.615 F10800
G1 F4800 E29.0289
;segType:Perimeter
G1 X121.883 Y103.103 E29.0618 F2159
G1 X121.369 Y103.008 E29.0879
G1 X120.844 Y102.696 E29.1183
G1 X120.417 Y102.198 E29.1511
G1 X120.138 Y101.560 E29.1858
G1 X120.041 Y100.848 E29.2217
G1 X120.138 Y100.136 E29.2575
G1 X120.417 Y99.498 E29.2922
G1 X120.844 Y99.000 E29.3250
G1 X121.369 Y98.688 E29.3554
G1 X121.940 Y98.582 E29.3844
G1 X122.511 Y98.688 E29.4134
G1 X123.036 Y99.000 E29.4439
G1 X123.463 Y99.498 E29.4766
G1 X123.742 Y100.136 E29.5113
G1 X123.839 Y100.848 E29.5472
G1 X123.747 Y101.523 E29.5812
G1 X123.472 Y102.177 E29.6166
G1 X123.008 Y102.713 E29.6519
G1 X122.511 Y103.008 E29.6808
G1 X121.997 Y103.103 E29.7068
G1 X121.555 Y102.615
;segType:HShell
G1 X123.064 Y100.060 F10800
G1 X122.063 Y99.157 E29.7741 F3600
G1 X121.576 Y99.213
G1 X123.213 Y100.689 E29.8840
G1 X123.191 Y101.165
G1 X121.248 Y99.413 E30.0145
G1 X121.008 Y99.693
G1 X123.087 Y101.567 E30.1542
G1 X122.932 Y101.922
G1 X120.830 Y100.027 E30.2953
G1 X120.706 Y100.410
G1 X122.691 Y102.200 E30.4287
; ------------------------------------
; Layer #2
; ------------------------------------
G21 ; mm
G90 ; abs
G92 E0 ; reset extr
M106 S255
;segType:HShell
G1 F4800 E-1.0000
G1 F300 Z1.000
G1 X123.140 Y101.462 F10800
G1 F4800 E0.0000
G1 X121.924 Y102.559 E0.0817 F3600
;segType:Loop
G1 X121.184 Y102.466 F10800
G1 X121.120 Y102.428 E0.0854 F3600
G1 X120.768 Y102.018 E0.1124
G1 X120.529 Y101.471 E0.1422
G1 X120.444 Y100.848 E0.1735
G1 X120.529 Y100.225 E0.2049
G1 X120.768 Y99.678 E0.2347
G1 X121.120 Y99.268 E0.2616
G1 X121.525 Y99.027 E0.2851
G1 X121.940 Y98.950 E0.3062
G1 X122.355 Y99.027 E0.3273
G1 X122.760 Y99.268 E0.3508
G1 X123.112 Y99.678 E0.3777
G1 X123.351 Y100.225 E0.4075
G1 X123.435 Y100.848 E0.4389
G1 X123.351 Y101.471 E0.4702
G1 X123.112 Y102.018 E0.5000
G1 X122.760 Y102.428 E0.5270
G1 X122.355 Y102.669 E0.5505
G1 X121.940 Y102.746 E0.5715
G1 X121.525 Y102.669 E0.5926
G1 X121.346 Y102.563 E0.6030
G1 F4800 E-0.3970
G1 X122.325 Y102.615 F10800
G1 F4800 E0.6030
;segType:Perimeter
G1 X121.883 Y103.103 E0.6358 F2159
G1 X121.369 Y103.008 E0.6619
G1 X120.844 Y102.696 E0.6924
G1 X120.417 Y102.198 E0.7251
G1 X120.138 Y101.560 E0.7599
G1 X120.041 Y100.848 E0.7957
G1 X120.138 Y100.136 E0.8316
G1 X120.417 Y99.498 E0.8663
G1 X120.844 Y99.000 E0.8990
G1 X121.369 Y98.688 E0.9295
G1 X121.940 Y98.582 E0.9585
G1 X122.511 Y98.688 E0.9875
G1 X123.036 Y99.000 E1.0179
G1 X123.463 Y99.498 E1.0507
G1 X123.742 Y100.136 E1.0854
G1 X123.839 Y100.848 E1.1213
G1 X123.742 Y101.560 E1.1571
G1 X123.463 Y102.198 E1.1918
G1 X123.036 Y102.696 E1.2246
G1 X122.511 Y103.008 E1.2550
G1 X121.997 Y103.103 E1.2811
G1 X121.555 Y102.615
;segType:HShell
G1 X121.505 Y102.441 F10800
G1 X123.229 Y100.886 E1.3969 F3600
G1 X123.178 Y100.437
G1 X121.197 Y102.223 E1.5300
G1 X120.957 Y101.944
G1 X123.059 Y100.049 E1.6712
G1 X122.886 Y99.709
G1 X120.797 Y101.593 E1.8115
G1 X120.693 Y101.191
G1 X122.646 Y99.430 E1.9428
G1 X122.324 Y99.225
G1 X120.663 Y100.723 E2.0544
G1 X120.795 Y100.108
G1 X121.858 Y99.150 E2.1258
G1 F4800 E1.1258
G1 X125.887 Y107.011 F10800
G1 X126.895 Y108.976
G1 F4800 E2.1258
G1 X127.519 Y108.413 E2.1677 F3600
;segType:Loop
G1 X127.329 Y109.016 F10800
G1 X126.885 Y109.174 E2.1912 F3600
G1 X126.070 Y109.386 E2.2333
G1 X125.220 Y109.540 E2.2764
G1 X124.414 Y109.627 E2.3168
G1 X123.405 Y109.652 E2.3671
G1 X122.173 Y109.579 E2.4287
G1 X120.964 Y109.342 E2.4902
G1 X119.862 Y108.951 E2.5485
G1 X118.871 Y108.433 E2.6043
G1 X117.997 Y107.794 E2.6583
G1 X117.237 Y107.029 E2.7121
G1 X116.583 Y106.130 E2.7676
G1 X116.035 Y105.116 E2.8251
G1 X115.598 Y103.991 E2.8853
G1 X115.290 Y102.753 E2.9490
G1 X115.103 Y101.428 E3.0158
G1 X115.040 Y100.018 E3.0861
G1 X115.095 Y98.571 E3.1584
G1 X115.256 Y97.220 E3.2263
G1 X115.523 Y95.971 E3.2900
G1 X115.911 Y94.825 E3.3504
G1 X116.406 Y93.807 E3.4069
G1 X117.007 Y92.918 E3.4604
G1 X117.726 Y92.156 E3.5126
G1 X118.553 Y91.520 E3.5647
G1 X119.486 Y91.007 E3.6178
G1 X120.539 Y90.641 E3.6734
G1 X121.736 Y90.418 E3.7342
G1 X123.090 Y90.342 E3.8018
G1 X124.010 Y90.366 E3.8477
G1 X124.922 Y90.434 E3.8934
G1 X125.629 Y90.529 E3.9289
G1 X126.337 Y90.660 E3.9649
G1 X127.003 Y90.845 E3.9994
G1 X127.318 Y90.958 E4.0161
G1 X127.331 Y92.051 E4.0706
G1 X126.663 Y91.884 E4.1050
G1 X125.909 Y91.711 E4.1436
G1 X125.134 Y91.582 E4.1828
G1 X124.329 Y91.504 E4.2231
G1 X123.491 Y91.478 E4.2649
G1 X122.398 Y91.541 E4.3195
G1 X121.376 Y91.730 E4.3714
G1 X120.436 Y92.051 E4.4209
G1 X119.592 Y92.511 E4.4689
G1 X118.851 Y93.081 E4.5155
G1 X118.211 Y93.764 E4.5622
G1 X117.676 Y94.565 E4.6103
G1 X117.246 Y95.469 E4.6602
G1 X116.916 Y96.472 E4.7129
G1 X116.684 Y97.556 E4.7682
G1 X116.545 Y98.731 E4.8273
G1 X116.500 Y100.002 E4.8907
G1 X116.552 Y101.231 E4.9521
G1 X116.712 Y102.386 E5.0103
G1 X116.981 Y103.465 E5.0658
G1 X117.348 Y104.457 E5.1185
G1 X117.803 Y105.353 E5.1686
G1 X118.354 Y106.160 E5.2174
G1 X119.011 Y106.851 E5.2650
G1 X119.753 Y107.432 E5.3120
G1 X120.585 Y107.903 E5.3597
G1 X121.497 Y108.238 E5.4082
G1 X122.470 Y108.437 E5.4577
G1 X123.492 Y108.502 E5.5088
G1 X124.370 Y108.466 E5.5526
G1 X125.193 Y108.358 E5.5940
G1 X125.965 Y108.176 E5.6336
G1 X126.663 Y107.932 E5.6705
G1 X127.355 Y107.647 E5.7078
G1 X127.919 Y108.775 E5.7708
G1 X127.642 Y108.905 E5.7860
G1 X127.510 Y108.952 E5.7930
G1 F4800 E4.7930
G1 X127.872 Y108.537 F10800
G1 F4800 E5.7930
;segType:Perimeter
G1 X128.388 Y108.963 E5.8264 F2159
G1 X127.808 Y109.234 E5.8584
G1 X127.015 Y109.515 E5.9004
G1 X126.165 Y109.737 E5.9441
G1 X125.283 Y109.896 E5.9889
G1 X124.443 Y109.987 E6.0310
G1 X123.398 Y110.013 E6.0832
G1 X122.117 Y109.937 E6.1472
G1 X120.847 Y109.689 E6.2117
G1 X119.687 Y109.277 E6.2732
G1 X118.643 Y108.731 E6.3319
G1 X117.721 Y108.056 E6.3890
G1 X116.919 Y107.250 E6.4457
G1 X116.234 Y106.309 E6.5038
G1 X115.665 Y105.255 E6.5635
G1 X115.213 Y104.090 E6.6258
G1 X114.895 Y102.816 E6.6914
G1 X114.704 Y101.458 E6.7598
G1 X114.640 Y100.020 E6.8316
G1 X114.696 Y98.546 E6.9052
G1 X114.860 Y97.167 E6.9745
G1 X115.134 Y95.884 E7.0399
G1 X115.535 Y94.699 E7.1023
G1 X116.051 Y93.640 E7.1611
G1 X116.682 Y92.706 E7.2174
G1 X117.442 Y91.901 E7.2726
G1 X118.318 Y91.227 E7.3277
G1 X119.309 Y90.682 E7.3841
G1 X120.425 Y90.294 E7.4431
G1 X121.683 Y90.059 E7.5069
G1 X123.083 Y89.981 E7.5769
G1 X124.032 Y90.006 E7.6243
G1 X124.968 Y90.076 E7.6711
G1 X125.698 Y90.174 E7.7078
G1 X126.436 Y90.310 E7.7453
G1 X127.136 Y90.505 E7.7815
G1 X127.715 Y90.712 E7.8122
G1 X127.737 Y92.537 E7.9032
G1 X127.285 Y92.414 E7.9266
G1 X126.560 Y92.233 E7.9639
G1 X125.823 Y92.064 E8.0016
G1 X125.076 Y91.939 E8.0394
G1 X124.301 Y91.864 E8.0782
G1 X123.497 Y91.839 E8.1184
G1 X122.452 Y91.899 E8.1706
G1 X121.488 Y92.077 E8.2195
G1 X120.612 Y92.377 E8.2657
G1 X119.827 Y92.804 E8.3103
G1 X119.136 Y93.336 E8.3538
G1 X118.537 Y93.975 E8.3975
G1 X118.033 Y94.730 E8.4428
G1 X117.622 Y95.592 E8.4904
G1 X117.305 Y96.557 E8.5411
G1 X117.080 Y97.609 E8.5948
G1 X116.945 Y98.757 E8.6524
G1 X116.900 Y100.001 E8.7145
G1 X116.951 Y101.202 E8.7745
G1 X117.107 Y102.324 E8.8310
G1 X117.367 Y103.369 E8.8847
G1 X117.721 Y104.324 E8.9356
G1 X118.156 Y105.183 E8.9836
G1 X118.678 Y105.947 E9.0297
G1 X119.296 Y106.596 E9.0745
G1 X119.991 Y107.141 E9.1185
G1 X120.769 Y107.581 E9.1631
G1 X121.618 Y107.893 E9.2082
G1 X122.529 Y108.079 E9.2546
G1 X123.497 Y108.141 E9.3030
G1 X124.332 Y108.107 E9.3447
G1 X125.113 Y108.004 E9.3840
G1 X125.842 Y107.832 E9.4214
G1 X126.508 Y107.599 E9.4566
G1 X127.139 Y107.342 E9.4906
G1 X127.545 Y107.149 E9.5130
G1 X128.416 Y108.891 E9.6101
G1 X127.718 Y108.936
;segType:HShell
G1 X127.348 Y108.072 F10800
G1 X126.110 Y109.188 E9.6933 F3600
G1 X120.680 Y107.737 F10800
G1 X119.158 Y106.720
G1 X117.985 Y105.266
G1 X117.180 Y103.416
G1 X116.758 Y101.216
G1 X116.888 Y97.583
G1 X117.498 Y92.677
G1 X118.312 Y91.943 E9.7480 F3600
G1 X119.809 Y91.088 F10800
G1 X116.492 Y94.079 E9.9708 F3600
G1 X116.078 Y94.948 F10800
G1 X120.679 Y90.799 E10.2799 F3600
G1 X120.705 Y91.766 F10800
G1 X122.018 Y90.582 E10.3681 F3600
G1 X121.372 Y90.670
G1 X119.520 Y92.339 E10.4925
G1 X118.033 Y93.681 F10800
G1 X115.837 Y95.661 E10.6400 F3600
G1 X115.651 Y96.324
G1 X117.351 Y94.791 E10.7542
G1 X119.713 Y92.662 F10800
G1 X121.434 Y91.909
G1 X123.494 Y91.664
G1 X127.123 Y91.429
G1 X126.786 Y91.732 E10.7768 F3600
G1 X126.351 Y91.629
G1 X127.005 Y91.040 E10.8207
G1 X126.590 Y90.919
G1 X125.914 Y91.529 E10.8662
G1 X125.450 Y91.451
G1 X126.160 Y90.811 E10.9138
G1 X125.704 Y90.727
G1 X124.974 Y91.385 E10.9629
G1 X124.478 Y91.337
G1 X125.231 Y90.658 E11.0134
G1 X124.744 Y90.602
G1 X123.956 Y91.312 E11.0663
G1 X123.418 Y91.302
G1 X124.236 Y90.564 E11.1213
G1 X123.715 Y90.539
G1 X122.831 Y91.335 E11.1807
G1 X122.222 Y91.389
G1 X123.181 Y90.524 E11.2451
G1 X122.604 Y90.549
G1 X121.531 Y91.517 E11.3172
G1 X118.998 Y93.213 F10800
G1 X116.990 Y95.612
G1 X115.520 Y96.938 E11.4159 F3600
G1 X116.611 Y96.944 F10800
G1 X115.355 Y98.078 E11.5004 F3600
G1 X115.421 Y97.522
G1 X116.759 Y96.316 E11.5902
G1 X116.758 Y101.216 F10800
G1 X117.180 Y103.416
G1 X117.985 Y105.266
G1 X119.158 Y106.720
G1 X120.680 Y107.737
G1 X122.500 Y108.252
G1 X125.914 Y108.374
G1 X124.769 Y109.407 E11.6672 F3600
G1 X124.169 Y109.453
G1 X125.178 Y108.542 E11.7350
G1 X124.535 Y108.627
G1 X123.603 Y109.467 E11.7976
G1 X123.071 Y109.452
G1 X123.944 Y108.664 E11.8563
G1 X123.382 Y108.676
G1 X122.556 Y109.421 E11.9118
G1 X122.060 Y109.372
G1 X122.869 Y108.643 E11.9661
G1 X122.366 Y108.601
G1 X121.609 Y109.284 E12.0170
G1 X121.157 Y109.196
G1 X121.918 Y108.509 E12.0682
G1 X121.471 Y108.418
G1 X120.746 Y109.071 E12.1169
G1 X120.351 Y108.931
G1 X121.076 Y108.278 E12.1655
G1 X120.685 Y108.135
G1 X119.957 Y108.791 E12.2145
G1 X119.608 Y108.610
G1 X120.322 Y107.967 E12.2624
G1 X119.984 Y107.776
G1 X119.261 Y108.429 E12.3110
G1 X118.922 Y108.238
G1 X119.647 Y107.585 E12.3597
G1 X119.351 Y107.356
G1 X118.619 Y108.016 E12.4088
G1 X118.315 Y107.795
G1 X119.057 Y107.126 E12.4587
G1 X118.777 Y106.882
G1 X118.030 Y107.557 E12.5089
G1 X117.770 Y107.295
G1 X118.524 Y106.616 E12.5595
G1 X118.270 Y106.349
G1 X117.510 Y107.034 E12.6106
G1 X117.274 Y106.752
G1 X118.047 Y106.055 E12.6625
G1 X117.838 Y105.748
G1 X117.056 Y106.452 E12.7150
G1 X116.839 Y106.153
G1 X117.628 Y105.441 E12.7680
G1 X117.455 Y105.102
G1 X116.645 Y105.833 E12.8225
G1 X116.465 Y105.500
G1 X117.283 Y104.762 E12.8774
G1 X117.121 Y104.412
G1 X116.285 Y105.166 E12.9336
G1 X116.129 Y104.812
G1 X116.983 Y104.041 E12.9910
G1 X116.846 Y103.669
G1 X115.986 Y104.445 E13.0488
G1 X115.843 Y104.078
G1 X116.730 Y103.279 E13.1083
G1 X116.629 Y102.874
G1 X115.727 Y103.687 E13.1689
G1 X115.626 Y103.283
G1 X116.528 Y102.470 E13.2295
G1 X116.462 Y102.034
G1 X115.526 Y102.878 E13.2924
G1 X115.449 Y102.452
G1 X116.401 Y101.593 E13.3564
G1 X116.348 Y101.145
G1 X115.387 Y102.013 E13.4210
G1 X115.325 Y101.573
G1 X116.328 Y100.668 E13.4884
G1 X116.307 Y100.191
G1 X115.289 Y101.110 E13.5568
G1 X115.268 Y100.633
G1 X116.311 Y99.693 E13.6269
G1 X116.329 Y99.181
G1 X115.247 Y100.157 E13.6996
G1 X115.254 Y99.655
G1 X116.352 Y98.665 E13.7734
G1 X116.418 Y98.110
G1 X115.273 Y99.142 E13.8503
G1 X115.293 Y98.629
G1 X116.483 Y97.555 E13.9302
G1 X116.915 Y102.354 F10800
G1 X117.540 Y104.389
G1 X118.521 Y106.050
G1 X119.876 Y107.282
G1 X121.560 Y108.060
G1 X125.414 Y109.321
G1 X126.793 Y108.077 E14.0229 F3600
G1 F4800 E13.0229
G1 X134.108 Y99.868 F10800
G1 X136.857 Y99.001
G1 F4800 E14.0229
G1 X136.084 Y99.699 E14.0749 F3600
G1 X135.535 Y99.699
G1 X136.308 Y99.001 E14.1269
G1 X135.759 Y99.001
G1 X134.985 Y99.699 E14.1788
G1 X134.436 Y99.699
G1 X135.209 Y99.001 E14.2308
G1 X134.660 Y99.001
G1 X133.000 Y100.498 E14.3423
G1 X133.000 Y100.002
G1 X134.110 Y99.001 E14.4168
G1 X133.920 Y98.677
G1 X133.000 Y99.507 E14.4786
G1 X133.000 Y99.011
G1 X133.920 Y98.182 E14.5405
;segType:Perimeter
G1 X134.578 Y98.460 E14.5749 F2159
G1 X137.941 Y98.460 E14.7426
G1 X142.701 Y90.260 E15.2157
G1 X145.222 Y90.260 E15.3415
G1 X139.881 Y99.043 E15.8543
G1 X140.560 Y99.323 E15.8909
G1 X141.028 Y99.552 E15.9170
G1 X141.487 Y99.809 E15.9432
G1 X141.923 Y100.101 E15.9694
G1 X142.329 Y100.436 E15.9956
G1 X142.702 Y100.811 E16.0220
G1 X143.026 Y101.245 E16.0490
G1 X143.309 Y101.735 E16.0773
G1 X143.550 Y102.278 E16.1069
G1 X143.733 Y102.877 E16.1382
G1 X143.843 Y103.544 E16.1719
G1 X143.880 Y104.275 E16.2084
G1 X143.691 Y105.972 E16.2936
G1 X143.131 Y107.337 E16.3672
G1 X142.204 Y108.384 E16.4369
G1 X140.901 Y109.132 E16.5119
G1 X139.175 Y109.586 E16.6009
G1 X137.012 Y109.740 E16.7091
G1 X132.400 Y109.740 E16.9392
G1 X132.400 Y90.260 E17.9110
G1 X134.520 Y90.260 E18.0168
G1 X134.520 Y98.408 E18.4233
G1 X134.788 Y98.990
;segType:Loop
G1 X135.588 Y98.821 F10800
G1 X138.183 Y98.821 E18.5528 F3600
G1 X142.943 Y90.621 E19.0258
G1 X144.547 Y90.621 E19.1058
G1 X139.324 Y99.210 E19.6073
G1 X140.381 Y99.646 E19.6644
G1 X140.828 Y99.864 E19.6892
G1 X141.262 Y100.108 E19.7140
G1 X141.669 Y100.380 E19.7384
G1 X142.044 Y100.690 E19.7627
G1 X142.385 Y101.033 E19.7869
G1 X142.682 Y101.430 E19.8115
G1 X142.945 Y101.886 E19.8378
G1 X143.170 Y102.393 E19.8655
G1 X143.341 Y102.952 E19.8947
G1 X143.444 Y103.579 E19.9264
G1 X143.479 Y104.265 E19.9606
G1 X143.298 Y105.890 E20.0422
G1 X142.778 Y107.158 E20.1106
G1 X141.933 Y108.112 E20.1741
G1 X140.734 Y108.800 E20.2431
G1 X139.102 Y109.229 E20.3273
G1 X136.996 Y109.379 E20.4326
G1 X132.800 Y109.379 E20.6420
G1 X132.800 Y90.621 E21.5778
G1 X134.120 Y90.621 E21.6437
G1 X134.120 Y98.821 E22.0528
G1 X135.394 Y98.821 E22.1164
G1 X140.634 Y101.103 F10800
G1 X141.500 Y102.394
G1 X141.794 Y104.160
G1 X141.490 Y105.944
G1 X140.098 Y107.492
G1 X138.576 Y108.352
;segType:HShell
G1 X137.692 Y109.149 E22.1757 F3600
G1 X137.096 Y109.191
G1 X137.940 Y108.430 E22.2324
G1 X137.349 Y108.467
G1 X136.538 Y109.199 E22.2870
G1 X135.988 Y109.199
G1 X136.784 Y108.481 E22.3404
G1 X136.235 Y108.481
G1 X135.439 Y109.199 E22.3939
G1 X134.890 Y109.199
G1 X135.685 Y108.481 E22.4474
G1 X135.136 Y108.481
G1 X134.340 Y109.199 E22.5008
G1 X133.791 Y109.199
G1 X134.587 Y108.481 E22.5543
;segType:Perimeter
G1 X134.788 Y108.470 F10800
G1 X134.520 Y107.888 E22.5863 F2159
G1 X134.520 Y100.240 E22.9679
G1 X136.924 Y100.240 E23.0878
G1 X137.697 Y100.267 E23.1264
G1 X138.397 Y100.350 E23.1615
G1 X139.020 Y100.487 E23.1934
G1 X139.583 Y100.680 E23.2230
G1 X140.075 Y100.927 E23.2505
G1 X140.499 Y101.229 E23.2765
G1 X140.850 Y101.598 E23.3019
G1 X141.107 Y101.988 E23.3252
G1 X141.316 Y102.450 E23.3505
G1 X141.487 Y103.036 E23.3810
G1 X141.573 Y103.599 E23.4094
G1 X141.600 Y104.160 E23.4374
G1 X141.568 Y104.797 E23.4692
G1 X141.472 Y105.372 E23.4983
G1 X141.308 Y105.883 E23.5251
G1 X141.079 Y106.332 E23.5502
G1 X140.787 Y106.725 E23.5746
G1 X140.432 Y107.057 E23.5989
G1 X139.997 Y107.342 E23.6248
G1 X139.496 Y107.567 E23.6522
G1 X138.931 Y107.735 E23.6816
G1 X138.304 Y107.849 E23.7134
G1 X137.614 Y107.918 E23.7480
G1 X136.863 Y107.940 E23.7855
G1 X134.578 Y107.940 E23.8995
G1 X133.932 Y107.699
;segType:Loop
G1 X134.120 Y106.977 F10800
G1 X134.120 Y99.879 E24.2536 F3600
G1 X136.932 Y99.879 E24.3939
G1 X137.731 Y99.907 E24.4338
G1 X138.471 Y99.995 E24.4709
G1 X139.139 Y100.142 E24.5051
G1 X139.752 Y100.352 E24.5374
G1 X140.298 Y100.626 E24.5679
G1 X140.778 Y100.968 E24.5973
G1 X141.176 Y101.387 E24.6261
G1 X141.466 Y101.827 E24.6524
G1 X141.696 Y102.335 E24.6802
G1 X141.880 Y102.966 E24.7130
G1 X141.971 Y103.567 E24.7433
G1 X142.001 Y104.160 E24.7730
G1 X141.967 Y104.833 E24.8066
G1 X141.864 Y105.449 E24.8378
G1 X141.684 Y106.009 E24.8671
G1 X141.429 Y106.509 E24.8951
G1 X141.099 Y106.952 E24.9226
G1 X140.695 Y107.330 E24.9502
G1 X140.205 Y107.651 E24.9795
G1 X139.649 Y107.902 E25.0099
G1 X139.034 Y108.084 E25.0419
G1 X138.366 Y108.206 E25.0758
G1 X137.643 Y108.278 E25.1121
G1 X136.870 Y108.301 E25.1506
G1 X134.120 Y108.301 E25.2878
G1 X134.120 Y107.152 E25.3451
;segType:HShell
G1 X134.037 Y108.481 F10800
G1 X133.241 Y109.199 E25.3986 F3600
G1 X133.000 Y108.921
G1 X133.920 Y108.091 E25.4604
G1 X133.920 Y107.596
G1 X133.000 Y108.425 E25.5222
G1 X133.000 Y107.930
G1 X133.920 Y107.100 E25.5840
G1 X133.920 Y106.605
G1 X133.000 Y107.434 E25.6458
G1 X133.000 Y106.939
G1 X133.920 Y106.109 E25.7077
G1 X133.920 Y105.614
G1 X133.000 Y106.443 E25.7695
G1 X133.000 Y105.948
G1 X133.920 Y105.118 E25.8313
G1 X133.920 Y104.623
G1 X133.000 Y105.453 E25.8931
G1 X133.000 Y104.957
G1 X133.920 Y104.127 E25.9549
G1 X133.920 Y103.632
G1 X133.000 Y104.462 E26.0167
G1 X133.000 Y103.966
G1 X133.920 Y103.136 E26.0785
G1 X133.920 Y102.641
G1 X133.000 Y103.471 E26.1403
G1 X133.000 Y102.975
G1 X133.920 Y102.146 E26.2021
G1 X133.920 Y101.650
G1 X133.000 Y102.480 E26.2639
G1 X133.000 Y101.984
G1 X133.920 Y101.155 E26.3257
G1 X133.920 Y100.659
G1 X133.000 Y101.489 E26.3875
G1 X133.000 Y100.993
G1 X133.920 Y100.164 E26.4493
G1 X137.956 Y99.001 F10800
G1 X137.174 Y99.707 E26.5019 F3600
G1 X136.633 Y99.699
G1 X137.407 Y99.001 E26.5539
G1 X134.383 Y98.584 F10800
G1 X133.920 Y97.686
G1 X133.000 Y98.516 E26.6157 F3600
G1 X133.000 Y98.020
G1 X133.920 Y97.191 E26.6775
G1 X133.920 Y96.695
G1 X133.000 Y97.525 E26.7393
G1 X133.000 Y97.030
G1 X133.920 Y96.200 E26.8011
G1 X133.920 Y95.704
G1 X133.000 Y96.534 E26.8629
G1 X133.000 Y96.039
G1 X133.920 Y95.209 E26.9247
G1 X133.920 Y94.713
G1 X133.000 Y95.543 E26.9866
G1 X133.000 Y95.048
G1 X133.920 Y94.218 E27.0484
G1 X133.920 Y93.723
G1 X133.000 Y94.552 E27.1102
G1 X133.000 Y94.057
G1 X133.920 Y93.227 E27.1720
G1 X133.920 Y92.732
G1 X133.000 Y93.561 E27.2338
G1 X133.000 Y93.066
G1 X133.920 Y92.236 E27.2956
G1 X133.920 Y91.741
G1 X133.000 Y92.570 E27.3574
G1 X133.000 Y92.075
G1 X133.920 Y91.245 E27.4192
G1 X133.863 Y90.801
G1 X133.000 Y91.579 E27.4772
G1 X133.000 Y91.084
G1 X133.314 Y90.801 E27.4983
G1 X134.383 Y98.584 F10800
G1 X138.042 Y98.610
G1 X142.911 Y91.065
G1 X143.204 Y90.801 E27.5179 F3600
G1 X141.704 Y93.144 F10800
G1 X144.096 Y90.988 E27.6785 F3600
G1 X143.753 Y90.801
G1 X142.308 Y92.104 E27.7756
G1 X143.428 Y92.085 F10800
G1 X141.101 Y94.184 E27.9320 F3600
G1 X140.497 Y95.224 F10800
G1 X142.761 Y93.182 E28.0841 F3600
G1 X142.094 Y94.279 F10800
G1 X139.894 Y96.263 E28.2320 F3600
G1 X139.290 Y97.303 F10800
G1 X141.427 Y95.376 E28.3755 F3600
G1 X140.760 Y96.473 F10800
G1 X138.686 Y98.343 E28.5148 F3600
G1 X139.426 Y98.667
G1 X138.192 Y99.780 E28.5977
G1 X137.702 Y99.726
G1 X140.093 Y97.570 E28.7583
G1 X139.697 Y99.098 F10800
G1 X141.500 Y102.394
G1 X141.794 Y104.152
G1 X141.961 Y105.795
G1 X143.235 Y104.646 E28.8439 F3600
G1 X143.271 Y104.118
G1 X142.114 Y105.161 E28.9216
G1 X142.179 Y104.608
G1 X143.247 Y103.644 E28.9934
G1 X143.181 Y103.209
G1 X142.197 Y104.095 E29.0595
G1 X142.174 Y103.621
G1 X143.087 Y102.798 E29.1208
G1 X142.964 Y102.413
G1 X142.114 Y103.179 E29.1778
G1 X142.027 Y102.762
G1 X142.807 Y102.059 E29.2302
G1 X142.627 Y101.726
G1 X141.913 Y102.370 E29.2782
G1 X141.764 Y102.009
G1 X142.427 Y101.411 E29.3227
G1 X142.202 Y101.119
G1 X141.594 Y101.667 E29.3635
G1 X141.388 Y101.356
G1 X141.942 Y100.857 E29.4007
G1 X141.659 Y100.617
G1 X141.147 Y101.079 E29.4351
G1 X140.888 Y100.817
G1 X141.356 Y100.395 E29.4665
G1 X141.032 Y100.191
G1 X140.581 Y100.598 E29.4968
G1 X140.254 Y100.398
G1 X140.692 Y100.003 E29.5262
G1 X140.335 Y99.829
G1 X139.901 Y100.220 E29.5554
G1 X139.511 Y100.077
G1 X139.961 Y99.671 E29.5856
G1 X139.584 Y99.515
G1 X139.103 Y99.949 E29.6179
G1 X138.662 Y99.851
G1 X139.207 Y99.360 E29.6545
G1 X141.281 Y101.910 F10800
G1 X141.766 Y103.583
G1 X141.662 Y105.409
G1 X140.938 Y106.835
G1 X140.251 Y107.832
G1 X138.886 Y109.063 E29.7462 F3600
G1 X138.289 Y109.106
G1 X139.299 Y108.195 E29.8141
G1 X139.607 Y108.908
G1 X143.113 Y105.747 E30.0496
G1 X143.174 Y105.196
G1 X141.571 Y106.642 E30.1573
G1 X142.839 Y106.490 F10800
G1 X140.383 Y108.705 E30.3223 F3600
G1 X141.639 Y108.067 F10800
G1 X142.026 Y107.718 E30.3483 F3600
; ------------------------------------
; Layer #3
; ------------------------------------
G21 ; mm
G90 ; abs
G92 E0 ; reset extr
M106 S255
G1 F4800 E-1.0000
G1 F300 Z1.300
G1 X141.863 Y102.271 F10800
G1 X140.398 Y100.490
G1 X135.588 Y98.821
G1 F4800 E0.0000
;segType:Loop
G1 X138.183 Y98.821 E0.1295 F3600
G1 X142.943 Y90.621 E0.6025
G1 X144.547 Y90.621 E0.6825
G1 X139.324 Y99.210 E1.1840
G1 X140.381 Y99.646 E1.2411
G1 X140.828 Y99.864 E1.2659
G1 X141.262 Y100.108 E1.2907
G1 X141.669 Y100.380 E1.3151
G1 X142.044 Y100.690 E1.3394
G1 X142.385 Y101.033 E1.3636
G1 X142.682 Y101.430 E1.3883
G1 X142.945 Y101.886 E1.4145
G1 X143.170 Y102.393 E1.4422
G1 X143.341 Y102.952 E1.4714
G1 X143.444 Y103.579 E1.5031
G1 X143.479 Y104.265 E1.5373
G1 X143.298 Y105.890 E1.6189
G1 X142.778 Y107.158 E1.6873
G1 X141.933 Y108.112 E1.7508
G1 X140.734 Y108.800 E1.8198
G1 X139.102 Y109.229 E1.9040
G1 X136.996 Y109.379 E2.0093
G1 X132.800 Y109.379 E2.2187
G1 X132.800 Y90.621 E3.1545
G1 X134.120 Y90.621 E3.2204
G1 X134.120 Y98.821 E3.6295
G1 X135.394 Y98.821 E3.6931
G1 X134.383 Y98.584 F10800
G1 X133.932 Y98.219
;segType:Perimeter
G1 X134.578 Y98.460 E3.7275 F2159
G1 X137.941 Y98.460 E3.8953
G1 X142.701 Y90.260 E4.3683
G1 X145.222 Y90.260 E4.4941
G1 X139.881 Y99.043 E5.0069
G1 X140.560 Y99.323 E5.0436
G1 X141.028 Y99.552 E5.0696
G1 X141.487 Y99.809 E5.0958
G1 X141.923 Y100.101 E5.1220
G1 X142.329 Y100.436 E5.1482
G1 X142.702 Y100.811 E5.1746
G1 X143.026 Y101.245 E5.2016
G1 X143.309 Y101.735 E5.2299
G1 X143.550 Y102.278 E5.2595
G1 X143.733 Y102.877 E5.2908
G1 X143.843 Y103.544 E5.3245
G1 X143.880 Y104.275 E5.3610
G1 X143.691 Y105.972 E5.4462
G1 X143.131 Y107.337 E5.5198
G1 X142.204 Y108.384 E5.5895
G1 X140.901 Y109.132 E5.6645
G1 X139.175 Y109.586 E5.7536
G1 X137.012 Y109.740 E5.8617
G1 X132.400 Y109.740 E6.0918
G1 X132.400 Y90.260 E7.0637
G1 X134.520 Y90.260 E7.1694
G1 X134.520 Y98.408 E7.5759
G1 X134.788 Y98.990
G1 X134.383 Y100.116 F10800
G1 X134.120 Y106.977
;segType:Loop
G1 X134.120 Y99.879 E7.9300 F3600
G1 X136.932 Y99.879 E8.0703
G1 X137.731 Y99.907 E8.1102
G1 X138.471 Y99.995 E8.1474
G1 X139.139 Y100.142 E8.1815
G1 X139.752 Y100.352 E8.2138
G1 X140.298 Y100.626 E8.2443
G1 X140.778 Y100.968 E8.2737
G1 X141.176 Y101.387 E8.3026
G1 X141.459 Y101.816 E8.3282
G1 X141.691 Y102.323 E8.3560
G1 X141.883 Y102.980 E8.3901
G1 X141.972 Y103.582 E8.4205
G1 X142.001 Y104.160 E8.4494
G1 X141.967 Y104.833 E8.4830
G1 X141.864 Y105.449 E8.5142
G1 X141.684 Y106.009 E8.5435
G1 X141.429 Y106.509 E8.5715
G1 X141.099 Y106.952 E8.5991
G1 X140.695 Y107.330 E8.6267
G1 X140.205 Y107.651 E8.6559
G1 X139.649 Y107.902 E8.6863
G1 X139.034 Y108.084 E8.7183
G1 X138.366 Y108.206 E8.7522
G1 X137.643 Y108.278 E8.7885
G1 X136.870 Y108.301 E8.8270
G1 X134.120 Y108.301 E8.9642
G1 X134.120 Y107.152 E9.0216
G1 X134.326 Y107.940 F10800
G1 X134.788 Y108.470
;segType:Perimeter
G1 X134.520 Y107.888 E9.0535 F2159
G1 X134.520 Y100.240 E9.4351
G1 X136.924 Y100.240 E9.5550
G1 X137.697 Y100.267 E9.5936
G1 X138.397 Y100.350 E9.6288
G1 X139.020 Y100.487 E9.6606
G1 X139.583 Y100.680 E9.6903
G1 X140.075 Y100.927 E9.7178
G1 X140.499 Y101.229 E9.7438
G1 X140.850 Y101.598 E9.7692
G1 X141.100 Y101.978 E9.7918
G1 X141.311 Y102.438 E9.8171
G1 X141.489 Y103.050 E9.8489
G1 X141.573 Y103.614 E9.8773
G1 X141.600 Y104.160 E9.9046
G1 X141.568 Y104.797 E9.9365
G1 X141.472 Y105.372 E9.9655
G1 X141.308 Y105.883 E9.9923
G1 X141.079 Y106.332 E10.0175
G1 X140.787 Y106.725 E10.0419
G1 X140.432 Y107.057 E10.0661
G1 X139.997 Y107.342 E10.0921
G1 X139.496 Y107.567 E10.1194
G1 X138.931 Y107.735 E10.1489
G1 X138.304 Y107.849 E10.1807
G1 X137.614 Y107.918 E10.2152
G1 X136.863 Y107.940 E10.2527
G1 X134.578 Y107.940 E10.3667
G1 X133.932 Y107.699
;segType:Infill
G1 X133.920 Y107.512 F10800
G1 X133.000 Y107.512 E10.4126 F5400
G1 X133.920 Y103.824 F10800
G1 X133.000 Y103.824 E10.4585 F5400
G1 X133.000 Y100.136 F10800
G1 X133.920 Y100.136 E10.5044 F5400
G1 X137.978 Y99.755 F10800
G1 X137.978 Y99.001 E10.5420 F5400
G1 X140.934 Y100.136 F10800
G1 X139.685 Y100.136 E10.6043 F5400
G1 X142.067 Y102.886 F10800
G1 X142.067 Y100.984 E10.6993 F5400
G1 X139.697 Y99.098 F10800
G1 X140.775 Y96.448
G1 X139.786 Y96.448 E10.7486 F5400
G1 X143.018 Y92.761 F10800
G1 X141.927 Y92.761 E10.8030 F5400
G1 X142.067 Y94.323 F10800
G1 X142.067 Y92.519 E10.8930 F5400
G1 X138.042 Y98.610 F10800
G1 X134.383 Y98.584
G1 X133.920 Y96.448
G1 X133.000 Y96.448 E10.9389 F5400
G1 X133.000 Y92.761 F10800
G1 X133.920 Y92.761 E10.9848 F5400
G1 X133.888 Y90.801 F10800
G1 X133.888 Y109.199 E11.9027 F5400
G1 X137.978 Y109.128 F10800
G1 X137.978 Y108.426 E11.9377 F5400
G1 X140.757 Y107.512 F10800
G1 X142.208 Y107.512 E12.0101 F5400
G1 X143.256 Y103.824 F10800
G1 X142.184 Y103.824 E12.0636 F5400
G1 X142.067 Y107.671 F10800
G1 X142.067 Y105.441 E12.1749 F5400
G1 F4800 E11.1749
G1 X140.814 Y107.453 F10800
G1 X137.656 Y108.442
G1 X129.532 Y108.434
G1 X127.330 Y109.015
G1 F4800 E12.1749
;segType:Loop
G1 X126.865 Y109.179 E12.1995 F3600
G1 X126.049 Y109.390 E12.2415
G1 X125.197 Y109.542 E12.2847
G1 X124.415 Y109.627 E12.3239
G1 X123.371 Y109.650 E12.3760
G1 X122.173 Y109.579 E12.4359
G1 X120.964 Y109.342 E12.4974
G1 X119.862 Y108.951 E12.5557
G1 X118.871 Y108.433 E12.6115
G1 X117.997 Y107.794 E12.6655
G1 X117.237 Y107.029 E12.7193
G1 X116.583 Y106.130 E12.7748
G1 X116.035 Y105.116 E12.8323
G1 X115.598 Y103.991 E12.8925
G1 X115.290 Y102.753 E12.9561
G1 X115.103 Y101.428 E13.0229
G1 X115.040 Y100.018 E13.0933
G1 X115.095 Y98.571 E13.1655
G1 X115.256 Y97.220 E13.2334
G1 X115.523 Y95.971 E13.2972
G1 X115.911 Y94.825 E13.3575
G1 X116.406 Y93.807 E13.4140
G1 X117.007 Y92.918 E13.4675
G1 X117.726 Y92.156 E13.5198
G1 X118.553 Y91.520 E13.5719
G1 X119.486 Y91.007 E13.6250
G1 X120.539 Y90.641 E13.6806
G1 X121.736 Y90.418 E13.7413
G1 X123.090 Y90.342 E13.8090
G1 X124.011 Y90.366 E13.8549
G1 X124.932 Y90.435 E13.9010
G1 X125.616 Y90.527 E13.9355
G1 X126.330 Y90.659 E13.9717
G1 X126.995 Y90.843 E14.0061
G1 X127.311 Y90.956 E14.0228
G1 X127.331 Y92.051 E14.0775
G1 X126.663 Y91.884 E14.1118
G1 X125.909 Y91.711 E14.1505
G1 X125.134 Y91.582 E14.1897
G1 X124.329 Y91.504 E14.2300
G1 X123.491 Y91.478 E14.2718
G1 X122.398 Y91.541 E14.3264
G1 X121.376 Y91.730 E14.3783
G1 X120.436 Y92.051 E14.4278
G1 X119.592 Y92.511 E14.4758
G1 X118.851 Y93.081 E14.5224
G1 X118.211 Y93.764 E14.5691
G1 X117.676 Y94.565 E14.6172
G1 X117.246 Y95.469 E14.6671
G1 X116.916 Y96.472 E14.7198
G1 X116.684 Y97.556 E14.7751
G1 X116.545 Y98.731 E14.8342
G1 X116.500 Y100.002 E14.8976
G1 X116.552 Y101.231 E14.9590
G1 X116.712 Y102.386 E15.0171
G1 X116.981 Y103.465 E15.0726
G1 X117.348 Y104.457 E15.1254
G1 X117.803 Y105.353 E15.1755
G1 X118.354 Y106.160 E15.2243
G1 X119.011 Y106.851 E15.2719
G1 X119.753 Y107.432 E15.3189
G1 X120.585 Y107.903 E15.3666
G1 X121.497 Y108.238 E15.4151
G1 X122.470 Y108.437 E15.4646
G1 X123.492 Y108.502 E15.5157
G1 X124.370 Y108.466 E15.5595
G1 X125.193 Y108.358 E15.6009
G1 X125.965 Y108.176 E15.6405
G1 X126.663 Y107.932 E15.6774
G1 X127.355 Y107.647 E15.7147
G1 X127.919 Y108.774 E15.7776
G1 X127.623 Y108.912 E15.7939
G1 X127.511 Y108.951 E15.7998
G1 F4800 E14.7998
G1 X127.872 Y108.536 F10800
G1 F4800 E15.7998
;segType:Perimeter
G1 X128.388 Y108.962 E15.8332 F2159
G1 X127.788 Y109.241 E15.8662
G1 X126.993 Y109.521 E15.9082
G1 X126.143 Y109.741 E15.9520
G1 X125.260 Y109.899 E15.9968
G1 X124.444 Y109.987 E16.0378
G1 X123.363 Y110.011 E16.0917
G1 X122.117 Y109.937 E16.1540
G1 X120.847 Y109.689 E16.2185
G1 X119.687 Y109.277 E16.2799
G1 X118.643 Y108.731 E16.3387
G1 X117.721 Y108.056 E16.3957
G1 X116.919 Y107.250 E16.4525
G1 X116.234 Y106.309 E16.5105
G1 X115.665 Y105.255 E16.5703
G1 X115.213 Y104.090 E16.6326
G1 X114.895 Y102.816 E16.6981
G1 X114.704 Y101.458 E16.7666
G1 X114.640 Y100.020 E16.8384
G1 X114.696 Y98.546 E16.9120
G1 X114.860 Y97.167 E16.9812
G1 X115.134 Y95.884 E17.0467
G1 X115.535 Y94.699 E17.1091
G1 X116.051 Y93.640 E17.1679
G1 X116.682 Y92.706 E17.2241
G1 X117.442 Y91.901 E17.2793
G1 X118.318 Y91.227 E17.3345
G1 X119.309 Y90.682 E17.3909
G1 X120.425 Y90.294 E17.4499
G1 X121.683 Y90.059 E17.5137
G1 X123.083 Y89.981 E17.5837
G1 X124.033 Y90.006 E17.6311
G1 X124.978 Y90.077 E17.6783
G1 X125.686 Y90.172 E17.7140
G1 X126.429 Y90.309 E17.7517
G1 X127.128 Y90.502 E17.7879
G1 X127.707 Y90.710 E17.8185
G1 X127.740 Y92.537 E17.9097
G1 X127.285 Y92.414 E17.9333
G1 X126.560 Y92.233 E17.9705
G1 X125.823 Y92.064 E18.0083
G1 X125.076 Y91.939 E18.0460
G1 X124.301 Y91.864 E18.0849
G1 X123.497 Y91.839 E18.1250
G1 X122.452 Y91.899 E18.1773
G1 X121.488 Y92.077 E18.2261
G1 X120.612 Y92.377 E18.2723
G1 X119.827 Y92.804 E18.3169
G1 X119.136 Y93.336 E18.3604
G1 X118.537 Y93.975 E18.4041
G1 X118.033 Y94.730 E18.4494
G1 X117.622 Y95.592 E18.4970
G1 X117.305 Y96.557 E18.5477
G1 X117.080 Y97.609 E18.6014
G1 X116.945 Y98.757 E18.6590
G1 X116.900 Y100.001 E18.7212
G1 X116.951 Y101.202 E18.7811
G1 X117.107 Y102.324 E18.8377
G1 X117.367 Y103.369 E18.8914
G1 X117.721 Y104.324 E18.9422
G1 X118.156 Y105.183 E18.9903
G1 X118.678 Y105.947 E19.0364
G1 X119.296 Y106.596 E19.0811
G1 X119.991 Y107.141 E19.1252
G1 X120.769 Y107.581 E19.1697
G1 X121.618 Y107.893 E19.2149
G1 X122.529 Y108.079 E19.2613
G1 X123.497 Y108.141 E19.3097
G1 X124.332 Y108.107 E19.3514
G1 X125.113 Y108.004 E19.3907
G1 X125.842 Y107.832 E19.4280
G1 X126.508 Y107.599 E19.4632
G1 X127.139 Y107.342 E19.4972
G1 X127.545 Y107.149 E19.5196
G1 X128.416 Y108.890 E19.6168
G1 X127.718 Y108.934
;segType:Infill
G1 X125.709 Y108.422 F10800
G1 X125.709 Y109.270 E19.6590 F5400
G1 X121.619 Y108.448 F10800
G1 X121.619 Y109.286 E19.7009 F5400
G1 X119.550 Y107.512 F10800
G1 X117.986 Y107.512 E19.7789 F5400
G1 X117.530 Y107.053 E19.8112
G1 X117.530 Y105.248 E19.9012
G1 X116.903 Y103.824 F10800
G1 X115.761 Y103.824 E19.9582 F5400
G1 X116.305 Y100.136 F10800
G1 X115.246 Y100.136 E20.0111 F5400
G1 X115.625 Y96.448 F10800
G1 X116.717 Y96.448 E20.0656 F5400
G1 X117.419 Y92.761 F10800
G1 X118.960 Y92.761 E20.1425 F5400
G1 X117.530 Y94.435 F10800
G1 X117.530 Y92.643 E20.2319 F5400
G1 X121.619 Y91.501 F10800
G1 X121.619 Y90.623 E20.2756 F5400
G1 X125.709 Y90.729 F10800
G1 X125.709 Y91.494 E20.3138 F5400
G1 F4800 E19.3138
G1 X122.994 Y98.078 F10800
G1 X122.089 Y100.272
G1 X121.184 Y102.466
G1 F4800 E20.3138
;segType:Loop
G1 X121.120 Y102.428 E20.3176 F3600
G1 X120.768 Y102.018 E20.3445
G1 X120.529 Y101.471 E20.3743
G1 X120.444 Y100.848 E20.4056
G1 X120.529 Y100.225 E20.4370
G1 X120.768 Y99.678 E20.4668
G1 X121.120 Y99.268 E20.4937
G1 X121.525 Y99.027 E20.5172
G1 X121.940 Y98.950 E20.5383
G1 X122.355 Y99.027 E20.5594
G1 X122.760 Y99.268 E20.5829
G1 X123.112 Y99.678 E20.6098
G1 X123.351 Y100.225 E20.6396
G1 X123.435 Y100.848 E20.6710
G1 X123.351 Y101.471 E20.7023
G1 X123.112 Y102.018 E20.7321
G1 X122.760 Y102.428 E20.7591
G1 X122.355 Y102.669 E20.7826
G1 X121.940 Y102.746 E20.8036
G1 X121.525 Y102.669 E20.8247
G1 X121.346 Y102.563 E20.8351
G1 F4800 E19.8351
G1 X122.325 Y102.615 F10800
G1 F4800 E20.8351
;segType:Perimeter
G1 X121.883 Y103.103 E20.8680 F2159
G1 X121.369 Y103.008 E20.8940
G1 X120.844 Y102.696 E20.9245
G1 X120.417 Y102.198 E20.9573
G1 X120.138 Y101.560 E20.9920
G1 X120.041 Y100.848 E21.0278
G1 X120.138 Y100.136 E21.0637
G1 X120.417 Y99.498 E21.0984
G1 X120.844 Y99.000 E21.1311
G1 X121.369 Y98.688 E21.1616
G1 X121.940 Y98.582 E21.1906
G1 X122.511 Y98.688 E21.2196
G1 X123.036 Y99.000 E21.2500
G1 X123.463 Y99.498 E21.2828
G1 X123.742 Y100.136 E21.3175
G1 X123.839 Y100.848 E21.3534
G1 X123.742 Y101.560 E21.3892
G1 X123.463 Y102.198 E21.4239
G1 X123.036 Y102.696 E21.4567
G1 X122.511 Y103.008 E21.4872
G1 X121.997 Y103.103 E21.5132
G1 X121.555 Y102.615
;segType:Infill
G1 X121.619 Y102.502 F10800
G1 X121.619 Y99.194 E21.6783 F5400
G1 X120.783 Y100.136 F10800
G1 X123.097 Y100.136 E21.7937 F5400
; ------------------------------------
; Layer #4
; ------------------------------------
G21 ; mm
G90 ; abs
G92 E0 ; reset extr
M106 S255
;segType:Loop
G1 F4800 E-1.0000
G1 F300 Z1.600
G1 X121.184 Y102.466 F10800
G1 F4800 E0.0000
G1 X121.120 Y102.428 E0.0037 F3600
G1 X120.768 Y102.018 E0.0307
G1 X120.529 Y101.471 E0.0605
G1 X120.444 Y100.848 E0.0918
G1 X120.529 Y100.225 E0.1232
G1 X120.768 Y99.678 E0.1530
G1 X121.120 Y99.268 E0.1799
G1 X121.525 Y99.027 E0.2034
G1 X121.940 Y98.950 E0.2245
G1 X122.355 Y99.027 E0.2456
G1 X122.760 Y99.268 E0.2691
G1 X123.112 Y99.678 E0.2960
G1 X123.351 Y100.225 E0.3258
G1 X123.435 Y100.848 E0.3572
G1 X123.351 Y101.471 E0.3885
G1 X123.112 Y102.018 E0.4183
G1 X122.760 Y102.428 E0.4453
G1 X122.355 Y102.669 E0.4688
G1 X121.940 Y102.746 E0.4898
G1 X121.525 Y102.669 E0.5109
G1 X121.346 Y102.563 E0.5213
G1 F4800 E-0.4787
G1 X122.325 Y102.615 F10800
G1 F4800 E0.5213
;segType:Perimeter
G1 X121.883 Y103.103 E0.5542 F2159
G1 X121.369 Y103.008 E0.5802
G1 X120.844 Y102.696 E0.6107
G1 X120.417 Y102.198 E0.6434
G1 X120.138 Y101.560 E0.6782
G1 X120.041 Y100.848 E0.7140
G1 X120.138 Y100.136 E0.7499
G1 X120.417 Y99.498 E0.7846
G1 X120.844 Y99.000 E0.8173
G1 X121.369 Y98.688 E0.8478
G1 X121.940 Y98.582 E0.8768
G1 X122.511 Y98.688 E0.9058
G1 X123.036 Y99.000 E0.9362
G1 X123.463 Y99.498 E0.9690
G1 X123.742 Y100.136 E1.0037
G1 X123.839 Y100.848 E1.0396
G1 X123.742 Y101.560 E1.0754
G1 X123.463 Y102.198 E1.1101
G1 X123.036 Y102.696 E1.1429
G1 X122.511 Y103.008 E1.1733
G1 X121.997 Y103.103 E1.1994
G1 X121.555 Y102.615
;segType:Infill
G1 X121.619 Y102.502 F10800
G1 X121.619 Y99.194 E1.3645 F5400
G1 X120.783 Y100.136 F10800
G1 X123.097 Y100.136 E1.4799 F5400
;segType:Loop
G1 F4800 E0.4799
G1 X135.588 Y98.821 F10800
G1 F4800 E1.4799
G1 X138.183 Y98.821 E1.6094 F3600
G1 X142.943 Y90.621 E2.0824
G1 X144.547 Y90.621 E2.1624
G1 X139.324 Y99.210 E2.6639
G1 X140.381 Y99.646 E2.7210
G1 X140.828 Y99.864 E2.7458
G1 X141.262 Y100.108 E2.7706
G1 X141.669 Y100.380 E2.7950
G1 X142.044 Y100.690 E2.8193
G1 X142.385 Y101.033 E2.8435
G1 X142.682 Y101.430 E2.8682
G1 X142.945 Y101.886 E2.8945
G1 X143.170 Y102.393 E2.9221
G1 X143.341 Y102.952 E2.9513
G1 X143.444 Y103.579 E2.9830
G1 X143.479 Y104.265 E3.0173
G1 X143.298 Y105.890 E3.0988
G1 X142.778 Y107.158 E3.1672
G1 X141.933 Y108.112 E3.2308
G1 X140.734 Y108.800 E3.2998
G1 X139.102 Y109.229 E3.3839
G1 X136.996 Y109.379 E3.4893
G1 X132.800 Y109.379 E3.6986
G1 X132.800 Y90.621 E4.6345
G1 X134.120 Y90.621 E4.7003
G1 X134.120 Y98.821 E5.1094
G1 X135.394 Y98.821 E5.1730
G1 X134.383 Y98.584 F10800
G1 X133.932 Y98.219
;segType:Perimeter
G1 X134.578 Y98.460 E5.2074 F2159
G1 X137.941 Y98.460 E5.3752
G1 X142.701 Y90.260 E5.8482
G1 X145.222 Y90.260 E5.9740
G1 X139.881 Y99.043 E6.4869
G1 X140.560 Y99.323 E6.5235
G1 X141.028 Y99.552 E6.5495
G1 X141.487 Y99.809 E6.5757
G1 X141.923 Y100.101 E6.6019
G1 X142.329 Y100.436 E6.6282
G1 X142.702 Y100.811 E6.6545
G1 X143.026 Y101.245 E6.6816
G1 X143.309 Y101.735 E6.7098
G1 X143.550 Y102.278 E6.7394
G1 X143.733 Y102.877 E6.7707
G1 X143.843 Y103.544 E6.8044
G1 X143.880 Y104.275 E6.8409
G1 X143.691 Y105.972 E6.9261
G1 X143.131 Y107.337 E6.9997
G1 X142.204 Y108.384 E7.0695
G1 X140.901 Y109.132 E7.1445
G1 X139.175 Y109.586 E7.2335
G1 X137.012 Y109.740 E7.3416
G1 X132.400 Y109.740 E7.5718
G1 X132.400 Y90.260 E8.5436
G1 X134.520 Y90.260 E8.6494
G1 X134.520 Y98.408 E9.0559
G1 X134.788 Y98.990
G1 X134.383 Y100.116 F10800
G1 X134.120 Y106.977
;segType:Loop
G1 X134.120 Y99.879 E9.4100 F3600
G1 X136.932 Y99.879 E9.5502
G1 X137.731 Y99.907 E9.5901
G1 X138.471 Y99.995 E9.6273
G1 X139.139 Y100.142 E9.6614
G1 X139.752 Y100.352 E9.6938
G1 X140.298 Y100.626 E9.7242
G1 X140.778 Y100.968 E9.7536
G1 X141.176 Y101.387 E9.7825
G1 X141.452 Y101.805 E9.8075
G1 X141.686 Y102.311 E9.8353
G1 X141.885 Y102.994 E9.8708
G1 X141.973 Y103.597 E9.9012
G1 X142.001 Y104.160 E9.9293
G1 X141.967 Y104.833 E9.9629
G1 X141.864 Y105.449 E9.9941
G1 X141.684 Y106.009 E10.0234
G1 X141.429 Y106.509 E10.0514
G1 X141.099 Y106.952 E10.0790
G1 X140.695 Y107.330 E10.1066
G1 X140.205 Y107.651 E10.1358
G1 X139.649 Y107.902 E10.1662
G1 X139.034 Y108.084 E10.1982
G1 X138.366 Y108.206 E10.2321
G1 X137.643 Y108.278 E10.2684
G1 X136.870 Y108.301 E10.3070
G1 X134.120 Y108.301 E10.4441
G1 X134.120 Y107.152 E10.5015
G1 X134.326 Y107.940 F10800
G1 X134.788 Y108.470
;segType:Perimeter
G1 X134.520 Y107.888 E10.5334 F2159
G1 X134.520 Y100.240 E10.9150
G1 X136.924 Y100.240 E11.0349
G1 X137.697 Y100.267 E11.0735
G1 X138.397 Y100.350 E11.1087
G1 X139.020 Y100.487 E11.1405
G1 X139.583 Y100.680 E11.1702
G1 X140.075 Y100.927 E11.1977
G1 X140.499 Y101.229 E11.2237
G1 X140.850 Y101.598 E11.2491
G1 X141.094 Y101.968 E11.2711
G1 X141.306 Y102.427 E11.2964
G1 X141.491 Y103.064 E11.3295
G1 X141.574 Y103.629 E11.3580
G1 X141.600 Y104.160 E11.3845
G1 X141.568 Y104.797 E11.4163
G1 X141.472 Y105.372 E11.4454
G1 X141.308 Y105.883 E11.4722
G1 X141.079 Y106.332 E11.4973
G1 X140.787 Y106.725 E11.5217
G1 X140.432 Y107.057 E11.5460
G1 X139.997 Y107.342 E11.5719
G1 X139.496 Y107.567 E11.5993
G1 X138.931 Y107.735 E11.6287
G1 X138.304 Y107.849 E11.6606
G1 X137.614 Y107.918 E11.6951
G1 X136.863 Y107.940 E11.7326
G1 X134.578 Y107.940 E11.8466
G1 X133.932 Y107.699
;segType:Infill
G1 X133.920 Y107.512 F10800
G1 X133.000 Y107.512 E11.8925 F5400
G1 X133.920 Y103.824 F10800
G1 X133.000 Y103.824 E11.9384 F5400
G1 X133.000 Y100.136 F10800
G1 X133.920 Y100.136 E11.9843 F5400
G1 X137.978 Y99.755 F10800
G1 X137.978 Y99.001 E12.0219 F5400
G1 X140.934 Y100.136 F10800
G1 X139.685 Y100.136 E12.0842 F5400
G1 X142.067 Y102.892 F10800
G1 X142.067 Y100.984 E12.1794 F5400
G1 X139.697 Y99.098 F10800
G1 X140.775 Y96.448
G1 X139.786 Y96.448 E12.2287 F5400
G1 X143.018 Y92.761 F10800
G1 X141.927 Y92.761 E12.2832 F5400
G1 X142.067 Y94.323 F10800
G1 X142.067 Y92.519 E12.3732 F5400
G1 X138.042 Y98.610 F10800
G1 X134.383 Y98.584
G1 X133.920 Y96.448
G1 X133.000 Y96.448 E12.4191 F5400
G1 X133.000 Y92.761 F10800
G1 X133.920 Y92.761 E12.4650 F5400
G1 X133.888 Y90.801 F10800
G1 X133.888 Y109.199 E13.3828 F5400
G1 X137.978 Y109.128 F10800
G1 X137.978 Y108.426 E13.4179 F5400
G1 X140.757 Y107.512 F10800
G1 X142.208 Y107.512 E13.4903 F5400
G1 X143.256 Y103.824 F10800
G1 X142.184 Y103.824 E13.5437 F5400
G1 X142.067 Y107.671 F10800
G1 X142.067 Y105.441 E13.6550 F5400
G1 F4800 E12.6550
G1 X140.814 Y107.453 F10800
G1 X137.656 Y108.442
G1 X129.531 Y108.437
G1 X127.328 Y109.019
G1 F4800 E13.6550
;segType:Loop
G1 X126.946 Y109.158 E13.6753 F3600
G1 X126.134 Y109.375 E13.7172
G1 X125.287 Y109.532 E13.7602
G1 X124.411 Y109.627 E13.8042
G1 X123.508 Y109.658 E13.8492
G1 X122.173 Y109.579 E13.9160
G1 X120.964 Y109.342 E13.9774
G1 X119.862 Y108.951 E14.0358
G1 X118.871 Y108.433 E14.0916
G1 X117.997 Y107.794 E14.1456
G1 X117.237 Y107.029 E14.1994
G1 X116.583 Y106.130 E14.2548
G1 X116.035 Y105.116 E14.3124
G1 X115.598 Y103.991 E14.3726
G1 X115.290 Y102.753 E14.4362
G1 X115.103 Y101.428 E14.5030
G1 X115.040 Y100.018 E14.5733
G1 X115.095 Y98.571 E14.6456
G1 X115.256 Y97.220 E14.7135
G1 X115.523 Y95.971 E14.7772
G1 X115.911 Y94.825 E14.8376
G1 X116.406 Y93.807 E14.8941
G1 X117.007 Y92.918 E14.9476
G1 X117.726 Y92.156 E14.9998
G1 X118.553 Y91.520 E15.0519
G1 X119.486 Y91.007 E15.1050
G1 X120.539 Y90.641 E15.1606
G1 X121.736 Y90.418 E15.2214
G1 X123.090 Y90.342 E15.2890
G1 X124.011 Y90.366 E15.3350
G1 X124.942 Y90.437 E15.3816
G1 X125.607 Y90.526 E15.4151
G1 X126.321 Y90.657 E15.4513
G1 X126.987 Y90.840 E15.4857
G1 X127.340 Y90.967 E15.5045
G1 X127.340 Y92.054 E15.5587
G1 X126.663 Y91.884 E15.5935
G1 X125.909 Y91.711 E15.6321
G1 X125.134 Y91.582 E15.6713
G1 X124.329 Y91.504 E15.7116
G1 X123.491 Y91.478 E15.7535
G1 X122.398 Y91.541 E15.8081
G1 X121.376 Y91.730 E15.8599
G1 X120.436 Y92.051 E15.9095
G1 X119.592 Y92.511 E15.9574
G1 X118.851 Y93.081 E16.0041
G1 X118.211 Y93.764 E16.0508
G1 X117.676 Y94.565 E16.0989
G1 X117.246 Y95.469 E16.1488
G1 X116.916 Y96.472 E16.2014
G1 X116.684 Y97.556 E16.2568
G1 X116.545 Y98.731 E16.3158
G1 X116.500 Y100.002 E16.3792
G1 X116.552 Y101.231 E16.4406
G1 X116.712 Y102.386 E16.4988
G1 X116.981 Y103.465 E16.5543
G1 X117.348 Y104.457 E16.6070
G1 X117.803 Y105.353 E16.6572
G1 X118.354 Y106.160 E16.7059
G1 X119.011 Y106.851 E16.7535
G1 X119.753 Y107.432 E16.8005
G1 X120.585 Y107.903 E16.8482
G1 X121.497 Y108.238 E16.8967
G1 X122.470 Y108.437 E16.9462
G1 X123.492 Y108.502 E16.9973
G1 X124.370 Y108.466 E17.0412
G1 X125.193 Y108.358 E17.0826
G1 X125.965 Y108.176 E17.1222
G1 X126.663 Y107.932 E17.1590
G1 X127.355 Y107.647 E17.1964
G1 X127.921 Y108.779 E17.2595
G1 X127.699 Y108.884 E17.2718
G1 X127.508 Y108.954 E17.2819
G1 F4800 E16.2819
G1 X127.872 Y108.539 F10800
G1 F4800 E17.2819
;segType:Perimeter
G1 X128.389 Y108.964 E17.3153 F2159
G1 X127.867 Y109.212 E17.3441
G1 X127.078 Y109.499 E17.3860
G1 X126.231 Y109.725 E17.4297
G1 X125.352 Y109.889 E17.4744
G1 X124.442 Y109.987 E17.5200
G1 X123.503 Y110.019 E17.5669
G1 X122.117 Y109.937 E17.6362
G1 X120.847 Y109.689 E17.7007
G1 X119.687 Y109.277 E17.7621
G1 X118.643 Y108.731 E17.8209
G1 X117.721 Y108.056 E17.8779
G1 X116.919 Y107.250 E17.9347
G1 X116.234 Y106.309 E17.9927
G1 X115.665 Y105.255 E18.0525
G1 X115.213 Y104.090 E18.1148
G1 X114.895 Y102.816 E18.1803
G1 X114.704 Y101.458 E18.2488
G1 X114.640 Y100.020 E18.3206
G1 X114.696 Y98.546 E18.3942
G1 X114.860 Y97.167 E18.4634
G1 X115.134 Y95.884 E18.5289
G1 X115.535 Y94.699 E18.5913
G1 X116.051 Y93.640 E18.6501
G1 X116.682 Y92.706 E18.7063
G1 X117.442 Y91.901 E18.7615
G1 X118.318 Y91.227 E18.8167
G1 X119.309 Y90.682 E18.8731
G1 X120.425 Y90.294 E18.9321
G1 X121.683 Y90.059 E18.9959
G1 X123.083 Y89.981 E19.0659
G1 X124.034 Y90.006 E19.1133
G1 X124.988 Y90.078 E19.1611
G1 X125.676 Y90.170 E19.1957
G1 X126.420 Y90.307 E19.2334
G1 X127.119 Y90.500 E19.2696
G1 X127.740 Y90.722 E19.3025
G1 X127.740 Y92.538 E19.3931
G1 X127.285 Y92.414 E19.4166
G1 X126.560 Y92.233 E19.4539
G1 X125.823 Y92.064 E19.4916
G1 X125.076 Y91.939 E19.5294
G1 X124.301 Y91.864 E19.5682
G1 X123.497 Y91.839 E19.6084
G1 X122.452 Y91.899 E19.6606
G1 X121.488 Y92.077 E19.7095
G1 X120.612 Y92.377 E19.7557
G1 X119.827 Y92.804 E19.8003
G1 X119.136 Y93.336 E19.8438
G1 X118.537 Y93.975 E19.8875
G1 X118.033 Y94.730 E19.9328
G1 X117.622 Y95.592 E19.9804
G1 X117.305 Y96.557 E20.0311
G1 X117.080 Y97.609 E20.0848
G1 X116.945 Y98.757 E20.1424
G1 X116.900 Y100.001 E20.2045
G1 X116.951 Y101.202 E20.2645
G1 X117.107 Y102.324 E20.3210
G1 X117.367 Y103.369 E20.3747
G1 X117.721 Y104.324 E20.4256
G1 X118.156 Y105.183 E20.4736
G1 X118.678 Y105.947 E20.5198
G1 X119.296 Y106.596 E20.5645
G1 X119.991 Y107.141 E20.6086
G1 X120.769 Y107.581 E20.6531
G1 X121.618 Y107.893 E20.6983
G1 X122.529 Y108.079 E20.7446
G1 X123.497 Y108.141 E20.7931
G1 X124.332 Y108.107 E20.8347
G1 X125.113 Y108.004 E20.8740
G1 X125.842 Y107.832 E20.9114
G1 X126.508 Y107.599 E20.9466
G1 X127.139 Y107.342 E20.9806
G1 X127.545 Y107.149 E21.0030
G1 X128.416 Y108.892 E21.1002
G1 X127.719 Y108.940
;segType:Infill
G1 X125.709 Y108.422 F10800
G1 X125.709 Y109.268 E21.1424 F5400
G1 X121.619 Y108.448 F10800
G1 X121.619 Y109.286 E21.1843 F5400
G1 X119.550 Y107.512 F10800
G1 X117.986 Y107.512 E21.2623 F5400
G1 X117.530 Y107.053 E21.2946
G1 X117.530 Y105.248 E21.3846
G1 X116.903 Y103.824 F10800
G1 X115.761 Y103.824 E21.4416 F5400
G1 X116.305 Y100.136 F10800
G1 X115.246 Y100.136 E21.4945 F5400
G1 X115.625 Y96.448 F10800
G1 X116.717 Y96.448 E21.5490 F5400
G1 X117.419 Y92.761 F10800
G1 X118.960 Y92.761 E21.6259 F5400
G1 X117.530 Y94.435 F10800
G1 X117.530 Y92.643 E21.7153 F5400
G1 X121.619 Y91.501 F10800
G1 X121.619 Y90.623 E21.7590 F5400
G1 X125.709 Y90.729 F10800
G1 X125.709 Y91.494 E21.7972 F5400
; ------------------------------------
; Layer #5
; ------------------------------------
G21 ; mm
G90 ; abs
G92 E0 ; reset extr
M106 S255
G1 F4800 E-1.0000
G1 F300 Z1.900
G1 X121.326 Y91.572 F10800
G1 X118.723 Y92.966
G1 X117.074 Y95.413
G1 X116.317 Y100.002
G1 X117.179 Y104.517
G1 X118.882 Y106.967
G1 X121.443 Y108.394
G1 X127.328 Y109.019
G1 F4800 E0.0000
;segType:Loop
G1 X126.946 Y109.158 E0.0203 F3600
G1 X126.134 Y109.375 E0.0622
G1 X125.287 Y109.532 E0.1052
G1 X124.411 Y109.627 E0.1491
G1 X123.508 Y109.658 E0.1942
G1 X122.173 Y109.579 E0.2610
G1 X120.964 Y109.342 E0.3224
G1 X119.862 Y108.951 E0.3807
G1 X118.871 Y108.433 E0.4365
G1 X117.997 Y107.794 E0.4905
G1 X117.237 Y107.029 E0.5443
G1 X116.583 Y106.130 E0.5998
G1 X116.035 Y105.116 E0.6573
G1 X115.598 Y103.991 E0.7175
G1 X115.290 Y102.753 E0.7812
G1 X115.103 Y101.428 E0.8479
G1 X115.040 Y100.018 E0.9183
G1 X115.095 Y98.571 E0.9906
G1 X115.256 Y97.220 E1.0585
G1 X115.523 Y95.971 E1.1222
G1 X115.911 Y94.825 E1.1826
G1 X116.406 Y93.807 E1.2390
G1 X117.007 Y92.918 E1.2926
G1 X117.726 Y92.156 E1.3448
G1 X118.553 Y91.520 E1.3969
G1 X119.486 Y91.007 E1.4500
G1 X120.539 Y90.641 E1.5056
G1 X121.736 Y90.418 E1.5664
G1 X123.090 Y90.342 E1.6340
G1 X124.012 Y90.366 E1.6801
G1 X124.952 Y90.438 E1.7271
G1 X125.597 Y90.524 E1.7596
G1 X126.313 Y90.655 E1.7958
G1 X126.978 Y90.838 E1.8303
G1 X127.340 Y90.967 E1.8495
G1 X127.340 Y92.054 E1.9036
G1 X126.663 Y91.884 E1.9385
G1 X125.909 Y91.711 E1.9771
G1 X125.134 Y91.582 E2.0163
G1 X124.329 Y91.504 E2.0566
G1 X123.491 Y91.478 E2.0984
G1 X122.398 Y91.541 E2.1530
G1 X121.376 Y91.730 E2.2049
G1 X120.436 Y92.051 E2.2545
G1 X119.592 Y92.511 E2.3024
G1 X118.851 Y93.081 E2.3491
G1 X118.211 Y93.764 E2.3958
G1 X117.676 Y94.565 E2.4438
G1 X117.246 Y95.469 E2.4938
G1 X116.916 Y96.472 E2.5464
G1 X116.684 Y97.556 E2.6017
G1 X116.545 Y98.731 E2.6608
G1 X116.500 Y100.002 E2.7242
G1 X116.552 Y101.231 E2.7856
G1 X116.712 Y102.386 E2.8438
G1 X116.981 Y103.465 E2.8993
G1 X117.348 Y104.457 E2.9520
G1 X117.803 Y105.353 E3.0022
G1 X118.354 Y106.160 E3.0509
G1 X119.011 Y106.851 E3.0985
G1 X119.753 Y107.432 E3.1455
G1 X120.585 Y107.903 E3.1932
G1 X121.497 Y108.238 E3.2417
G1 X122.470 Y108.437 E3.2912
G1 X123.492 Y108.502 E3.3423
G1 X124.370 Y108.466 E3.3861
G1 X125.193 Y108.358 E3.4275
G1 X125.965 Y108.176 E3.4671
G1 X126.663 Y107.932 E3.5040
G1 X127.355 Y107.647 E3.5414
G1 X127.921 Y108.779 E3.6045
G1 X127.699 Y108.884 E3.6168
G1 X127.508 Y108.954 E3.6269
G1 F4800 E2.6269
G1 X127.872 Y108.539 F10800
G1 F4800 E3.6269
;segType:Perimeter
G1 X128.389 Y108.964 E3.6603 F2159
G1 X127.867 Y109.212 E3.6891
G1 X127.078 Y109.499 E3.7310
G1 X126.231 Y109.725 E3.7747
G1 X125.352 Y109.889 E3.8193
G1 X124.442 Y109.987 E3.8650
G1 X123.503 Y110.019 E3.9119
G1 X122.117 Y109.937 E3.9811
G1 X120.847 Y109.689 E4.0457
G1 X119.687 Y109.277 E4.1071
G1 X118.643 Y108.731 E4.1659
G1 X117.721 Y108.056 E4.2229
G1 X116.919 Y107.250 E4.2796
G1 X116.234 Y106.309 E4.3377
G1 X115.665 Y105.255 E4.3975
G1 X115.213 Y104.090 E4.4598
G1 X114.895 Y102.816 E4.5253
G1 X114.704 Y101.458 E4.5937
G1 X114.640 Y100.020 E4.6655
G1 X114.696 Y98.546 E4.7391
G1 X114.860 Y97.167 E4.8084
G1 X115.134 Y95.884 E4.8739
G1 X115.535 Y94.699 E4.9363
G1 X116.051 Y93.640 E4.9950
G1 X116.682 Y92.706 E5.0513
G1 X117.442 Y91.901 E5.1065
G1 X118.318 Y91.227 E5.1617
G1 X119.309 Y90.682 E5.2181
G1 X120.425 Y90.294 E5.2771
G1 X121.683 Y90.059 E5.3408
G1 X123.083 Y89.981 E5.4108
G1 X124.035 Y90.006 E5.4583
G1 X124.998 Y90.079 E5.5065
G1 X125.666 Y90.169 E5.5402
G1 X126.411 Y90.305 E5.5779
G1 X127.111 Y90.497 E5.6141
G1 X127.740 Y90.722 E5.6475
G1 X127.740 Y92.538 E5.7380
G1 X127.285 Y92.414 E5.7616
G1 X126.560 Y92.233 E5.7988
G1 X125.823 Y92.064 E5.8366
G1 X125.076 Y91.939 E5.8744
G1 X124.301 Y91.864 E5.9132
G1 X123.497 Y91.839 E5.9533
G1 X122.452 Y91.899 E6.0056
G1 X121.488 Y92.077 E6.0545
G1 X120.612 Y92.377 E6.1007
G1 X119.827 Y92.804 E6.1453
G1 X119.136 Y93.336 E6.1888
G1 X118.537 Y93.975 E6.2324
G1 X118.033 Y94.730 E6.2778
G1 X117.622 Y95.592 E6.3254
G1 X117.305 Y96.557 E6.3761
G1 X117.080 Y97.609 E6.4297
G1 X116.945 Y98.757 E6.4874
G1 X116.900 Y100.001 E6.5495
G1 X116.951 Y101.202 E6.6095
G1 X117.107 Y102.324 E6.6660
G1 X117.367 Y103.369 E6.7197
G1 X117.721 Y104.324 E6.7705
G1 X118.156 Y105.183 E6.8186
G1 X118.678 Y105.947 E6.8647
G1 X119.296 Y106.596 E6.9094
G1 X119.991 Y107.141 E6.9535
G1 X120.769 Y107.581 E6.9981
G1 X121.618 Y107.893 E7.0432
G1 X122.529 Y108.079 E7.0896
G1 X123.497 Y108.141 E7.1380
G1 X124.332 Y108.107 E7.1797
G1 X125.113 Y108.004 E7.2190
G1 X125.842 Y107.832 E7.2563
G1 X126.508 Y107.599 E7.2916
G1 X127.139 Y107.342 E7.3255
G1 X127.545 Y107.149 E7.3480
G1 X128.416 Y108.892 E7.4452
G1 X127.719 Y108.940
;segType:Infill
G1 X125.709 Y108.422 F10800
G1 X125.709 Y109.270 E7.4875 F5400
G1 X121.619 Y108.448 F10800
G1 X121.619 Y109.286 E7.5293 F5400
G1 X119.550 Y107.512 F10800
G1 X117.986 Y107.512 E7.6073 F5400
G1 X117.530 Y107.053 E7.6396
G1 X117.530 Y105.248 E7.7296
G1 X116.903 Y103.824 F10800
G1 X115.761 Y103.824 E7.7866 F5400
G1 X116.305 Y100.136 F10800
G1 X115.246 Y100.136 E7.8395 F5400
G1 X115.625 Y96.448 F10800
G1 X116.717 Y96.448 E7.8940 F5400
G1 X117.419 Y92.761 F10800
G1 X118.960 Y92.761 E7.9709 F5400
G1 X117.530 Y94.435 F10800
G1 X117.530 Y92.643 E8.0603 F5400
G1 X121.619 Y91.501 F10800
G1 X121.619 Y90.623 E8.1040 F5400
G1 X125.709 Y90.729 F10800
G1 X125.709 Y91.494 E8.1422 F5400
G1 F4800 E7.1422
G1 X133.937 Y98.029 F10800
G1 X135.588 Y98.821
G1 F4800 E8.1422
;segType:Loop
G1 X138.183 Y98.821 E8.2717 F3600
G1 X142.943 Y90.621 E8.7447
G1 X144.547 Y90.621 E8.8247
G1 X139.324 Y99.210 E9.3262
G1 X140.381 Y99.646 E9.3833
G1 X140.828 Y99.864 E9.4081
G1 X141.262 Y100.108 E9.4329
G1 X141.669 Y100.380 E9.4573
G1 X142.044 Y100.690 E9.4816
G1 X142.385 Y101.033 E9.5058
G1 X142.682 Y101.430 E9.5305
G1 X142.945 Y101.886 E9.5568
G1 X143.170 Y102.393 E9.5844
G1 X143.341 Y102.952 E9.6136
G1 X143.444 Y103.579 E9.6453
G1 X143.479 Y104.265 E9.6796
G1 X143.298 Y105.890 E9.7611
G1 X142.778 Y107.158 E9.8295
G1 X141.933 Y108.112 E9.8931
G1 X140.734 Y108.800 E9.9620
G1 X139.102 Y109.229 E10.0462
G1 X136.996 Y109.379 E10.1516
G1 X132.800 Y109.379 E10.3609
G1 X132.800 Y90.621 E11.2968
G1 X134.120 Y90.621 E11.3626
G1 X134.120 Y98.821 E11.7717
G1 X135.394 Y98.821 E11.8353
G1 X134.383 Y98.584 F10800
G1 X133.932 Y98.219
;segType:Perimeter
G1 X134.578 Y98.460 E11.8697 F2159
G1 X137.941 Y98.460 E12.0375
G1 X142.701 Y90.260 E12.5105
G1 X145.222 Y90.260 E12.6363
G1 X139.881 Y99.043 E13.1492
G1 X140.560 Y99.323 E13.1858
G1 X141.028 Y99.552 E13.2118
G1 X141.487 Y99.809 E13.2380
G1 X141.923 Y100.101 E13.2642
G1 X142.329 Y100.436 E13.2904
G1 X142.702 Y100.811 E13.3168
G1 X143.026 Y101.245 E13.3439
G1 X143.309 Y101.735 E13.3721
G1 X143.550 Y102.278 E13.4017
G1 X143.733 Y102.877 E13.4330
G1 X143.843 Y103.544 E13.4667
G1 X143.880 Y104.275 E13.5032
G1 X143.691 Y105.972 E13.5884
G1 X143.131 Y107.337 E13.6620
G1 X142.204 Y108.384 E13.7318
G1 X140.901 Y109.132 E13.8068
G1 X139.175 Y109.586 E13.8958
G1 X137.012 Y109.740 E14.0039
G1 X132.400 Y109.740 E14.2340
G1 X132.400 Y90.260 E15.2059
G1 X134.520 Y90.260 E15.3117
G1 X134.520 Y98.408 E15.7181
G1 X134.788 Y98.990
G1 X134.383 Y100.116 F10800
G1 X134.120 Y106.977
;segType:Loop
G1 X134.120 Y99.879 E16.0723 F3600
G1 X136.932 Y99.879 E16.2125
G1 X137.731 Y99.907 E16.2524
G1 X138.471 Y99.995 E16.2896
G1 X139.139 Y100.142 E16.3237
G1 X139.752 Y100.352 E16.3560
G1 X140.298 Y100.626 E16.3865
G1 X140.778 Y100.968 E16.4159
G1 X141.176 Y101.387 E16.4448
G1 X141.445 Y101.794 E16.4691
G1 X141.680 Y102.299 E16.4969
G1 X141.887 Y103.008 E16.5337
G1 X141.974 Y103.613 E16.5642
G1 X142.001 Y104.160 E16.5915
G1 X141.967 Y104.833 E16.6251
G1 X141.864 Y105.449 E16.6563
G1 X141.684 Y106.009 E16.6857
G1 X141.429 Y106.509 E16.7137
G1 X141.099 Y106.952 E16.7412
G1 X140.695 Y107.330 E16.7688
G1 X140.205 Y107.651 E16.7981
G1 X139.649 Y107.902 E16.8285
G1 X139.034 Y108.084 E16.8605
G1 X138.366 Y108.206 E16.8944
G1 X137.643 Y108.278 E16.9306
G1 X136.870 Y108.301 E16.9692
G1 X134.120 Y108.301 E17.1064
G1 X134.120 Y107.152 E17.1637
G1 X134.326 Y107.940 F10800
G1 X134.788 Y108.470
;segType:Perimeter
G1 X134.520 Y107.888 E17.1957 F2159
G1 X134.520 Y100.240 E17.5773
G1 X136.924 Y100.240 E17.6972
G1 X137.697 Y100.267 E17.7358
G1 X138.397 Y100.350 E17.7710
G1 X139.020 Y100.487 E17.8028
G1 X139.583 Y100.680 E17.8325
G1 X140.075 Y100.927 E17.8600
G1 X140.499 Y101.229 E17.8859
G1 X140.850 Y101.598 E17.9113
G1 X141.087 Y101.957 E17.9328
G1 X141.301 Y102.415 E17.9580
G1 X141.494 Y103.077 E17.9924
G1 X141.575 Y103.644 E18.0210
G1 X141.600 Y104.160 E18.0467
G1 X141.568 Y104.797 E18.0786
G1 X141.472 Y105.372 E18.1076
G1 X141.308 Y105.883 E18.1344
G1 X141.079 Y106.332 E18.1596
G1 X140.787 Y106.725 E18.1840
G1 X140.432 Y107.057 E18.2082
G1 X139.997 Y107.342 E18.2342
G1 X139.496 Y107.567 E18.2616
G1 X138.931 Y107.735 E18.2910
G1 X138.304 Y107.849 E18.3228
G1 X137.614 Y107.918 E18.3574
G1 X136.863 Y107.940 E18.3949
G1 X134.578 Y107.940 E18.5088
G1 X133.932 Y107.699
;segType:Infill
G1 X133.920 Y107.512 F10800
G1 X133.000 Y107.512 E18.5547 F5400
G1 X133.920 Y103.824 F10800
G1 X133.000 Y103.824 E18.6006 F5400
G1 X133.000 Y100.136 F10800
G1 X133.920 Y100.136 E18.6466 F5400
G1 X137.978 Y99.755 F10800
G1 X137.978 Y99.001 E18.6841 F5400
G1 X140.934 Y100.136 F10800
G1 X139.685 Y100.136 E18.7464 F5400
G1 X142.067 Y102.897 F10800
G1 X142.067 Y100.984 E18.8419 F5400
G1 X139.697 Y99.098 F10800
G1 X140.775 Y96.448
G1 X139.786 Y96.448 E18.8912 F5400
G1 X143.018 Y92.761 F10800
G1 X141.927 Y92.761 E18.9457 F5400
G1 X142.067 Y94.323 F10800
G1 X142.067 Y92.519 E19.0357 F5400
G1 X138.042 Y98.610 F10800
G1 X134.383 Y98.584
G1 X133.920 Y96.448
G1 X133.000 Y96.448 E19.0816 F5400
G1 X133.000 Y92.761 F10800
G1 X133.920 Y92.761 E19.1275 F5400
G1 X133.888 Y90.801 F10800
G1 X133.888 Y109.199 E20.0453 F5400
G1 X137.978 Y109.128 F10800
G1 X137.978 Y108.426 E20.0804 F5400
G1 X140.757 Y107.512 F10800
G1 X142.208 Y107.512 E20.1528 F5400
G1 X143.256 Y103.824 F10800
G1 X142.184 Y103.824 E20.2062 F5400
G1 X142.067 Y107.671 F10800
G1 X142.067 Y105.441 E20.3175 F5400
G1 F4800 E19.3175
G1 X140.814 Y107.453 F10800
G1 X137.656 Y108.442
G1 X134.108 Y108.312
G1 X123.735 Y102.846
G1 X121.184 Y102.466
G1 F4800 E20.3175
;segType:Loop
G1 X121.120 Y102.428 E20.3213 F3600
G1 X120.768 Y102.018 E20.3482
G1 X120.529 Y101.471 E20.3780
G1 X120.444 Y100.848 E20.4094
G1 X120.529 Y100.225 E20.4407
G1 X120.768 Y99.678 E20.4705
G1 X121.120 Y99.268 E20.4974
G1 X121.525 Y99.027 E20.5210
G1 X121.940 Y98.950 E20.5420
G1 X122.355 Y99.027 E20.5631
G1 X122.760 Y99.268 E20.5866
G1 X123.112 Y99.678 E20.6136
G1 X123.351 Y100.225 E20.6433
G1 X123.435 Y100.848 E20.6747
G1 X123.351 Y101.471 E20.7061
G1 X123.112 Y102.018 E20.7358
G1 X122.760 Y102.428 E20.7628
G1 X122.355 Y102.669 E20.7863
G1 X121.940 Y102.746 E20.8074
G1 X121.525 Y102.669 E20.8284
G1 X121.346 Y102.563 E20.8388
G1 F4800 E19.8388
G1 X122.325 Y102.615 F10800
G1 F4800 E20.8388
;segType:Perimeter
G1 X121.883 Y103.103 E20.8717 F2159
G1 X121.369 Y103.008 E20.8978
G1 X120.844 Y102.696 E20.9282
G1 X120.417 Y102.198 E20.9610
G1 X120.138 Y101.560 E20.9957
G1 X120.041 Y100.848 E21.0315
G1 X120.138 Y100.136 E21.0674
G1 X120.417 Y99.498 E21.1021
G1 X120.844 Y99.000 E21.1349
G1 X121.369 Y98.688 E21.1653
G1 X121.940 Y98.582 E21.1943
G1 X122.511 Y98.688 E21.2233
G1 X123.036 Y99.000 E21.2538
G1 X123.463 Y99.498 E21.2865
G1 X123.742 Y100.136 E21.3212
G1 X123.839 Y100.848 E21.3571
G1 X123.742 Y101.560 E21.3929
G1 X123.463 Y102.198 E21.4277
G1 X123.036 Y102.696 E21.4604
G1 X122.511 Y103.008 E21.4909
G1 X121.997 Y103.103 E21.5169
G1 X121.555 Y102.615
;segType:Infill
G1 X121.619 Y102.502 F10800
G1 X121.619 Y99.194 E21.6820 F5400
G1 X120.783 Y100.136 F10800
G1 X123.097 Y100.136 E21.7975 F5400
; ------------------------------------
; Layer #6
; ------------------------------------
G21 ; mm
G90 ; abs
G92 E0 ; reset extr
M106 S255
;segType:Loop
G1 F4800 E-1.0000
G1 F300 Z2.200
G1 X121.184 Y102.466 F10800
G1 F4800 E0.0000
G1 X121.120 Y102.428 E0.0037 F3600
G1 X120.768 Y102.018 E0.0307
G1 X120.529 Y101.471 E0.0605
G1 X120.444 Y100.848 E0.0918
G1 X120.529 Y100.225 E0.1232
G1 X120.768 Y99.678 E0.1530
G1 X121.120 Y99.268 E0.1799
G1 X121.525 Y99.027 E0.2034
G1 X121.940 Y98.950 E0.2245
G1 X122.355 Y99.027 E0.2456
G1 X122.760 Y99.268 E0.2691
G1 X123.112 Y99.678 E0.2960
G1 X123.351 Y100.225 E0.3258
G1 X123.435 Y100.848 E0.3572
G1 X123.351 Y101.471 E0.3885
G1 X123.112 Y102.018 E0.4183
G1 X122.760 Y102.428 E0.4453
G1 X122.355 Y102.669 E0.4688
G1 X121.940 Y102.746 E0.4898
G1 X121.525 Y102.669 E0.5109
G1 X121.346 Y102.563 E0.5213
G1 F4800 E-0.4787
G1 X122.325 Y102.615 F10800
G1 F4800 E0.5213
;segType:Perimeter
G1 X121.883 Y103.103 E0.5542 F2159
G1 X121.369 Y103.008 E0.5802
G1 X120.844 Y102.696 E0.6107
G1 X120.417 Y102.198 E0.6434
G1 X120.138 Y101.560 E0.6782
G1 X120.041 Y100.848 E0.7140
G1 X120.138 Y100.136 E0.7499
G1 X120.417 Y99.498 E0.7846
G1 X120.844 Y99.000 E0.8173
G1 X121.369 Y98.688 E0.8478
G1 X121.940 Y98.582 E0.8768
G1 X122.511 Y98.688 E0.9058
G1 X123.036 Y99.000 E0.9362
G1 X123.463 Y99.498 E0.9690
G1 X123.742 Y100.136 E1.0037
G1 X123.839 Y100.848 E1.0396
G1 X123.742 Y101.560 E1.0754
G1 X123.463 Y102.198 E1.1101
G1 X123.036 Y102.696 E1.1429
G1 X122.511 Y103.008 E1.1733
G1 X121.997 Y103.103 E1.1994
G1 X121.555 Y102.615
;segType:Infill
G1 X121.619 Y102.502 F10800
G1 X121.619 Y99.194 E1.3645 F5400
G1 X120.783 Y100.136 F10800
G1 X123.097 Y100.136 E1.4799 F5400
;segType:Loop
G1 F4800 E0.4799
G1 X135.588 Y98.821 F10800
G1 F4800 E1.4799
G1 X138.183 Y98.821 E1.6094 F3600
G1 X142.943 Y90.621 E2.0824
G1 X144.547 Y90.621 E2.1624
G1 X139.324 Y99.210 E2.6639
G1 X140.381 Y99.646 E2.7210
G1 X140.828 Y99.864 E2.7458
G1 X141.262 Y100.108 E2.7706
G1 X141.669 Y100.380 E2.7950
G1 X142.044 Y100.690 E2.8193
G1 X142.385 Y101.033 E2.8435
G1 X142.682 Y101.430 E2.8682
G1 X142.945 Y101.886 E2.8945
G1 X143.170 Y102.393 E2.9221
G1 X143.341 Y102.952 E2.9513
G1 X143.444 Y103.579 E2.9830
G1 X143.479 Y104.265 E3.0173
G1 X143.298 Y105.890 E3.0988
G1 X142.778 Y107.158 E3.1672
G1 X141.933 Y108.112 E3.2308
G1 X140.734 Y108.800 E3.2998
G1 X139.102 Y109.229 E3.3839
G1 X136.996 Y109.379 E3.4893
G1 X132.800 Y109.379 E3.6986
G1 X132.800 Y90.621 E4.6345
G1 X134.120 Y90.621 E4.7003
G1 X134.120 Y98.821 E5.1094
G1 X135.394 Y98.821 E5.1730
G1 X134.383 Y98.584 F10800
G1 X133.932 Y98.219
;segType:Perimeter
G1 X134.578 Y98.460 E5.2074 F2159
G1 X137.941 Y98.460 E5.3752
G1 X142.701 Y90.260 E5.8482
G1 X145.222 Y90.260 E5.9740
G1 X139.881 Y99.043 E6.4869
G1 X140.560 Y99.323 E6.5235
G1 X141.028 Y99.552 E6.5495
G1 X141.487 Y99.809 E6.5757
G1 X141.923 Y100.101 E6.6019
G1 X142.329 Y100.436 E6.6282
G1 X142.702 Y100.811 E6.6545
G1 X143.026 Y101.245 E6.6816
G1 X143.309 Y101.735 E6.7098
G1 X143.550 Y102.278 E6.7394
G1 X143.733 Y102.877 E6.7707
G1 X143.843 Y103.544 E6.8044
G1 X143.880 Y104.275 E6.8409
G1 X143.691 Y105.972 E6.9261
G1 X143.131 Y107.337 E6.9997
G1 X142.204 Y108.384 E7.0695
G1 X140.901 Y109.132 E7.1445
G1 X139.175 Y109.586 E7.2335
G1 X137.012 Y109.740 E7.3416
G1 X132.400 Y109.740 E7.5718
G1 X132.400 Y90.260 E8.5436
G1 X134.520 Y90.260 E8.6494
G1 X134.520 Y98.408 E9.0559
G1 X134.788 Y98.990
G1 X134.383 Y100.116 F10800
G1 X134.120 Y106.977
;segType:Loop
G1 X134.120 Y99.879 E9.4100 F3600
G1 X136.932 Y99.879 E9.5502
G1 X137.731 Y99.907 E9.5901
G1 X138.471 Y99.995 E9.6273
G1 X139.139 Y100.142 E9.6614
G1 X139.752 Y100.352 E9.6938
G1 X140.298 Y100.626 E9.7242
G1 X140.778 Y100.968 E9.7536
G1 X141.176 Y101.387 E9.7825
G1 X141.438 Y101.784 E9.8062
G1 X141.669 Y102.272 E9.8332
G1 X141.743 Y102.478 E9.8441
G1 X141.890 Y103.028 E9.8725
G1 X141.975 Y103.628 E9.9027
G1 X142.001 Y104.160 E9.9293
G1 X141.967 Y104.833 E9.9629
G1 X141.864 Y105.449 E9.9941
G1 X141.684 Y106.009 E10.0234
G1 X141.429 Y106.509 E10.0514
G1 X141.099 Y106.952 E10.0789
