; GCode generated by CraftWare

; filename = composition.3w 
; machine = daVinciF10 
; material = abs 
; extruder = 1 
M140 S90 ; Bed (no wait) 
M106 S255 ; Start fan 
G90 ; set absolute coordinates 
G28 ; home all axis 
M190 S90 ; Bed (wait) 
M104 S210 ; Extruder (no wait) 
M109 S210 ; Extruder (wait) 
M117 Start 
M117 Cleaning 
M100 ; Cleaning 
M117 Printing 
M190 S75 ;set bed temp (wait)
M109 S220 ;set head temp (wait)
; ------------------------------------
; Layer #0
; ------------------------------------
G21 ; mm
G90 ; abs
G92 E0 ; reset extr
M106 S0
G1 F4800 E-1.0000
G1 F300 Z0.400
G1 X68.548 Y128.445 F10800
G1 X70.946 Y128.224
G1 X75.596 Y126.915
G1 X79.959 Y124.777
G1 X83.902 Y121.877
G1 X87.307 Y118.301
G1 X90.069 Y114.158
G1 X97.800 Y98.200
G1 F4800 E0.0000
;segType:Support
G1 X98.450 Y98.200 E0.0367 F1800
G1 X97.800 Y100.000 E0.1450
G1 X98.450 Y100.000 E0.1817
;segType:HShell
G1 F4800 E-0.8183
G1 X99.850 Y100.081 F10800
G1 F4800 E0.1817
G1 X100.758 Y99.209 E0.2654 F1200
G1 X100.198 Y99.209
G1 X99.850 Y99.544 E0.2975
;segType:Loop
G1 X99.650 Y99.621 F10800
G1 X99.650 Y99.017 E0.3377 F1200
G1 X110.350 Y99.017 E1.0495
G1 X110.350 Y100.283 E1.1337
G1 X99.650 Y100.283 E1.8455
G1 X99.650 Y99.811 E1.8768
;segType:Perimeter
G1 X99.908 Y100.348 F10800
G1 X99.250 Y100.610 E1.9240 F719
G1 X99.250 Y98.633 E2.0555
G1 X110.750 Y98.633 E2.8205
G1 X110.750 Y100.667 E2.9558
G1 X99.309 Y100.667 E3.7168
G1 X99.582 Y100.034
;segType:HShell
G1 X109.919 Y100.091 F10800
G1 X110.150 Y99.868 E3.7382 F1200
G1 X110.150 Y99.330
G1 X109.359 Y100.091 E3.8112
G1 X108.799 Y100.091
G1 X109.716 Y99.209 E3.8958
G1 X109.156 Y99.209
G1 X108.239 Y100.091 E3.9804
G1 X107.679 Y100.091
G1 X108.596 Y99.209 E4.0650
G1 X108.036 Y99.209
G1 X107.119 Y100.091 E4.1496
G1 X106.559 Y100.091
G1 X107.476 Y99.209 E4.2342
G1 X106.916 Y99.209
G1 X105.999 Y100.091 E4.3188
G1 X105.439 Y100.091
G1 X106.357 Y99.209 E4.4034
G1 X105.797 Y99.209
G1 X104.880 Y100.091 E4.4880
G1 X104.320 Y100.091
G1 X105.237 Y99.209 E4.5726
G1 X104.677 Y99.209
G1 X103.760 Y100.091 E4.6572
G1 X103.200 Y100.091
G1 X104.117 Y99.209 E4.7418
G1 X103.557 Y99.209
G1 X102.640 Y100.091 E4.8264
G1 X102.080 Y100.091
G1 X102.997 Y99.209 E4.9110
G1 X102.437 Y99.209
G1 X101.520 Y100.091 E4.9956
G1 X100.960 Y100.091
G1 X101.877 Y99.209 E5.0803
G1 X101.318 Y99.209
G1 X100.400 Y100.091 E5.1649
G1 F4800 E4.1649
G1 X170.376 Y103.866 F10800
G1 F4800 E5.1649
G1 X144.719 Y128.516 E7.5316 F1200
;segType:Perimeter
G1 X144.270 Y128.663 F10800
G1 X143.791 Y129.169 E7.5780 F719
G1 X139.092 Y128.738 E7.8919
G1 X134.477 Y127.438 E8.2108
G1 X130.147 Y125.317 E8.5316
G1 X126.231 Y122.437 E8.8549
G1 X122.850 Y118.885 E9.1811
G1 X120.106 Y114.769 E9.5101
G1 X118.084 Y110.214 E9.8417
G1 X116.846 Y105.358 E10.1750
G1 X116.429 Y100.350 E10.5093
G1 X116.846 Y95.342 E10.8436
G1 X118.084 Y90.486 E11.1769
G1 X120.106 Y85.931 E11.5084
G1 X122.850 Y81.815 E11.8375
G1 X126.231 Y78.263 E12.1637
G1 X130.147 Y75.384 E12.4870
G1 X134.477 Y73.261 E12.8078
G1 X139.092 Y71.962 E13.1267
G1 X143.850 Y71.525 E13.4445
G1 X148.608 Y71.962 E13.7624
G1 X153.223 Y73.261 E14.0813
G1 X157.553 Y75.384 E14.4021
G1 X161.469 Y78.263 E14.7254
G1 X164.850 Y81.815 E15.0516
G1 X167.594 Y85.931 E15.3807
G1 X169.616 Y90.486 E15.7122
G1 X170.854 Y95.342 E16.0455
G1 X171.271 Y100.350 E16.3798
G1 X170.854 Y105.358 E16.7141
G1 X169.616 Y110.214 E17.0474
G1 X167.594 Y114.769 E17.3790
G1 X164.850 Y118.885 E17.7080
G1 X161.469 Y122.437 E18.0342
G1 X157.553 Y125.317 E18.3575
G1 X153.223 Y127.438 E18.6783
G1 X148.608 Y128.738 E18.9972
G1 X143.909 Y129.169 E19.3111
G1 X143.430 Y128.663
;segType:Loop
G1 X142.804 Y128.693 F10800
G1 X139.168 Y128.359 E19.5540 F1200
G1 X134.625 Y127.079 E19.8680
G1 X130.361 Y124.990 E20.1839
G1 X126.503 Y122.152 E20.5024
G1 X123.168 Y118.650 E20.8241
G1 X120.461 Y114.588 E21.1488
G1 X118.465 Y110.092 E21.4761
G1 X117.243 Y105.297 E21.8052
G1 X116.830 Y100.350 E22.1354
G1 X117.243 Y95.403 E22.4656
G1 X118.465 Y90.608 E22.7948
G1 X120.461 Y86.111 E23.1221
G1 X123.168 Y82.050 E23.4468
G1 X126.503 Y78.548 E23.7684
G1 X130.361 Y75.710 E24.0870
G1 X134.625 Y73.620 E24.4029
G1 X139.168 Y72.341 E24.7168
G1 X143.850 Y71.911 E25.0296
G1 X148.532 Y72.341 E25.3424
G1 X153.075 Y73.620 E25.6563
G1 X157.339 Y75.710 E25.9722
G1 X161.198 Y78.548 E26.2908
G1 X164.532 Y82.050 E26.6125
G1 X167.239 Y86.111 E26.9372
G1 X169.235 Y90.608 E27.2644
G1 X170.457 Y95.403 E27.5936
G1 X170.870 Y100.350 E27.9238
G1 X170.457 Y105.297 E28.2540
G1 X169.235 Y110.092 E28.5832
G1 X167.239 Y114.588 E28.9104
G1 X164.532 Y118.650 E29.2351
G1 X161.198 Y122.152 E29.5568
G1 X157.339 Y124.990 E29.8754
G1 X153.075 Y127.079 E30.1913
G1 X148.532 Y128.359 E30.5052
G1 X143.850 Y128.789 E30.8180
G1 X143.001 Y128.711 E30.8747
;segType:HShell
G1 X117.430 Y95.564 F10800
G1 X141.637 Y72.307 E33.1076 F1200
G1 X142.256 Y72.251
G1 X117.381 Y96.148 E35.4022
G1 X117.332 Y96.733
G1 X142.875 Y72.194 E37.7584
G1 X143.494 Y72.137
G1 X117.284 Y97.318 E40.1761
G1 X117.235 Y97.903
G1 X144.067 Y72.124 E42.6513
G1 X144.578 Y72.171
G1 X117.186 Y98.487 E45.1780
G1 X117.138 Y99.072
G1 X145.089 Y72.218 E47.7564
G1 X145.600 Y72.265
G1 X117.089 Y99.657 E50.3865
G1 X117.040 Y100.241
G1 X146.111 Y72.312 E53.0682
G1 X146.622 Y72.359
G1 X117.065 Y100.756 E55.7947
G1 X117.106 Y101.254
G1 X147.133 Y72.406 E58.5646
G1 X147.644 Y72.453
G1 X117.148 Y101.752 E61.3777
G1 X117.189 Y102.250
G1 X148.156 Y72.500 E64.2342
G1 X148.640 Y72.572
G1 X117.231 Y102.748 E67.1316
G1 X117.272 Y103.246
G1 X149.073 Y72.694 E70.0650
G1 X149.506 Y72.816
G1 X117.314 Y103.744 E73.0346
G1 X117.355 Y104.242
G1 X149.939 Y72.938 E76.0403
G1 X150.372 Y73.059
G1 X117.397 Y104.740 E79.0822
G1 X117.438 Y105.238
G1 X150.805 Y73.181 E82.1601
G1 X151.238 Y73.303
G1 X117.545 Y105.674 E85.2682
G1 X117.655 Y106.106
G1 X151.671 Y73.425 E88.4060
G1 X152.104 Y73.547
G1 X117.765 Y106.538 E91.5736
G1 X117.875 Y106.970
G1 X152.537 Y73.669 E94.7710
G1 X152.970 Y73.791
G1 X117.985 Y107.402 E97.9982
G1 X118.095 Y107.834
G1 X153.345 Y73.968 E101.2499
G1 X153.716 Y74.150
G1 X118.206 Y108.266 E104.5255
G1 X118.316 Y108.698
G1 X154.087 Y74.332 E107.8252
G1 X154.458 Y74.514
G1 X118.426 Y109.130 E111.1490
G1 X118.536 Y109.562
G1 X154.828 Y74.695 E114.4968
G1 X155.199 Y74.877
G1 X118.646 Y109.994 E117.8686
G1 X118.809 Y110.376
G1 X155.570 Y75.059 E121.2597
G1 X155.941 Y75.240
G1 X118.976 Y110.753 E124.6695
G1 X119.144 Y111.130
G1 X156.312 Y75.422 E128.0980
G1 X156.682 Y75.604
G1 X119.311 Y111.507 E131.5454
G1 X119.478 Y111.884
G1 X157.053 Y75.785 E135.0115
G1 X157.396 Y75.994
G1 X119.646 Y112.262 E138.4938
G1 X119.813 Y112.639
G1 X157.713 Y76.227 E141.9899
G1 X158.030 Y76.460
G1 X119.980 Y113.016 E145.4998
G1 X120.148 Y113.393
G1 X158.347 Y76.693 E149.0235
G1 X158.665 Y76.927
G1 X120.315 Y113.770 E152.5610
G1 X120.483 Y114.147
G1 X158.982 Y77.160 E156.1124
G1 X159.299 Y77.393
G1 X120.653 Y114.521 E159.6772
G1 X120.872 Y114.849
G1 X159.616 Y77.626 E163.2512
G1 X159.933 Y77.860
G1 X121.091 Y115.177 E166.8342
G1 X121.309 Y115.505
G1 X160.250 Y78.093 E170.4263
G1 X160.567 Y78.326
G1 X121.528 Y115.832 E174.0275
G1 X121.746 Y116.160
G1 X160.884 Y78.559 E177.6378
G1 X161.180 Y78.814
G1 X121.965 Y116.488 E181.2552
G1 X122.183 Y116.816
G1 X161.447 Y79.095 E184.8771
G1 X161.715 Y79.375
G1 X122.402 Y117.144 E188.5034
G1 X122.621 Y117.472
G1 X161.982 Y79.656 E192.1343
G1 X162.250 Y79.937
G1 X122.839 Y117.800 E195.7697
G1 X123.058 Y118.128
G1 X162.517 Y80.218 E199.4096
G1 X162.784 Y80.499
G1 X123.276 Y118.456 E203.0541
G1 X123.532 Y118.748
G1 X163.052 Y80.780 E206.6995
G1 X163.319 Y81.061
G1 X123.800 Y119.029 E210.3450
G1 X124.067 Y119.310
G1 X163.587 Y81.342 E213.9905
G1 X163.854 Y81.623
G1 X124.335 Y119.590 E217.6360
G1 X124.602 Y119.871
G1 X164.122 Y81.904 E221.2815
G1 X164.386 Y82.188
G1 X124.870 Y120.152 E224.9266
G1 X125.137 Y120.433
G1 X164.605 Y82.516 E228.5673
G1 X164.823 Y82.844
G1 X125.405 Y120.714 E232.2035
G1 X125.672 Y120.995
G1 X165.042 Y83.172 E235.8352
G1 X165.260 Y83.499
G1 X125.940 Y121.276 E239.4623
G1 X126.207 Y121.557
G1 X165.479 Y83.827 E243.0850
G1 X165.698 Y84.155
G1 X126.475 Y121.838 E246.7031
G1 X126.761 Y122.100
G1 X165.916 Y84.483 E250.3150
G1 X166.135 Y84.811
G1 X127.078 Y122.334 E253.9178
G1 X127.395 Y122.567
G1 X166.353 Y85.139 E257.5114
G1 X166.572 Y85.467
G1 X127.713 Y122.800 E261.0960
G1 X128.030 Y123.033
G1 X166.791 Y85.795 E264.6715
G1 X167.009 Y86.123
G1 X128.347 Y123.267 E268.2379
G1 X128.664 Y123.500
G1 X167.189 Y86.488 E271.7917
G1 X167.356 Y86.865
G1 X128.981 Y123.733 E275.3316
G1 X129.298 Y123.966
G1 X167.524 Y87.242 E278.8577
G1 X167.691 Y87.619
G1 X129.615 Y124.200 E282.3700
G1 X129.932 Y124.433
G1 X167.858 Y87.996 E285.8685
G1 X168.026 Y88.374
G1 X130.250 Y124.666 E289.3531
G1 X130.583 Y124.883
G1 X168.193 Y88.751 E292.8224
G1 X168.360 Y89.128
G1 X130.954 Y125.065 E296.2729
G1 X131.325 Y125.247
G1 X168.528 Y89.505 E299.7047
G1 X168.695 Y89.882
G1 X131.696 Y125.428 E303.1177
G1 X132.067 Y125.610
G1 X168.862 Y90.259 E306.5120
G1 X169.030 Y90.636
G1 X132.437 Y125.792 E309.8875
G1 X132.808 Y125.973
G1 X169.145 Y91.064 E313.2394
G1 X169.255 Y91.496
G1 X133.179 Y126.155 E316.5672
G1 X133.550 Y126.337
G1 X169.365 Y91.928 E319.8710
G1 X169.475 Y92.360
G1 X133.920 Y126.518 E323.1508
G1 X134.291 Y126.700
G1 X169.586 Y92.792 E326.4065
G1 X169.696 Y93.224
G1 X134.662 Y126.882 E329.6382
G1 X135.089 Y127.010
G1 X169.806 Y93.656 E332.8407
G1 X169.916 Y94.088
G1 X135.522 Y127.132 E336.0134
G1 X135.955 Y127.254
G1 X170.026 Y94.520 E339.1564
G1 X170.136 Y94.952
G1 X136.388 Y127.375 E342.2695
G1 X136.821 Y127.497
G1 X170.247 Y95.384 E345.3529
G1 X170.296 Y95.875
G1 X137.254 Y127.619 E348.4009
G1 X137.687 Y127.741
G1 X170.338 Y96.373 E351.4128
G1 X170.379 Y96.871
G1 X138.120 Y127.863 E354.3886
G1 X138.553 Y127.985
G1 X170.421 Y97.369 E357.3282
G1 X170.462 Y97.867
G1 X138.986 Y128.107 E360.2318
G1 X139.457 Y128.192
G1 X170.504 Y98.365 E363.0957
G1 X170.545 Y98.863
G1 X139.968 Y128.239 E365.9162
G1 X140.479 Y128.286
G1 X170.587 Y99.361 E368.6935
G1 X170.628 Y99.859
G1 X140.990 Y128.333 E371.4275
G1 X141.501 Y128.380
G1 X170.668 Y100.358 E374.1180
G1 X170.620 Y100.943
G1 X142.012 Y128.427 E376.7569
G1 X142.523 Y128.474
G1 X170.571 Y101.528 E379.3442
G1 X170.522 Y102.112
G1 X143.034 Y128.521 E381.8798
G1 X143.545 Y128.568
G1 X170.473 Y102.697 E384.3638
G1 X170.425 Y103.282
G1 X144.100 Y128.573 E386.7922
G1 X170.327 Y104.451 F10800
G1 X145.338 Y128.459 E389.0973 F1200
G1 X145.957 Y128.402
G1 X170.279 Y105.036 E391.3409
G1 X161.632 Y121.412 F10800
G1 X160.835 Y122.177 E391.4143 F1200
G1 X158.447 Y123.933 F10800
G1 X164.914 Y117.721 E392.0108 F1200
G1 X165.911 Y116.225 F10800
G1 X156.671 Y125.102 E392.8631 F1200
G1 X155.528 Y125.662 F10800
G1 X166.908 Y114.729 E393.9129 F1200
G1 X167.414 Y113.705 F10800
G1 X154.386 Y126.221 E395.1146 F1200
G1 X153.243 Y126.781 F10800
G1 X167.830 Y112.767 E396.4602 F1200
G1 X168.246 Y111.829 F10800
G1 X152.377 Y127.076 E397.9241 F1200
G1 X151.585 Y127.299
G1 X168.662 Y110.892 E399.4994
G1 X169.059 Y109.972 F10800
G1 X150.792 Y127.522 E401.1844 F1200
G1 X150.000 Y127.745
G1 X169.241 Y109.260 E402.9593
G1 X169.423 Y108.548
G1 X149.208 Y127.968 E404.8240
G1 X169.786 Y107.123 F10800
G1 X147.814 Y128.232 E406.8508 F1200
G1 X148.433 Y128.175
G1 X169.604 Y107.835 E408.8037
G1 X170.149 Y105.698 F10800
G1 X146.576 Y128.345 E410.9782 F1200
G1 X147.195 Y128.288
G1 X169.968 Y106.410 E413.0788
G1 X117.764 Y94.167 F10800
G1 X140.399 Y72.421 E415.1668 F1200
G1 X141.018 Y72.364
G1 X117.582 Y94.880 E417.3286
G1 X118.127 Y92.742 F10800
G1 X139.148 Y72.547 E419.2677 F1200
G1 X139.780 Y72.478
G1 X117.945 Y93.455 E421.2818
G1 X138.356 Y72.770 F10800
G1 X118.309 Y92.030 E423.1311 F1200
G1 X118.490 Y91.318
G1 X137.564 Y72.993 E424.8905
G1 X136.772 Y73.216
G1 X118.693 Y90.585 E426.5582
G1 X119.109 Y89.647 F10800
G1 X135.980 Y73.439 E428.1145 F1200
G1 X135.188 Y73.662
G1 X119.525 Y88.709 E429.5593
G1 X119.941 Y87.772 F10800
G1 X134.261 Y74.014 E430.8802 F1200
G1 X133.119 Y74.574 F10800
G1 X120.358 Y86.834 E432.0573 F1200
G1 X120.963 Y85.715 F10800
G1 X131.976 Y75.134 E433.0732 F1200
G1 X130.833 Y75.694 F10800
G1 X121.960 Y84.219 E433.8917 F1200
G1 X122.957 Y82.723 F10800
G1 X128.842 Y77.069 E434.4346 F1200
G1 F4800 E433.4346
G1 X90.587 Y85.467 F10800
G1 X39.580 Y96.663
G1 F4800 E434.4346
G1 X65.842 Y71.433 E436.8571 F1200
;segType:Perimeter
G1 X65.730 Y71.337 F10800
G1 X66.209 Y70.831 E436.9035 F719
G1 X70.908 Y71.262 E437.2174
G1 X75.523 Y72.562 E437.5363
G1 X79.853 Y74.683 E437.8571
G1 X83.769 Y77.563 E438.1804
G1 X87.150 Y81.115 E438.5066
G1 X89.894 Y85.231 E438.8357
G1 X91.916 Y89.786 E439.1672
G1 X93.154 Y94.642 E439.5005
G1 X93.571 Y99.650 E439.8348
G1 X93.154 Y104.658 E440.1691
G1 X91.916 Y109.514 E440.5024
G1 X89.894 Y114.069 E440.8339
G1 X87.150 Y118.185 E441.1630
G1 X83.769 Y121.737 E441.4892
G1 X79.853 Y124.616 E441.8125
G1 X75.523 Y126.739 E442.1332
G1 X70.908 Y128.038 E442.4521
G1 X66.150 Y128.475 E442.7700
G1 X61.392 Y128.038 E443.0878
G1 X56.777 Y126.739 E443.4068
G1 X52.447 Y124.616 E443.7275
G1 X48.531 Y121.737 E444.0508
G1 X45.150 Y118.185 E444.3770
G1 X42.406 Y114.069 E444.7061
G1 X40.384 Y109.514 E445.0376
G1 X39.146 Y104.658 E445.3709
G1 X38.729 Y99.650 E445.7052
G1 X39.146 Y94.642 E446.0395
G1 X40.384 Y89.786 E446.3728
G1 X42.406 Y85.231 E446.7043
G1 X45.150 Y81.115 E447.0334
G1 X48.531 Y77.563 E447.3596
G1 X52.447 Y74.683 E447.6829
G1 X56.777 Y72.562 E448.0037
G1 X61.392 Y71.262 E448.3226
G1 X66.091 Y70.831 E448.6365
G1 X66.570 Y71.337
;segType:Loop
G1 X67.196 Y71.307 F10800
G1 X70.832 Y71.641 E448.8794 F1200
G1 X75.375 Y72.921 E449.1934
G1 X79.639 Y75.010 E449.5092
G1 X83.497 Y77.848 E449.8278
G1 X86.832 Y81.350 E450.1495
G1 X89.539 Y85.412 E450.4742
G1 X91.535 Y89.908 E450.8015
G1 X92.757 Y94.703 E451.1306
G1 X93.170 Y99.650 E451.4608
G1 X92.757 Y104.597 E451.7910
G1 X91.535 Y109.392 E452.1202
G1 X89.539 Y113.889 E452.4475
G1 X86.832 Y117.950 E452.7722
G1 X83.497 Y121.452 E453.0938
G1 X79.639 Y124.290 E453.4124
G1 X75.375 Y126.380 E453.7283
G1 X70.832 Y127.659 E454.0422
G1 X66.150 Y128.089 E454.3550
G1 X61.468 Y127.659 E454.6677
G1 X56.925 Y126.380 E454.9817
G1 X52.661 Y124.290 E455.2976
G1 X48.802 Y121.452 E455.6162
G1 X45.468 Y117.950 E455.9378
G1 X42.761 Y113.889 E456.2625
G1 X40.765 Y109.392 E456.5898
G1 X39.543 Y104.597 E456.9189
G1 X39.130 Y99.650 E457.2491
G1 X39.543 Y94.703 E457.5793
G1 X40.765 Y89.908 E457.9085
G1 X42.761 Y85.412 E458.2358
G1 X45.468 Y81.350 E458.5604
G1 X48.803 Y77.848 E458.8821
G1 X52.661 Y75.010 E459.2007
G1 X56.925 Y72.921 E459.5166
G1 X61.468 Y71.641 E459.8306
G1 X66.150 Y71.211 E460.1433
G1 X66.999 Y71.289 E460.2000
;segType:HShell
G1 X60.717 Y72.053 F10800
G1 X40.594 Y91.386 E462.0563 F1200
G1 X39.531 Y97.248 F10800
G1 X66.407 Y71.428 E464.5355 F1200
G1 X66.918 Y71.475
G1 X39.482 Y97.833 E467.0662
G1 X39.434 Y98.418
G1 X67.429 Y71.522 E469.6487
G1 X67.940 Y71.569
G1 X39.385 Y99.002 E472.2827
G1 X39.336 Y99.587
G1 X68.451 Y71.616 E474.9684
G1 X68.962 Y71.663
G1 X39.368 Y100.094 E477.6983
G1 X39.410 Y100.592
G1 X69.473 Y71.710 E480.4716
G1 X69.984 Y71.756
G1 X39.451 Y101.090 E483.2881
G1 X39.493 Y101.588
G1 X70.495 Y71.803 E486.1479
G1 X70.974 Y71.881
G1 X39.534 Y102.087 E489.0481
G1 X39.576 Y102.585
G1 X71.407 Y72.003 E491.9844
G1 X71.840 Y72.125
G1 X39.617 Y103.083 E494.9568
G1 X39.659 Y103.581
G1 X72.273 Y72.247 E497.9653
G1 X72.706 Y72.369
G1 X39.700 Y104.079 E501.0099
G1 X39.743 Y104.575
G1 X73.139 Y72.491 E504.0905
G1 X73.572 Y72.613
G1 X39.853 Y105.007 E507.2009
G1 X39.963 Y105.439
G1 X74.005 Y72.735 E510.3410
G1 X74.438 Y72.857
G1 X40.074 Y105.872 E513.5110
G1 X40.184 Y106.304
G1 X74.871 Y72.979 E516.7107
G1 X75.303 Y73.101
G1 X40.294 Y106.736 E519.9401
G1 X40.404 Y107.168
G1 X75.674 Y73.283 E523.1936
G1 X76.045 Y73.465
G1 X40.514 Y107.600 E526.4711
G1 X40.624 Y108.032
G1 X76.416 Y73.646 E529.7727
G1 X76.786 Y73.828
G1 X40.734 Y108.464 E533.0983
G1 X40.845 Y108.896
G1 X77.157 Y74.010 E536.4480
G1 X77.528 Y74.191
G1 X40.955 Y109.328 E539.8217
G1 X41.122 Y109.706
G1 X77.899 Y74.373 E543.2142
G1 X78.269 Y74.555
G1 X41.289 Y110.083 E546.6255
G1 X41.457 Y110.460
G1 X78.640 Y74.736 E550.0554
G1 X79.011 Y74.918
G1 X41.624 Y110.837 E553.5042
G1 X41.791 Y111.214
G1 X79.382 Y75.100 E556.9718
G1 X79.721 Y75.312
G1 X41.959 Y111.591 E560.4551
G1 X42.126 Y111.968
G1 X80.038 Y75.545 E563.9523
G1 X80.355 Y75.779
G1 X42.293 Y112.345 E567.4633
G1 X42.461 Y112.722
G1 X80.672 Y76.012 E570.9881
G1 X80.989 Y76.245
G1 X42.628 Y113.099 E574.5267
G1 X42.796 Y113.477
G1 X81.306 Y76.478 E578.0791
G1 X81.623 Y76.711
G1 X42.970 Y113.846 E581.6447
G1 X43.189 Y114.174
G1 X81.941 Y76.945 E585.2193
G1 X82.258 Y77.178
G1 X43.408 Y114.502 E588.8031
G1 X43.626 Y114.830
G1 X82.575 Y77.411 E592.3959
G1 X82.892 Y77.644
G1 X43.845 Y115.158 E595.9978
G1 X44.063 Y115.486
G1 X83.209 Y77.878 E599.6089
G1 X83.500 Y78.136
G1 X44.282 Y115.814 E603.2266
G1 X44.500 Y116.142
G1 X83.768 Y78.417 E606.8488
G1 X84.035 Y78.698
G1 X44.719 Y116.470 E610.4755
G1 X44.938 Y116.798
G1 X84.303 Y78.978 E614.1068
G1 X84.570 Y79.259
G1 X45.156 Y117.126 E617.7425
G1 X45.375 Y117.453
G1 X84.838 Y79.540 E621.3828
G1 X85.105 Y79.821
G1 X45.593 Y117.781 E625.0276
G1 X45.853 Y118.070
G1 X85.373 Y80.102 E628.6731
G1 X85.640 Y80.383
G1 X46.121 Y118.351 E632.3186
G1 X46.388 Y118.632
G1 X85.908 Y80.664 E635.9641
G1 X86.175 Y80.945
G1 X46.656 Y118.912 E639.6096
G1 X46.923 Y119.193
G1 X86.443 Y81.226 E643.2551
G1 X86.703 Y81.514
G1 X47.190 Y119.474 E646.8999
G1 X47.458 Y119.755
G1 X86.922 Y81.841 E650.5402
G1 X87.140 Y82.169
G1 X47.725 Y120.036 E654.1761
G1 X47.993 Y120.317
G1 X87.359 Y82.497 E657.8073
G1 X87.577 Y82.825
G1 X48.260 Y120.598 E661.4342
G1 X48.528 Y120.879
G1 X87.796 Y83.153 E665.0565
G1 X88.015 Y83.481
G1 X48.795 Y121.160 E668.6743
G1 X49.086 Y121.419
G1 X88.233 Y83.809 E672.2854
G1 X88.452 Y84.137
G1 X49.403 Y121.652 E675.8875
G1 X49.720 Y121.885
G1 X88.670 Y84.465 E679.4804
G1 X88.889 Y84.793
G1 X50.037 Y122.118 E683.0643
G1 X50.354 Y122.352
G1 X89.107 Y85.121 E686.6391
G1 X89.326 Y85.448
G1 X50.672 Y122.585 E690.2047
G1 X50.989 Y122.818
G1 X89.502 Y85.818 E693.7573
G1 X89.669 Y86.195
G1 X51.306 Y123.051 E697.2962
G1 X51.623 Y123.285
G1 X89.837 Y86.572 E700.8212
G1 X90.004 Y86.949
G1 X51.940 Y123.518 E704.3324
G1 X52.257 Y123.751
G1 X90.171 Y87.326 E707.8298
G1 X90.339 Y87.703
G1 X52.574 Y123.984 E711.3134
G1 X52.912 Y124.197
G1 X90.506 Y88.080 E714.7812
G1 X90.673 Y88.457
G1 X53.283 Y124.379 E718.2303
G1 X53.654 Y124.561
G1 X90.841 Y88.834 E721.6606
G1 X91.008 Y89.211
G1 X54.025 Y124.743 E725.0722
G1 X54.395 Y124.924
G1 X91.176 Y89.589 E728.4649
G1 X91.343 Y89.966
G1 X54.766 Y125.106 E731.8390
G1 X55.137 Y125.288
G1 X91.454 Y90.397 E735.1890
G1 X91.564 Y90.829
G1 X55.508 Y125.469 E738.5150
G1 X55.878 Y125.651
G1 X91.674 Y91.261 E741.8169
G1 X91.784 Y91.693
G1 X56.249 Y125.833 E745.0949
G1 X56.620 Y126.014
G1 X91.894 Y92.125 E748.3488
G1 X92.004 Y92.558
G1 X56.991 Y126.196 E751.5786
G1 X57.422 Y126.320
G1 X92.115 Y92.990 E754.7788
G1 X92.225 Y93.422
G1 X57.855 Y126.441 E757.9492
G1 X58.288 Y126.563
G1 X92.335 Y93.854 E761.0899
G1 X92.445 Y94.286
G1 X58.721 Y126.685 E764.2007
G1 X59.154 Y126.807
G1 X92.555 Y94.718 E767.2818
G1 X92.599 Y95.214
G1 X59.587 Y126.929 E770.3270
G1 X60.020 Y127.051
G1 X92.641 Y95.712 E773.3361
G1 X92.682 Y96.210
G1 X60.453 Y127.173 E776.3090
G1 X60.886 Y127.295
G1 X92.724 Y96.708 E779.2459
G1 X92.765 Y97.206
G1 X61.319 Y127.417 E782.1467
G1 X61.797 Y127.496
G1 X92.807 Y97.704 E785.0072
G1 X92.848 Y98.202
G1 X62.308 Y127.543 E787.8244
G1 X62.819 Y127.590
G1 X92.890 Y98.700 E790.5984
G1 X92.931 Y99.198
G1 X63.330 Y127.637 E793.3289
G1 X63.841 Y127.684
G1 X92.964 Y99.704 E796.0155
G1 X92.916 Y100.288
G1 X64.352 Y127.731 E798.6504
G1 X64.863 Y127.778
G1 X92.867 Y100.873 E801.2336
G1 X92.818 Y101.458
G1 X65.374 Y127.824 E803.7652
G1 X65.885 Y127.871
G1 X92.770 Y102.043 E806.2452
G1 X92.721 Y102.627
G1 X66.448 Y127.868 E808.6687
G1 X67.067 Y127.812
G1 X92.672 Y103.212 E811.0307
G1 X92.623 Y103.797
G1 X67.686 Y127.755 E813.3310
G1 X68.305 Y127.698
G1 X92.575 Y104.381 E815.5698
G1 X92.435 Y105.054
G1 X68.924 Y127.641 E817.7386
G1 X69.543 Y127.584
G1 X92.253 Y105.766 E819.8335
G1 X92.072 Y106.478
G1 X70.162 Y127.527 E821.8545
G1 X70.781 Y127.470
G1 X91.890 Y107.191 E823.8017
G1 X91.345 Y109.328 F10800
G1 X73.154 Y126.805 E825.4797 F1200
G1 X75.631 Y126.038 F10800
G1 X90.097 Y112.140 E826.8141 F1200
G1 X87.136 Y117.137 F10800
G1 X80.934 Y123.095 E827.3862 F1200
G1 X77.917 Y124.918 F10800
G1 X89.130 Y114.145 E828.4206 F1200
G1 X73.946 Y126.582 F10800
G1 X90.930 Y110.265 E829.9873 F1200
G1 X90.514 Y111.203 F10800
G1 X74.738 Y126.359 E831.4425 F1200
G1 X72.362 Y127.028 F10800
G1 X91.527 Y108.616 E833.2104 F1200
G1 X89.681 Y113.078 F10800
G1 X76.774 Y125.478 E834.4010 F1200
G1 X79.060 Y124.358 F10800
G1 X88.133 Y115.641 E835.2379 F1200
G1 X83.460 Y121.207 F10800
G1 X83.323 Y121.339 E835.2506 F1200
G1 X71.570 Y127.251 F10800
G1 X91.708 Y107.903 E837.1083 F1200
G1 X57.549 Y72.945 F10800
G1 X41.793 Y88.083 E838.5617 F1200
G1 X39.726 Y94.909 F10800
G1 X63.985 Y71.603 E840.7994 F1200
G1 X64.604 Y71.546
G1 X39.677 Y95.494 E843.0988
G1 X39.629 Y96.079
G1 X65.223 Y71.490 E845.4598
G1 X59.925 Y72.276 F10800
G1 X40.776 Y90.673 E847.2262 F1200
G1 X41.377 Y89.020 F10800
G1 X58.341 Y72.722 E848.7912 F1200
G1 X43.186 Y85.131 F10800
G1 X54.364 Y74.391 E849.8224 F1200
G1 X39.868 Y94.235 F10800
G1 X63.366 Y71.660 E851.9900 F1200
G1 X62.747 Y71.717
G1 X40.049 Y93.523 E854.0836
G1 X40.231 Y92.810
G1 X62.128 Y71.774 E856.1034
G1 X61.509 Y71.831
G1 X40.413 Y92.098 E858.0494
G1 X42.209 Y87.145 F10800
G1 X56.650 Y73.271 E859.3816 F1200
G1 X45.180 Y82.139 F10800
G1 X51.328 Y76.232 E859.9486 F1200
G1 X42.625 Y86.207 F10800
G1 X55.507 Y73.831 E861.1370 F1200
G1 X59.133 Y72.499 F10800
G1 X40.960 Y89.958 E862.8132 F1200
G1 X44.183 Y83.635 F10800
G1 X53.222 Y74.951 E863.6470 F1200
; ------------------------------------
; Layer #1
; ------------------------------------
G21 ; mm
G90 ; abs
G92 E0 ; reset extr
M106 S255
;segType:HShell
G1 F4800 E-1.0000
G1 F300 Z0.700
G1 X92.754 Y97.418 F10800
G1 F4800 E0.0000
G1 X65.748 Y71.472 E1.8684 F3600
;segType:Perimeter
G1 X65.730 Y71.368 F10800
G1 X66.209 Y70.861 E1.9032 F2159
G1 X70.903 Y71.292 E2.1384
G1 X75.513 Y72.590 E2.3773
G1 X79.839 Y74.710 E2.6176
G1 X83.750 Y77.586 E2.8599
G1 X87.128 Y81.134 E3.1043
G1 X89.869 Y85.246 E3.3508
G1 X91.889 Y89.797 E3.5992
G1 X93.125 Y94.647 E3.8489
G1 X93.542 Y99.650 E4.0994
G1 X93.125 Y104.653 E4.3498
G1 X91.889 Y109.503 E4.5996
G1 X89.869 Y114.054 E4.8480
G1 X87.128 Y118.166 E5.0945
G1 X83.750 Y121.714 E5.3389
G1 X79.839 Y124.590 E5.5811
G1 X75.513 Y126.710 E5.8215
G1 X70.903 Y128.008 E6.0604
G1 X66.150 Y128.445 E6.2985
G1 X61.397 Y128.008 E6.5367
G1 X56.787 Y126.710 E6.7756
G1 X52.461 Y124.590 E7.0159
G1 X48.550 Y121.714 E7.2582
G1 X45.172 Y118.166 E7.5026
G1 X42.431 Y114.054 E7.7491
G1 X40.411 Y109.503 E7.9975
G1 X39.175 Y104.653 E8.2472
G1 X38.758 Y99.650 E8.4977
G1 X39.175 Y94.647 E8.7481
G1 X40.411 Y89.797 E8.9979
G1 X42.431 Y85.246 E9.2462
G1 X45.172 Y81.134 E9.4928
G1 X48.550 Y77.586 E9.7372
G1 X52.461 Y74.710 E9.9794
G1 X56.787 Y72.590 E10.2197
G1 X61.397 Y71.292 E10.4587
G1 X66.091 Y70.861 E10.6938
G1 X66.570 Y71.368
;segType:Loop
G1 X67.196 Y71.338 F10800
G1 X70.827 Y71.671 E10.8758 F3600
G1 X75.365 Y72.949 E11.1110
G1 X79.625 Y75.036 E11.3476
G1 X83.479 Y77.871 E11.5863
G1 X86.810 Y81.369 E11.8273
G1 X89.514 Y85.426 E12.0706
G1 X91.508 Y89.919 E12.3158
G1 X92.729 Y94.708 E12.5624
G1 X93.141 Y99.650 E12.8098
G1 X92.729 Y104.592 E13.0572
G1 X91.508 Y109.381 E13.3038
G1 X89.514 Y113.874 E13.5490
G1 X86.810 Y117.931 E13.7922
G1 X83.479 Y121.429 E14.0332
G1 X79.625 Y124.264 E14.2719
G1 X75.365 Y126.352 E14.5086
G1 X70.827 Y127.629 E14.7438
G1 X66.150 Y128.059 E14.9781
G1 X61.473 Y127.629 E15.2124
G1 X56.935 Y126.352 E15.4476
G1 X52.675 Y124.264 E15.6843
G1 X48.821 Y121.429 E15.9230
G1 X45.490 Y117.931 E16.1640
G1 X42.786 Y113.874 E16.4072
G1 X40.792 Y109.381 E16.6524
G1 X39.571 Y104.592 E16.8990
G1 X39.159 Y99.650 E17.1464
G1 X39.571 Y94.708 E17.3938
G1 X40.792 Y89.919 E17.6404
G1 X42.786 Y85.426 E17.8856
G1 X45.490 Y81.369 E18.1289
G1 X48.821 Y77.871 E18.3699
G1 X52.675 Y75.036 E18.6086
G1 X56.935 Y72.949 E18.8452
G1 X61.473 Y71.671 E19.0804
G1 X66.150 Y71.242 E19.3148
G1 X66.999 Y71.320 E19.3573
;segType:HShell
G1 X66.282 Y71.447 F10800
G1 X92.706 Y96.833 E21.1854 F3600
G1 X92.657 Y96.248
G1 X66.901 Y71.504 E22.9673
G1 X67.520 Y71.561
G1 X92.608 Y95.663 E24.7030
G1 X92.559 Y95.079
G1 X68.139 Y71.617 E26.3925
G1 X68.758 Y71.674
G1 X92.455 Y94.440 E28.0319
G1 X92.803 Y98.002 F10800
G1 X65.237 Y71.519 E29.9391 F3600
G1 X64.726 Y71.566
G1 X92.852 Y98.587 E31.8849
G1 X92.901 Y99.172
G1 X64.215 Y71.612 E33.8695
G1 X63.703 Y71.659
G1 X92.933 Y99.741 E35.8917
G1 X92.891 Y100.239
G1 X63.192 Y71.706 E37.9464
G1 X62.681 Y71.753
G1 X92.850 Y100.737 E40.0336
G1 X92.808 Y101.235
G1 X62.170 Y71.800 E42.1532
G1 X61.659 Y71.847
G1 X92.767 Y101.733 E44.3054
G1 X92.725 Y102.231
G1 X61.203 Y71.947 E46.4862
G1 X60.770 Y72.069
G1 X92.684 Y102.729 E48.6941
G1 X92.642 Y103.227
G1 X60.337 Y72.191 E50.9290
G1 X59.905 Y72.313
G1 X92.601 Y103.725 E53.1911
G1 X92.559 Y104.223
G1 X59.472 Y72.435 E55.4802
G1 X59.039 Y72.557
G1 X92.496 Y104.700 E57.7949
G1 X92.385 Y105.132
G1 X58.606 Y72.679 E60.1319
G1 X58.173 Y72.801
G1 X92.275 Y105.564 E62.4912
G1 X92.165 Y105.996
G1 X57.740 Y72.923 E64.8729
G1 X57.307 Y73.044
G1 X92.055 Y106.428 E67.2769
G1 X91.945 Y106.860
G1 X56.893 Y73.185 E69.7019
G1 X56.522 Y73.367
G1 X91.835 Y107.292 E72.1450
G1 X91.724 Y107.724
G1 X56.152 Y73.548 E74.6060
G1 X55.781 Y73.730
G1 X91.614 Y108.156 E77.0851
G1 X91.504 Y108.588
G1 X55.410 Y73.912 E79.5822
G1 X55.039 Y74.094
G1 X91.394 Y109.020 E82.0974
G1 X91.266 Y109.436
G1 X54.669 Y74.275 E84.6294
G1 X54.298 Y74.457
G1 X91.099 Y109.813 E87.1754
G1 X90.932 Y110.190
G1 X53.927 Y74.639 E89.7355
G1 X53.556 Y74.820
G1 X90.764 Y110.567 E92.3097
G1 X90.597 Y110.944
G1 X53.185 Y75.002 E94.8980
G1 X52.815 Y75.184
G1 X90.429 Y111.321 E97.5003
G1 X90.262 Y111.698
G1 X52.493 Y75.412 E100.1133
G1 X52.176 Y75.646
G1 X90.095 Y112.075 E102.7367
G1 X89.927 Y112.453
G1 X51.859 Y75.879 E105.3705
G1 X51.541 Y76.112
G1 X89.760 Y112.830 E108.0146
G1 X89.593 Y113.207
G1 X51.224 Y76.345 E110.6690
G1 X50.907 Y76.579
G1 X89.425 Y113.584 E113.3338
G1 X89.234 Y113.938
G1 X50.590 Y76.812 E116.0074
G1 X50.273 Y77.045
G1 X89.015 Y114.266 E118.6877
G1 X88.797 Y114.594
G1 X49.956 Y77.278 E121.3749
G1 X49.639 Y77.511
G1 X88.578 Y114.922 E124.0688
G1 X88.359 Y115.249
G1 X49.321 Y77.745 E126.7696
G1 X49.004 Y77.978
G1 X88.141 Y115.577 E129.4772
G1 X87.922 Y115.905
G1 X48.729 Y78.252 E132.1888
G1 X48.462 Y78.533
G1 X87.704 Y116.233 E134.9037
G1 X87.485 Y116.561
G1 X48.194 Y78.813 E137.6220
G1 X47.927 Y79.094
G1 X87.267 Y116.889 E140.3436
G1 X87.048 Y117.217
G1 X47.660 Y79.375 E143.0687
G1 X47.392 Y79.656
G1 X86.830 Y117.545 E145.7971
G1 X86.602 Y117.864
G1 X47.125 Y79.937 E148.5283
G1 X46.857 Y80.218
G1 X86.335 Y118.145 E151.2595
G1 X86.067 Y118.426
G1 X46.590 Y80.499 E153.9907
G1 X46.322 Y80.780
G1 X85.800 Y118.707 E156.7219
G1 X85.532 Y118.988
G1 X46.055 Y81.061 E159.4531
G1 X45.787 Y81.342
G1 X85.265 Y119.269 E162.1843
G1 X84.997 Y119.550
G1 X45.543 Y81.646 E164.9139
G1 X45.325 Y81.974
G1 X84.730 Y119.831 E167.6401
G1 X84.462 Y120.112
G1 X45.106 Y82.302 E170.3628
G1 X44.888 Y82.629
G1 X84.195 Y120.393 E173.0823
G1 X83.927 Y120.674
G1 X44.669 Y82.957 E175.7983
G1 X44.451 Y83.285
G1 X83.660 Y120.955 E178.5109
G1 X83.392 Y121.236
G1 X44.232 Y83.613 E181.2202
G1 X44.013 Y83.941
G1 X83.084 Y121.478 E183.9232
G1 X82.767 Y121.711
G1 X43.795 Y84.269 E186.6195
G1 X43.576 Y84.597
G1 X82.450 Y121.944 E189.3089
G1 X82.133 Y122.177
G1 X43.358 Y84.925 E191.9915
G1 X43.139 Y85.253
G1 X81.816 Y122.410 E194.6673
G1 X81.499 Y122.644
G1 X42.931 Y85.590 E197.3356
G1 X42.763 Y85.967
G1 X81.181 Y122.877 E199.9935
G1 X80.864 Y123.110
G1 X42.596 Y86.345 E202.6411
G1 X42.429 Y86.722
G1 X80.547 Y123.343 E205.2783
G1 X80.230 Y123.576
G1 X42.261 Y87.099 E207.9051
G1 X42.094 Y87.476
G1 X79.913 Y123.810 E210.5216
G1 X79.596 Y124.043
G1 X41.926 Y87.853 E213.1277
G1 X41.759 Y88.230
G1 X79.238 Y124.237 E215.7206
G1 X78.868 Y124.419
G1 X41.592 Y88.607 E218.2995
G1 X41.424 Y88.984
G1 X78.497 Y124.601 E220.8643
G1 X78.126 Y124.782
G1 X41.257 Y89.361 E223.4151
G1 X41.090 Y89.738
G1 X77.755 Y124.964 E225.9518
G1 X77.385 Y125.146
G1 X40.943 Y90.135 E228.4730
G1 X40.833 Y90.567
G1 X77.014 Y125.328 E230.9761
G1 X76.643 Y125.509
G1 X40.723 Y91.000 E233.4612
G1 X40.612 Y91.432
G1 X76.272 Y125.691 E235.9283
G1 X75.902 Y125.873
G1 X40.502 Y91.864 E238.3774
G1 X40.392 Y92.296
G1 X75.531 Y126.055 E240.8084
G1 X75.138 Y126.215
G1 X40.282 Y92.728 E243.2199
G1 X40.172 Y93.160
G1 X74.705 Y126.337 E245.6090
G1 X74.272 Y126.459
G1 X40.062 Y93.592 E247.9758
G1 X39.951 Y94.024
G1 X73.839 Y126.581 E250.3203
G1 X73.406 Y126.703
G1 X39.841 Y94.456 E252.6424
G1 X39.755 Y94.911
G1 X72.973 Y126.825 E254.9406
G1 X72.540 Y126.946
G1 X39.713 Y95.409 E257.2117
G1 X39.672 Y95.907
G1 X72.107 Y127.068 E259.4556
G1 X71.674 Y127.190
G1 X39.630 Y96.405 E261.6725
G1 X39.589 Y96.903
G1 X71.241 Y127.312 E263.8623
G1 X70.808 Y127.434
G1 X39.547 Y97.401 E266.0251
G1 X39.506 Y97.899
G1 X70.300 Y127.484 E268.1556
G1 X69.789 Y127.531
G1 X39.464 Y98.397 E270.2536
G1 X39.423 Y98.895
G1 X69.278 Y127.578 E272.3191
G1 X68.767 Y127.625
G1 X39.381 Y99.393 E274.3521
G1 X39.383 Y99.933
G1 X68.256 Y127.672 E276.3497
G1 X67.745 Y127.719
G1 X39.432 Y100.518 E278.3085
G1 X39.481 Y101.103
G1 X67.234 Y127.766 E280.2285
G1 X66.723 Y127.813
G1 X39.530 Y101.688 E282.1099
G1 X39.578 Y102.272
G1 X66.212 Y127.860 E283.9525
G1 X65.606 Y127.816
G1 X39.627 Y102.857 E285.7498
G1 X39.676 Y103.442
G1 X64.987 Y127.759 E287.5010
G1 X64.368 Y127.702
G1 X39.725 Y104.026 E289.2059
G1 X39.785 Y104.622
G1 X63.749 Y127.645 E290.8638
G1 X63.130 Y127.588
G1 X39.966 Y105.335 E292.4664
G1 X40.148 Y106.047
G1 X62.511 Y127.531 E294.0135
G1 X61.892 Y127.474
G1 X40.330 Y106.759 E295.5052
G1 X40.511 Y107.472
G1 X61.206 Y127.353 E296.9369
G1 X44.604 Y116.245 F10800
G1 X52.776 Y124.095 E297.5023 F3600
G1 X50.389 Y122.340 F10800
G1 X45.601 Y117.741 E297.8335 F3600
G1 X43.607 Y114.749 F10800
G1 X53.922 Y124.659 E298.5472 F3600
G1 X57.246 Y126.239 F10800
G1 X41.983 Y111.576 E299.6031 F3600
G1 X42.400 Y112.513 F10800
G1 X56.208 Y125.780 E300.5584 F3600
G1 X42.816 Y113.451 F10800
G1 X55.065 Y125.219 E301.4059 F3600
G1 X41.567 Y110.638 F10800
G1 X58.038 Y126.462 E302.5454 F3600
G1 X58.830 Y126.685
G1 X41.151 Y109.700 E303.7685
G1 X40.874 Y108.896
G1 X59.622 Y126.908 E305.0655
G1 X60.414 Y127.130
G1 X40.693 Y108.184 E306.4299
G1 X89.761 Y86.474 F10800
G1 X76.474 Y73.708 E307.3492 F3600
G1 X78.759 Y74.828 F10800
G1 X88.361 Y84.052 E308.0135 F3600
G1 X87.364 Y82.557 F10800
G1 X80.320 Y75.790 E308.5008 F3600
G1 X82.707 Y77.545 F10800
G1 X84.943 Y79.693 E308.6554 F3600
G1 X73.734 Y72.690 F10800
G1 X91.010 Y89.287 E309.8506 F3600
G1 X75.331 Y73.148 F10800
G1 X90.178 Y87.412 E310.8778 F3600
G1 X77.616 Y74.268 F10800
G1 X89.345 Y85.536 E311.6892 F3600
G1 X91.547 Y90.878 F10800
G1 X72.150 Y72.244 E313.0311 F3600
G1 X90.594 Y88.349 F10800
G1 X74.526 Y72.913 E314.1427 F3600
G1 X72.942 Y72.467 F10800
G1 X91.365 Y90.166 E315.4173 F3600
G1 X71.358 Y72.021 F10800
G1 X91.728 Y91.591 E316.8266 F3600
G1 X92.092 Y93.016 F10800
G1 X69.996 Y71.788 E318.3552 F3600
G1 X69.377 Y71.731
G1 X92.273 Y93.728 E319.9393
G1 X91.910 Y92.303 F10800
G1 X70.615 Y71.845 E321.4125 F3600
;segType:Support
G1 F4800 E320.4125
G1 X98.091 Y99.709 F10800
G1 F4800 E321.4125
G1 X98.450 Y99.709 E321.4277 F5400
;segType:HShell
G1 F4800 E320.4277
G1 X99.850 Y100.469 F10800
G1 F4800 E321.4277
G1 X99.938 Y100.554 E321.4338 F3600
;segType:Loop
G1 X99.650 Y100.084 F10800
G1 X99.650 Y98.554 E321.5101 F3600
G1 X110.350 Y98.554 E322.0440
G1 X110.350 Y100.746 E322.1533
G1 X99.650 Y100.746 E322.6872
G1 X99.650 Y100.274 E322.7107
;segType:Perimeter
G1 X99.908 Y100.811 F10800
G1 X99.250 Y101.073 E322.7460 F2159
G1 X99.250 Y98.170 E322.8909
G1 X110.750 Y98.170 E323.4646
G1 X110.750 Y101.130 E323.6123
G1 X99.309 Y101.130 E324.1831
G1 X99.582 Y100.498
;segType:HShell
G1 X110.150 Y99.069 F10800
G1 X109.814 Y98.746 E324.2063 F3600
G1 X109.254 Y98.746
G1 X110.150 Y99.607 E324.2683
G1 X110.150 Y100.145
G1 X108.694 Y98.746 E324.3690
G1 X108.135 Y98.746
G1 X110.016 Y100.554 E324.4992
G1 X109.456 Y100.554
G1 X107.575 Y98.746 E324.6293
G1 X107.015 Y98.746
G1 X108.896 Y100.554 E324.7595
G1 X108.336 Y100.554
G1 X106.455 Y98.746 E324.8896
G1 X105.895 Y98.746
G1 X107.776 Y100.554 E325.0198
G1 X107.216 Y100.554
G1 X105.335 Y98.746 E325.1499
G1 X104.775 Y98.746
G1 X106.656 Y100.554 E325.2801
G1 X106.096 Y100.554
G1 X104.215 Y98.746 E325.4103
G1 X103.655 Y98.746
G1 X105.537 Y100.554 E325.5404
G1 X104.977 Y100.554
G1 X103.095 Y98.746 E325.6706
G1 X102.536 Y98.746
G1 X104.417 Y100.554 E325.8007
G1 X103.857 Y100.554
G1 X101.976 Y98.746 E325.9309
G1 X101.416 Y98.746
G1 X103.297 Y100.554 E326.0610
G1 X102.737 Y100.554
G1 X100.856 Y98.746 E326.1912
G1 X100.296 Y98.746
G1 X102.177 Y100.554 E326.3214
G1 X101.617 Y100.554
G1 X99.850 Y98.856 E326.4436
G1 X99.850 Y99.393
G1 X101.057 Y100.554 E326.5272
G1 X100.498 Y100.554
G1 X99.850 Y99.931 E326.5720
G1 F4800 E325.5720
G1 X117.204 Y102.080 F10800
G1 F4800 E326.5720
G1 X144.691 Y128.488 E328.4737 F3600
;segType:Perimeter
G1 X144.270 Y128.632 F10800
G1 X143.791 Y129.139 E328.5085 F2159
G1 X139.097 Y128.708 E328.7436
G1 X134.487 Y127.410 E328.9826
G1 X130.161 Y125.290 E329.2229
G1 X126.250 Y122.414 E329.4651
G1 X122.872 Y118.866 E329.7095
G1 X120.131 Y114.754 E329.9560
G1 X118.111 Y110.203 E330.2044
G1 X116.875 Y105.353 E330.4541
G1 X116.458 Y100.350 E330.7046
G1 X116.875 Y95.347 E330.9551
G1 X118.111 Y90.497 E331.2048
G1 X120.131 Y85.946 E331.4532
G1 X122.872 Y81.834 E331.6997
G1 X126.250 Y78.286 E331.9441
G1 X130.161 Y75.410 E332.1863
G1 X134.487 Y73.290 E332.4267
G1 X139.097 Y71.992 E332.6656
G1 X143.850 Y71.555 E332.9037
G1 X148.603 Y71.992 E333.1419
G1 X153.213 Y73.290 E333.3808
G1 X157.539 Y75.410 E333.6212
G1 X161.450 Y78.286 E333.8634
G1 X164.828 Y81.834 E334.1078
G1 X167.569 Y85.946 E334.3543
G1 X169.589 Y90.497 E334.6027
G1 X170.825 Y95.347 E334.8524
G1 X171.242 Y100.350 E335.1029
G1 X170.825 Y105.353 E335.3533
G1 X169.589 Y110.203 E335.6031
G1 X167.569 Y114.754 E335.8515
G1 X164.828 Y118.866 E336.0980
G1 X161.450 Y122.414 E336.3424
G1 X157.539 Y125.290 E336.5846
G1 X153.213 Y127.410 E336.8249
G1 X148.603 Y128.708 E337.0639
G1 X143.909 Y129.139 E337.2990
G1 X143.430 Y128.632
;segType:Loop
G1 X142.804 Y128.662 F10800
G1 X139.173 Y128.329 E337.4810 F3600
G1 X134.635 Y127.051 E337.7161
G1 X130.375 Y124.964 E337.9528
G1 X126.521 Y122.129 E338.1915
G1 X123.190 Y118.631 E338.4325
G1 X120.486 Y114.574 E338.6758
G1 X118.492 Y110.081 E338.9210
G1 X117.271 Y105.292 E339.1676
G1 X116.859 Y100.350 E339.4150
G1 X117.271 Y95.408 E339.6624
G1 X118.492 Y90.619 E339.9090
G1 X120.486 Y86.126 E340.1542
G1 X123.190 Y82.069 E340.3975
G1 X126.521 Y78.571 E340.6385
G1 X130.375 Y75.736 E340.8772
G1 X134.635 Y73.648 E341.1139
G1 X139.173 Y72.371 E341.3490
G1 X143.850 Y71.941 E341.5834
G1 X148.527 Y72.371 E341.8177
G1 X153.065 Y73.648 E342.0529
G1 X157.325 Y75.736 E342.2896
G1 X161.179 Y78.571 E342.5283
G1 X164.510 Y82.069 E342.7693
G1 X167.214 Y86.126 E343.0125
G1 X169.208 Y90.619 E343.2577
G1 X170.429 Y95.408 E343.5043
G1 X170.841 Y100.350 E343.7518
G1 X170.429 Y105.292 E343.9992
G1 X169.208 Y110.081 E344.2458
G1 X167.214 Y114.574 E344.4910
G1 X164.510 Y118.631 E344.7342
G1 X161.179 Y122.129 E344.9752
G1 X157.325 Y124.964 E345.2139
G1 X153.065 Y127.051 E345.4506
G1 X148.527 Y128.329 E345.6858
G1 X143.850 Y128.758 E345.9201
G1 X143.001 Y128.680 E345.9626
;segType:HShell
G1 X125.910 Y121.203 F10800
G1 X126.954 Y122.205 E346.0348 F3600
G1 X129.341 Y123.961 F10800
G1 X122.777 Y117.655 E346.4889 F3600
G1 X121.781 Y116.160 F10800
G1 X131.079 Y125.093 E347.1322 F3600
G1 X132.222 Y125.653 F10800
G1 X120.784 Y114.664 E347.9235 F3600
G1 X120.298 Y113.659 F10800
G1 X133.364 Y126.213 E348.8275 F3600
G1 X134.507 Y126.773 F10800
G1 X119.881 Y112.721 E349.8394 F3600
G1 X119.465 Y111.783 F10800
G1 X135.361 Y127.055 E350.9392 F3600
G1 X136.153 Y127.279
G1 X119.049 Y110.846 E352.1225
G1 X118.661 Y109.935 F10800
G1 X136.945 Y127.502 E353.3875 F3600
G1 X137.738 Y127.725
G1 X118.479 Y109.223 E354.7199
G1 X118.297 Y108.510
G1 X138.530 Y127.948 E356.1196
G1 X117.934 Y107.085 F10800
G1 X139.916 Y128.204 E357.6405 F3600
G1 X139.297 Y128.147
G1 X118.116 Y107.798 E359.1059
G1 X117.571 Y105.660 F10800
G1 X141.154 Y128.318 E360.7375 F3600
G1 X140.535 Y128.261
G1 X117.753 Y106.373 E362.3137
G1 X169.878 Y94.054 F10800
G1 X147.402 Y72.461 E363.8687 F3600
G1 X146.782 Y72.404
G1 X170.059 Y94.766 E365.4790
G1 X169.514 Y92.629 F10800
G1 X148.682 Y72.615 E366.9203 F3600
G1 X148.021 Y72.518
G1 X169.696 Y93.342 E368.4199
G1 X149.474 Y72.838 F10800
G1 X169.333 Y91.917 E369.7938 F3600
G1 X169.151 Y91.205
G1 X150.266 Y73.061 E371.1004
G1 X151.058 Y73.284
G1 X168.908 Y90.433 E372.3354
G1 X168.492 Y89.495 F10800
G1 X151.850 Y73.507 E373.4867 F3600
G1 X152.641 Y73.729
G1 X168.076 Y88.557 E374.5545
G1 X167.659 Y87.620 F10800
G1 X153.630 Y74.141 E375.5251 F3600
G1 X154.773 Y74.701 F10800
G1 X167.243 Y86.682 E376.3879 F3600
G1 X166.534 Y85.463 F10800
G1 X155.916 Y75.261 E377.1225 F3600
G1 X157.059 Y75.822 F10800
G1 X165.537 Y83.967 E377.7091 F3600
G1 X164.540 Y82.471 F10800
G1 X159.273 Y77.411 E378.0735 F3600
G1 X170.233 Y95.472 F10800
G1 X146.163 Y72.347 E379.7387 F3600
G1 X145.544 Y72.290
G1 X170.282 Y96.056 E381.4502
G1 X170.331 Y96.641
G1 X144.925 Y72.233 E383.2079
G1 X144.306 Y72.176
G1 X170.380 Y97.226 E385.0118
G1 X170.428 Y97.811
G1 X143.715 Y72.147 E386.8599
G1 X143.204 Y72.194
G1 X170.477 Y98.395 E388.7467
G1 X170.526 Y98.980
G1 X142.693 Y72.241 E390.6723
G1 X142.182 Y72.287
G1 X170.575 Y99.565 E392.6366
G1 X170.623 Y100.150
G1 X141.671 Y72.334 E394.6396
G1 X141.160 Y72.381
G1 X170.613 Y100.677 E396.6772
G1 X170.571 Y101.175
G1 X140.649 Y72.428 E398.7474
G1 X140.138 Y72.475
G1 X170.530 Y101.673 E400.8500
G1 X170.488 Y102.171
G1 X139.627 Y72.522 E402.9850
G1 X139.131 Y72.583
G1 X170.447 Y102.669 E405.1516
G1 X170.405 Y103.167
G1 X138.698 Y72.705 E407.3452
G1 X138.265 Y72.827
G1 X170.364 Y103.665 E409.5660
G1 X170.322 Y104.163
G1 X137.832 Y72.949 E411.8138
G1 X137.399 Y73.071
G1 X170.281 Y104.661 E414.0887
G1 X170.239 Y105.159
G1 X136.966 Y73.193 E416.3907
G1 X136.533 Y73.315
G1 X170.143 Y105.605 E418.7160
G1 X170.033 Y106.037
G1 X136.100 Y73.436 E421.0636
G1 X135.667 Y73.558
G1 X169.923 Y106.469 E423.4336
G1 X169.813 Y106.901
G1 X135.234 Y73.680 E425.8259
G1 X134.801 Y73.802
G1 X169.702 Y107.333 E428.2405
G1 X169.592 Y107.765
G1 X134.417 Y73.971 E430.6741
G1 X134.046 Y74.153
G1 X169.482 Y108.197 E433.1257
G1 X169.372 Y108.630
G1 X133.675 Y74.335 E435.5954
G1 X133.304 Y74.516
G1 X169.262 Y109.062 E438.0830
G1 X169.152 Y109.494
G1 X132.934 Y74.698 E440.5887
G1 X132.563 Y74.880
G1 X169.042 Y109.926 E443.1125
G1 X168.887 Y110.315
G1 X132.192 Y75.062 E445.6511
G1 X131.821 Y75.243
G1 X168.719 Y110.692 E448.2039
G1 X168.552 Y111.069
G1 X131.451 Y75.425 E450.7707
G1 X131.080 Y75.607
G1 X168.385 Y111.446 E453.3516
G1 X168.217 Y111.823
G1 X130.709 Y75.788 E455.9465
G1 X130.359 Y75.990
G1 X168.050 Y112.200 E458.5541
G1 X167.883 Y112.578
G1 X130.042 Y76.223 E461.1720
G1 X129.725 Y76.457
G1 X167.715 Y112.955 E463.8003
G1 X167.548 Y113.332
G1 X129.408 Y76.690 E466.4390
G1 X129.091 Y76.923
G1 X167.380 Y113.709 E469.0880
G1 X167.213 Y114.086
G1 X128.774 Y77.156 E471.7474
G1 X128.457 Y77.389
G1 X167.046 Y114.463 E474.4171
G1 X166.830 Y114.794
G1 X128.139 Y77.623 E477.0939
G1 X127.822 Y77.856
G1 X166.611 Y115.122 E479.7775
G1 X166.393 Y115.450
G1 X127.505 Y78.089 E482.4679
G1 X127.188 Y78.322
G1 X166.174 Y115.777 E485.1651
G1 X165.956 Y116.105
G1 X126.871 Y78.556 E487.8691
G1 X126.570 Y78.804
G1 X165.737 Y116.433 E490.5788
G1 X165.518 Y116.761
G1 X126.302 Y79.085 E493.2919
G1 X126.035 Y79.366
G1 X165.300 Y117.089 E496.0084
G1 X165.081 Y117.417
G1 X125.767 Y79.647 E498.7283
G1 X125.500 Y79.928
G1 X164.863 Y117.745 E501.4516
G1 X164.644 Y118.073
G1 X125.232 Y80.209 E504.1782
G1 X124.965 Y80.490
G1 X164.426 Y118.401 E506.9083
G1 X164.175 Y118.698
G1 X124.697 Y80.771 E509.6395
G1 X124.430 Y81.052
G1 X163.907 Y118.979 E512.3706
G1 X163.640 Y119.260
G1 X124.163 Y81.333 E515.1018
G1 X123.895 Y81.614
G1 X163.372 Y119.541 E517.8330
G1 X163.105 Y119.822
G1 X123.628 Y81.895 E520.5642
G1 X123.360 Y82.175
G1 X162.838 Y120.103 E523.2954
G1 X162.570 Y120.383
G1 X123.140 Y82.501 E526.0234
G1 X122.921 Y82.829
G1 X162.303 Y120.664 E528.7479
G1 X162.035 Y120.945
G1 X122.702 Y83.157 E531.4691
G1 X122.484 Y83.485
G1 X161.768 Y121.226 E534.1870
G1 X161.500 Y121.507
G1 X122.265 Y83.813 E536.9014
G1 X122.047 Y84.141
G1 X161.233 Y121.788 E539.6125
G1 X160.951 Y122.055
G1 X121.828 Y84.469 E542.3191
G1 X121.610 Y84.797
G1 X160.634 Y122.288 E545.0189
G1 X160.317 Y122.522
G1 X121.391 Y85.125 E547.7119
G1 X121.172 Y85.453
G1 X159.999 Y122.755 E550.3982
G1 X159.682 Y122.988
G1 X120.954 Y85.781 E553.0775
G1 X120.735 Y86.109
G1 X159.365 Y123.221 E555.7501
G1 X159.048 Y123.455
G1 X120.551 Y86.470 E558.4134
G1 X120.384 Y86.847
G1 X158.731 Y123.688 E561.0664
G1 X158.414 Y123.921
G1 X120.216 Y87.224 E563.7091
G1 X120.049 Y87.601
G1 X158.097 Y124.154 E566.3413
G1 X157.779 Y124.387
G1 X119.882 Y87.978 E568.9632
G1 X119.714 Y88.355
G1 X157.462 Y124.621 E571.5748
G1 X157.133 Y124.842
G1 X119.547 Y88.732 E574.1751
G1 X119.380 Y89.109
G1 X156.762 Y125.024 E576.7614
G1 X156.391 Y125.205
G1 X119.212 Y89.486 E579.3336
G1 X119.045 Y89.864
G1 X156.021 Y125.387 E581.8917
G1 X155.650 Y125.569
G1 X118.877 Y90.241 E584.4358
G1 X118.710 Y90.618
G1 X155.279 Y125.750 E586.9657
G1 X154.908 Y125.932
G1 X118.590 Y91.041 E589.4783
G1 X118.480 Y91.473
G1 X154.537 Y126.114 E591.9729
G1 X154.167 Y126.296
G1 X118.370 Y91.905 E594.4494
G1 X118.260 Y92.337
G1 X153.796 Y126.477 E596.9079
G1 X153.425 Y126.659
G1 X118.150 Y92.769 E599.3484
G1 X118.040 Y93.201
G1 X153.054 Y126.841 E601.7708
G1 X152.632 Y126.973
G1 X117.930 Y93.633 E604.1717
G1 X117.819 Y94.065
G1 X152.199 Y127.095 E606.5503
G1 X151.766 Y127.217
G1 X117.709 Y94.497 E608.9065
G1 X117.599 Y94.929
G1 X151.333 Y127.339 E611.2403
G1 X150.900 Y127.461
G1 X117.489 Y95.361 E613.5518
G1 X117.435 Y95.848
G1 X150.467 Y127.582 E615.8371
G1 X150.034 Y127.704
G1 X117.393 Y96.346 E618.0953
G1 X117.352 Y96.844
G1 X149.601 Y127.826 E620.3264
G1 X149.168 Y127.948
G1 X117.310 Y97.342 E622.5305
G1 X117.269 Y97.840
G1 X148.735 Y128.070 E624.7074
G1 X148.268 Y128.160
G1 X117.227 Y98.338 E626.8549
G1 X117.186 Y98.836
G1 X147.757 Y128.207 E628.9700
G1 X147.246 Y128.253
G1 X117.144 Y99.334 E631.0526
G1 X117.103 Y99.832
G1 X146.735 Y128.300 E633.1027
G1 X146.224 Y128.347
G1 X117.061 Y100.330 E635.1203
G1 X117.106 Y100.911
G1 X145.713 Y128.394 E637.0994
G1 X145.202 Y128.441
G1 X117.155 Y101.496 E639.0398
G1 X144.180 Y128.535 F10800
G1 X117.253 Y102.665 E640.9027 F3600
G1 X117.301 Y103.250
G1 X143.631 Y128.545 E642.7242
G1 X143.012 Y128.488
G1 X117.350 Y103.835 E644.4995
G1 X117.399 Y104.419
G1 X142.392 Y128.431 E646.2287
G1 X141.773 Y128.375
G1 X117.448 Y105.004 E647.9116
G1 F4800 E646.9116
G1 X98.830 Y101.533 F10800
G1 X98.450 Y98.491
G1 F4800 E647.9116
;segType:Support
G1 X98.091 Y98.491 E647.9269 F5400
; ------------------------------------
; Layer #2
; ------------------------------------
G21 ; mm
G90 ; abs
G92 E0 ; reset extr
M106 S255
;segType:Support
G1 F4800 E-1.0000
G1 F300 Z1.000
G1 X98.450 Y98.850 F10800
G1 F4800 E0.0000
G1 X98.391 Y98.791 E0.0036 F5400
G1 X98.450 Y98.791 E0.0061
;segType:HShell
G1 F4800 E-0.9939
G1 X103.814 Y98.424 F10800
G1 F4800 E0.0061
G1 X101.277 Y100.862 E0.1816 F3600
G1 X100.718 Y100.861
G1 X103.254 Y98.425 E0.3570
G1 X102.693 Y98.426
G1 X100.160 Y100.860 E0.5323
;segType:Perimeter
G1 X99.909 Y101.116 F10800
G1 X99.250 Y101.377 E0.5676 F2159
G1 X99.250 Y97.854 E0.7434
G1 X110.248 Y97.840 E1.2921
G1 X110.750 Y97.859 E1.3172
G1 X110.750 Y101.441 E1.4959
G1 X110.248 Y101.460 E1.5209
G1 X99.309 Y101.434 E2.0667
G1 X99.582 Y100.802
;segType:Loop
G1 X99.650 Y100.388 F10800
G1 X99.650 Y98.237 E2.1740 F3600
G1 X110.241 Y98.224 E2.7024
G1 X110.350 Y98.228 E2.7078
G1 X110.350 Y101.072 E2.8497
G1 X110.241 Y101.076 E2.8551
G1 X99.650 Y101.051 E3.3835
G1 X99.650 Y100.578 E3.4071
;segType:HShell
G1 X99.850 Y100.619 F10800
G1 X102.132 Y98.427 E3.5650 F3600
G1 X101.572 Y98.427
G1 X99.850 Y100.081 E3.6842
G1 X99.850 Y99.544
G1 X101.011 Y98.428 E3.7645
G1 X100.451 Y98.429
G1 X99.850 Y99.006 E3.8060
G1 X109.654 Y100.882 F10800
G1 X110.150 Y100.406 E3.8403 F3600
G1 X110.150 Y99.868
G1 X109.096 Y100.881 E3.9133
G1 X108.537 Y100.880
G1 X110.150 Y99.330 E4.0249
G1 X110.150 Y98.792
G1 X107.979 Y100.878 E4.1751
G1 X107.420 Y100.877
G1 X109.981 Y98.417 E4.3522
G1 X109.421 Y98.417
G1 X106.862 Y100.876 E4.5293
G1 X106.303 Y100.874
G1 X108.860 Y98.418 E4.7061
G1 X108.299 Y98.419
G1 X105.745 Y100.873 E4.8829
G1 X105.186 Y100.872
G1 X107.739 Y98.419 E5.0594
G1 X107.178 Y98.420
G1 X104.628 Y100.870 E5.2359
G1 X104.069 Y100.869
G1 X106.617 Y98.421 E5.4122
G1 X106.057 Y98.422
G1 X103.511 Y100.868 E5.5883
G1 X102.952 Y100.866
G1 X105.496 Y98.422 E5.7643
G1 X104.936 Y98.423
G1 X102.394 Y100.865 E5.9402
G1 X101.835 Y100.864
G1 X104.375 Y98.424 E6.1159
G1 F4800 E5.1159
G1 X170.362 Y103.342 F10800
G1 F4800 E6.1159
G1 X144.170 Y128.506 E7.9280 F3600
;segType:Perimeter
G1 X144.270 Y128.602 F10800
G1 X143.791 Y129.109 E7.9628 F2159
G1 X139.102 Y128.678 E8.1977
G1 X134.497 Y127.381 E8.4364
G1 X130.176 Y125.264 E8.6764
G1 X126.269 Y122.391 E8.9184
G1 X122.894 Y118.846 E9.1626
G1 X120.156 Y114.739 E9.4088
G1 X118.139 Y110.193 E9.6570
G1 X116.903 Y105.348 E9.9064
G1 X116.487 Y100.350 E10.1566
G1 X116.903 Y95.352 E10.4068
G1 X118.139 Y90.507 E10.6563
G1 X120.156 Y85.961 E10.9044
G1 X122.894 Y81.854 E11.1507
G1 X126.269 Y78.309 E11.3949
G1 X130.176 Y75.436 E11.6368
G1 X134.497 Y73.318 E11.8769
G1 X139.102 Y72.022 E12.1156
G1 X143.850 Y71.585 E12.3535
G1 X148.598 Y72.022 E12.5913
G1 X153.203 Y73.318 E12.8300
G1 X157.525 Y75.436 E13.0701
G1 X161.431 Y78.309 E13.3121
G1 X164.806 Y81.854 E13.5562
G1 X167.544 Y85.961 E13.8025
G1 X169.562 Y90.507 E14.0506
G1 X170.797 Y95.352 E14.3001
G1 X171.213 Y100.350 E14.5503
G1 X170.797 Y105.348 E14.8005
G1 X169.562 Y110.193 E15.0500
G1 X167.544 Y114.739 E15.2981
G1 X164.806 Y118.846 E15.5444
G1 X161.431 Y122.391 E15.7885
G1 X157.525 Y125.264 E16.0305
G1 X153.203 Y127.381 E16.2706
G1 X148.598 Y128.678 E16.5092
G1 X143.909 Y129.109 E16.7442
G1 X143.430 Y128.602
;segType:Loop
G1 X142.804 Y128.632 F10800
G1 X139.178 Y128.299 E16.9258 F3600
G1 X134.645 Y127.023 E17.1608
G1 X130.390 Y124.938 E17.3972
G1 X126.540 Y122.106 E17.6356
G1 X123.212 Y118.611 E17.8764
G1 X120.511 Y114.559 E18.1194
G1 X118.519 Y110.071 E18.3643
G1 X117.300 Y105.287 E18.6107
G1 X116.888 Y100.350 E18.8578
G1 X117.300 Y95.414 E19.1049
G1 X118.519 Y90.629 E19.3513
G1 X120.511 Y86.141 E19.5962
G1 X123.212 Y82.089 E19.8392
G1 X126.540 Y78.594 E20.0800
G1 X130.390 Y75.762 E20.3184
G1 X134.645 Y73.677 E20.5548
G1 X139.178 Y72.401 E20.7897
G1 X143.850 Y71.971 E21.0238
G1 X148.522 Y72.401 E21.2579
G1 X153.055 Y73.677 E21.4928
G1 X157.310 Y75.762 E21.7293
G1 X161.160 Y78.594 E21.9677
G1 X164.488 Y82.089 E22.2084
G1 X167.189 Y86.141 E22.4514
G1 X169.181 Y90.629 E22.6964
G1 X170.400 Y95.414 E22.9427
G1 X170.812 Y100.350 E23.1898
G1 X170.400 Y105.287 E23.4370
G1 X169.181 Y110.071 E23.6833
G1 X167.189 Y114.559 E23.9283
G1 X164.488 Y118.611 E24.1712
G1 X161.160 Y122.106 E24.4120
G1 X157.310 Y124.938 E24.6504
G1 X153.055 Y127.023 E24.8869
G1 X148.522 Y128.299 E25.1218
G1 X143.850 Y128.728 E25.3559
G1 X143.001 Y128.650 E25.3984
;segType:HShell
G1 X164.721 Y117.906 F10800
G1 X158.774 Y123.619 E25.8098 F3600
G1 X156.812 Y124.966 F10800
G1 X165.718 Y116.410 E26.4259 F3600
G1 X166.714 Y114.915 F10800
G1 X155.670 Y125.526 E27.1900 F3600
G1 X154.527 Y126.086 F10800
G1 X167.304 Y113.811 E28.0740 F3600
G1 X167.720 Y112.873 F10800
G1 X153.384 Y126.646 E29.0658 F3600
G1 X152.468 Y126.988
G1 X168.136 Y111.935 E30.1497
G1 X168.552 Y110.998 F10800
G1 X151.676 Y127.211 E31.3173 F3600
G1 X150.884 Y127.434
G1 X168.968 Y110.060 E32.5684
G1 X169.162 Y109.336
G1 X150.092 Y127.657 E33.8878
G1 X149.300 Y127.880
G1 X169.344 Y108.623 E35.2745
G1 X169.526 Y107.911
G1 X148.508 Y128.103 E36.7286
G1 X169.889 Y106.486 F10800
G1 X147.265 Y128.222 E38.2938 F3600
G1 X147.884 Y128.165
G1 X169.707 Y107.198 E39.8037
G1 X118.024 Y93.379 F10800
G1 X139.710 Y72.545 E41.3040 F3600
G1 X140.329 Y72.488
G1 X117.842 Y94.091 E42.8597
G1 X139.056 Y72.635 F10800
G1 X118.206 Y92.667 E44.3022 F3600
G1 X118.387 Y91.954
G1 X138.264 Y72.858 E45.6773
G1 X137.472 Y73.081
G1 X118.569 Y91.242 E46.9851
G1 X118.803 Y90.479
G1 X136.680 Y73.304 E48.2219
G1 X135.888 Y73.527
G1 X119.219 Y89.541 E49.3751
G1 X119.635 Y88.604 F10800
G1 X135.097 Y73.750 E50.4448 F3600
G1 X134.121 Y74.149 F10800
G1 X120.052 Y87.666 E51.4182 F3600
G1 X120.468 Y86.728 F10800
G1 X132.978 Y74.710 E52.2836 F3600
G1 X131.835 Y75.270 F10800
G1 X121.157 Y85.528 E53.0224 F3600
G1 X122.154 Y84.033 F10800
G1 X130.692 Y75.830 E53.6131 F3600
G1 X128.516 Y77.382 F10800
G1 X123.150 Y82.537 E53.9843 F3600
G1 X117.661 Y94.804 F10800
G1 X140.948 Y72.431 E55.5954 F3600
G1 X141.567 Y72.374
G1 X117.493 Y95.503 E57.2610
G1 X117.444 Y96.088
G1 X142.187 Y72.317 E58.9728
G1 X142.806 Y72.260
G1 X117.395 Y96.673 E60.7308
G1 X117.346 Y97.258
G1 X143.425 Y72.203 E62.5350
G1 X144.010 Y72.179
G1 X117.298 Y97.842 E64.3830
G1 X117.249 Y98.427
G1 X144.521 Y72.226 E66.2698
G1 X145.032 Y72.273
G1 X117.200 Y99.012 E68.1954
G1 X117.151 Y99.597
G1 X145.543 Y72.320 E70.1596
G1 X146.054 Y72.367
G1 X117.103 Y100.181 E72.1626
G1 X117.118 Y100.704
G1 X146.565 Y72.414 E74.1998
G1 X147.076 Y72.461
G1 X117.160 Y101.202 E76.2696
G1 X117.201 Y101.700
G1 X147.587 Y72.508 E78.3718
G1 X148.098 Y72.555
G1 X117.243 Y102.198 E80.5065
G1 X117.284 Y102.696
G1 X148.590 Y72.620 E82.6723
G1 X149.023 Y72.742
G1 X117.326 Y103.194 E84.8653
G1 X117.367 Y103.692
G1 X149.456 Y72.864 E87.0853
G1 X149.889 Y72.986
G1 X117.409 Y104.190 E89.3324
G1 X117.450 Y104.688
G1 X150.322 Y73.108 E91.6066
G1 X150.755 Y73.229
G1 X117.492 Y105.186 E93.9079
G1 X117.592 Y105.628
G1 X151.188 Y73.351 E96.2322
G1 X151.621 Y73.473
G1 X117.703 Y106.060 E98.5788
G1 X117.813 Y106.492
G1 X152.054 Y73.595 E100.9477
G1 X152.487 Y73.717
G1 X117.923 Y106.924 E103.3390
G1 X118.033 Y107.356
G1 X152.920 Y73.839 E105.7527
G1 X153.300 Y74.012
G1 X118.143 Y107.788 E108.1849
G1 X118.253 Y108.220
G1 X153.670 Y74.194 E110.6352
G1 X154.041 Y74.376
G1 X118.363 Y108.652 E113.1036
G1 X118.474 Y109.084
G1 X154.412 Y74.557 E115.5899
G1 X154.783 Y74.739
G1 X118.584 Y109.516 E118.0943
G1 X118.694 Y109.949
G1 X155.153 Y74.921 E120.6167
G1 X155.524 Y75.103
G1 X118.853 Y110.333 E123.1537
G1 X119.020 Y110.711
G1 X155.895 Y75.284 E125.7049
G1 X156.266 Y75.466
G1 X119.188 Y111.088 E128.2701
G1 X119.355 Y111.465
G1 X156.636 Y75.648 E130.8493
G1 X157.007 Y75.829
G1 X119.523 Y111.842 E133.4426
G1 X119.690 Y112.219
G1 X157.353 Y76.035 E136.0483
G1 X157.670 Y76.269
G1 X119.857 Y112.596 E138.6643
G1 X120.025 Y112.973
G1 X157.987 Y76.502 E141.2907
G1 X158.304 Y76.735
G1 X120.192 Y113.350 E143.9274
G1 X120.359 Y113.728
G1 X158.621 Y76.968 E146.5745
G1 X158.938 Y77.202
G1 X120.527 Y114.105 E149.2320
G1 X120.696 Y114.480
G1 X159.255 Y77.435 E151.8996
G1 X159.573 Y77.668
G1 X120.914 Y114.808 E154.5742
G1 X121.133 Y115.136
G1 X159.890 Y77.901 E157.2555
G1 X160.207 Y78.134
G1 X121.352 Y115.464 E159.9437
G1 X121.570 Y115.792
G1 X160.524 Y78.368 E162.6386
G1 X160.841 Y78.601
G1 X121.789 Y116.120 E165.3404
G1 X122.007 Y116.448
G1 X161.137 Y78.854 E168.0476
G1 X161.405 Y79.135
G1 X122.226 Y116.776 E170.7582
G1 X122.444 Y117.103
G1 X161.672 Y79.416 E173.4721
G1 X161.940 Y79.697
G1 X122.663 Y117.431 E176.1894
G1 X122.881 Y117.759
G1 X162.207 Y79.978 E178.9101
G1 X162.475 Y80.259
G1 X123.100 Y118.087 E181.6342
G1 X123.319 Y118.415
G1 X162.742 Y80.540 E184.3617
G1 X163.010 Y80.821
G1 X123.574 Y118.707 E187.0900
G1 X123.842 Y118.988
G1 X163.277 Y81.102 E189.8183
G1 X163.545 Y81.383
G1 X124.109 Y119.269 E192.5466
G1 X124.377 Y119.550
G1 X163.812 Y81.663 E195.2748
G1 X164.080 Y81.944
G1 X124.644 Y119.831 E198.0031
G1 X124.912 Y120.112
G1 X164.344 Y82.229 E200.7312
G1 X164.562 Y82.556
G1 X125.179 Y120.393 E203.4559
G1 X125.447 Y120.674
G1 X164.781 Y82.884 E206.1771
G1 X165.000 Y83.212
G1 X125.714 Y120.955 E208.8950
G1 X125.982 Y121.236
G1 X165.218 Y83.540 E211.6096
G1 X165.437 Y83.868
G1 X126.249 Y121.516 E214.3207
G1 X126.517 Y121.797
G1 X165.655 Y84.196 E217.0284
G1 X165.874 Y84.524
G1 X126.805 Y122.059 E219.7314
G1 X127.122 Y122.292
G1 X166.092 Y84.852 E222.4275
G1 X166.311 Y85.180
G1 X127.439 Y122.525 E225.1168
G1 X127.756 Y122.759
G1 X166.529 Y85.508 E227.7993
G1 X166.748 Y85.836
G1 X128.073 Y122.992 E230.4750
G1 X128.390 Y123.225
G1 X166.967 Y86.164 E233.1439
G1 X167.145 Y86.531
G1 X128.707 Y123.458 E235.8031
G1 X129.024 Y123.691
G1 X167.312 Y86.908 E238.4520
G1 X167.479 Y87.285
G1 X129.342 Y123.925 E241.0905
G1 X129.659 Y124.158
G1 X167.647 Y87.662 E243.7186
G1 X167.814 Y88.039
G1 X129.976 Y124.391 E246.3364
G1 X130.293 Y124.624
G1 X167.981 Y88.416 E248.9438
G1 X168.149 Y88.793
G1 X130.629 Y124.839 E251.5396
G1 X131.000 Y125.021
G1 X168.316 Y89.170 E254.1212
G1 X168.483 Y89.548
G1 X131.371 Y125.203 E256.6888
G1 X131.742 Y125.384
G1 X168.651 Y89.925 E259.2424
G1 X168.818 Y90.302
G1 X132.112 Y125.566 E261.7818
G1 X132.483 Y125.748
G1 X168.985 Y90.679 E264.3072
G1 X169.097 Y91.109
G1 X132.854 Y125.929 E266.8146
G1 X133.225 Y126.111
G1 X169.207 Y91.541 E269.3040
G1 X169.318 Y91.973
G1 X133.595 Y126.293 E271.7754
G1 X133.966 Y126.474
G1 X169.428 Y92.406 E274.2288
G1 X169.538 Y92.838
G1 X134.337 Y126.656 E276.6641
G1 X134.708 Y126.838
G1 X169.648 Y93.270 E279.0814
G1 X169.758 Y93.702
G1 X135.139 Y126.962 E281.4765
G1 X135.572 Y127.084
G1 X169.868 Y94.134 E283.8493
G1 X169.979 Y94.566
G1 X136.005 Y127.205 E286.1998
G1 X136.438 Y127.327
G1 X170.089 Y94.998 E288.5278
G1 X170.199 Y95.430
G1 X136.871 Y127.449 E290.8336
G1 X137.304 Y127.571
G1 X170.243 Y95.926 E293.1124
G1 X170.284 Y96.424
G1 X137.737 Y127.693 E295.3642
G1 X138.170 Y127.815
G1 X170.326 Y96.922 E297.5889
G1 X170.367 Y97.420
G1 X138.603 Y127.937 E299.7865
G1 X139.036 Y128.059
G1 X170.409 Y97.918 E301.9570
G1 X170.450 Y98.416
G1 X139.514 Y128.137 E304.0973
G1 X140.025 Y128.184
G1 X170.492 Y98.914 E306.2051
G1 X170.533 Y99.412
G1 X140.536 Y128.231 E308.2804
G1 X141.047 Y128.278
G1 X170.575 Y99.910 E310.3232
G1 X170.606 Y100.418
G1 X141.558 Y128.325 E312.3328
G1 X142.070 Y128.372
G1 X170.557 Y101.003 E314.3037
G1 X170.508 Y101.588
G1 X142.581 Y128.419 E316.2359
G1 X143.092 Y128.465
G1 X170.460 Y102.172 E318.1293
G1 X170.411 Y102.757
G1 X143.603 Y128.512 E319.9839
G1 X170.313 Y103.927 F10800
G1 X144.789 Y128.449 E321.7498 F3600
G1 X145.408 Y128.392
G1 X170.264 Y104.511 E323.4695
G1 X170.216 Y105.096
G1 X146.027 Y128.335 E325.1430
G1 X146.646 Y128.278
G1 X170.070 Y105.774 E326.7636
G1 F4800 E325.7636
G1 X98.830 Y101.837 F10800
G1 X98.450 Y99.409
G1 F4800 E326.7636
;segType:Support
G1 X98.391 Y99.409 E326.7661 F5400
G1 F4800 E325.7661
G1 X95.720 Y99.282 F10800
G1 X93.050 Y99.154
G1 X39.643 Y96.603
G1 F4800 E326.7661
;segType:HShell
G1 X65.772 Y71.500 E328.5739 F3600
;segType:Perimeter
G1 X65.730 Y71.398 F10800
G1 X66.209 Y70.891 E328.6087 F2159
G1 X70.898 Y71.322 E328.8436
G1 X75.503 Y72.619 E329.0823
G1 X79.824 Y74.736 E329.3223
G1 X83.732 Y77.609 E329.5643
G1 X87.106 Y81.154 E329.8085
G1 X89.844 Y85.261 E330.0548
G1 X91.861 Y89.807 E330.3029
G1 X93.097 Y94.652 E330.5524
G1 X93.513 Y99.650 E330.8026
G1 X93.097 Y104.648 E331.0528
G1 X91.861 Y109.493 E331.3022
G1 X89.844 Y114.039 E331.5504
G1 X87.106 Y118.146 E331.7966
G1 X83.732 Y121.691 E332.0408
G1 X79.824 Y124.564 E332.2828
G1 X75.503 Y126.682 E332.5228
G1 X70.898 Y127.978 E332.7615
G1 X66.150 Y128.415 E332.9994
G1 X61.402 Y127.978 E333.2373
G1 X56.797 Y126.682 E333.4760
G1 X52.475 Y124.564 E333.7160
G1 X48.569 Y121.691 E333.9580
G1 X45.194 Y118.146 E334.2022
G1 X42.456 Y114.039 E334.4484
G1 X40.439 Y109.493 E334.6966
G1 X39.203 Y104.648 E334.9460
G1 X38.787 Y99.650 E335.1962
G1 X39.203 Y94.652 E335.4465
G1 X40.439 Y89.807 E335.6959
G1 X42.456 Y85.261 E335.9440
G1 X45.194 Y81.154 E336.1903
G1 X48.569 Y77.609 E336.4345
G1 X52.475 Y74.736 E336.6764
G1 X56.797 Y72.619 E336.9165
G1 X61.402 Y71.322 E337.1552
G1 X66.091 Y70.891 E337.3901
G1 X66.570 Y71.398
;segType:Loop
G1 X67.196 Y71.368 F10800
G1 X70.822 Y71.701 E337.5718 F3600
G1 X75.355 Y72.977 E337.8067
G1 X79.610 Y75.062 E338.0432
G1 X83.461 Y77.894 E338.2816
G1 X86.788 Y81.389 E338.5224
G1 X89.489 Y85.441 E338.7653
G1 X91.481 Y89.929 E339.0103
G1 X92.700 Y94.713 E339.2566
G1 X93.112 Y99.650 E339.5037
G1 X92.700 Y104.586 E339.7509
G1 X91.481 Y109.371 E339.9972
G1 X89.489 Y113.858 E340.2421
G1 X86.788 Y117.911 E340.4851
G1 X83.461 Y121.406 E340.7259
G1 X79.610 Y124.238 E340.9643
G1 X75.355 Y126.323 E341.2007
G1 X70.822 Y127.599 E341.4357
G1 X66.150 Y128.029 E341.6697
G1 X61.478 Y127.599 E341.9038
G1 X56.945 Y126.323 E342.1387
G1 X52.690 Y124.238 E342.3751
G1 X48.840 Y121.406 E342.6135
G1 X45.512 Y117.911 E342.8543
G1 X42.811 Y113.858 E343.0973
G1 X40.819 Y109.371 E343.3422
G1 X39.600 Y104.586 E343.5886
G1 X39.188 Y99.650 E343.8357
G1 X39.600 Y94.713 E344.0828
G1 X40.819 Y89.929 E344.3292
G1 X42.811 Y85.441 E344.5741
G1 X45.512 Y81.389 E344.8171
G1 X48.840 Y77.894 E345.0578
G1 X52.690 Y75.062 E345.2963
G1 X56.945 Y72.977 E345.5327
G1 X61.478 Y71.701 E345.7677
G1 X66.150 Y71.272 E346.0017
G1 X66.999 Y71.350 E346.0442
;segType:HShell
G1 X66.349 Y71.483 F10800
G1 X39.594 Y97.188 E347.8953 F3600
G1 X39.545 Y97.773
G1 X66.860 Y71.530 E349.7850
G1 X67.371 Y71.577
G1 X39.496 Y98.358 E351.7136
G1 X39.447 Y98.942
G1 X67.883 Y71.624 E353.6808
G1 X68.394 Y71.671
G1 X39.399 Y99.527 E355.6868
G1 X39.421 Y100.043
G1 X68.905 Y71.718 E357.7266
G1 X69.416 Y71.765
G1 X39.463 Y100.541 E359.7988
G1 X39.504 Y101.039
G1 X69.927 Y71.812 E361.9036
G1 X70.438 Y71.858
G1 X39.546 Y101.537 E364.0408
G1 X39.587 Y102.035
G1 X70.924 Y71.930 E366.2088
G1 X71.357 Y72.052
G1 X39.629 Y102.533 E368.4039
G1 X39.670 Y103.031
G1 X71.790 Y72.173 E370.6260
G1 X72.223 Y72.295
G1 X39.712 Y103.529 E372.8752
G1 X39.754 Y104.027
G1 X72.656 Y72.417 E375.1515
G1 X73.089 Y72.539
G1 X39.795 Y104.525 E377.4549
G1 X39.901 Y104.961
G1 X73.522 Y72.661 E379.7809
G1 X73.955 Y72.783
G1 X40.011 Y105.393 E382.1292
G1 X40.121 Y105.826
G1 X74.388 Y72.905 E384.4999
G1 X74.821 Y73.027
G1 X40.231 Y106.258 E386.8929
G1 X40.342 Y106.690
G1 X75.254 Y73.149 E389.3082
G1 X75.628 Y73.327
G1 X40.452 Y107.122 E391.7419
G1 X40.562 Y107.554
G1 X75.999 Y73.509 E394.1935
G1 X76.370 Y73.690
G1 X40.672 Y107.986 E396.6632
G1 X40.782 Y108.418
G1 X76.741 Y73.872 E399.1510
G1 X77.111 Y74.054
G1 X40.892 Y108.850 E401.6567
G1 X41.003 Y109.282
G1 X77.482 Y74.235 E404.1805
G1 X77.853 Y74.417
G1 X41.166 Y109.663 E406.7186
G1 X41.334 Y110.040
G1 X78.224 Y74.599 E409.2708
G1 X78.594 Y74.780
G1 X41.501 Y110.417 E411.8371
G1 X41.668 Y110.794
G1 X78.965 Y74.962 E414.4175
G1 X79.336 Y75.144
G1 X41.836 Y111.171 E417.0119
G1 X42.003 Y111.548
G1 X79.677 Y75.354 E419.6183
G1 X79.994 Y75.587
G1 X42.170 Y111.926 E422.2352
G1 X42.338 Y112.303
G1 X80.312 Y75.820 E424.8623
G1 X80.629 Y76.053
G1 X42.505 Y112.680 E427.4999
G1 X42.672 Y113.057
G1 X80.946 Y76.287 E430.1478
G1 X81.263 Y76.520
G1 X42.840 Y113.434 E432.8060
G1 X43.013 Y113.806
G1 X81.580 Y76.753 E435.4742
G1 X81.897 Y76.986
G1 X43.232 Y114.134 E438.1493
G1 X43.450 Y114.461
G1 X82.214 Y77.219 E440.8311
G1 X82.532 Y77.453
G1 X43.669 Y114.789 E443.5198
G1 X43.887 Y115.117
G1 X82.849 Y77.686 E446.2153
G1 X83.166 Y77.919
G1 X44.106 Y115.445 E448.9177
G1 X44.324 Y115.773
G1 X83.458 Y78.176 E451.6251
G1 X83.726 Y78.457
G1 X44.543 Y116.101 E454.3359
G1 X44.761 Y116.429
G1 X83.993 Y78.738 E457.0501
G1 X84.261 Y79.019
G1 X44.980 Y116.757 E459.7677
G1 X45.199 Y117.085
G1 X84.528 Y79.300 E462.4887
G1 X84.796 Y79.581
G1 X45.417 Y117.413 E465.2130
G1 X45.636 Y117.741
G1 X85.063 Y79.862 E467.9408
G1 X85.331 Y80.143
G1 X45.895 Y118.029 E470.6691
G1 X46.163 Y118.310
G1 X85.598 Y80.423 E473.3974
G1 X85.866 Y80.704
G1 X46.430 Y118.591 E476.1257
G1 X46.698 Y118.872
G1 X86.133 Y80.985 E478.8540
G1 X86.401 Y81.266
G1 X46.965 Y119.153 E481.5823
G1 X47.233 Y119.434
G1 X86.661 Y81.554 E484.3101
G1 X86.879 Y81.882
G1 X47.500 Y119.715 E487.0345
G1 X47.768 Y119.996
G1 X87.098 Y82.210 E489.7556
G1 X87.317 Y82.538
G1 X48.035 Y120.277 E492.4732
G1 X48.303 Y120.558
G1 X87.535 Y82.866 E495.1875
G1 X87.754 Y83.194
G1 X48.570 Y120.839 E497.8984
G1 X48.838 Y121.119
G1 X87.972 Y83.522 E500.6059
G1 X88.191 Y83.850
G1 X49.129 Y121.377 E503.3083
G1 X49.446 Y121.610
G1 X88.409 Y84.177 E506.0039
G1 X88.628 Y84.505
G1 X49.763 Y121.844 E508.6927
G1 X50.081 Y122.077
G1 X88.847 Y84.833 E511.3747
G1 X89.065 Y85.161
G1 X50.398 Y122.310 E514.0499
G1 X50.715 Y122.543
G1 X89.284 Y85.489 E516.7182
G1 X89.458 Y85.860
G1 X51.032 Y122.777 E519.3767
G1 X51.349 Y123.010
G1 X89.625 Y86.237 E522.0247
G1 X89.792 Y86.614
G1 X51.666 Y123.243 E524.6624
G1 X51.983 Y123.476
G1 X89.960 Y86.991 E527.2898
G1 X90.127 Y87.368
G1 X52.301 Y123.709 E529.9068
G1 X52.618 Y123.943
G1 X90.294 Y87.746 E532.5134
G1 X90.462 Y88.123
G1 X52.958 Y124.153 E535.1081
G1 X53.329 Y124.335
G1 X90.629 Y88.500 E537.6886
G1 X90.796 Y88.877
G1 X53.700 Y124.517 E540.2552
G1 X54.070 Y124.699
G1 X90.964 Y89.254 E542.8076
G1 X91.131 Y89.631
G1 X54.441 Y124.880 E545.3459
G1 X54.812 Y125.062
G1 X91.296 Y90.011 E547.8700
G1 X91.406 Y90.443
G1 X55.183 Y125.244 E550.3761
G1 X55.553 Y125.425
G1 X91.516 Y90.875 E552.8641
G1 X91.626 Y91.307
G1 X55.924 Y125.607 E555.3341
G1 X56.295 Y125.789
G1 X91.736 Y91.739 E557.7861
G1 X91.846 Y92.171
G1 X56.666 Y125.971 E560.2201
G1 X57.039 Y126.150
G1 X91.957 Y92.603 E562.6358
G1 X92.067 Y93.036
G1 X57.472 Y126.272 E565.0291
G1 X57.905 Y126.393
G1 X92.177 Y93.468 E567.4002
G1 X92.287 Y93.900
G1 X58.338 Y126.515 E569.7489
G1 X58.771 Y126.637
G1 X92.397 Y94.332 E572.0752
G1 X92.504 Y94.767
G1 X59.204 Y126.759 E574.3791
G1 X59.637 Y126.881
G1 X92.546 Y95.265 E576.6558
G1 X92.587 Y95.763
G1 X60.070 Y127.003 E578.9054
G1 X60.503 Y127.125
G1 X92.629 Y96.261 E581.1280
G1 X92.670 Y96.759
G1 X60.936 Y127.247 E583.3235
G1 X61.369 Y127.368
G1 X92.712 Y97.257 E585.4919
G1 X92.753 Y97.755
G1 X61.854 Y127.441 E587.6297
G1 X62.365 Y127.488
G1 X92.795 Y98.253 E589.7349
G1 X92.837 Y98.751
G1 X62.876 Y127.535 E591.8077
G1 X63.387 Y127.582
G1 X92.878 Y99.249 E593.8480
G1 X92.902 Y99.764
G1 X63.898 Y127.629 E595.8546
G1 X64.409 Y127.676
G1 X92.853 Y100.348 E597.8225
G1 X92.804 Y100.933
G1 X64.920 Y127.723 E599.7516
G1 X65.431 Y127.770
G1 X92.756 Y101.518 E601.6421
G1 X92.707 Y102.103
G1 X65.942 Y127.817 E603.4937
G1 X66.517 Y127.802
G1 X92.658 Y102.688 E605.3023
G1 X92.609 Y103.272
G1 X67.136 Y127.745 E607.0646
G1 X67.755 Y127.688
G1 X92.561 Y103.857 E608.7807
G1 X92.512 Y104.442
G1 X68.375 Y127.631 E610.4506
G1 X68.994 Y127.574
G1 X92.356 Y105.129 E612.0670
G1 X92.175 Y105.842
G1 X69.613 Y127.517 E613.6279
G1 X70.232 Y127.460
G1 X91.993 Y106.554 E615.1334
G1 X91.811 Y107.266
G1 X70.870 Y127.386 E616.5822
G1 X73.245 Y126.717 F10800
G1 X91.236 Y109.433 E617.8268 F3600
G1 X75.772 Y125.903 F10800
G1 X89.987 Y112.246 E618.8103 F3600
G1 X90.820 Y110.371 F10800
G1 X74.037 Y126.494 E619.9713 F3600
G1 X91.630 Y107.979 F10800
G1 X71.662 Y127.163 E621.3528 F3600
G1 X81.260 Y122.783 F10800
G1 X86.943 Y117.323 E621.7460 F3600
G1 X87.940 Y115.827 F10800
G1 X79.202 Y124.222 E622.3505 F3600
G1 X74.829 Y126.271 F10800
G1 X90.403 Y111.309 E623.4281 F3600
G1 X89.571 Y113.184 F10800
G1 X76.915 Y125.343 E624.3037 F3600
G1 X78.058 Y124.782 F10800
G1 X88.936 Y114.332 E625.0562 F3600
G1 X72.454 Y126.940 F10800
G1 X91.448 Y108.691 E626.3704 F3600
G1 X43.379 Y84.945 F10800
G1 X54.223 Y74.527 E627.1206 F3600
G1 X41.903 Y87.977 F10800
G1 X57.457 Y73.033 E628.1967 F3600
G1 X55.366 Y73.967 F10800
G1 X42.735 Y86.102 E629.0706 F3600
G1 X45.372 Y81.954 F10800
G1 X51.002 Y76.546 E629.4600 F3600
G1 X53.080 Y75.087 F10800
G1 X44.376 Y83.450 E630.0623 F3600
G1 X59.834 Y72.364 F10800
G1 X40.855 Y90.598 E631.3753 F3600
G1 X42.319 Y87.039 F10800
G1 X56.509 Y73.407 E632.3570 F3600
G1 X58.250 Y72.810 F10800
G1 X41.487 Y88.915 E633.5167 F3600
G1 X41.071 Y89.852 F10800
G1 X59.042 Y72.587 E634.7600 F3600
G1 X40.673 Y91.310 F10800
G1 X60.626 Y72.141 E636.1405 F3600
G1 X61.418 Y71.918
G1 X40.491 Y92.022 E637.5882
G1 X39.691 Y96.019 F10800
G1 X65.153 Y71.556 E639.3498 F3600
G1 X64.534 Y71.613
G1 X39.740 Y95.434 E641.0651
G1 X39.789 Y94.849
G1 X63.915 Y71.670 E642.7343
G1 X63.296 Y71.727
G1 X39.947 Y94.160 E644.3497
G1 X40.310 Y92.735 F10800
G1 X62.058 Y71.840 E645.8543 F3600
G1 X62.677 Y71.784
G1 X40.128 Y93.447 E647.4143
; ------------------------------------
; Layer #3
; ------------------------------------
G21 ; mm
G90 ; abs
G92 E0 ; reset extr
M106 S255
;segType:HShell
G1 F4800 E-1.0000
G1 F300 Z1.300
G1 X71.481 Y72.139 F10800
G1 F4800 E0.0000
G1 X71.896 Y72.538 E0.0287 F3600
G1 X71.104 Y72.315
G1 X70.708 Y71.934 E0.0561
G1 X70.089 Y71.877
G1 X70.404 Y72.180 E0.0779
G1 X69.785 Y72.123
G1 X69.470 Y71.821 E0.0996
G1 X68.851 Y71.764
G1 X69.166 Y72.066 E0.1214
G1 X68.546 Y72.009
G1 X68.232 Y71.707 E0.1431
G1 X67.613 Y71.650
G1 X67.927 Y71.952 E0.1648
G1 X67.308 Y71.895
G1 X66.994 Y71.593 E0.1865
G1 X66.375 Y71.537
G1 X66.689 Y71.838 E0.2083
G1 X66.084 Y71.795
G1 X65.825 Y71.546 E0.2262
G1 X65.314 Y71.593
G1 X65.573 Y71.842 E0.2441
;segType:Perimeter
G1 X65.730 Y71.449 F10800
G1 X66.209 Y70.942 E0.2789 F2159
G1 X70.890 Y71.372 E0.5134
G1 X75.487 Y72.667 E0.7517
G1 X79.800 Y74.780 E0.9913
G1 X83.700 Y77.648 E1.2328
G1 X87.069 Y81.187 E1.4766
G1 X89.802 Y85.287 E1.7224
G1 X91.816 Y89.825 E1.9701
G1 X93.049 Y94.661 E2.2191
G1 X93.465 Y99.650 E2.4689
G1 X93.049 Y104.639 E2.7186
G1 X91.816 Y109.476 E2.9677
G1 X89.802 Y114.014 E3.2153
G1 X87.069 Y118.114 E3.4612
G1 X83.700 Y121.652 E3.7049
G1 X79.800 Y124.520 E3.9464
G1 X75.487 Y126.634 E4.1861
G1 X70.890 Y127.928 E4.4243
G1 X66.150 Y128.364 E4.6618
G1 X61.410 Y127.928 E4.8993
G1 X56.813 Y126.634 E5.1375
G1 X52.500 Y124.520 E5.3772
G1 X48.600 Y121.652 E5.6187
G1 X45.231 Y118.114 E5.8625
G1 X42.498 Y114.014 E6.1083
G1 X40.484 Y109.476 E6.3560
G1 X39.251 Y104.639 E6.6050
G1 X38.835 Y99.650 E6.8548
G1 X39.251 Y94.661 E7.1045
G1 X40.484 Y89.825 E7.3535
G1 X42.498 Y85.287 E7.6012
G1 X45.231 Y81.187 E7.8471
G1 X48.600 Y77.648 E8.0908
G1 X52.500 Y74.780 E8.3323
G1 X56.813 Y72.667 E8.5720
G1 X61.410 Y71.372 E8.8102
G1 X66.091 Y70.942 E9.0447
G1 X66.570 Y71.449
;segType:Loop
G1 X67.196 Y71.419 F10800
G1 X70.814 Y71.751 E9.2260 F3600
G1 X75.338 Y73.025 E9.4605
G1 X79.586 Y75.107 E9.6965
G1 X83.429 Y77.932 E9.9345
G1 X86.751 Y81.422 E10.1748
G1 X89.447 Y85.467 E10.4174
G1 X91.435 Y89.946 E10.6619
G1 X92.653 Y94.722 E10.9078
G1 X93.064 Y99.650 E11.1545
G1 X92.653 Y104.578 E11.4012
G1 X91.435 Y109.354 E11.6471
G1 X89.447 Y113.833 E11.8916
G1 X86.751 Y117.879 E12.1341
G1 X83.429 Y121.367 E12.3744
G1 X79.586 Y124.193 E12.6125
G1 X75.338 Y126.276 E12.8484
G1 X70.814 Y127.549 E13.0829
G1 X66.150 Y127.978 E13.3166
G1 X61.486 Y127.549 E13.5503
G1 X56.962 Y126.276 E13.7848
G1 X52.714 Y124.193 E14.0208
G1 X48.871 Y121.367 E14.2588
G1 X45.549 Y117.879 E14.4991
G1 X42.853 Y113.833 E14.7416
G1 X40.865 Y109.354 E14.9862
G1 X39.647 Y104.578 E15.2321
G1 X39.236 Y99.650 E15.4787
G1 X39.647 Y94.722 E15.7254
G1 X40.865 Y89.946 E15.9713
G1 X42.853 Y85.467 E16.2158
G1 X45.549 Y81.422 E16.4584
G1 X48.871 Y77.932 E16.6987
G1 X52.714 Y75.107 E16.9367
G1 X56.962 Y73.025 E17.1727
G1 X61.486 Y71.751 E17.4072
G1 X66.150 Y71.323 E17.6409
G1 X66.999 Y71.401 E17.6834
;segType:HShell
G1 X65.062 Y71.889 F10800
G1 X64.803 Y71.640 E17.7013 F3600
G1 X64.292 Y71.687
G1 X64.551 Y71.936 E17.7193
G1 X64.040 Y71.983
G1 X63.781 Y71.733 E17.7372
G1 X63.269 Y71.780
G1 X63.529 Y72.029 E17.7551
G1 X63.018 Y72.076
G1 X62.758 Y71.827 E17.7731
G1 X62.247 Y71.874
G1 X62.507 Y72.123 E17.7910
G1 X61.996 Y72.170
G1 X61.736 Y71.921 E17.8090
G1 X61.271 Y72.012
G1 X61.498 Y72.230 E17.8247
G1 X61.065 Y72.352
G1 X60.838 Y72.134 E17.8404
G1 X60.405 Y72.256
G1 X60.632 Y72.473 E17.8560
G1 X60.198 Y72.595
G1 X59.972 Y72.378 E17.8717
G1 X59.539 Y72.500
G1 X59.765 Y72.717 E17.8874
G1 X59.332 Y72.839
G1 X59.106 Y72.621 E17.9031
G1 X58.673 Y72.743
G1 X58.899 Y72.961 E17.9187
G1 X58.466 Y73.083
G1 X58.240 Y72.865 E17.9344
G1 X57.807 Y72.987
G1 X58.033 Y73.205 E17.9500
G1 X57.600 Y73.327
G1 X57.374 Y73.109 E17.9657
G1 X56.955 Y73.244
G1 X57.167 Y73.448 E17.9804
G1 X56.790 Y73.624
G1 X56.584 Y73.426 E17.9947
G1 X56.213 Y73.608
G1 X56.420 Y73.806 E18.0090
G1 X56.049 Y73.988
G1 X55.842 Y73.789 E18.0232
G1 X55.472 Y73.971
G1 X55.678 Y74.169 E18.0375
G1 X55.307 Y74.351
G1 X55.101 Y74.153 E18.0518
G1 X54.730 Y74.334
G1 X54.937 Y74.533 E18.0661
G1 X54.566 Y74.714
G1 X54.359 Y74.516 E18.0803
G1 X53.989 Y74.698
G1 X54.195 Y74.896 E18.0946
G1 X53.824 Y75.078
G1 X53.618 Y74.880 E18.1089
G1 X53.247 Y75.061
G1 X53.453 Y75.259 E18.1232
G1 X53.083 Y75.441
G1 X52.876 Y75.243 E18.1374
G1 X52.551 Y75.469
G1 X52.746 Y75.656 E18.1509
G1 X52.429 Y75.889
G1 X52.234 Y75.702 E18.1644
G1 X51.917 Y75.935
G1 X52.112 Y76.123 E18.1780
G1 X51.795 Y76.356
G1 X51.600 Y76.168 E18.1915
G1 X51.283 Y76.401
G1 X51.478 Y76.589 E18.2050
G1 X51.161 Y76.822
G1 X50.965 Y76.635 E18.2185
G1 X50.648 Y76.868
G1 X50.844 Y77.056 E18.2321
G1 X50.527 Y77.289
G1 X50.331 Y77.101 E18.2456
G1 X50.014 Y77.334
G1 X50.210 Y77.522 E18.2592
G1 X49.893 Y77.756
G1 X49.697 Y77.567 E18.2727
G1 X49.380 Y77.800
G1 X49.576 Y77.989 E18.2863
G1 X49.259 Y78.222
G1 X49.062 Y78.034 E18.2999
G1 X48.786 Y78.306
G1 X48.978 Y78.490 E18.3131
G1 X48.710 Y78.771
G1 X48.519 Y78.587 E18.3264
G1 X48.251 Y78.868
G1 X48.443 Y79.052 E18.3396
G1 X48.175 Y79.333
G1 X47.984 Y79.149 E18.3529
G1 X47.716 Y79.430
G1 X47.908 Y79.614 E18.3662
G1 X47.641 Y79.895
G1 X47.449 Y79.711 E18.3794
G1 X47.181 Y79.992
G1 X47.373 Y80.176 E18.3927
G1 X47.106 Y80.457
G1 X46.914 Y80.273 E18.4060
G1 X46.646 Y80.554
G1 X46.838 Y80.738 E18.4192
G1 X46.571 Y81.019
G1 X46.379 Y80.835 E18.4325
G1 X46.111 Y81.116
G1 X46.303 Y81.300 E18.4458
G1 X46.036 Y81.581
G1 X45.844 Y81.397 E18.4590
G1 X45.601 Y81.701
G1 X45.794 Y81.886 E18.4724
G1 X45.575 Y82.214
G1 X45.382 Y82.029 E18.4858
G1 X45.164 Y82.356
G1 X45.357 Y82.542 E18.4991
G1 X45.138 Y82.870
G1 X44.945 Y82.684 E18.5125
G1 X44.726 Y83.012
G1 X44.919 Y83.198 E18.5259
G1 X44.701 Y83.526
G1 X44.508 Y83.340 E18.5392
G1 X44.289 Y83.668
G1 X44.482 Y83.854 E18.5526
G1 X44.264 Y84.181
G1 X44.071 Y83.996 E18.5659
G1 X43.852 Y84.324
G1 X44.045 Y84.509 E18.5793
G1 X43.826 Y84.837
G1 X43.633 Y84.652 E18.5926
G1 X43.415 Y84.980
G1 X43.608 Y85.165 E18.6060
G1 X43.389 Y85.493
G1 X43.196 Y85.308 E18.6193
G1 X42.990 Y85.647
G1 X43.191 Y85.840 E18.6332
G1 X43.023 Y86.217
G1 X42.823 Y86.024 E18.6470
G1 X42.655 Y86.402
G1 X42.856 Y86.594 E18.6609
G1 X42.688 Y86.971
G1 X42.488 Y86.779 E18.6748
G1 X42.321 Y87.156
G1 X42.521 Y87.348 E18.6886
G1 X42.354 Y87.726
G1 X42.153 Y87.533 E18.7025
G1 X41.986 Y87.910
G1 X42.186 Y88.103 E18.7164
G1 X42.019 Y88.480
G1 X41.819 Y88.287 E18.7302
G1 X41.651 Y88.664
G1 X41.852 Y88.857 E18.7441
G1 X41.684 Y89.234
G1 X41.484 Y89.041 E18.7580
G1 X41.316 Y89.419
G1 X41.517 Y89.611 E18.7718
G1 X41.349 Y89.988
G1 X41.149 Y89.796 E18.7857
G1 X41.007 Y90.197
G1 X41.222 Y90.404 E18.8006
G1 X41.112 Y90.836
G1 X40.897 Y90.629 E18.8155
G1 X40.787 Y91.061
G1 X41.002 Y91.268 E18.8304
G1 X40.892 Y91.700
G1 X40.676 Y91.493 E18.8453
G1 X40.566 Y91.925
G1 X40.782 Y92.132 E18.8602
G1 X40.671 Y92.564
G1 X40.456 Y92.357 E18.8751
G1 X40.346 Y92.789
G1 X40.561 Y92.996 E18.8900
G1 X40.451 Y93.428
G1 X40.236 Y93.222 E18.9049
G1 X40.126 Y93.654
G1 X40.341 Y93.860 E18.9197
G1 X40.231 Y94.293
G1 X40.016 Y94.086 E18.9346
G1 X39.905 Y94.518
G1 X40.121 Y94.725 E18.9495
G1 X40.067 Y95.211
G1 X39.827 Y94.980 E18.9662
G1 X39.785 Y95.478
G1 X40.026 Y95.709 E18.9828
G1 X39.984 Y96.207
G1 X39.743 Y95.976 E18.9995
G1 X39.702 Y96.474
G1 X39.943 Y96.705 E19.0161
G1 X39.901 Y97.203
G1 X39.660 Y96.972 E19.0328
G1 X39.619 Y97.470
G1 X39.859 Y97.701 E19.0494
G1 X39.818 Y98.199
G1 X39.577 Y97.968 E19.0661
G1 X39.536 Y98.466
G1 X39.776 Y98.697 E19.0827
G1 X39.735 Y99.195
G1 X39.494 Y98.964 E19.0994
G1 X39.453 Y99.462
G1 X39.701 Y99.701 E19.1166
G1 X39.750 Y100.285
G1 X39.467 Y100.014 E19.1361
G1 X39.516 Y100.599
G1 X39.799 Y100.870 E19.1557
G1 X39.847 Y101.455
G1 X39.565 Y101.183 E19.1753
G1 X39.614 Y101.768
G1 X39.896 Y102.040 E19.1948
G1 X39.945 Y102.624
G1 X39.662 Y102.353 E19.2144
G1 X39.711 Y102.938
G1 X39.994 Y103.209 E19.2339
G1 X40.043 Y103.794
G1 X39.760 Y103.522 E19.2535
G1 X39.809 Y104.107
G1 X40.091 Y104.379 E19.2730
;segType:Infill
G1 X73.204 Y126.394 F10800
G1 X59.096 Y126.394 E19.9769 F5400
G1 X51.043 Y122.391 F10800
G1 X81.257 Y122.391 E21.4843 F5400
G1 X85.629 Y118.387 F10800
G1 X46.671 Y118.387 E23.4279 F5400
G1 X43.773 Y114.383 F10800
G1 X88.527 Y114.383 E25.6606 F5400
G1 X90.477 Y110.379 F10800
G1 X41.823 Y110.379 E28.0880 F5400
G1 X40.580 Y106.376 F10800
G1 X91.720 Y106.376 E30.6394 F5400
G1 X92.376 Y102.372 F10800
G1 X39.924 Y102.372 E33.2562 F5400
G1 X39.804 Y98.368 F10800
G1 X92.496 Y98.368 E35.8851 F5400
G1 X92.087 Y94.364 F10800
G1 X40.213 Y94.364 E38.4731 F5400
G1 X41.233 Y90.361 F10800
G1 X91.067 Y90.361 E40.9593 F5400
G1 X89.339 Y86.357 F10800
G1 X42.961 Y86.357 E43.2731 F5400
G1 X45.483 Y82.353 F10800
G1 X86.818 Y82.353 E45.3353 F5400
G1 X83.188 Y78.349 F10800
G1 X49.112 Y78.349 E47.0354 F5400
G1 X55.318 Y74.346 F10800
G1 X76.982 Y74.346 E48.1162 F5400
G1 X91.676 Y92.752 F10800
G1 X91.676 Y106.548 E48.8045 F5400
G1 X87.509 Y115.910 F10800
G1 X87.509 Y83.390 E50.4269 F5400
G1 X83.341 Y78.510 F10800
G1 X83.341 Y120.790 E52.5362 F5400
G1 X79.174 Y123.880 F10800
G1 X79.174 Y75.420 E54.9539 F5400
G1 X75.007 Y73.413 F10800
G1 X75.007 Y125.887 E57.5718 F5400
G1 X70.839 Y127.060 F10800
G1 X70.839 Y72.240 E60.3068 F5400
G1 X66.672 Y71.837 F10800
G1 X66.672 Y127.464 E63.0820 F5400
G1 X62.504 Y127.176 F10800
G1 X62.504 Y72.124 E65.8286 F5400
G1 X58.337 Y73.119 F10800
G1 X58.337 Y126.181 E68.4759 F5400
G1 X54.170 Y124.391 F10800
G1 X54.170 Y74.908 E70.9446 F5400
G1 X50.002 Y77.675 F10800
G1 X50.002 Y121.625 E73.1373 F5400
G1 X45.835 Y117.475 F10800
G1 X45.835 Y81.825 E74.9159 F5400
G1 X41.667 Y89.272 F10800
G1 X41.667 Y110.028 E75.9514 F5400
;segType:HShell
G1 X49.951 Y121.920 F10800
G1 X46.630 Y118.729 E76.1812 F3600
G1 X44.864 Y116.495 F10800
G1 X45.746 Y117.342 E76.2422 F3600
G1 X50.864 Y122.259 F10800
G1 X52.337 Y123.674 E76.3441 F3600
G1 X44.748 Y115.845 F10800
G1 X43.867 Y114.999 E76.4050 F3600
G1 X53.733 Y124.477 F10800
G1 X53.096 Y123.865 E76.4491 F3600
G1 X42.963 Y113.593 F10800
G1 X43.750 Y114.349 E76.5035 F3600
G1 X54.239 Y124.425 F10800
G1 X54.876 Y125.038 E76.5476 F3600
G1 X43.046 Y113.134 F10800
G1 X42.547 Y112.655 E76.5821 F3600
G1 X56.019 Y125.598 F10800
G1 X55.381 Y124.985 E76.6262 F3600
G1 X42.131 Y111.717 F10800
G1 X42.630 Y112.196 E76.6607 F3600
G1 X56.524 Y125.545 F10800
G1 X57.124 Y126.121 E76.7022 F3600
G1 X42.214 Y111.259 F10800
G1 X41.715 Y110.780 E76.7367 F3600
G1 X57.915 Y126.344 F10800
G1 X57.500 Y125.945 E76.7654 F3600
G1 X41.299 Y109.842 F10800
G1 X41.797 Y110.321 E76.7999 F3600
G1 X58.292 Y126.168 F10800
G1 X58.707 Y126.567 E76.8286 F3600
G1 X41.381 Y109.383 F10800
G1 X40.980 Y108.998 E76.8563 F3600
G1 X59.499 Y126.790 F10800
G1 X59.084 Y126.391 E76.8850 F3600
G1 X40.798 Y108.285 F10800
G1 X41.154 Y108.627 E76.9096 F3600
G1 X59.876 Y126.614 F10800
G1 X60.291 Y127.012 E76.9383 F3600
G1 X40.972 Y107.914 F10800
G1 X40.617 Y107.573 E76.9629 F3600
G1 X61.083 Y127.235 F10800
G1 X60.668 Y126.837 E76.9916 F3600
G1 X40.435 Y106.861 F10800
G1 X40.790 Y107.202 E77.0161 F3600
G1 X92.475 Y94.998 F10800
G1 X92.176 Y94.710 E77.0368 F3600
G1 X92.241 Y95.311
G1 X92.524 Y95.583 E77.0564
G1 X92.573 Y96.167
G1 X92.290 Y95.896 E77.0760
G1 X92.339 Y96.481
G1 X92.621 Y96.752 E77.0955
G1 X92.670 Y97.337
G1 X92.387 Y97.065 E77.1151
G1 X92.436 Y97.650
G1 X92.719 Y97.922 E77.1346
G1 X92.768 Y98.506
G1 X92.485 Y98.235 E77.1542
G1 X92.534 Y98.820
G1 X92.817 Y99.091 E77.1738
G1 X92.861 Y99.672
G1 X92.583 Y99.404 E77.1930
G1 X92.579 Y99.939
G1 X92.820 Y100.170 E77.2097
G1 X92.778 Y100.668
G1 X92.537 Y100.437 E77.2264
G1 X92.496 Y100.935
G1 X92.737 Y101.166 E77.2430
G1 X92.695 Y101.664
G1 X92.454 Y101.433 E77.2597
G1 X92.413 Y101.931
G1 X92.654 Y102.162 E77.2763
G1 X92.612 Y102.660
G1 X92.371 Y102.429 E77.2930
G1 X92.330 Y102.927
G1 X92.571 Y103.158 E77.3097
G1 X92.529 Y103.656
G1 X92.288 Y103.425 E77.3263
G1 X92.247 Y103.923
G1 X92.487 Y104.154 E77.3430
G1 X92.431 Y104.638
G1 X92.205 Y104.421 E77.3586
G1 X92.106 Y104.863
G1 X92.321 Y105.070 E77.3736
G1 X92.211 Y105.502
G1 X91.996 Y105.295 E77.3885
G1 X91.886 Y105.727
G1 X92.101 Y105.934 E77.4034
G1 X91.991 Y106.366
G1 X91.775 Y106.160 E77.4183
G1 X91.665 Y106.592
G1 X91.881 Y106.799 E77.4332
G1 X91.771 Y107.231
G1 X91.555 Y107.024 E77.4481
G1 X91.445 Y107.456
G1 X91.660 Y107.663 E77.4630
G1 X91.550 Y108.095
G1 X91.335 Y107.888 E77.4779
G1 X91.225 Y108.320
G1 X91.440 Y108.527 E77.4928
G1 X91.330 Y108.959
G1 X91.114 Y108.752 E77.5077
G1 X91.004 Y109.184
G1 X91.207 Y109.379 E77.5217
G1 X91.039 Y109.756
G1 X90.839 Y109.563 E77.5356
G1 X90.672 Y109.940
G1 X90.872 Y110.133 E77.5494
G1 X90.705 Y110.510
G1 X90.504 Y110.317 E77.5633
G1 X90.337 Y110.694
G1 X90.537 Y110.887 E77.5772
G1 X90.370 Y111.264
G1 X90.169 Y111.072 E77.5911
G1 X90.002 Y111.449
G1 X90.203 Y111.641 E77.6049
G1 X90.035 Y112.018
G1 X89.835 Y111.826 E77.6188
G1 X89.667 Y112.203
G1 X89.868 Y112.395 E77.6327
G1 X89.701 Y112.773
G1 X89.500 Y112.580 E77.6465
G1 X89.333 Y112.957
G1 X89.533 Y113.150 E77.6604
G1 X89.366 Y113.527
G1 X89.165 Y113.334 E77.6743
G1 X88.984 Y113.698
G1 X89.177 Y113.883 E77.6876
G1 X88.958 Y114.211
G1 X88.765 Y114.026 E77.7010
G1 X88.547 Y114.353
G1 X88.740 Y114.539 E77.7143
G1 X88.521 Y114.867
G1 X88.328 Y114.681 E77.7277
G1 X88.109 Y115.009
G1 X88.302 Y115.195 E77.7410
G1 X88.084 Y115.523
G1 X87.891 Y115.337 E77.7544
G1 X87.672 Y115.665
G1 X87.865 Y115.851 E77.7678
G1 X87.647 Y116.178
G1 X87.454 Y115.993 E77.7811
G1 X87.235 Y116.321
G1 X87.428 Y116.506 E77.7945
G1 X87.210 Y116.834
G1 X87.016 Y116.649 E77.8078
G1 X86.798 Y116.977
G1 X86.991 Y117.162 E77.8212
G1 X86.772 Y117.490
G1 X86.579 Y117.305 E77.8346
G1 X86.354 Y117.626
G1 X86.545 Y117.810 E77.8479
G1 X86.278 Y118.091
G1 X86.086 Y117.907 E77.8611
G1 X85.819 Y118.188
G1 X86.010 Y118.372 E77.8744
G1 X85.743 Y118.653
G1 X85.551 Y118.468 E77.8877
G1 X85.284 Y118.749
G1 X85.475 Y118.934 E77.9009
G1 X85.208 Y119.215
G1 X85.016 Y119.030 E77.9142
G1 X84.749 Y119.311
G1 X84.940 Y119.495 E77.9274
G1 X84.673 Y119.776
G1 X84.481 Y119.592 E77.9407
G1 X84.214 Y119.873
G1 X84.405 Y120.057 E77.9539
G1 X84.138 Y120.338
G1 X83.946 Y120.154 E77.9672
G1 X83.679 Y120.435
G1 X83.870 Y120.619 E77.9804
G1 X83.603 Y120.900
G1 X83.412 Y120.716 E77.9937
G1 X83.144 Y120.997
G1 X83.336 Y121.181 E78.0069
G1 X83.026 Y121.422
G1 X82.830 Y121.233 E78.0205
G1 X82.513 Y121.467
G1 X82.709 Y121.655 E78.0341
G1 X82.392 Y121.888
G1 X82.196 Y121.700 E78.0476
G1 X81.879 Y121.933
G1 X82.075 Y122.121 E78.0612
G1 X81.758 Y122.354
G1 X81.562 Y122.166 E78.0747
G1 X81.245 Y122.400
G1 X81.440 Y122.588 E78.0882
G1 X81.123 Y122.821
G1 X80.928 Y122.633 E78.1018
G1 X80.610 Y122.866
G1 X80.806 Y123.054 E78.1153
G1 X80.489 Y123.287
G1 X80.293 Y123.099 E78.1288
G1 X79.976 Y123.333
G1 X80.172 Y123.521 E78.1424
G1 X79.855 Y123.754
G1 X79.659 Y123.566 E78.1559
G1 X79.341 Y123.798
G1 X79.538 Y123.987 E78.1695
G1 X79.177 Y124.178
G1 X78.970 Y123.980 E78.1838
G1 X78.599 Y124.161
G1 X78.806 Y124.360 E78.1981
G1 X78.435 Y124.542
G1 X78.229 Y124.343 E78.2124
G1 X77.858 Y124.525
G1 X78.065 Y124.723 E78.2267
G1 X77.694 Y124.905
G1 X77.487 Y124.707 E78.2410
G1 X77.116 Y124.888
G1 X77.323 Y125.087 E78.2553
G1 X76.952 Y125.269
G1 X76.745 Y125.070 E78.2697
G1 X76.375 Y125.252
G1 X76.582 Y125.450 E78.2840
G1 X76.211 Y125.632
G1 X76.004 Y125.433 E78.2983
G1 X75.633 Y125.615
G1 X75.840 Y125.814 E78.3126
G1 X75.470 Y125.996
G1 X75.262 Y125.797 E78.3270
G1 X74.844 Y125.933
G1 X75.071 Y126.151 E78.3427
G1 X74.638 Y126.273
G1 X74.411 Y126.055 E78.3584
G1 X73.978 Y126.176
G1 X74.205 Y126.394 E78.3741
G1 X73.772 Y126.516
G1 X73.545 Y126.298 E78.3898
G1 X73.112 Y126.420
G1 X73.339 Y126.638 E78.4055
G1 X72.906 Y126.760
G1 X72.679 Y126.542 E78.4212
G1 X72.246 Y126.664
G1 X72.473 Y126.882 E78.4369
G1 X72.040 Y127.004
G1 X71.813 Y126.786 E78.4526
G1 X71.380 Y126.908
G1 X71.607 Y127.126 E78.4683
G1 X71.174 Y127.248
G1 X70.947 Y127.029 E78.4840
G1 X70.475 Y127.114
G1 X70.734 Y127.363 E78.5019
G1 X70.223 Y127.410
G1 X69.964 Y127.161 E78.5199
G1 X69.453 Y127.208
G1 X69.712 Y127.457 E78.5379
G1 X69.201 Y127.504
G1 X68.942 Y127.255 E78.5558
G1 X68.431 Y127.302
G1 X68.690 Y127.551 E78.5738
G1 X68.179 Y127.598
G1 X67.920 Y127.349 E78.5918
G1 X67.409 Y127.396
G1 X67.668 Y127.645 E78.6097
G1 X67.157 Y127.692
G1 X66.898 Y127.443 E78.6277
G1 X66.387 Y127.490
G1 X66.646 Y127.739 E78.6457
G1 X66.132 Y127.783
G1 X65.818 Y127.481 E78.6674
G1 X65.199 Y127.424
G1 X65.513 Y127.726 E78.6892
G1 X64.894 Y127.669
G1 X64.579 Y127.367 E78.7110
G1 X63.960 Y127.310
G1 X64.275 Y127.612 E78.7327
G1 X63.656 Y127.555
G1 X63.341 Y127.253 E78.7545
G1 X62.722 Y127.196
G1 X63.037 Y127.499 E78.7763
G1 X62.417 Y127.442
G1 X62.103 Y127.139 E78.7980
G1 X61.460 Y127.060
G1 X61.798 Y127.385 E78.8214
G1 X40.609 Y106.489 F10800
G1 X40.254 Y106.148 E78.8460 F3600
G1 X40.072 Y105.436
G1 X40.427 Y105.777 E78.8705
G1 X40.245 Y105.065
G1 X39.891 Y104.724 E78.8951
G1 X91.994 Y93.998 F10800
G1 X92.349 Y94.339 E78.9197 F3600
G1 X92.168 Y93.627
G1 X91.812 Y93.285 E78.9442
G1 X91.631 Y92.573
G1 X91.986 Y92.914 E78.9688
G1 X91.804 Y92.202
G1 X91.449 Y91.861 E78.9934
G1 X91.267 Y91.148
G1 X91.623 Y91.489 E79.0180
G1 X72.688 Y72.761 F10800
G1 X72.274 Y72.362 E79.0466 F3600
G1 X91.441 Y90.777 F10800
G1 X91.086 Y90.436 E79.0712 F3600
G1 X73.066 Y72.585 F10800
G1 X73.480 Y72.983 E79.0999 F3600
G1 X90.780 Y89.604 F10800
G1 X91.259 Y90.065 E79.1330 F3600
G1 X74.272 Y73.206 F10800
G1 X73.858 Y72.808 E79.1617 F3600
G1 X90.862 Y89.145 F10800
G1 X90.364 Y88.666 E79.1961 F3600
G1 X74.650 Y73.032 F10800
G1 X75.064 Y73.429 E79.2248 F3600
G1 X89.948 Y87.729 F10800
G1 X90.446 Y88.207 E79.2592 F3600
G1 X76.157 Y73.942 F10800
G1 X75.521 Y73.330 E79.3033 F3600
G1 X90.030 Y87.270 F10800
G1 X89.531 Y86.791 E79.3377 F3600
G1 X76.664 Y73.890 F10800
G1 X77.300 Y74.501 E79.3818 F3600
G1 X89.115 Y85.853 F10800
G1 X89.614 Y86.332 E79.4162 F3600
G1 X78.442 Y75.061 F10800
G1 X77.806 Y74.450 E79.4602 F3600
G1 X89.097 Y85.297 F10800
G1 X88.217 Y84.452 E79.5211 F3600
G1 X78.949 Y75.011 F10800
G1 X79.843 Y75.869 E79.5829 F3600
G1 X87.219 Y82.956 F10800
G1 X88.100 Y83.802 E79.6439 F3600
G1 X82.232 Y77.627 F10800
G1 X80.759 Y76.212 E79.7458 F3600
G1 X87.103 Y82.306 F10800
G1 X85.369 Y80.640 E79.8658 F3600
G1 X83.145 Y77.966 F10800
G1 X83.667 Y78.467 E79.9019 F3600
G1 F4800 E78.9019
G1 X111.170 Y97.258 F10800
G1 X116.708 Y108.982
G1 X122.410 Y114.061
G1 X137.614 Y127.606
G1 F4800 E79.9019
G1 X137.200 Y127.208 E79.9305 F3600
G1 X138.406 Y127.829 F10800
G1 X137.991 Y127.431 E79.9592 F3600
G1 X138.783 Y127.654
G1 X139.198 Y128.052 E79.9879
G1 X139.823 Y128.114
G1 X139.508 Y127.812 E80.0097
G1 X140.128 Y127.869
G1 X140.442 Y128.171 E80.0315
G1 X141.061 Y128.228
G1 X140.747 Y127.926 E80.0532
G1 X141.366 Y127.983
G1 X141.680 Y128.285 E80.0749
G1 X142.299 Y128.342
G1 X141.985 Y128.040 E80.0967
G1 X142.604 Y128.097
G1 X142.918 Y128.399 E80.1184
G1 X143.537 Y128.455
G1 X143.223 Y128.154 E80.1401
G1 X143.842 Y128.211
G1 X144.103 Y128.461 E80.1581
;segType:Perimeter
G1 X144.270 Y128.551 F10800
G1 X143.791 Y129.058 E80.1929 F2159
G1 X139.110 Y128.628 E80.4274
G1 X134.513 Y127.333 E80.6657
G1 X130.200 Y125.220 E80.9053
G1 X126.300 Y122.352 E81.1468
G1 X122.931 Y118.813 E81.3906
G1 X120.198 Y114.713 E81.6364
G1 X118.184 Y110.175 E81.8841
G1 X116.951 Y105.339 E82.1331
G1 X116.535 Y100.350 E82.3829
G1 X116.951 Y95.361 E82.6326
G1 X118.184 Y90.524 E82.8817
G1 X120.198 Y85.986 E83.1294
G1 X122.931 Y81.886 E83.3752
G1 X126.300 Y78.348 E83.6189
G1 X130.200 Y75.480 E83.8604
G1 X134.513 Y73.366 E84.1001
G1 X139.110 Y72.072 E84.3383
G1 X143.850 Y71.636 E84.5758
G1 X148.590 Y72.072 E84.8133
G1 X153.187 Y73.366 E85.0515
G1 X157.500 Y75.480 E85.2912
G1 X161.400 Y78.348 E85.5327
G1 X164.769 Y81.886 E85.7765
G1 X167.502 Y85.986 E86.0223
G1 X169.516 Y90.524 E86.2700
G1 X170.749 Y95.361 E86.5190
G1 X171.165 Y100.350 E86.7688
G1 X170.749 Y105.339 E87.0185
G1 X169.516 Y110.175 E87.2676
G1 X167.502 Y114.713 E87.5152
G1 X164.769 Y118.813 E87.7611
G1 X161.400 Y122.352 E88.0048
G1 X157.500 Y125.220 E88.2463
G1 X153.187 Y127.333 E88.4860
G1 X148.590 Y128.628 E88.7242
G1 X143.909 Y129.058 E88.9588
G1 X143.430 Y128.551
;segType:Loop
G1 X142.804 Y128.581 F10800
G1 X139.186 Y128.249 E89.1400 F3600
G1 X134.662 Y126.975 E89.3745
G1 X130.414 Y124.893 E89.6105
G1 X126.571 Y122.067 E89.8485
G1 X123.249 Y118.578 E90.0888
G1 X120.553 Y114.533 E90.3314
G1 X118.565 Y110.054 E90.5759
G1 X117.348 Y105.278 E90.8218
G1 X116.936 Y100.350 E91.0685
G1 X117.348 Y95.423 E91.3152
G1 X118.565 Y90.646 E91.5611
G1 X120.553 Y86.167 E91.8056
G1 X123.249 Y82.121 E92.0481
G1 X126.571 Y78.633 E92.2885
G1 X130.414 Y75.807 E92.5265
G1 X134.662 Y73.724 E92.7624
G1 X139.186 Y72.451 E92.9969
G1 X143.850 Y72.022 E93.2306
G1 X148.514 Y72.451 E93.4643
G1 X153.038 Y73.724 E93.6988
G1 X157.286 Y75.807 E93.9348
G1 X161.129 Y78.633 E94.1728
G1 X164.451 Y82.121 E94.4131
G1 X167.147 Y86.167 E94.6556
G1 X169.135 Y90.646 E94.9001
G1 X170.353 Y95.423 E95.1461
G1 X170.764 Y100.350 E95.3927
G1 X170.353 Y105.278 E95.6394
G1 X169.135 Y110.054 E95.8853
G1 X167.147 Y114.533 E96.1298
G1 X164.451 Y118.578 E96.3724
G1 X161.129 Y122.067 E96.6127
G1 X157.286 Y124.893 E96.8507
G1 X153.038 Y126.975 E97.0867
G1 X148.514 Y128.249 E97.3212
G1 X143.850 Y128.677 E97.5549
G1 X143.001 Y128.599 E97.5974
;segType:HShell
G1 X169.916 Y95.704 F10800
G1 X170.198 Y95.976 E97.6169 F3600
G1 X170.247 Y96.561
G1 X169.964 Y96.289 E97.6365
G1 X170.013 Y96.874
G1 X170.296 Y97.145 E97.6561
G1 X170.345 Y97.730
G1 X170.062 Y97.459 E97.6756
G1 X170.111 Y98.043
G1 X170.393 Y98.315 E97.6952
G1 X170.442 Y98.900
G1 X170.159 Y98.628 E97.7148
G1 X170.208 Y99.213
G1 X170.491 Y99.484 E97.7343
G1 X170.540 Y100.069
G1 X170.257 Y99.798 E97.7539
G1 X170.301 Y100.378
G1 X170.542 Y100.609 E97.7705
G1 X170.500 Y101.107
G1 X170.259 Y100.876 E97.7872
G1 X170.218 Y101.374
G1 X170.459 Y101.605 E97.8039
G1 X170.417 Y102.103
G1 X170.176 Y101.872 E97.8205
G1 X170.135 Y102.370
G1 X170.375 Y102.601 E97.8372
G1 X170.334 Y103.099
G1 X170.093 Y102.868 E97.8538
G1 X170.052 Y103.366
G1 X170.292 Y103.597 E97.8705
G1 X170.251 Y104.095
G1 X170.010 Y103.864 E97.8872
G1 X169.968 Y104.362
G1 X170.209 Y104.593 E97.9038
G1 X170.168 Y105.091
G1 X169.927 Y104.860 E97.9205
G1 X169.864 Y105.337
G1 X170.079 Y105.544 E97.9354
G1 X169.969 Y105.976
G1 X169.754 Y105.769 E97.9503
G1 X169.643 Y106.201
G1 X169.859 Y106.408 E97.9652
G1 X169.749 Y106.840
G1 X169.533 Y106.633 E97.9801
G1 X169.423 Y107.065
G1 X169.638 Y107.272 E97.9950
G1 X169.528 Y107.704
G1 X169.313 Y107.497 E98.0099
G1 X169.203 Y107.929
G1 X169.418 Y108.136 E98.0248
G1 X169.308 Y108.568
G1 X169.093 Y108.361 E98.0397
G1 X168.982 Y108.793
G1 X169.198 Y109.000 E98.0546
G1 X169.088 Y109.432
G1 X168.872 Y109.225 E98.0695
G1 X168.762 Y109.657
G1 X168.978 Y109.864 E98.0844
G1 X168.827 Y110.258
G1 X168.627 Y110.065 E98.0983
G1 X168.459 Y110.442
G1 X168.660 Y110.635 E98.1121
G1 X168.492 Y111.012
G1 X168.292 Y110.819 E98.1260
G1 X168.125 Y111.197
G1 X168.325 Y111.389 E98.1398
G1 X168.158 Y111.766
G1 X167.957 Y111.574 E98.1537
G1 X167.790 Y111.951
G1 X167.990 Y112.143 E98.1676
G1 X167.823 Y112.520
G1 X167.623 Y112.328 E98.1814
G1 X167.455 Y112.705
G1 X167.656 Y112.898 E98.1953
G1 X167.488 Y113.275
G1 X167.288 Y113.082 E98.2092
G1 X167.121 Y113.459
G1 X167.321 Y113.652 E98.2230
G1 X167.154 Y114.029
G1 X166.953 Y113.836 E98.2369
G1 X166.786 Y114.213
G1 X166.986 Y114.406 E98.2508
G1 X166.773 Y114.739
G1 X166.580 Y114.554 E98.2641
G1 X166.361 Y114.881
G1 X166.554 Y115.067 E98.2775
G1 X166.336 Y115.395
G1 X166.143 Y115.209 E98.2908
G1 X165.924 Y115.537
G1 X166.117 Y115.723 E98.3041
G1 X165.898 Y116.050
G1 X165.705 Y115.865 E98.3175
G1 X165.487 Y116.193
G1 X165.680 Y116.378 E98.3309
G1 X165.461 Y116.706
G1 X165.268 Y116.521 E98.3442
G1 X165.050 Y116.849
G1 X165.243 Y117.034 E98.3576
G1 X165.024 Y117.362
G1 X164.831 Y117.177 E98.3709
G1 X164.612 Y117.504
G1 X164.806 Y117.690 E98.3843
G1 X164.587 Y118.018
G1 X164.394 Y117.832 E98.3977
G1 X164.175 Y118.160
G1 X164.368 Y118.346 E98.4110
G1 X164.118 Y118.643
G1 X163.926 Y118.459 E98.4243
G1 X163.659 Y118.740
G1 X163.851 Y118.924 E98.4376
G1 X163.583 Y119.205
G1 X163.391 Y119.021 E98.4508
G1 X163.124 Y119.302
G1 X163.316 Y119.486 E98.4641
G1 X163.048 Y119.767
G1 X162.856 Y119.583 E98.4774
G1 X162.589 Y119.864
G1 X162.781 Y120.048 E98.4906
G1 X162.513 Y120.329
G1 X162.322 Y120.145 E98.5039
G1 X162.054 Y120.426
G1 X162.246 Y120.610 E98.5172
G1 X161.978 Y120.891
G1 X161.787 Y120.707 E98.5304
G1 X161.519 Y120.988
G1 X161.711 Y121.172 E98.5437
G1 X161.443 Y121.453
G1 X161.252 Y121.269 E98.5569
G1 X160.984 Y121.550
G1 X161.176 Y121.734 E98.5702
G1 X160.893 Y121.999
G1 X160.697 Y121.811 E98.5838
G1 X160.379 Y122.044
G1 X160.575 Y122.233 E98.5973
G1 X160.258 Y122.466
G1 X160.062 Y122.277 E98.6109
G1 X159.745 Y122.511
G1 X159.941 Y122.699 E98.6244
G1 X159.624 Y122.932
G1 X159.428 Y122.744 E98.6380
G1 X159.111 Y122.977
G1 X159.307 Y123.165 E98.6515
G1 X158.990 Y123.399
G1 X158.794 Y123.211 E98.6651
G1 X158.477 Y123.444
G1 X158.672 Y123.632 E98.6786
G1 X158.355 Y123.865
G1 X158.160 Y123.677 E98.6921
G1 X157.843 Y123.910
G1 X158.038 Y124.098 E98.7057
G1 X157.721 Y124.331
G1 X157.526 Y124.144 E98.7192
G1 X157.208 Y124.377
G1 X157.404 Y124.565 E98.7327
G1 X157.071 Y124.783
G1 X156.865 Y124.584 E98.7470
G1 X156.494 Y124.766
G1 X156.700 Y124.964 E98.7613
G1 X156.330 Y125.146
G1 X156.123 Y124.948 E98.7755
G1 X155.752 Y125.130
G1 X155.959 Y125.328 E98.7898
G1 X155.588 Y125.510
G1 X155.382 Y125.311 E98.8041
G1 X155.011 Y125.493
G1 X155.217 Y125.691 E98.8184
G1 X154.847 Y125.873
G1 X154.640 Y125.675 E98.8327
G1 X154.269 Y125.856
G1 X154.476 Y126.055 E98.8469
G1 X154.105 Y126.236
G1 X153.899 Y126.038 E98.8612
G1 X153.528 Y126.220
G1 X153.734 Y126.418 E98.8755
G1 X153.363 Y126.600
G1 X153.157 Y126.401 E98.8898
G1 X152.771 Y126.569
G1 X152.993 Y126.781 E98.9051
G1 X152.565 Y126.908
G1 X152.338 Y126.691 E98.9208
G1 X151.905 Y126.813
G1 X152.132 Y127.030 E98.9364
G1 X151.699 Y127.152
G1 X151.472 Y126.934 E98.9521
G1 X151.039 Y127.056
G1 X151.266 Y127.274 E98.9677
G1 X150.833 Y127.396
G1 X150.606 Y127.178 E98.9834
G1 X150.173 Y127.300
G1 X150.400 Y127.518 E98.9991
G1 X149.967 Y127.640
G1 X149.740 Y127.422 E99.0148
G1 X149.307 Y127.544
G1 X149.534 Y127.762 E99.0304
G1 X149.101 Y127.884
G1 X148.874 Y127.666 E99.0461
G1 X148.441 Y127.788
G1 X148.668 Y128.006 E99.0618
G1 X148.191 Y128.086
G1 X147.932 Y127.836 E99.0798
G1 X147.421 Y127.883
G1 X147.680 Y128.133 E99.0977
G1 X147.169 Y128.179
G1 X146.910 Y127.930 E99.1157
G1 X146.399 Y127.977
G1 X146.658 Y128.226 E99.1336
G1 X146.147 Y128.273
G1 X145.888 Y128.024 E99.1516
G1 X145.377 Y128.071
G1 X145.636 Y128.320 E99.1695
G1 X145.125 Y128.367
G1 X144.866 Y128.118 E99.1874
G1 X144.355 Y128.165
G1 X144.614 Y128.414 E99.2053
;segType:Infill
G1 X153.172 Y126.394 F10800
G1 X134.528 Y126.394 E100.1355 F5400
G1 X127.791 Y122.391 F10800
G1 X159.909 Y122.391 E101.7378 F5400
G1 X163.995 Y118.387 F10800
G1 X123.705 Y118.387 E103.7479 F5400
G1 X121.006 Y114.383 F10800
G1 X166.694 Y114.383 E106.0272 F5400
G1 X168.487 Y110.379 F10800
G1 X119.213 Y110.379 E108.4856 F5400
G1 X118.101 Y106.376 F10800
G1 X169.599 Y106.376 E111.0548 F5400
G1 X170.134 Y102.372 F10800
G1 X117.566 Y102.372 E113.6775 F5400
G1 X117.562 Y98.368 F10800
G1 X170.138 Y98.368 E116.3005 F5400
G1 X169.609 Y94.364 F10800
G1 X118.091 Y94.364 E118.8707 F5400
G1 X119.195 Y90.361 F10800
G1 X168.505 Y90.361 E121.3308 F5400
G1 X166.720 Y86.357 F10800
G1 X120.980 Y86.357 E123.6128 F5400
G1 X123.667 Y82.353 F10800
G1 X164.033 Y82.353 E125.6267 F5400
G1 X159.963 Y78.349 F10800
G1 X127.737 Y78.349 E127.2344 F5400
G1 X134.447 Y74.346 F10800
G1 X153.253 Y74.346 E128.1727 F5400
G1 X166.690 Y86.311 F10800
G1 X166.690 Y114.389 E129.5735 F5400
G1 X162.522 Y119.934 F10800
G1 X162.522 Y80.766 E131.5276 F5400
G1 X158.355 Y77.166 F10800
G1 X158.355 Y123.534 E133.8408 F5400
G1 X154.187 Y125.896 F10800
G1 X154.187 Y74.804 E136.3899 F5400
G1 X150.020 Y73.357 F10800
G1 X150.020 Y127.343 E139.0833 F5400
G1 X145.853 Y128.027 F10800
G1 X145.853 Y72.673 E141.8449 F5400
G1 X141.685 Y72.688 F10800
G1 X141.685 Y128.012 E144.6051 F5400
G1 X137.518 Y127.297 F10800
G1 X137.518 Y73.403 E147.2939 F5400
G1 X133.350 Y74.883 F10800
G1 X133.350 Y125.817 E149.8350 F5400
G1 X129.183 Y123.414 F10800
G1 X129.183 Y77.286 E152.1364 F5400
G1 X125.016 Y80.936 F10800
G1 X125.016 Y119.764 E154.0735 F5400
G1 X120.848 Y114.064 F10800
G1 X120.848 Y86.636 E155.4419 F5400
;segType:HShell
G1 X125.480 Y120.252 F10800
G1 X123.038 Y117.906 E155.6109 F3600
G1 X128.902 Y123.540 F10800
G1 X127.429 Y122.124 E155.7129 F3600
G1 X122.041 Y116.410 F10800
G1 X122.922 Y117.256 E155.7739 F3600
G1 X129.818 Y123.881 F10800
G1 X130.889 Y124.910 E155.8479 F3600
G1 X121.925 Y115.760 F10800
G1 X121.044 Y114.914 E155.9089 F3600
G1 X132.032 Y125.470 F10800
G1 X131.395 Y124.859 E155.9529 F3600
G1 X120.445 Y113.801 F10800
G1 X120.944 Y114.280 E155.9874 F3600
G1 X132.538 Y125.419 F10800
G1 X133.174 Y126.030 E156.0314 F3600
G1 X120.528 Y113.342 F10800
G1 X120.029 Y112.863 E156.0659 F3600
G1 X134.317 Y126.590 F10800
G1 X133.681 Y125.979 E156.1099 F3600
G1 X119.613 Y111.926 F10800
G1 X120.111 Y112.404 E156.1444 F3600
G1 X134.824 Y126.539 F10800
G1 X135.238 Y126.937 E156.1731 F3600
G1 X119.695 Y111.467 F10800
G1 X119.197 Y110.988 E156.2075 F3600
G1 X136.030 Y127.160 F10800
G1 X135.616 Y126.762 E156.2362 F3600
G1 X118.781 Y110.050 F10800
G1 X119.279 Y110.529 E156.2707 F3600
G1 X136.408 Y126.985 F10800
G1 X136.822 Y127.383 E156.2993 F3600
G1 X118.940 Y109.665 F10800
G1 X118.585 Y109.324 E156.3239 F3600
G1 X118.403 Y108.612
G1 X118.758 Y108.953 E156.3484
G1 X118.577 Y108.240
G1 X118.222 Y107.899 E156.3730
G1 X118.040 Y107.187
G1 X118.395 Y107.528 E156.3976
G1 X118.213 Y106.816
G1 X117.858 Y106.475 E156.4221
G1 X117.677 Y105.762
G1 X118.032 Y106.103 E156.4467
G1 X148.114 Y72.607 F10800
G1 X148.429 Y72.909 E156.4684 F3600
G1 X147.809 Y72.852
G1 X147.495 Y72.550 E156.4902
G1 X146.876 Y72.493
G1 X147.190 Y72.796 E156.5120
G1 X146.571 Y72.739
G1 X146.257 Y72.436 E156.5337
G1 X145.637 Y72.379
G1 X145.952 Y72.682 E156.5555
G1 X145.333 Y72.625
G1 X145.018 Y72.323 E156.5772
G1 X144.399 Y72.266
G1 X144.714 Y72.568 E156.5990
G1 X144.095 Y72.511
G1 X143.792 Y72.220 E156.6199
G1 X143.281 Y72.267
G1 X143.541 Y72.517 E156.6379
G1 X143.030 Y72.564
G1 X142.770 Y72.314 E156.6558
G1 X142.259 Y72.361
G1 X142.519 Y72.611 E156.6738
G1 X142.008 Y72.658
G1 X141.748 Y72.408 E156.6918
G1 X141.237 Y72.455
G1 X141.497 Y72.705 E156.7097
G1 X140.986 Y72.752
G1 X140.726 Y72.502 E156.7277
G1 X140.215 Y72.549
G1 X140.475 Y72.799 E156.7456
G1 X139.964 Y72.846
G1 X139.704 Y72.596 E156.7636
G1 X139.198 Y72.648
G1 X139.453 Y72.893 E156.7812
G1 X138.992 Y72.988
G1 X138.765 Y72.770 E156.7969
G1 X138.332 Y72.892
G1 X138.559 Y73.110 E156.8126
G1 X138.126 Y73.232
G1 X137.899 Y73.013 E156.8283
G1 X137.466 Y73.135
G1 X137.693 Y73.353 E156.8440
G1 X137.260 Y73.475
G1 X137.033 Y73.257 E156.8597
G1 X136.600 Y73.379
G1 X136.827 Y73.597 E156.8754
G1 X136.394 Y73.719
G1 X136.167 Y73.501 E156.8912
G1 X135.734 Y73.623
G1 X135.961 Y73.841 E156.9069
G1 X135.528 Y73.963
G1 X135.301 Y73.745 E156.9226
G1 X134.868 Y73.867
G1 X135.095 Y74.085 E156.9383
G1 X134.685 Y74.229
G1 X134.478 Y74.030 E156.9526
G1 X134.107 Y74.212
G1 X134.314 Y74.411 E156.9669
G1 X133.943 Y74.592
G1 X133.736 Y74.394 E156.9812
G1 X133.366 Y74.575
G1 X133.573 Y74.774 E156.9956
G1 X133.202 Y74.956
G1 X132.995 Y74.757 E157.0099
G1 X132.624 Y74.939
G1 X132.831 Y75.137 E157.0242
G1 X132.460 Y75.319
G1 X132.254 Y75.121 E157.0385
G1 X131.883 Y75.302
G1 X132.090 Y75.501 E157.0528
G1 X131.719 Y75.683
